/* XPM */
static char *d33da91b3ec94193ebca0add76a04f49lLE9U5ffv8eyRzl4[] = {
/* columns rows colors chars-per-pixel */
"601 429 240 2 ",
"   c #070A0D",
".  c #0A0C0E",
"X  c #060B14",
"o  c #0C0E11",
"O  c #0F1011",
"+  c #0E1114",
"@  c #0E131A",
"#  c #0C161B",
"$  c #111316",
"%  c #171916",
"&  c #12161A",
"*  c #15191D",
"=  c #191C1E",
"-  c #1D201D",
";  c #2D2B17",
":  c #29251B",
">  c #352B19",
",  c #332B1C",
"<  c #3B321D",
"1  c #0B1729",
"2  c #151B22",
"3  c #1A1E22",
"4  c #141C2A",
"5  c #181C28",
"6  c #0D1930",
"7  c #211F20",
"8  c #0F222F",
"9  c #1D2225",
"0  c #17232B",
"q  c #1E2329",
"w  c #192432",
"e  c #212426",
"r  c #272824",
"t  c #2B2A24",
"y  c #22262A",
"u  c #24292E",
"i  c #2A2C2C",
"p  c #332E25",
"a  c #2E312B",
"s  c #383529",
"d  c #232631",
"f  c #262C31",
"g  c #292E34",
"h  c #2B2F38",
"j  c #273035",
"k  c #2B3136",
"l  c #2D343A",
"z  c #2F383E",
"x  c #373833",
"c  c #31363D",
"v  c #32393E",
"b  c #47381C",
"n  c #513810",
"m  c #543D19",
"M  c #463B28",
"N  c #453D30",
"B  c #3C4133",
"V  c #5E4316",
"C  c #5C431A",
"Z  c #624516",
"A  c #684916",
"S  c #634619",
"D  c #66491A",
"F  c #6B4C1A",
"G  c #734E1A",
"H  c #6E501D",
"J  c #73521D",
"K  c #7B541B",
"L  c #7D581B",
"P  c #4B432B",
"I  c #574829",
"U  c #494434",
"Y  c #574B34",
"T  c #5D5132",
"R  c #664C24",
"E  c #695329",
"W  c #765825",
"Q  c #695634",
"!  c #715933",
"~  c #7A6230",
"^  c #2F3740",
"/  c #323740",
"(  c #353C44",
")  c #383E46",
"_  c #383F48",
"`  c #374046",
"'  c #394147",
"]  c #374048",
"[  c #3B434B",
"{  c #3F484E",
"}  c #3F4750",
"|  c #3F4951",
" . c #404547",
".. c #41464D",
"X. c #41494E",
"o. c #404750",
"O. c #444C54",
"+. c #494E54",
"@. c #464F58",
"#. c #484F59",
"$. c #465057",
"%. c #4A5156",
"&. c #475159",
"*. c #4A535A",
"=. c #4E585F",
"-. c #505557",
";. c #51565C",
":. c #52595E",
">. c #6F6046",
",. c #4D5760",
"<. c #4E5961",
"1. c #555B65",
"2. c #535C64",
"3. c #585E65",
"4. c #565F68",
"5. c #566067",
"6. c #596166",
"7. c #576169",
"8. c #5B656D",
"9. c #5D686F",
"0. c #5D6770",
"q. c #5E6971",
"w. c #60666D",
"e. c #62696E",
"r. c #626D75",
"t. c #666C74",
"y. c #646F78",
"u. c #647077",
"i. c #6A7176",
"p. c #657179",
"a. c #6A747C",
"s. c #6D787E",
"d. c #71767B",
"f. c #71797E",
"g. c #8C5619",
"h. c #865919",
"j. c #835B1C",
"k. c #8B621D",
"l. c #93651D",
"z. c #A7751E",
"x. c #845C22",
"c. c #856223",
"v. c #8C6423",
"b. c #89672A",
"n. c #936B25",
"m. c #966C26",
"M. c #9B7428",
"N. c #9C742A",
"B. c #876A34",
"V. c #906F33",
"C. c #987635",
"Z. c #A26C23",
"A. c #A77926",
"S. c #A2762A",
"D. c #A47A2B",
"F. c #AB7D2B",
"G. c #B17D26",
"H. c #B17E2A",
"J. c #A57C33",
"K. c #907745",
"L. c #AC8127",
"P. c #AD812C",
"I. c #B88626",
"U. c #B4842D",
"Y. c #B9862D",
"T. c #B6892D",
"R. c #BC8A2D",
"E. c #BD912D",
"W. c #AC8232",
"Q. c #A98435",
"!. c #B48631",
"~. c #B58932",
"^. c #BC8C32",
"/. c #B88834",
"(. c #BE9134",
"). c #BC9139",
"_. c #C58C27",
"`. c #C28D2D",
"'. c #C4922E",
"]. c #CA942D",
"[. c #CA982B",
"{. c #D39B2D",
"}. c #C18E31",
"|. c #C49333",
" X c #CA9533",
".X c #C79837",
"XX c #CC9935",
"oX c #C49539",
"OX c #CD9B39",
"+X c #D19B34",
"@X c #D59B34",
"#X c #D19D3A",
"$X c #D4A231",
"%X c #D5A238",
"&X c #E1A935",
"*X c #B28E43",
"=X c #D0A043",
"-X c #DAAA49",
";X c #6C7780",
":X c #6E7981",
">X c #737C83",
",X c #777E86",
"<X c #768186",
"1X c #7A8186",
"2X c #768189",
"3X c #7B848B",
"4X c #7E898E",
"5X c #7C8791",
"6X c #7E8A91",
"7X c #80878C",
"8X c #82898E",
"9X c #838C93",
"0X c #888E95",
"qX c #869196",
"wX c #8A9296",
"eX c #869299",
"rX c #8B949B",
"tX c #8E999E",
"yX c #91969B",
"uX c #939A9E",
"iX c #999B9F",
"pX c #8C97A0",
"aX c #8E9AA2",
"sX c #949CA2",
"dX c #989EA3",
"fX c #9AA1A6",
"gX c #98A3A9",
"hX c #9BA4AA",
"jX c #9EA9B1",
"kX c #A1A8AC",
"lX c #A4ADB4",
"zX c #A7AFB6",
"xX c #A6B1B6",
"cX c #A9B2B6",
"vX c #ABB4BA",
"bX c #ABB6BC",
"nX c #B1B9BD",
"mX c #AFBAC0",
"MX c #B1BBC2",
"NX c #B8BFC5",
/* pixels */
"[ 2.bXlXcXvXvXvXvXbXnXnXnXvXvXvXnXnXnXnXNXfXg g ..nXvXbXvXnXvXvXvXvXvXbXvXvXvXvXbXbXnXbXbXbXvXbXbXvXbXvXvXcXcXvXcXcXcXcXcXbXvXvXcXzXvXlXlXcXcXcXcXvXcXvXvXvXcXcXcXcXcXvXvXcXcXcXvXvXvXvXvXvXvXvXvXcXlXkXcXvXcXvXvXvXcXvXcXvXvXvXvXvXvXcXcXcXvXcXcXcXxXcXcXcXcXlXxXxXxXlXlXlXlXlXlXxXxXlXlXlXlXlXxXzXlXlXzXxXxXxXxXxXxXxXxXzXxXcXcXxXxXcXvXvXvXcXcXxXlXlXcXcXcXcXxXvXvXvXvXvXbXnXnXnXnXnXnXnXnXMXMXMXMXMXMXMXmXMXMXnXmXnXnXnXnXnXmXmXMXMXMXMXnXMXMXMXMXMXMXMXMXMXMXMXMXMXMXMXMXMXMXMXMXMXMXMXMXMXMXMXMXMXmXmXnXnXnXmXmXmXMXMXMXMXMXMXMXMXMXMXMXMXMXMXMXMXMXMXmXMXMXmXMXMXMXMXMXMXMXMXMXMXMXMXMXMXMXMXNXMXMXMXMXMXgXgXgXgXgXsXaXaXsXsXsXaXaXaXsXaXtXtXrXeXeX9X9X6X>Xi.y.i.2.%.*.=.*.%.*.*.*.%.%.*.*.*.*.*.*.*.*.*.*.*.*.*.*.*.;.;.;.*.*.*.*.*.;.;.;.;.*.;.;.;.;.;.:.:.;.;.:.:.;.:.:.:.:.;.*.=.:.;.;.;.;.*.;.;.*.*.*.*.*.*.*.*.*.*.;.;.;.;.*.*.*.;.=.;.*.*.*.*.*.;.*.*.*.*.*.;.*.*.;.-.%.*.*.*.*.*.*.*.;.;.*.*.*.:.:.*.*.*.;.;.*.;.;.;.;.;.*.:.;.:.:.;.;.;.;.;.*.*.;.:.;.;.-.*.*.*.;.;.*.*.*.*.*.*.*.;.*.%.%.;.;.%.%.*.*.;.*.%.*.*.%.*.;.*.*.*.*.*.*.*.*.*.%.%.*.-.*.%.%.%.*.*.*.%.%.%.%.%.%.-.%.*.-.-.;.;.;.;.-.*.;.;.;.;.-.;.;.-.-.;.;.-.-.%.*.-.-.;.-.-.-.*.%.%.-.%.%.%.%.%.%.%.-.%.%.-.-.;.;.;.-.%.e = ) =.%.*.*.*.*.*.%.*.:.:.:.*.*.%.*.*.*.%.*.",
"[ 2.lXlXvXvXvXvXvXnXnXnXnXvXvXvXvXvXvXvXvXuXg f O.cXvXnXnXvXvXnXvXvXvXvXvXvXvXvXvXbXbXbXvXvXvXvXvXcXcXcXcXcXzXzXcXxXcXcXcXcXvXvXcXlXcXcXlXcXcXlXcXcXcXcXcXcXcXzXcXcXcXcXcXcXcXcXcXcXcXvXvXvXvXvXvXcXlXlXcXvXvXvXvXvXvXvXvXvXvXvXvXvXvXvXvXvXvXvXvXvXcXcXcXcXcXlXlXxXlXlXlXlXzXlXlXxXxXxXlXlXlXlXxXzXxXlXxXxXxXcXxXxXvXcXxXxXcXcXcXxXxXcXbXbXcXcXvXcXxXcXvXvXvXbXbXnXbXbXbXbXnXbXbXnXnXmXnXnXnXnXMXMXMXMXMXMXMXMXMXMXmXmXMXnXMXMXMXMXMXMXMXMXMXMXMXMXMXmXMXMXMXMXMXMXMXMXMXMXMXMXMXMXMXMXMXMXMXMXMXmXmXMXmXmXmXmXnXMXmXmXnXMXMXMXMXMXMXMXMXMXMXMXMXMXMXMXMXMXMXMXMXMXMXMXMXMXMXMXMXMXMXMXMXMXMXMXMXMXMXMXMXMXMXMXhXhXjXhXhXhXhXhXhXhXgXgXhXgXhXgXgXdXgXgXdXaXaXrX>Xa.>X;X2.:.2.4.2.*.:.2.:.:.:.:.:.:.:.:.:.:.:.:.:.:.:.:.:.:.:.:.:.:.:.:.:.:.:.:.:.:.:.:.:.:.:.:.:.:.2.:.:.:.:.:.:.:.:.2.2.2.2.2.2.2.:.:.2.2.2.2.2.2.2.2.2.2.2.2.2.2.2.2.2.2.2.2.2.2.:.:.:.2.2.2.2.2.:.:.:.2.2.2.2.:.:.:.:.:.:.2.2.2.2.2.:.:.2.2.2.2.:.:.:.:.:.:.:.:.:.:.:.:.:.:.:.:.:.;.;.;.:.:.:.:.:.:.:.:.:.:.:.;.;.;.;.;.*.;.;.;.:.;.%.;.;.*.%.;.:.;.;.;.;.:.;.:.:.*.:.:.*.*.;.*.;.*.;.;.*.;.-.*.*.%.*.;.;.-.-.;.;.;.*.*.-.-.;.;.;.;.;.;.-.*.;.;.;.;.:.;.;.;.-.*.;.;.-.;.*.-.-.*.;.;.-.-.-.%.%.-.-.-.%.%.%.+.+.-.%.-.-.;.;.;.-.+.e = v =.%.%.*.*.*.%.*.*.;.:.;.*.*.%.*.*.*.*.%.",
"' :.gXlXlXlXlXcXcXvXvXvXvXvXbXnXvXbXvXnXnXeXf y ..cXnXnXnXnXbXvXnXvXvXcXcXcXcXcXcXcXcXcXxXxXlXxXxXlXlXlXlXlXzXlXlXlXlXcXlXlXbXcXnXlXlXcXcXcXlXlXlXlXlXcXcXlXzXlXxXxXlXlXxXxXcXcXcXcXcXcXcXcXcXcXcXcXlXlXcXcXcXcXvXvXvXcXvXvXvXvXvXvXvXvXvXvXvXvXvXbXcXcXcXvXcXcXxXlXlXxXxXlXlXlXlXxXlXzXlXlXlXxXlXlXlXlXzXzXxXzXlXxXlXlXlXlXlXxXxXxXlXxXcXxXbXcXlXlXlXcXvXcXvXcXvXvXvXvXvXbXvXbXvXbXvXvXvXbXbXbXvXbXvXvXvXbXbXvXvXvXvXcXvXbXcXcXvXvXcXcXcXcXcXxXcXcXcXcXcXvXcXcXcXvXcXcXcXcXcXcXcXvXvXcXvXvXcXcXcXvXvXvXvXcXcXcXvXvXvXvXvXvXvXvXvXvXvXvXbXvXvXvXvXbXvXbXbXvXvXvXvXvXvXbXvXvXvXvXcXcXvXvXbXbXbXbXvXbXbXbXbXbXbXvXdXdXdXsXsXsXsXaXsXsXpXaXtXaXaXtXrXrXrXeXeX9X9X9X,Xy.r.a.7.O.{ *.:.O.O.%.%.@.%.%.@.@.@.%.%.@.%.%.%.%.%.%.%.%.%.%.%.%.*.%.%.%.%.*.%.%.%.%.%.*.*.*.*.*.*.*.*.*.*.%.*.*.*.*.*.*.*.*.*.%.*.*.*.*.*.;.;.;.*.*.*.*.;.;.;.;.;.;.*.*.*.*.;.*.%.;.*.*.*.*.*.*.*.*.*.*.*.;.-.-.;.;.:.;.;.;.;.;.;.*.*.*.*.*.*.*.*.*.%.*.%.%.*.*.*.%.%.%.*.*.*.*.*.%.%.%.%.%.%.%.%.%.%.%.%.%.%.%.%.%.%.%.%.%.@.%.%.%.%.%.%.%.@.@.+.*.%.%.%.@.%.@.O.%.*.%.%.+.+.@.+.+.@.%.%.+.+.+.+.+.+.+.+.O.+.@.@.+.+.+.+.+.+.+.%.%.@.+.+.+.%.%.@.%.-.%.+.+.%.%.%.%.%.%.%.%.%.*.;.;.%.%.%.%.%.*.;.%.%.+.X.+.%.-.%.%.-.;.-.;.;.+.e = v :.%.%.=.:.=.*.*.*.;.:.=.*.=.*.*.*.=.*.*.",
"' ;.3X,X,X<X1X1X4X9XqX9X9XeX9XwXrXtXhXlXcXeXf q ..lXxXhX3X2X2X2X2X2X<X,X,X<X<X2X2X2X,X2X,X2X2X,X2X2X2X3X3X3X3X5X6X9XqX9X9X9X3X3XrX4X>X2X2X2X<X,X2X,X<X2X<X2X2X<X<X2X,X<X<X,X2X2X<X<X,X,X>X,X<X<X>X,X<X>X<X<X<X<X2X2X2X2X2X2X2X2X2X2X2X3X3X2X3X3X6X9X9X9X9X9X6X6X9XeXaXaXaXsXaXtXrXeXeXeXeXeXrXeXtXaXgXgXgXgXgXgXhXhXgXgXsXpXrXrXrXrXsXaXsXsX6X2X>X>X>X>X;X,X<X>X,X<X>X,X,X,X,X>X>X>X>X>X>X;X;X>X>X;X;X;X;X;X>X;X>X;X;X;X;X>X>X>X;X>X;Xs.;Xs.;X;X:Xs.s.s.:X:Xs.:X;X;Xs.s.:X:X:X:Xs.s.s.s.s.s.;X:X;X:X;X;X;X;Xs.;Xs.;X:X;Xs.s.;X;X;X;X;X:X;X>X;X;X;X;X;X;X;X;Xs.;X>X>X;X;X;X;X;X;X;X;X;X;X;X;X;X;X;Xs.;X>X;X;X;X;Xp.a.p.p.p.p.p.i.y.y.y.p.y.y.p.i.i.i.p.i.i.i.i.y.y.r.r.9.%...{ { _ / ( / / v / / c v v v v v v v c v v v v v c / v v v v v v v / v v c v c c v v v v v v v v v c c c c c c c v c v c c c c v v v v v v v v v v v c v v v v v v c c c c c c c c c c c v v c v v c c c c c v c c c c v c c c v c c c c c c c c c c c c c c c c c c c c c c c c c c c c c c c c c c c c c c c c c c c c c c c c c c l l v ) / v ' v k c l c v ( / v c c v ' ) ) v c l l c c c l l l l c c c c l l c c c c c l c c v c / ' ' / v c c v c c c c c l v v v v +.+.( v ( ( / [ ..X.v k v v v v v v ' %.%.%.+.e = v :.%.*.%...........X.....[ [ [ [ [ { ..O.",
"[ *.>X:X>Xs.d.>X;X<X>X>X>X>X>Xs.s.i.tXhXkXeXf 9 [ hXkXdXi.a.p.p.a.a.a.a.p.a.a.a.a.a.a.a.a.p.a.p.y.p.p.a.p.p.r.y.s.5X4X<X4X6Xa.a.;X>Xs.y.s.s.a.a.p.p.p.p.a.a.a.a.p.p.p.p.a.p.p.p.p.p.p.p.p.p.p.p.p.p.p.p.p.p.p.p.p.p.p.p.a.p.a.a.a.a.a.a.s.s.:Xs.;X>X>X:X2X2X>X,X<XeXaXaXrXtXrXeXeXeX6X3X5X5X6X6XeXgXsXsXgXdXdXdXgXgXgXsXrXeX9X6XeXeXrXrXaXeXp.s.a.y.a.p.p.a.a.a.s.a.p.a.a.a.p.p.a.a.p.p.p.p.a.p.p.p.p.y.p.p.p.p.p.p.p.p.p.p.p.p.p.p.p.p.p.p.p.p.p.p.y.p.p.p.y.y.p.p.p.y.p.p.p.y.p.p.p.p.p.p.p.p.y.y.y.p.p.y.p.y.p.p.y.y.i.p.i.p.p.p.p.p.p.p.p.y.y.p.y.i.p.y.p.p.p.p.p.y.p.p.p.p.y.p.p.y.p.p.p.p.p.y.p.p.p.p.p.p.r.r.r.r.r.r.r.r.r.y.r.r.r.r.r.r.r.r.r.t.r.r.r.r.q.q.8.2.=.O.[ { [ / / v v l c c c l c l l c c c l c c c c c c c c c c l l l l c l l l l l l l l l l l l l l c l l l l l l l l l l l l l c c c c l l c c c l l l l c l l l l l l l l l l c l k l l l l l l l l l l l l l c l l l l l l l l l l l l l l l l l l l l l l l l l l l l l l l l l l l l l l l l l l l l c l l l l l l l l l l l l l l l c c / / v ) v k c c l c v c ( v c ( [ [ / l l l k l l l l l l l l k l l l l l l l l l k k l l k c ( ( l l l l k l l l l l k l l l c ..+.v c c v l ( [ ..v l l c c / c l v %.%.%.O.e = v :.%.%.{ v / / c v / / v c l c l / ' ' ' ",
"[ %.;X;Xs.f.f.a.s.;X>X>X2X>X>X;Xa.s.aXhXhX9Xu 9 ' hXkXdX;Xa.a.s.:X:X:Xs.s.s.s.s.s.s.s.s.s.s.s.a.s.;X>X>Xp.y.i.y.a.eXqX6X6XtX,Xp.p.s.p.p.s.a.a.a.a.p.p.a.s.a.a.a.p.a.p.p.a.p.a.p.a.s.p.p.p.p.p.a.p.a.a.p.p.a.p.p.a.a.a.a.a.a.a.a.s.s.:X;Xs.;X:X:X>X,X2X2X3X3X3X5X5XrXtXaXaXaXaXrXeXrX5X3X9X6X5XeXqXsXgXgXgXsXsXgXgXgXsXrXeXrX9X3X5X3XeXrXeXeXa.p.p.s.p.p.a.p.s.>X>Xa.a.p.a.a.a.a.a.s.a.a.s.a.a.a.a.p.p.p.a.a.a.s.a.s.a.a.a.p.p.p.a.s.a.a.a.a.s.a.p.p.a.a.a.p.p.p.p.p.p.a.a.a.a.p.p.p.a.p.a.p.p.p.a.a.p.p.p.p.a.p.p.p.p.p.p.p.p.p.p.p.p.p.p.p.p.p.p.p.p.p.a.p.p.p.p.p.p.p.p.p.p.a.p.p.p.p.p.p.p.p.p.p.p.p.a.p.p.a.r.r.r.r.r.r.r.r.r.r.r.r.r.r.r.r.r.r.r.r.r.r.r.r.r.r.q.4.2.&.&.O...( / z l l z l z l l c c z l c c c c c v c c l c c l c l l c l l c l l l c c c l l c c c c c l l c c c l l c c l l l l c c c c l l c c c c c l l c l l l l l l l l l l c c l l l l l l l l l c l c l l l l l l l l c c l l c c l l l l l l l l l l l l l l l l l l l l l l l l l l l l l l l l c l l l l l l l l l l l c l c l c c l l v v ( c l l l l l l l / v l ' ' ..' l l l l l l l l l l l l l l l l l l l l l k l c l l v l v ) c l l l l l l l l l l k l c l ( ' c v l l c ) ' [ / c c l c / l c ( %.%.%.O.e = c ;.%.@.O.v ( ( ( [ ( [ [ ) c l c v { [ ) ",
"[ *.,X>X:Xs.s.<X9X4X4X3X2X3X;Xa.y.y.tXhXhX9Xy 3 ' hXlXdXs.a.a.a.s.a.a.a.a.a.s.s.s.a.s.s.a.s.s.s.2X;X>X6Xy.y.p.a.s.4X3X4XqXeXs.a.a.p.p.a.a.a.s.s.a.a.a.a.s.s.s.a.s.a.s.s.s.a.a.a.s.a.a.s.p.a.a.a.a.a.a.a.a.a.a.a.a.a.a.a.s.a.s.s.s.s.s.s.s.s.s.:X<X2X2X2X2X2X3X4X6XpXeXrXpXpXrXeXrXeX;X;X>X>X>X2XrXsXsXsXgXgXsXdXgXgXsXrXeX3X>Xs.p.a.3XpXrXeXa.p.p.a.p.p.p.;XpXaXsX>Xp.p.p.p.a.a.a.a.s.p.a.a.a.s.p.p.a.a.s.s.a.a.a.p.s.s.a.a.p.a.a.a.s.a.a.a.a.a.a.p.a.p.p.a.a.p.p.p.p.p.p.p.p.p.p.p.a.a.p.p.p.p.p.p.p.p.p.p.p.p.p.p.p.a.p.p.p.p.p.p.p.a.p.p.p.p.p.p.p.p.p.p.p.a.p.p.p.p.p.p.p.p.a.p.p.a.p.a.p.p.a.p.p.p.p.p.a.a.r.r.r.r.r.y.r.r.r.r.r.r.r.r.r.r.r.y.r.r.r.r.y.r.p.r.p.7.=.7.q.2.[ [ [ l v l l l z z c c c l c c c c c l c c c c c l c c l l l c l l l l l c c c l l l l c c l l c c c c l l l l c l l l l c c l l l l l l l l c c c l l l c l l l l l l l l l l l l l l l l l l l l l l l l l l l l l l c l l c l l l l l l l l l l l l l l l l l l l l l l l l l l l l l l l l c l l l l l l l l l l l l c l l l l l l v ( ( c c l k l c l l c c c [ [ [ ) l l l l l l l l l l l l l l l l l l l l l l c ' ) c v / ) ( c l l l l l l l l l l l l l l v c l v c v c c c l l c l l c l c c ( %.%.%.X.e = c ;.*.+.O.v v ( ` [ { [ [ ..v l c c [ [ [ ",
"..=.2X>X>X>Xf.sXhXfXhXfXgXgX2Xr.y.a.tXhXhX9Xq 3 ) hXkXsXs.a.a.p.p.p.p.y.i.a.a.p.p.p.p.y.y.y.y.y.2X9X6XeX>Xp.r.p.;X;Xs.>X3X2Xa.s.a.a.s.p.p.a.s.s.s.s.s.s.s.s.s.s.s.s.s.s.s.s.s.a.s.s.s.s.a.a.p.s.a.a.a.a.a.s.s.s.a.s.a.a.s.s.a.s.s.s.s.s.;X;Xs.:X2X2X2X2X2X3X6X6XrXpXrXrXrXrXeXeXeX9Xp.r.a.2X2X2XeXpXrXaXsXsXaXsXgXgXsXdX9Xa.p.p.y.s.>XeXaXeXa.a.a.p.a.a.p.2XsXtXaX>Xa.a.a.a.a.a.a.a.a.a.a.a.a.a.a.a.a.a.a.s.a.a.a.s.s.s.a.a.a.a.a.a.s.a.a.a.a.a.a.a.a.a.a.a.a.p.p.a.s.p.a.a.p.p.p.p.a.p.p.a.p.p.p.p.p.p.a.p.p.p.p.p.p.p.a.p.p.p.p.p.p.a.p.p.p.p.p.p.a.p.a.a.p.a.p.p.a.p.s.a.a.a.a.p.a.a.a.p.p.a.p.p.p.a.a.p.p.a.r.r.r.r.r.r.r.r.r.r.r.r.r.r.r.r.r.y.y.r.r.r.r.r.r.r.q.8.q.r.i.8.$.%.{ v v z v ^ ^ v c c l l c c c c c c l c c c c c l l l l l c z z l l l c c c l l l l l l l c c c c c l l c c l l c l l c c l c l l l l l c c c c l l l l c c l l l l l c c c c c l l l l l l c l l c l l l l c c l l l l l c l l l l l l l l l l l l l l l l l l l l l l l l l l l l l l l l c l l l l l l l l l l l l l l l l c l l l c l c c c l l l l c c c l v ' ../ k l l l l l l l l l l l l l l l l l l l k l c ) ' ' v l c c c l l l l l l l l l l l l l l v v c c v v v l l l l l l l c c l l / +.%.%.X.e = c :.%.%.O.c c ( [ ..O.....O.( k c c ( [ ..",
"..=.2X,X>X,X1XsXgXhXkXdXsXaXs.r.r.a.sXhXhX9X9 * ) hXkXsXs.a.a.p.p.p.p.p.i.p.p.p.p.p.i.r.y.y.r.>X6XeXeX9X>Xr.p.i.p.s.;Xs.s.>Xs.s.s.;Xs.s.s.a.a.s.a.s.s.s.s.s.s.s.s.s.s.s.s.a.s.s.a.s.a.a.s.p.s.a.a.a.a.a.s.s.a.s.s.a.a.a.s.s.s.s.s.s.s.:X;X;X;X:X2X5X3X2X2X5X6X5XpXaXaXrXrXrXrXrXrXeXa.u.p.s.s.p.a.s.s.;X;X:X,X>X>X<X3X3X,Xs.a.s.p.:Xp.s.;Xs.s.a.p.a.a.a.a.;XpXsXpXs.s.s.s.a.a.a.a.a.a.p.a.a.s.a.a.a.a.p.a.s.s.a.a.a.a.p.a.s.a.a.p.p.p.a.p.p.a.a.a.a.p.p.p.p.a.a.a.p.p.p.p.p.a.p.p.a.p.p.p.p.p.a.a.p.a.p.p.p.p.p.p.a.p.a.p.p.p.p.a.p.a.p.p.p.p.a.a.p.p.p.p.a.p.p.a.a.a.a.p.p.p.a.p.p.p.p.p.p.a.a.a.a.p.p.p.p.p.p.r.r.r.r.r.r.r.r.r.r.r.r.r.r.r.r.r.r.y.r.r.r.r.r.q.q.9.4.8.s.;Xr.2.<.{ ( v / / v z z v v l l c c c c c c v c c c l l l c z c l l l l l l c c l c l l l l l c l l l l l c l l l l l c c c l l l l c l l l l l l c c l c l l l l l l l c c c c c c l l l c l c l l l l l l l l l l l l l l l l l l l l l l l l l l l l l l l l l l l l l l c l l l l l l l l l c l l l l l l l l l l l l l l l l l l l l l l l l c l l c c c l l l c l l c c l l l l l c l l l l l l l l l l l l l l / ) / l l / / l l l l l l l l l l l l l l l l l ) ) ( c l l v c l c c c c l l c c c l c ' %.%.%.X.e = c :.%.%.O.c c c [ O.{ { O.O./ l c v [ ....",
"..=.2X,X>X<X<XtXjXdXsXaXrX;X7.r.q.a.aXhXhX6X3 * ) hXlXsXs.s.a.p.p.p.p.p.p.p.p.p.a.p.p.p.p.a.y.;X9X4X9X9X2X;X,Xs.p.;X;X;X;X>Xs.s.:X;Xs.s.s.s.s.s.s.a.a.s.a.s.s.s.s.s.s.s.s.s.a.a.a.s.s.s.s.s.s.a.a.s.a.a.a.a.a.a.a.a.a.s.a.s.s.s.s.s.s.;X;X;X;X;X2X2X2X2X2X2X2X5X3X2X2X>X>X>X>X>X>X;Xp.p.p.p.p.p.p.p.p.r.y.y.p.p.y.p.p.i.p.a.p.p.p.a.p.a.a.a.a.a.s.a.s.a.p.a.s.;Xs.a.a.p.a.a.a.a.s.a.s.a.a.a.a.s.s.a.s.s.s.a.a.a.a.a.a.a.a.a.a.a.a.p.a.a.a.a.p.a.a.a.a.p.p.a.a.a.a.p.a.a.a.a.p.p.p.p.a.a.a.a.p.a.a.p.p.p.p.p.p.p.p.p.p.a.p.p.p.p.a.p.a.p.p.a.p.a.p.p.a.a.a.a.p.p.p.p.a.a.p.p.a.p.a.a.a.p.p.p.p.p.a.p.a.a.a.a.p.p.r.r.r.r.r.r.r.r.r.r.r.r.r.r.r.r.r.r.r.r.r.r.r.r.r.7.q.7.q.s.;X9.%.7.*.[ [ ' / / / c z z z c c c c c c c v l l v c l c c l l l l l l l l l l l l c l c l c l l l l c l c l l l l c l c c l l l c c l l l l l l c l l l c l l l l l l l l l l l l l l l l l l l l l l l l l l l l l l l l l l l l l l l l l l l l l l l l l l l l l l l l l l l l l l l l l l l l l l l l l l l l l l l l l l l l l l l l c l l l l l l l l l l l l l l l l l l l l l c l l l l l l l l l l l l l ) [ ....l c c l l l l l l l l l l k l l l l k k c ( ) ( / l c ' ' / c c c c l l c v l l c ' %.%.%.X.e = c :.%.%.O.c l l v ' [ [ ( v l c l c [ ..O.",
"..*.2X<X>X<X<X4XqX9XqXqX4X0.2.7.7.y.tXgXgX3X2 * ( hXkXsXi.a.a.p.p.p.p.p.p.p.p.p.a.p.p.p.p.p.y.;XrX9X9X6X6XrX9X6X6X>Xa.;X;Xs.s.;X:X:Xs.s.s.s.s.s.s.i.s.s.a.a.a.s.s.s.a.a.a.a.s.a.s.s.s.a.a.a.s.s.s.a.a.a.a.a.a.a.a.a.s.a.s.s.s.s.s.s.;Xs.;X;X:X>X2X<X>X2X2X2X>X:Xp.p.p.y.y.r.p.y.y.y.p.p.p.p.p.p.p.p.p.p.p.p.y.p.p.p.p.p.a.p.p.a.p.p.p.a.s.s.p.s.s.s.s.p.p.s.s.a.a.s.p.a.a.a.a.p.s.a.a.a.a.p.a.a.p.a.s.s.a.a.a.a.a.a.a.a.a.a.a.p.p.p.a.a.a.a.a.p.a.a.p.p.a.p.a.p.p.a.p.p.a.p.p.p.p.p.p.p.p.p.a.p.p.a.p.p.p.p.a.p.p.p.a.p.p.a.p.p.p.p.p.p.p.p.a.p.p.a.p.p.p.p.p.p.p.a.p.p.p.p.p.p.p.p.a.a.p.p.p.p.p.p.p.p.p.p.p.p.r.r.r.r.r.r.r.r.r.r.r.r.r.r.r.r.r.r.r.r.r.r.q.y.:Xs.;Xp.s.i.p.q.q.y.7.| O.{ v v v c v c v c c v c c c c l l l l c c l c l l v l c l l c l l l l l l c c c l l l l l l c c c l l l c c l l l l l l l l l l l l l l l c c l l l l l l l l l l l l l l l l l l l l l l l l l l l l l l l l l l l l l l l l l l l l l l l l l l l l l l l l l l l l l l l l l l l l l l l l l l l l l l l l l l l l l l c l l l l l l l l l l l l l c l l l l l l c c l l l l l l c l l l l l l c l ) [ [ ..l h l l l l l l l l l l k k l l l l k l l l l / ) ) [ ..' [ ../ l c l l c c c c v ) +.%.%.X.e = l ;.%.%.O.l k l g k c l f k h l k v [ [ X.",
"{ *.1X>X,X>X<Xs.9.q.q.<X3X7.*.<.7.p.tXsXgX2X2 * v gXhXgXtX9Xs.p.a.p.p.p.p.p.p.p.p.p.i.y.y.y.i.p.s.a.s.s.s.<X2X6X9X;Xp.s.s.s.s.:Xs.s.s.s.s.s.a.s.1X>X;Xs.s.a.a.a.s.s.a.p.a.a.a.a.s.s.s.s.a.s.a.a.a.a.s.a.a.a.a.a.s.a.a.s.s.s.s.s.s.s.s.s.s.s.s.s.2X3X5X3X3X2X:Xp.s.a.p.y.y.y.p.p.y.p.p.p.p.p.p.p.p.p.p.p.p.p.p.p.p.p.p.a.a.p.a.a.a.a.p.p.p.a.a.a.p.p.p.s.a.a.s.s.;Xs.s.a.a.a.a.a.a.s.p.a.a.p.a.a.a.a.a.a.p.a.s.p.a.a.a.a.a.p.a.s.a.a.p.a.a.a.a.a.a.a.p.a.p.p.a.p.a.p.p.a.p.p.p.p.p.a.p.p.p.p.a.a.p.a.p.p.p.p.p.p.a.p.p.p.p.p.a.p.p.p.p.p.p.p.a.p.p.p.p.p.p.p.a.p.a.a.p.p.p.p.a.p.a.p.a.a.p.p.p.p.p.p.p.p.a.p.a.a.r.r.r.r.r.r.r.r.r.r.r.y.r.r.r.r.r.r.r.r.r.r.8.q.>X;Xs.a.a.a.a.p.a.u.2.+.*.@./ ( ( / / l v c c v c c c c v v v l l c l v l l l l l c c c c c c c l l l c c l l c l l c c c c l l l c c c c l l l l l c c c l l l l l c l c c l l l l l l l l l l l l l c l l l l l l l l l l l l l l l l l l l l l l l l l l l l l l l l l l l l l l l l l l l l l l l l l c l l c c l l l l l l l l l l l l l l l l l l l l l l l l l l l l l l l l l k l l l ) ) v l l l l l l l l l l l l l l c ( ( v l l l l l l l l l l l l k l l l l l l l l l l ' X.' ' ......O.' l c l l l c c c c ) %.%.%.X.e = l =.%.+.O.k g g g k l g g k g k l c [ [ [ ",
"..*.1X1X2X1X<X,Xr.r.8.7.4.O.<.<.8.s.rXuXdX>X2 * v gXhXhXhXhXa.p.p.p.p.p.a.p.p.p.p.p.a.p.p.p.p.p.a.a.s.s.p.p.s.3X3Xs.;X;X:X:Xs.s.s.s.s.;Xs.:Xs.>X3X4X2Xp.s.a.a.p.s.s.s.s.s.a.a.s.s.a.s.s.a.a.p.a.a.a.a.a.s.a.a.a.s.s.a.a.s.s.s.s.s.s.;X:X;X:X;Xs.>X2X5X2X2X4X>Xp.p.p.p.p.p.p.p.p.p.p.p.p.p.p.p.p.p.p.p.p.p.p.p.p.p.p.p.p.p.p.s.s.a.a.a.a.p.a.a.a.a.a.a.a.s.p.a.a.a.a.a.a.s.a.a.a.p.p.a.a.a.p.p.a.p.p.a.a.a.a.a.a.p.p.a.s.a.p.a.a.p.p.a.a.a.a.a.p.p.p.a.a.a.a.p.p.p.a.a.a.p.p.p.p.p.p.p.a.p.p.p.p.p.p.a.a.p.p.p.p.p.p.p.p.a.p.p.p.p.p.p.p.p.a.p.p.p.p.p.a.p.a.a.p.a.p.p.p.p.p.a.p.p.p.a.p.p.a.p.p.p.p.p.p.p.p.a.p.r.r.r.r.r.r.r.r.r.r.r.r.r.r.r.r.r.r.r.r.y.y.q.q.:X:Xs.s.s.s.a.a.p.a.9.7.7.*.O.$.{ ( / l v c c l c c l l c l l c l c l l l l l l l c l l l c l c c c c l c c c l l l l c l c l l l l l l l l l l c c c c l c l l l l l l l l l l l l l l l l l l l l l l l l l l l l l l l l l l l l l l l l l l l l l l l l l l l c l l l l l l l l l l l l l l l l l l l l l l l l l l c l l l l l l l l l l l l l l l l l l l l l l l l l l l l l l l l l c ' ) l l l l l l l l l l l l l l l c l k k l l l l l l l l l l l l l l l l l l k l l l l v ) v / ) ' ' ) v l l l l l c c c l ) *.%.%.O.e = c *.%.@.O.k g k f g k g l g k f f v ) ) ' ",
"..;.4X3X3X3X3X>X2.2.8.&.@.*.2.<.7.r.rXsXsX>X* & v gXhXhXhXaXa.a.a.a.p.a.a.a.p.p.p.a.p.p.p.p.p.p.a.a.p.p.p.i.;X9X3X,X2X3X;X;Xs.s.s.s.s.s.s.:X:X>X:X>X<Xs.p.p.a.a.s.s.s.s.s.s.s.s.a.a.s.p.a.s.s.a.s.a.a.s.a.s.s.a.s.s.s.s.s.s.s.s.s.;X:X:X>X3X3X2X>X>X3X6X5X3X;Xp.p.p.p.p.p.p.p.p.p.p.p.p.p.p.p.p.p.p.p.p.p.p.p.p.p.p.p.p.p.p.p.p.p.p.p.p.p.a.a.p.p.p.a.p.s.a.a.a.p.a.a.a.s.s.s.a.a.a.a.p.p.a.p.a.a.p.a.a.p.a.p.a.a.a.a.a.a.p.a.p.p.a.p.a.a.a.a.a.a.a.a.a.p.p.a.p.a.a.a.a.p.p.p.a.p.p.p.p.p.p.p.p.p.p.p.p.p.p.p.p.p.p.p.p.p.p.p.p.p.p.p.p.p.p.p.p.p.p.p.p.p.p.a.a.a.a.p.p.p.p.p.p.p.p.p.p.p.p.a.a.p.p.p.p.p.p.a.a.r.r.r.r.r.r.r.r.r.r.r.r.r.r.r.r.r.r.q.r.y.>X>X;X;Xs.s.s.a.a.s.s.a.p.p.i.4.+.%.2.O.( ( c v c c c c c l l c c l l l l l l c l c l l l l l c l c l l l c c c c l l l l c c c c l c l l l l l l c c l l l l l l c c l l l l l l l l l l l c l l l l l l l l l c l l l l l l l l l l l l l l l l l l l l l l l l l l l l l l l l l l l l l l l l l l l l l c l l l l l l l l l l c l l l l l l l l l l l l l l l l l l l l l l l l l l l l l l l l c c l / c k l l l l l l l l l l l l l k k k l l l l l l l l l k l l l l l l l l k k l l l l l c l l l l l l c c c l l ) [ ) [ %.-.*.X.e = k *.%.%.+.k g l u f k k g g l f g v ( ' O.",
"{ :.4X3X4X2X,Xr.@.+.*.O.O.@.7.3Xq.s.rXaXsX;X* & v gXhXhXlXhXs.a.a.p.p.p.a.a.p.p.p.p.p.p.p.p.p.p.a.p.p.p.a.a.:X3X2X>X,X3X,Xp.s.s.s.s.s.s.s.s.s.s.s.,X3Xs.p.s.;X2Xs.a.s.s.s.s.a.s.a.a.s.s.s.a.a.a.a.a.a.a.a.a.s.a.a.a.a.a.s.s.s.s.s.s.s.:X:X2X3X2X>X:Xp.:Xs.u.a.p.p.p.p.p.p.p.p.p.p.p.p.p.p.p.p.p.p.p.p.p.p.p.p.p.p.p.p.p.p.p.p.p.p.p.p.p.p.p.p.p.p.p.a.p.p.a.p.p.p.p.p.a.s.p.p.a.a.p.p.p.p.a.a.a.p.p.p.p.p.p.p.a.a.a.a.a.a.a.p.p.p.p.a.p.p.a.a.a.p.p.a.p.a.p.p.a.a.p.p.p.a.p.p.p.p.a.s.p.p.p.p.p.p.p.p.p.p.p.p.p.p.p.p.a.p.p.p.p.p.p.p.p.p.p.p.p.p.p.p.p.p.a.a.a.p.p.p.p.p.p.p.a.a.p.p.p.p.p.p.a.a.p.p.p.p.p.a.a.r.r.r.r.r.r.r.r.r.r.r.r.r.r.r.r.r.r.r.9.8.;X>X;Xs.s.s.a.a.a.a.a.a.p.i.y.7.+.+.=.%.( l / v v c v v v c c l l l l l l l l c l l c c c l l l l l c l l l l l l l l c l l l l l c l l l l l l l l c l l l l l l l l l l l l l l l l l l l l l l l l l l l l l l l l l l l l l l l l l l l l l l l l l l l l l l l l l l l l l l l l l l l l l l l l l l l l l l c l l l l l l l l l l l l l l l l l l l l l l l l l k l l l k l l l l l l l l l l l k ( [ v l l l l l l l l l l k k l l l k k l l l l l l l l l l k l l l l l l l l k l l l l l l l l l l l l l l c c v X.@.+.O.%.*.%.X.e * k *.O.O.@.l g l k g g k f k l c k v [ [ +.",
"[ :.4X1X3X3X,X6.=.*.=.*.+.O.s.nXeX<XeXtXsX:X& & v gXhXlXvXlX>Xa.a.i.a.s.p.p.p.p.p.p.p.p.p.p.p.a.a.s.a.a.a.s.s.;Xp.p.3X6X2Xs.s.s.s.s.s.s.s.s.a.a.;X9XwX>Xs.wX>X:Xp.i.s.s.p.p.p.a.a.s.a.a.a.s.a.a.s.s.s.a.s.s.a.a.a.a.a.s.s.s.s.s.;Xs.;X;X<X2X2X3X6X:Xq.r.u.p.p.p.p.p.p.p.p.p.p.p.p.p.p.p.p.p.p.p.p.p.p.p.a.p.p.p.p.p.p.p.p.p.p.a.p.p.a.a.p.a.p.p.p.p.a.a.a.p.p.p.p.p.a.s.s.p.p.a.p.p.a.a.a.p.p.p.p.p.a.p.a.a.a.p.p.p.a.a.a.a.p.p.p.p.a.p.p.a.p.p.p.p.p.p.a.a.p.p.p.p.a.p.p.a.p.p.a.p.a.a.p.p.p.p.p.y.p.p.p.p.p.p.p.p.a.a.a.a.p.p.p.p.p.p.p.p.p.a.p.p.p.p.p.a.p.a.p.p.p.p.p.p.p.p.p.p.p.p.p.p.p.p.a.p.a.p.p.p.p.p.r.r.r.r.r.r.r.r.r.r.r.r.r.r.r.r.r.>X>Xr.p.>X;Xs.s.s.s.a.a.a.a.s.a.p.y.p.y.6.2.4.+.( ( [ ( z l c l l l l l l l c c l l l l l l c c c l l l l c c l l l l l l l l l l c l l l l l l l l l l l l l c l l l l l l l l l l l c l l l l l l l l l l l l l l l l l l l l l l l l l l l l l l l l l l c l l l l l l l l l l l l l l l l l l l l l l l l l l l l l l l l l l l l l l l l l l l l l l l l l l l l l l l l l l l l l l l l l l l l l l l l v [ [ v l l l l l l l l l l k k l l l l l k l l k l l l l l k k l l l l l l k l l l l l l l l l l l l c l c / ) / / [ X.+.X.%.%.%.X.9 * k *.O.O.O.c k l k l f l k g l l d c ) ( ..",
"..:.6X3X3X3X4X6XrXeXrXrXtXrXqXjXjXrXtXrXaX;X& @ / gXhXlXlXgX9XsXsX3X,X;Xp.p.p.y.p.p.p.p.p.p.p.p.p.p.a.a.a.a.s.p.s.p.<X6X>Xs.:Xs.s.s.s.s.s.a.p.a.s.;X2X>X3X9Xr.a.p.p.s.p.p.s.a.a.a.s.s.s.a.s.p.a.s.a.a.a.a.a.s.s.a.s.s.s.s.s.s.s.;X;X:X;X<X5X>X;Xs.p.y.y.p.a.p.p.p.p.p.p.p.p.p.p.p.p.p.p.p.p.p.p.p.p.p.p.p.p.p.p.p.p.p.p.p.p.p.p.p.p.p.a.p.p.p.a.p.p.p.p.p.p.a.a.p.p.p.p.p.a.a.a.a.p.a.p.p.p.p.a.a.a.p.p.p.p.p.a.a.a.a.p.p.p.a.a.a.p.p.p.p.p.p.p.a.a.p.p.p.p.a.a.p.p.p.p.p.a.a.a.a.p.p.p.p.p.p.a.p.p.p.p.p.y.p.p.p.p.p.p.p.p.p.a.p.p.p.p.p.p.p.p.p.p.p.p.p.p.p.p.a.p.a.p.p.p.p.a.a.p.p.p.p.p.p.p.p.p.p.p.p.p.p.p.r.r.r.r.r.r.r.r.r.r.r.r.r.r.r.r.r.y.<X>X>X;X;Xs.;Xs.a.a.p.a.a.s.a.p.p.p.p.r.r.7.<.[ ..@.( l l c l l l l l l l l l l l l l c l l c l l l l l c c l l l l c c l l l l l l l l l l l l l l c l c l l l l l l l l l l l l l l l l l l l l l l l l l l l l l l l l l l l l l l l l l l l l l l l l l l l l l l l l l l l l l l l l l l l l l l l l l l l l l l l l l l l l l l l l l l l l l l l l l l l l l l l l l l k l l l l l l l l l l l l l l l ' / k l l l l l l l l l k l l l l l k l l l k k k l l l l k k k k l l l l k k k l l l k l l k l l l l k ) +.....'  .X.X.+.%.%.%.X.e * k %.O...X...O.O...X.X.X...[ [ ' ( ( ) ....",
"..2.4X4X4X4X4X9XtXsXsXsXgXgXhXbXmXgXeXeXsXa.& @ ( dXgXjXgX9X6XhXhX6X3X;Xy.a.p.p.y.p.a.a.p.s.p.p.p.a.a.s.a.a.a.p.s.s.s.;Xs.;Xs.s.a.s.s.s.s.a.p.p.p.u.s.;X3X>Xs.>Xy.r.,X>Xp.a.s.a.a.s.s.s.s.s.p.a.a.a.a.p.a.a.s.s.s.s.a.s.s.s.s.;Xs.s.a.a.s.:Xq.q.r.u.r.r.p.p.p.p.p.p.p.p.p.p.p.p.p.p.p.p.p.p.p.p.p.p.p.u.p.p.p.y.p.p.p.p.p.p.p.p.p.p.p.p.p.p.p.p.p.p.p.p.a.p.p.p.p.p.p.p.p.a.a.a.p.p.p.p.a.a.p.p.a.p.p.a.p.a.p.a.a.p.p.a.p.a.s.p.p.p.p.p.a.p.a.p.a.p.p.p.a.p.a.p.p.p.p.a.p.p.p.p.p.p.p.p.p.p.a.p.p.p.p.p.p.p.p.y.p.p.p.p.p.p.p.p.p.p.p.p.p.p.p.p.p.p.p.p.p.p.p.p.p.p.p.p.a.a.a.p.p.p.p.p.p.p.p.p.p.p.p.p.p.p.a.p.r.r.r.r.r.r.r.r.r.r.r.r.r.r.q.r.9.p.2Xs.s.>X>Xs.s.s.a.a.a.a.a.s.p.p.p.p.s.r.r.r.i.2.+.%.( / ( / v l l c l l l l l l l z l l c l l l c l l l l l l l l l l l l l l l l l l l l l l l l l l l l l l l l l l l l l l l l l l l l l l l l l l l l l l l l l l l l l l l l l l l l l l l l l l l l l l l l l l l l l l l l l l l l l l l l l l l l l l l l l l l l l l l l l l l l l l l l l k l l l l l l l l l l l l l l l l l l l k l l l l l l l l v v c c l l l l l l l l l l l l k l l k l k l k k k l l l l l k l l l l k l k k k l l l l k l l l l l k v [ ) ' ' [ ..' +.%.%.%.O.y * l *.*.@.%.*.*.*.;.%.%.+.%.=.%.%.+...O.%.O.",
"[ 2.3X4X3X9X9X9XeXsXgXpXaXgXgXgXgXpX6XrXaXa.& $ ) gXgXgXhXgXrXhXsX>X<Xp.a.>X;Xa.a.p.p.a.a.a.a.s.a.s.a.a.a.s.a.s.p.p.a.;X>X:Xs.a.s.s.s.a.a.a.a.p.p.s.s.s.2X<Xs.>X6X,X>X>Xs.,Xa.s.a.a.a.s.a.a.a.a.a.a.a.a.s.s.s.s.s.a.p.s.s.;X>X;X:X;Xp.;Xa.y.r.r.r.r.q.y.y.y.p.p.p.p.p.p.p.p.p.p.p.p.p.p.p.p.p.p.p.p.p.p.p.p.p.y.p.p.p.p.p.p.p.p.p.p.p.p.a.a.a.a.p.p.a.p.p.p.p.p.p.p.p.p.p.p.a.p.p.p.p.a.p.p.p.p.p.a.p.p.p.p.p.p.p.p.p.p.p.p.p.p.p.p.p.p.p.p.p.p.p.p.p.p.p.p.p.p.p.p.p.a.p.p.p.p.p.p.p.p.p.p.p.p.p.p.p.p.p.p.p.p.p.p.p.p.p.p.p.p.p.p.p.p.p.p.p.p.p.p.p.p.p.p.p.p.p.p.p.p.p.p.p.p.p.p.p.p.p.p.p.p.p.p.p.p.p.p.a.p.r.r.r.r.r.r.r.r.r.r.r.r.r.r.q.r.r.;X:X;X:Xs.s.s.s.s.s.s.a.a.a.a.p.p.p.a.p.y.p.a.r.8.7.2.$.{ [ / l l v l l l l l c c c l l l l c l l l l l l l l c l l l l l l l l l l l l l l l l l l l l l l l l l l l l l l l l l l l l l l l l l l l l l l l l l l l l l l l l l l l l l l l l l l l l l l l l l l l l l l l l l l l l l l l l l l l l l l l l l l l l l l l l l l l l l l l l l l l l l l l l l l l l l l l l l l c v c l l l l l c l v v l l l c ) / / / l l l l l l l l l l l k k l l l l k l l l l k l l k k k l k k l k k l l l l l l l l l l l l l l l c [ +.+.X.@.-.*.%.+.e = c *.*.*.*.*.:.=.@.@.$.%.%.=.*.%.O.+.+.+.@.",
"[ 2.5X4X4X3X4XwXsXrXrXaXaXgXaXpXaXrXeXaXaXa.& + ' sXhXhXgXhXhXgXeXa.1X<X4XtXrXf.a.a.p.p.a.s.s.s.s.a.a.a.a.a.s.s.s.a.s.;X;Xs.;X;Xs.s.a.s.a.a.a.s.s.s.s.r.>X>Xr.4XsX8X3X4X3XtXs.p.a.a.a.a.s.a.a.a.s.s.s.s.s.a.s.s.s.p.p.p.p.;X>X:X<X:Xp.:Xa.r.r.p.r.u.y.r.y.y.p.p.p.p.p.p.p.p.p.p.p.p.p.p.p.p.p.p.p.p.p.p.p.p.p.p.p.p.p.p.p.p.p.p.p.p.a.a.a.p.p.a.a.p.a.p.p.p.a.a.a.p.p.p.p.p.p.a.p.a.p.a.p.p.p.p.a.a.p.p.p.p.p.p.p.a.p.p.a.p.p.p.p.p.p.p.p.a.p.a.p.p.a.p.p.p.p.p.p.p.p.p.p.p.p.p.p.a.a.p.p.p.p.p.p.p.p.p.p.p.p.p.p.p.p.p.p.p.p.p.p.p.a.p.p.p.a.a.a.p.p.p.p.p.p.p.a.a.a.p.p.p.p.p.p.p.p.p.p.p.p.p.p.p.p.p.p.p.p.p.r.r.r.r.r.r.r.r.r.r.r.y.r.;X;Xr.p.2Xs.s.s.s.s.s.s.s.s.s.a.s.s.a.p.s.p.a.a.a.p.a.y.r.q.4.%.{ [ [ v c v l l l l c z l l l l l c l l l l l l l l l c l l l l l l l l l l l l l c l l l l l l l l l l l l l l l l l l l l l l l l l c l l l l l l l l l l l l l l l l l l l l l l l l l l l l l l l l l l l l l l l l l l l l l l l l l l l l l l l l l l l l l l l l l l l l l l l l l l l l l l l l l l l l l l l k l k v v v l l l k h c v v / l l l l ' _ ....c l l k k l l l l l k k k k k l l l k k l l l l k l l k l k k l k l l l l l k l l l l l l l l l c v [ O.+.%.+.%.-.*.X.y & c =.%.*.*.*.*.*.*.%.%.%.%.*.*.%.%.@.%.+.@.",
"[ 2.6X6X9X9X9XeXsXtXeXtXsXsXsXaXaXaXaXaXaXs.& & ) hXhXhXhXhXhXhX9Xr.s.6XsXsXhX2Xp.s.s.s.s.s.s.:Xs.s.s.s.s.s.s.s.s.s.s.;Xs.;X:X;X;Xs.:X:X;X;X:Xs.:Xs.s.a.;Xp.9.wXuX,X>XwXrXqXa.p.s.s.s.s.s.s.s.s.s.s.s.s.s.s.s.s.;X:Xs.y.p.p.:X;X3X<Xa.q.y.q.r.p.p.p.p.p.p.p.p.p.p.p.p.p.p.p.p.p.a.p.p.p.p.p.p.a.p.p.p.p.p.p.p.p.a.p.p.a.a.s.a.a.a.s.s.s.s.s.s.s.s.s.s.s.s.s.s.s.a.a.a.a.s.a.s.s.a.a.s.a.s.a.p.s.a.s.s.a.s.s.s.s.s.a.a.a.a.a.s.s.a.a.s.s.s.s.p.a.a.p.s.a.s.s.p.s.a.s.s.a.s.a.p.a.s.s.a.a.a.a.s.s.a.a.s.s.s.s.s.s.s.a.a.a.a.a.a.a.p.p.s.a.s.s.a.s.a.a.s.s.s.s.s.a.a.s.s.s.s.a.s.s.a.a.a.p.p.a.a.a.s.a.a.a.a.a.a.a.r.r.r.r.r.r.r.r.r.r.r.p.p.:X>Xr.a.:Xs.s.s.;Xs.s.;Xs.:X;Xs.s.s.s.s.s.s.s.s.s.p.a.a.y.r.e.%.o.$...( l c l l l l l l l l l z l l l l l l l l l l l l l l l l l l l l l l l l l l l l l l l l l l l l l l l l l l l l l l l l l l l l l l l l l l l l l l l l l l l l l l l l l l l l l l l l l l l l l l l l l l l l l l l l l l l l l l l l l l l l l l l c l l l l l l l l l l l l l l l l l l l l l l l l l l l l l l l v l g k k k l l k v v l v l l ' ......( k l l l l l l l k l l l l k l l l l l l l l k l l l l l l l l l l l k k k l l l l l l l k l l k l { O.+.+.%.%.;.%.O.y & c *.%.*.*.%.%.%.*.*.*.*.%.%.%.%.%.%.%.@.+.",
"' %.;Xs.s.s.s.s.s.a.a.a.s.;X>X;X:X:X>X>X5X7.+ + ( aXsXtXtXrXtXtX3Xt.y.6XrXtXsX2Xp.a.p.a.a.s.a.a.a.a.a.a.p.p.p.r.r.r.p.a.p.p.p.p.u.u.p.p.i.r.u.r.u.r.i.p.a.r.q.<X4X>Xs.<X3X>Xs.s.p.a.s.a.p.p.p.p.p.p.p.p.p.p.a.p.p.y.i.r.a.p.p.;X>X;Xp.q.y.r.q.q.q.r.r.r.r.u.u.r.r.r.r.r.y.y.r.y.i.u.i.i.i.i.y.y.r.r.r.i.i.u.y.u.i.i.p.p.p.p.p.i.p.p.p.p.p.a.p.p.p.p.p.p.i.p.p.p.p.i.i.p.p.p.p.p.p.i.y.y.i.y.y.y.p.p.p.y.y.y.y.y.y.y.i.y.y.y.r.r.y.y.r.r.r.r.r.r.r.r.r.i.y.y.y.y.r.u.y.y.p.u.r.r.y.r.r.r.r.r.r.y.r.r.r.r.y.r.r.y.r.r.r.r.r.r.y.y.r.y.y.y.y.i.i.r.r.y.i.i.i.i.p.y.p.p.p.i.p.p.p.p.p.i.i.p.p.p.p.p.p.p.p.p.p.p.p.p.q.q.q.q.q.r.q.r.q.r.q.p.s.s.a.i.a.p.p.p.i.i.p.i.p.a.p.p.p.p.y.y.i.i.i.y.y.r.r.y.r.e.r.9.@.{ $.| ( l c l l l l l l l l l l l l l l l l l l l l l l l l l l l l l l l l l l l l l l l l l l l l l l l l l l l l l l l l l l l l l l l l l l l l l l l l l l k l l k k l l l l k l l l l l l l l l l l l l l l l l k l l l l l l l l l l l l l l l l l l l l l l l l l l l l l k l l l l l k l l l k k l l l l k l h h l k l l k k g k l l g k l v v c v ) [ [ ..( g l l l l l l l l l k k l k k k k k k k k k k k k k k g k k k k k l k k k h k k k k l l l l l k l [ ..O.X.+.%.*.*.%.e $ c %.%.+.X.X.+.O.+.@.@.+.O.O.O.+.+.O.O.X.O.",
") u q y y q q 9 9 9 = = = 3 3 3 9 9 9 9 = = 2 * 9 9 u u u u f f f g k k k k k k l k k l l l l l l l l l l l c c l l l c l l l l l l l l l l l l l l c l v ' ' v c v v l l l ( v v v v c c l l l l c c l l l l v v l l ( [ ( / ( z v l l l l l l l l l l l l l l l l l l l l l l l l l l l l l l l l l l l l l l l l l l l l l l l l l z z z v c l z z l l l l c l l l l l l l l l l l l l l l l l l l l l l l l l l l l l l l l l l l l l l l l l l l l l l l l l k l l l l l l l l l l l l l l l l l l l l l k k l l l l l k l l l l l l l l l l l l l l l l l l l l l l l l l l l l l c l l l l l l l l l l z l l l l l l l v c v v v / / ( v l l l l l l l l l l l l l l l l l l l l l l l l l k k l k g k g f u d u u u y u u u u u u u u y y u y y y y y y y y y u y u y u y u u y u y y y y y u y y y y u y y y y u y y y y u y y y y y y y y y y y y y y y y y y y y y y y y y q y y y y y y y y y y y y y y y y y y y y y y y y y y y y y y y y y y u y y y y u y y y y y y y y y y y y y y y y y y y y y y y y y y y y y y y y y y u u u y y y y y y u u u f f f f f u y y y y y y y y y q q y y y y y y y y y y y y y y y q y q y y y q y y y y q y y y y y y y y q y u u u f f f g g i y = & * - 9 9 9 9 9 9 9 e e e 9 9 q y e y y e y ",
"v y 3 3 3 = * * * % & & & & * * * = = * = = * & * * 3 3 9 = 9 9 3 3 3 3 9 9 9 q y e e e 9 y y y y q y y y y u u f y y u u f u u u u u u u u u f u u g u f f u i y u y y y y y q q q q y y y y y u u u u y u y y u y f f f y e y q y y y y y y y y y y y y y y y y y y y y y y y y y y y u y q y y y y y y y y y y y y y y q q q q q q q q y y y q q q y y y y y y y y y y y y y y y y y y y y y y y y u y y y y u y y y y y y y y y y y y y u y u q y u y y y y y y y q y y y y y y y y q q q q q y y q y y y y y y q y q y e y y y q q y y y y q q q y y y q q e q e q y y q y y y y y q y y 9 y q y y y y e y y q y y q q y y y y y y y y y u y y y y y y y y y y y u u u u u u y u u u u y y u u y y y q y y q q q q q q e y y y y y y y y y y y y e e e y y e 9 q y q q q q q e e q q q q q 9 q q q q 9 q q q q q 9 q q q q 9 q q q q q 9 9 q 9 9 e e q q 9 9 9 9 q q e 9 9 9 e q q 9 9 9 9 9 9 q q q q 9 e q q q q e e e q q q e 9 e q q e q q q q e y y q e y q y q q y y y y y e y y y y y y y y y y y y y y y y y y y y y q y y e q y y y y e e e e e y q e y y y e e y e 9 9 q q 9 9 9 9 9 9 9 q q q 9 9 9 q 9 9 9 9 9 9 9 9 9 9 9 9 9 9 9 q q q q 9 9 9 9 9 y q 9 9 q e y e e 9 3 3 3 = & & & & & & & & $ & & & * * & * * * * = = = = 3 ",
"' u y k k k k k k k k k l k k l c v v c v v l k g 9 9 y 9 9 y y 9 9 9 y y q q y e y y y y y y y y y y y u y u u f f u u f f f u f f f u f f f u g l l g k g u u u u f f u u u f f d f f f f f f f g f d f f f f u f l f u y y y y y y y y y y y y y y y y u u u u y y y y u u u u y y u u u u u u u u u u y u u y u u u u u u u u u u u u u u u u u u y y y u y y y q y y y y y y y q q q y q y y y y q q q q q q q q q e 9 9 9 q q 9 9 9 9 9 9 9 9 9 9 9 9 9 9 q 9 9 9 q q 9 q 9 q q 9 q 9 q 9 9 9 9 q 9 9 9 9 q 9 9 9 9 9 q q q q q q q q q q q q q q e q q q q q q q y y e y q q q q y e q q q q q q q q 9 q q q q q q q q y y y y y y y e q q y q y y e y y y y q y e q q q y y y y y y y y y y y y y q y y 9 q q q q y y y y y y y y y y y y y y y y y y q y q y y y y y q y y y e y q q q 9 q q y q q q q q 9 q q q y e 9 e y q q q e q y q q q e e 9 q q 9 q 9 q q e 9 9 9 e e q 9 9 q 9 9 9 q q q e e e 9 q q y y e y q 9 9 y e e q q q q q q y y y q e e q q y y y y y y q y y y y y y y y y y y q q y y y y y y e y y y y y y y e y y y y y y y y y y y y y y y y y y y 9 e q q e 9 9 9 9 9 e 9 q 9 9 9 q 9 9 q 9 9 9 9 9 9 9 9 q 9 9 9 9 q 9 q y 9 9 9 9 y e q q 9 9 9 9 e 9 9 9 3 3 = * & * * = * * & * * * * * = = = = 3 3 3 3 9 9 9 ",
") :.hXhXhXfXfXfXfXhXhXhXhXkXjXkXlXlXlXxXcXxXlXtX9X2XX.3 q 9 3 q q q y q y y y y y y y y y u u u y y y y u f k g f u y u g f f f f g f f f g g f l / c c / l y y u y u u f u u g g f g g g g g f f d f f l k l / / l v l l k g g g g g g g g g g g g g f g g g g g g g g g f f f f f g g g g k k k k l l l l l l l l l l l l l l l l l l l l l l l l l l l l l l l l l l l l l l l l l l c l l l l l l l c c c l c c c c c c c c c l c l l c c c c l l l l c l l l l c c c l c c l c l l v v l l l c c c c c c l z v l c v l c c c v c c c v l c c c c c c c l v l l c l v v c c l l c c v c l c l l c v l v z l l l l l l l k k k k k l k k k k k k k k k g g k k j k k g k k k k k l k k k k l k k l k g k g k k k f f u y y u y y y y y q y y y y y y y y y y y y y y y y y y y y y y y y y y y y y q y y y y y y y y q q y q q y y y q e y y y y q y y y q y e q y y y y y q y y y e e q q y y y y y q e y e y q y y y y y y y y e q y y y q e y y y y y y y y y y y y y q y y y y y y y y y y y y u f f u f g f f g g g u y e y y q y y y y y y y y y y y y y y y y y y y y y q 9 q 9 q e y q q e q q q q q q q q e q q 9 9 q 9 q q 9 9 q 9 y q 9 9 q e y q 9 9 q e q q 9 9 9 9 q y 9 9 9 3 k ' [ '  .' ' ' ' ' ' ' [ ......[ { ......O.O.X.X.",
"[ r.bXlXlXlXlXkXlXxXlXlXlXlXxXxXzXcXcXlXlXbXbXwXs.4X8.3 3 3 9 q y q q y y y y y y y y y y y y y u u u g u f k g g u u u g g g g g g g g g g g g u y y f f u f f y y y f c g f u u f f f f f f f f k / / ( ) ( _ O.+.O.k l / v v c c c c v v / v v / / / / / ) ( / ( ) / ( ( / ) c g k l g [ ..[ ....[ { { { { { ........{ { ..{ { ..{ { ....{ ..........{ ................................O...O.O.O.O.O.O.O...O.o.o.O.O.......O.O.O.O.O...O...O.....O.O.O...O...........O.O.O...O.O.O.O.....O...o.O.O.O.O.O...O.O.O.O.O.O.O.O.O.O.O.O.O.O.O.O.O.O.O.O.O.O...O.O.+.O.+.+.O.@.+.O.O.O.O.O.O.O.O.O.O.+.+.O.O.O.O.O.[ [ [ [ [ { [ [ [ [ { [ [ [ [ [ { { { ........{ [ [ ..[ [ ................{ { ......[ [ [ ....) ' ) k k l g g l g f y y y y y y y y y y y y y y y y y y y y y y y y y y y y y y y y y y y y y y y y y y y y y y y y y y y y y y y y e y y y y y y y e y y y y y y y y y y y y y y y y y y y y y y y y y y y y y y y e e y y y y y y y y y y y y y y y y y y y y y y y y y u y y u u c v / ( ) / / / ( ( v ( k e y e e y y y y y y e e y y y y y y y y y y y y y y y y y y y y y y e e y q y q y e 9 y y y y e e q e y y y y y e y q y y 9 q y y q q q y y y y q e e q e 9 3 3 = ) *.%.*.*.%.%.+.%.%.%.%.%.*.*.*.%.*.*.:.:.:.2.*.%.",
"..i.cXcXlXlXhXlXlXlXlXlXlXxXxXxXcXcXcXxXcXcXlX9X>X2X4.9 9 9 3 9 9 q q q q y q q q q y y y y y y y q y y y y u y g f g g f f g g g k g g g g f u u u u u u u u u u u y f l u y u u u u u u u f g k ( ' ' ' ( / [ *.%.[ v v / / / v v / / v / v / / / / / / / ( / ( ) ( v ( ) v [ / g h k c [ ..................O.O.O.O.O.O.O.O.O.O.O.O.O.O.O.O.O.O.O.O.O.O.O...O.O.O.O.O.....O.O.O...O.O.O.O.O...O.O.O.O.O.O...O.O.O.O.O.......O.O.O.O.O.O.........{ ........O.O.O.O.O.{ O.O.O.O...O.O.O.........O.O.O.O.O.O.O.O.O.O.O.O.O.O.O.O.O.O.O.O.O.O.O.O.O.O.O.O.O.....O.%.+.+.%.+.@.+.@.+.+.+.O.O.O.+.O.+.%.+.+.+.+.O.+.[ [ [ [ [ { [ [ [ [ { { ..[ { ....{ { { ......[ [ { { [ ............O.......O.O.O.O.O.O.{ O.O.[ [ [ l l l k l k k k u y y y y y y y y y y y y y y y y y y y y y y y y y y y y y y y y y y y y y y y y y y y q y y y y y y y y y y y y y y y y y y y y y y y y y y y y y y y y y y y y y y y y y y y y y y y y y y y e y y y y y y y y y y y y y y y y y y y y y y y y y u u y u u u c ( / ( ) / ) ( ( ) v v j e y e e y y y y y y y y y y y y y y y y y y y y y e y e y y e y q 9 q e y q y q q e e e y y y q q q y y y y y y y q q y u y y y y y y y y y y y q q q 9 3 3 3 3 3 v O.%.%.%.%.+.O.@.+.%.%.+.@.@.%.*.%.*.:.:.:.2.*.%.",
"[ y.vXlXlXhXgXsXsXsXgXhXhXhXgXgXhXjXlXxXcXlXgXa.a.a.O.3 3 3 3 3 & 9 y q y q e e y y y y u y y y y y y y y y y u g f f u k k g g g g g f g k k u u u y u u u f f f f u u f u u g u u f f f f d u g ( l c ( ( / v [ ' / ( ( / / / / / / / / / / / ( ( ( ( ( ( ( ( ( ) ' ) ' ' ) [ c c c k / ..[ ................O.............{ ..{ { ..................................................O.O.O.....O.O.O.O.O.O.O.....O.O.O.O.O.X.O...O.O.O...O.............................O...O...X.O.O.O...O.....O.O.O.O.O.O.O.......O.O.O.O.O.O.O.O.O.O.O.O.O...O.O.O.O.O.O...X.O.O.O.+.O.O.O.O.O.O.O.O.O.O.O.O.+.+.%.@.+.O.O.+.{ { { { { ........{ ..........{ { { { [ [ { { ..{ { { { [ ........{ ..{ ....O.O.O.......{ ....{ [ ' v c c l l k k k f y y y y y y y y y y y y y y y y y y y y y q y y y y y y y y y y y y y y y y y y y y y y y y y y y y y y y y y y y y y y y y y y y y y y y y y y y y y y y y y y y y y y y y y y y y y y y y y y y y y y y y y y y q y y y y y y y y y y y y y y y u u u u f u k v v ( c v v v v v v v g y y y y e y y y y y y y y y y y y y y y y y y y y y y y y y y q y q q y y q y q q y q q q q q q q y y y y y q q q y q q y y y y y y y y y e q 9 e 9 9 9 3 * 2 3 3 v +.+.%.+.+.+.O.O.+.%.O.......X...O.%.*.*.*.*.%.%.",
"[ t.bXxXlX2Xs.s.:X;X:X<X3X3X2X<X>XrXhXhXsXhXeX{ [ [ [ y = 3 e 3 & 9 y q q q y q y y y u y y y y y u y u u u u u u f u y c l g g g f g g g l c f y u u y u u u f u u u f u y f f u f f g f f u f g / c c k f g g h c l l l l l c c l l l l c c l c c c c c v c c v v / / / v / c l v l g l / l c c c l c c l c c l l l l l c l l l l l l l l l l l c c c c l l c c c c c l l l l l l c l c c c c c c c c c c c c c c c v c v c v v c c c c v c c c c c v v v v v c c c c v v c c v v v v v v c v c v v v v v c v v c v v v v v v v v v v / v v v v c v / v v c v c v v v v v v v v v v / v v v v v / / / v v v v v v v v c v v v c v c v v v v v v v v v v v v v v v v c c v v c v v v v c v v c c v c c v v c c l l c l l k k k k g f y y y y y y y y y y y y y y y y y y y y y y y y y y y y y y y y y y y y y y y y y y y y y y y y y y y y y y y y y y y y y y y y y y y y y y y y y y y y y y y y y y y y y y y y y y y y y y y y y y e y y y y y y y y y y y y y y y y y y y y y y u f f u g g k u u f u i f f f u i u u y y y y y y y y y y y y y y y y y y y y y y y y y y y y y y y y y y y y e y y y y y y y y y y y y e y q y e y q q y q q q q q e y e y y y y y 9 e e 3 y y 9 e 9 3 v %.%.%.X.....[ [ ..[ ' ) ( ' ' / ..*.O.' v ..%.O.",
"[ t.bXvXlX;Xs.>Xs.s.s.>X3X<X,X,Xs.eXhXgXsXgX9X+.[ { [ y 9 9 y q 9 q q 9 9 y q q y y y y y y y y y y u u u y u y y g y 9 k k g g g f g g f k l u y u u y y u u u u y u u y u u u y y u u u u u u f l ( v g y f l k l l k k l l l l l k k k k k g g g g k k k k k k k k g k k k f g k j g g k g g g g g g g g g g j k g g g k k k k k k l k k k k k k k k k k k k k k k k k k k k k k k k k k k k k k k k k k k k k k k k k k k k g g g g g g g g g k k k j g g j g g g g g g g g f g g g g g g g g g g g g g g f g g g g g k k g k g g g g g k g j j g g k g g k g k k k k k k k k k k k k g g g g k k g h g g k f f f u f u u f f g u g f f f f u u u u u u u f f f f f f f f f g g g g g g g g g g g f g f g g f g f f f g g g f g f y y y y y y y y y y y y y y y y y y y y y y y y y y y y y y y y y y y y y y y y y y y y y y y y y y y y y y y y y y y y y y y y y y y y y y y y y y y y y y y y y y y y y y y y y y y y y y y y y y y y y y y y y y q y y y y y y y y y y y y y y y u f u u f k y 9 9 q y q y y q e e e e y y q y y y y y y y y y y y y y y y y y y y q q q y e y y e q q q y y y y q e y y y e y y q q q q q q y y y y q q q q e y q 9 9 q e 9 9 9 q y y 9 9 y u y y e 9 v %.+.%...[ [ ' [ ' v ( / ( [ ' c ..*.' ( v [ O.O.",
" .t.bXvXjX>X;X2X;X>X:X<XqX<X:X>X<X9XtXeXdXpX5X%.{ O.[ q y q q q q q q q q q y y y y y y u u u u y y u u u u y u u g u y f g k k g f f g g g g f u y u u u y y f f u f f u f f f f u u u f f g g f l ` ( c y f k l l l l l l c c l l l l l k l l l k l l l l l l l l l l l k l k l k l l g l l l k k k l l l k l k l l l k l l l k k k k k k l k l l l k l l l l l l l l l l l l l l l l k k l l l l l k k k k k k k k l l k k k k g k k k k k l l k k k k g k k k k k k k k k k k k k k k k k k k k k k k g g k k k k k k k k k k k h h k k k k k k k k l l k l k k l l k l c c c c c c l l k k l l l l l l l l g k g g g g g g k g g g k g g g g g g g g g g g g k k g g g g k k k k k k k k g k k k k g g g g k k g g k k l g g k k q y u y y y u u y u u u u u y y y y y u y u u y y y u u y y y u u u u u y y y y u y y y y y y y y y y u y y y u u u u u u u u f u u y y y u u u y y y y u y y y y y y u y y u y y y y y y y y y y y y y y y y y y y y y y y y y y u u y y y u u u u f f g g g g y y y y u y y y y y y y u u y y y y y y y y y y y y y y y u y y u y y y y y y y y y y y y y y y y y y y y y y y y y y y y y y y y y y y y y y y y y e y y y y y q y 9 q y 3 3 y u y y q q v +.@.%...' [ [ ..' z v ) / ' ' v ' / l ) ( [ O.@.",
"[ t.vXxXjX>X>X2XeXdX4X,X4X,X;X>Xs.4XeX9XrX9X2X$.....[ y y y y y y q y y q q q 3 2 * * & * * * * * * * * * * * * * * = = * * * = * * * * * * * & & & & & & & & & & & & & & & & & * & & * * * * * * * * * 3 * * * & * * * * * * 2 2 * * * * * * * * * * * * * * * * * * * * * * * * * * * * * * * * * * * * * * * & & * & & & & & & & & & & & & & & & & * * * * * * * * * * * * * * * * * * * * * * * * * * * * * * * * * * * * * * * * * * * * * * * * * * * * * * * * * * * * = = * * 2 2 * = * * * * * * * * * * * * * = * * * * * * * * * * * * * * * * * * * * * * & * & & & & & & & & & & & & * * * & & * * 3 3 3 3 3 3 3 3 3 3 3 3 3 9 9 9 9 9 9 9 9 9 3 3 9 9 9 9 9 9 9 9 q 9 q 9 9 9 9 9 9 9 9 9 q q q 9 9 9 9 9 9 9 3 3 3 9 9 * & & & & & & & & * * * & & & & & & & & & & & & & & & & & & & & & & & & & & & & & & & & & & & & & & & & & & & & & & & & & & & & & & & & $ & $ $ & $ $ & & & & & & & & & & & & & & & & & & & & & & & & & & & & & & & & & * & & & * * * & * * * * * * * * * * * * = * * * * * * * & * * * * * * * * * & & * * * & & & & & & & & & & & & & & & & & & & & & & * * & & & * & * * * * * * * * * * * * * * & & & & * * & & & & & & & & & * 9 9 e 3 9 u y q u y q v +.@.@...' [ ....( l v / l / ) / ( ( ( v l [ $.O.",
"[ e.vXxXjX>X;X3XtXdX6Xs.;X;X;X>X>X9XsXuXtXeX<XO.O.{ ' y y q y y y y y y 9 q q o . o .   o o o   o o o . . o o o o . . . . . . . O . . o . o o o o . o . o . . . o o . o o o o o o o o o o o o . o o o + + o o o o o o o o o o o o o o o o o o o o o o o o o o o o o o o o o o o o o o . . . . . o o . o o . o . . . . . . . . . . . . . .   o o o o o o o o o o o o o o o o o o o o o o o + o o o o . . + + o o o + o o o o o o o o o o o o o o o o o o o o o o o o o o o o o o o o o o o o o o o o o o o o o o o o o o o o o + + + o o . o o o o o o o o o o o o o o o o o o o o o o o o o o o o . . o o o + + . . . o . . o . . o o o . . . . . . . . . . . . . o . . . . o . . . . . . o . . . . o o . o o . . o o . o o o o o . o + . . . . . . o . . . . . . . . . . . . . . . . . . . o o o o . . o o . . . o o o . . . . . . . . . . . . . . . . . o . o . . o o . . . . . . . o o . . . o o . . . o o . . . . . . . . . . . . . . . . . . o o o o o o . . . . . . o o . . . o o o o . . . . . o o o o o o o o o o o o o o o o o o o o o o . o o o o o o o o o o o o o o o o o o o o o o o o . o o o o o o o o . . . o . . . . o . o . . . o o . . . . . . . o . . e y y y y y y y u y q v +.+.+.[ ' [ [ [ ( ( c ( ( ( / l l v v z l [ +.O.",
"[ t.vXcXjX>Xs.3XpXrXa.p.a.s.;X>X;X9XsXdXsXsX>X%.....[ y y q y y y u q y q q y & o o o o o o o . o o o o o o o o o o o o o o o o + o + o o o o o o o o o o o o o o o o o o o o o o + + + o + o o o + + + + + + + + o o o o o o o o o o o o o o o o o + o o + o o o o o o o o o o o o o o o o o o o o o o o o o o o o . . . o . . . . . . . . o . o . o o o o o o o o o o o o o o o o o o o o o o o o o . o o o o o o o o o o o o o o o o o o o o o o + o o o o o o o o o o o o o o o o o o o o o o o o o o o + o o o o o o o o o o + + o o o o + o + + o + o o o o o o o o o o o o o o o o o o o o o o o + o o o . . o o o o o o o o o . . . . . . o o o o o o o o o o o o o o o o o o . o o o o o o o o o o o o o o o o o o o o o o o o o o o o o o o o o o o o o o o o o o o o o o o o o o o o o o o o o o o o o o o o o o o o o o o o o o o o o o o o o o o o o o o + o . . . . o o o o o o o . . o o o o o o o o o o o o o o o . o o o o o o o o o o o o o o o o o o o o o o o o o o o o o o o o . o o o o o o o o o o + + o o o o o o o o o o o + + o + o o o o o o o o o o o o o o o o o o o o o o o o o o o o o o o o o o o o o o o o o o o o o o o o . . o o . o o y u y u y y y y u y y v %.%.+...' ' ' ' ' ' / ' ..[ l l l l l l l [ +.%.",
"..i.nXcXlX2Xs.3XaX6Xp.s.s.s.;Xs.a.9XsXqXeX2Xs.2.O.O.{ y y y y y y y q y y u u & . o o o o o . o o   o o o . . o o o o o . o o o . . o . o o . o o o o o o . o o o o o o o o o . o o o o o o o o o o o o o o . o o o o o o o o o o o o o o o o o o o o o o o o o o o o o o o o o o o o o o o o o . . o . o o . o . . . . o o . o . . o   o o o + $ + + o . o o + o o o + + + o o o o o o o o o o o o o o o o o o o o o + + + o o o o o o o o o o o + o o o o o o o o X o o o o + o o o o o o o o o o o o o o o + + + + o o + + + o + o o + + + + + + o o + + + + o + + o o o o + o + o o + o o o .   . o o + + o . . + + + o o o o o o o o o . . . . . . o . . . . o o o o o o o . o o o o o o o . o o o o . o o o o o . . o o o o o . . . . . . . . . . . . . . .   .   . . . . . . . . . . . .         . . . . . . . .             . . . . o . . . . . . .   . . . . .             . . . . . . . . . . . .   . . . . . . . . . . . . . . . . . . . . . . . . . . . . . . . . o . . . . o o o o o o o o o o o o o o o o o o o o o o o o o o o o o o o o o o o o . . . . . . . . . . . . . . . . . . o o o o o o o o o o o o o o o o . o o o o o o o o o o o . . . . . . o q y y u y y y y u y y v %.%.%...' [ [ ( v ) / ' ` l c l l l l l l [ @.%.",
"..i.nXvXxX<Xs.a.:X;Xa.s.s.;Xs.s.s.;X<Xs.s.i.s.2...O.o.u y y y y y y y y y y u & . o o o o o     o & & * * * * = = 3 = 3 3 = 3 = = 3 3 3 3 9 3 3 3 3 9 9 3 3 9 9 9 9 3 3 3 3 3 3 3 3 3 3 3 3 3 3 3 3 3 3 3 3 3 3 3 9 9 9 9 3 3 3 3 3 3 3 3 3 3 3 9 9 9 9 9 9 3 3 9 9 9 9 9 3 9 9 3 3 3 9 9 9 9 9 9 9 9 3 9 3 3 3 3 3 3 & o o o o . o o o $ y ( ( ' g q u y y y y y y y y y y y y y y y y y y y y y y y y y y y y y y y y y y y q y y y y y q q q q q q q y y q y q q q q q q y q q y y y y y q y y y y y y q y y y y y y q y y y y y y y y y y y y y y y y y y y y y y y y y y y y y y y y y y y y = = 3 + o + = y u u u y y y y y y y y y y y y y 9 9 q q q q q q e 9 9 9 9 9 9 9 9 9 9 9 9 9 9 9 9 9 9 3 3 9 9 9 9 9 9 9 9 9 3 9 9 9 9 9 9 9 9 9 9 9 9 9 9 9 3 3 9 9 9 9 9 3 3 9 3 3 3 3 9 9 9 9 9 3 3 9 3 9 9 3 9 9 3 9 9 9 9 9 9 9 9 9 9 9 9 3 3 3 3 9 3 3 3 3 3 3 3 3 3 3 $ o o . . . . o o o & = 9 9 9 3 9 9 3 9 9 9 3 3 3 9 9 3 9 3 3 3 3 3 3 3 3 3 3 9 3 3 9 3 3 3 3 9 3 3 3 3 9 3 3 3 3 3 3 3 3 3 3 9 9 3 3 3 3 3 3 3 3 3 3 3 3 3 3 3 3 2 3 3 3 3 3 3 3 3 3 3 3 = 3 3 3 2 = = = = = * * * = = 3 3 3 3 = 3 3 3 3 3 3 3 3 3 3 3 3 3 3 3 3 = = * & o . . . o o . . + y u y y y y y y u y y v %.%.%.[ ' [ [ ( v ) ( ' c l c l l z v v c ..%.%.",
"[ i.bXcXlX>Xp.p.a.>Xs.:X;X;Xs.s.s.p.a.s.s.p.s.<.....{ u u u u u y u u y y y u & . o o o o o o o & y y u u g g g g g f u f f f f f f f f u u u u u u u u u u u u u u u f f f f f f f u u f f f f f f f u f f f f f f f u u f f f u u u u u f u f u u f u f f u f f f f f u f f u f f f f f f f f u u u u u u u u u u f & o + o . . . o & $ g [ [ } l f g g f f f f f f f f f f f f f f f d d f f f f f f f f f f f f f f f f f f u u f f f f f f f f f f f f f f f f f f f f g f f f f f g g f f f f g g g f f f g g g g g g g g g g g g g g g g f f g g g g g g g g f g f g f g g f f f f f f f u 9 9 9 & . . 9 ' ..[ l g l k k k l k k g g k k k g g g g g g g g g f g g g g g g f f f g g f f f f f f f f f g g f g g f f g g f g f f f f f g g f f g g g u f f f f f f g g g f f u u f f g i u f f f f f u u u f f f f u u u u u f u u u u u u u u u u u u u u u y u u y u & . o o . . . o + o 3 k u u f u u u u u u u u u u u u u u u u u u u u u u u u u u u u u u u u u u u u u u u u f f u u f u u u u u u u f f u u u u u u u u u u u u f u f u u u u u u u d u u u u u u u u u u u u u u u u u u u u u u u u u u u u u u u u u u u u y u y y 9 + o + o o o o o + y u y y y y y u u y y v %.%.%.[ ( ' [ ' ( ( ) [ ) l l l l v c c l [ %.%.",
"[ i.bXxXjX>Xs.a.p.s.a.;X:X;Xs.s.s.a.a.s.a.a.a.=.{ ..[ u u u u u y y u u u u u & . o X o o X + + 3 9 y u u u u u u u u u u u u u y u u u u u u u y u u u u u u u u u u u u u u u u u u u u u u d d u u u u u u u u u u u u u u u u y u u u u u u u u u u u u u u u u u u u u u u u u u u u f d u u u u u u u u y u u y & o o o . o o o + o i ' ' [ c f f f f f f f f f f f f f f f f f f f f d f f u f f f u f f f f f f f f f f f f f f f f u f f f f f f f f f f f f f f f f f f f f f f f f f f f f f f f f f f f f f f f f f f f f f f f f f f f f f f f f f f f f f f f f u f u f f f f f f y 9 3 9 & o + 9 ' ....c g g g g g k l g g g g j g g f f f f f f f f f f f f f f f f f f f f f f f f f u f u f f f f f f f f g f f f u f f u f f f f f f f f f f f f f f g u f u u u u u u u u u u u f f f u u u u f u u u u u u u u u u u u u u u u u u u u u u y y y y u y y & . o o o o o o + o * l f y y u y u u u u u u u y u u u u u u u u u u u u u u u u u u u u u u u u u u u u y y u u y u u u u u u u u u u u u u u u u u u u u u u u u u u u u u u u u u u u u u u u u u u u u u u u u u u u u u u u u u u u u u u u u y y y u y y y y y 9 9 & + + o . . . o + q u y u u y y u u y y v %.%.+.[ ' [ ' ' ( ( ' [ ' v l z l c z l l [ %.%.",
"..i.vXxXlX<Xa.a.s.s.;Xa.a.s.s.s.s.s.s.a.p.a.s.=.....{ u u u u u u y u u u u u & . o   o   o + o y 9 9 u q y y u u y y y y y u y y y y u u u u y y y y y y y u u y y y y u y u u u u u u u u u u u u u f u u u u u u u u u u u u u u u u u u u u u u u u u u u u u u u u u u u u u u u u u u f u u u u u u u u u y u u = & * o . . o q y u c ' ..{ l g g f f f f f f u f f u f f d f f f f f f f f f f f f f f f f f g g f f f f f f g g f f f g f f f f f f g g f f f g f f f f f f g g g f f g g f f f f f f g g f f f f g f f f f f f f f g f f f f f f f f f f f f f f u u u u f f u u f f f y q 9 e & + + 9 ' X.O./ l k g g g g g g g g f g g f f f f f f f f f f f f f f f f f f f u f f f f f f u f f f f g f f u u f f f f f f f f f f u f f f u f u u f u u u u u u u u u u u u u u u u u u u u u u u u u u u u u u u u u u u u u u u y u u y u u u u u u y y u f u u * + o .   . o + & & = k f u u y y y y y u u u u u u u u u y y y u u u u u u u u u u u u u u u u u u u u u u u u u u u u y u u u u u u u u y y u u u u u u u u u u u u u u u u u y u u u u y y y u u y y y y y u y y u u u u u u y u u u u y y y y y y y y y y u y e q y y 9 $ $ + . . . . + y u y y y y y u u y y v %.%.+.[ [ [ ) ' ' / l v / v v c l l z l l [ %.%.",
"..i.bXxXlX2Xp.:X2X>Xa.a.p.a.s.s.a.a.a.a.a.s.s.2.O.O.{ u u y u u d u u u u u u & . o   o . o $ @ 9 q e y 9 9 q y y y y y u u y y y y y u y y y u y u y u y u u u u y y y u u u u u u u u u u u u u u u u u u u u u u u u f f u u u u u u u u u u u f d u u u u u u u u u u f u u f f f u u u f u u u u u u u u u u u u u u f &   . & l k k ) [ [ [ l d f f f f f f u f f f f f f f f f f f f f f f f f f f f f g g f f f f f f f f f f f f f f f f f f f f f f f f f f f f f f f f f f f f f f f f f f f f f f f g f f f f g f g f g f g g f f f f f f f f f f f f f f f f f f f f f f u u u f f y y e y * + + y ' +.O.( k l g k k k g k f f g k g g f f f f f f f f f f f f f f f f f f f f f f f f u f f f f f u u u f f f f f f f f f f u f f f u f u u u u u u u u u u u u u u u u u u u u u u u u u u u u u u u u u u u u u u u u u u u u u u u u u u u u u y y y y u u u 9 y e 2 .   o g v v v u y y y y y y y y y y u y y y u u u y u u u u u u u y u u u u y u u u u u y u u u u u u u u u u u u u u u u u u u u u u u u u u u u u u u u u u u u u u u u u y u u y y y y u y y y u y y y y y y y y y y y y u y y y y y y q y q q y u u y 9 3 e y 9 o . o . . . . o e u y y y y y u u y y v %.%.@.[ [ ' ' [ ' v l v v l v z v z z z l [ %.%.",
"{ i.vXcXlX6XeXaXtXrXs.s.a.s.a.a.a.a.a.a.a.a.;X2.O.O...u u u u u u u u u u u u +   .   + * * 9 q 9 u u y q y y y u y y y u y y y y y u u y y y y u u u u u y y u u u u u u u u u y y u u u u u u u u u u u u u u u u u u u u u u u u f u u u u u u u d u u u f f u u u u u u f f u f f f f f f f u u u u u u u u u u u u u u * . . & h j k / [ ' ( g d f f f f f f d y q y y q u f u f f f f f f f f f f f f f f g f f f g f f f f f f f f g f f g f f f f f f f f f f f f f f f f f f f f f f f f f f f f f f g f f f f g g f f f g g g g f g g g f f f f f f f f f f u f y q q u d f u f f u f f u e u * + $ f ' X...( l l k g f g y y q 3 y f f g f f f f f f f f f f f f f f f f f f f f f f f f f u f f f f f u f f f f f u f f u f f f f f f f f u f f f f u u u u u u u u u u u u u u u u u u u u u u u u u u u u u u u u u u u u u u y y q y e q y y y y y y u u y u u 9 9 e 3 o . o k v ( v u y y u u u u y u u u u u u y u u u y y u u u y u u u u u u u u u u u u u u u u u u u u u u u y u u u u u u u u y y y u u u u y u u u u u u u u u u u u u u y u u u y y y u y y y y y u y y y y y y y y y y y y y y y y y 9 9 e 9 3 3 y 9 9 9 3 q y y 9 & & & + o o o y u y y y y y u u y y v %.%.+.[ ' [ ' ' ( v v z l z v z l z z z l [ %.%.",
"{ i.vXcXlX9XtXrXeXeXs.s.p.s.a.a.a.a.s.s.a.a.s.2...{ [ u y y u u u u u u u u u +       2 f y y u y y y y q q y y 9 3 * 2 3 q y q y y y u y y y y u y y y y u y y y y y y y y y y y y y y u u u y u u u y y u y u y y u y y y u u u u u u u u u u u u y u u u u u u y u u u u u u u u y u u u u u u u u y y y y u y y y y y d * . . & l k k v ' ' ( g f f f f u u f d 3 3 3 3 3 q u u u u f f f f u u f f f f f f f f f f f u f u f f f f f f f f f f u f f f f f f f f f f f f f f f f f f f f f f f f f f f f f f f f f f f f f f f f f f f f f g f f f f f f f f f d f y * = * q q y y f f f g f u e y & o o f [ +.O.) h l f g g f 9 3 9 3 9 q u f f f f f f f f u f f u u f f f f f f f f f f f f f u f f f u f u u u u f u u u u u u f u f f u u u u u u u u f u u u u u u u u u u u u u u u u u u u u u u u u u u u u u u u u u u u y y u 9 * * * * q y q q y y u u y u u 9 9 q 3 o . + g ) / c y y y y y y u u y u u u u u u y u u y u u u y u u y y u u u u u u u y u u y u u u u u u u u y y u u y y y y u u y y y y u u u y y u y y u y u u u u u u u y y u y y y y y y y y y y y y y y y y y y y y y y y y y y y y y q 3 * * & * e 9 q y y y y u y 9 y q o o o o 9 y u u y y y u u y y c %.%.%.' l / / c v c c l l l l l l l l l l [ %.@.",
"O.i.cXcXlX9X9XsXaX2Xp.s.p.a.a.a.a.a.a.s.a.a.s.2...[ ' u u u u u u u u u u u u +   .   3 y y y q y y 3 9 = 9 u y * * * * & q u 9 q e y y q y y y y q q q q q q q y q q q q q q q q q y q q q y y y q q q q q q q q q q y q q q q q q y y y q y y q q q q q y y y y y y y y y y y y y y y q q q q y y y y y y y q y y y y y y = . . & k k k / ) ) ) l f f f u u f f f 9 3 * 2 = q u f u y u u f f f u u u u u u u u f u u u u u u u u u u u u u d d u u u u u u u u d u u u u u u u u f u u f f f f u f f f f f f f f f f f f f f f f f f f f f f f f f f f f f f u f f f q 3 * 3 q q u f f f k k f u y y & o + j [ +.X.) l l d k g f e 9 3 9 3 y f y g f d f f f f f f d u u u d u u u u u d f u u u u u u u u u u u u u u u u u u u u u u u u u u u u u u u u u u u u u u u u u y u u u u u u u u u u u u u u u u u u u u u u u y u u y u f f 9 2 * * = 9 y y y y y u u y u y 9 9 9 3 o o o k ) v c y y y y y y y y y y y y q q y q y y y y y q y y y y y y y y y y y y y y y y y y y y y y y y y y y y y y q q y y e e e y y e y e q y y y 9 y y e y q q q q y q q q y q q q q 9 9 q y q q q q q q q q q q q q q q q q q q u y 2 * = * 3 9 9 q y y y y y 9 y y q + . . . 9 y u y y y y u u y y v %.%.%.( c c ^ c l l c c v z l l c l c v l [ %.%.",
"O.i.cXxXxX9X>X2X<X>Xs.s.a.s.s.s.a.s.a.a.s.s.s.2.{ ' ' u y u u u u u u u u u u @   o . q u y u y 9 9 2 3 3 3 9 3 9 y u y q 9 y y q q e q q q q y y q q q 9 9 q q q 9 9 9 9 9 q q q q q 9 9 q q q 9 9 q q q q q 9 q q q q q q q q q q q q q q q q q q q q q q q q q q q q q q q y q q q q q q q q y y y e q q q q q y y q y y = . . & l k k ) ' ' ) k f f f y u 9 q g l l l l l l y y u y f f d d u u u u u u u u u u u u u u u u u y u u u u u u u u u u u u d d y u u u u u u u u u u y u f f f u u f u f f f f f f f f f f f f f f f f f f f f f f f f f f f f f q q u l l l / / g y f g f k k f y y y & $ + k [ +.X.' k g f u u ( ( / c / / l g u y f f f f u u u d f u u u u u u u u u u f u u u u u u u u u u u u u u u u u u y u u u u u u u u u u y y y u u y y y y u u y u y u y y u y y y u y u u u y y u y u u y y y y y y y u 9 9 y k l l l l k y u u q y y y y u u 9 9 e 3 + o $ k ( v l y q 9 q y q y q q q q q q q q e q q q q q q q y y q q q y q y q q q q q y y y q y q q q 9 q y y q q e q q 9 9 9 9 9 e 9 9 9 9 e 9 e y y 9 9 9 9 e q q 9 9 9 9 9 9 9 q q 9 9 9 9 9 9 9 9 9 9 9 9 9 9 9 9 9 9 9 9 9 q 9 3 3 9 y u f g u 9 3 3 3 9 3 u u y f u y + . o o 9 u u y y y y u u y y c %.%.+.( l l z z l z v c c z l l c c z l l [ %.%.",
"O.p.cXxXlX3X;X;X;X6X3X;X;Xs.s.s.a.s.s.p.p.a.s.2.[ [ ' u u u u u u u u u u u u @ . . . y / k k f u g q 3 9 3 * 9 g g f f g u 3 3 9 9 y y q q q y y y y q 9 9 q q q q q y e q q q y q q q q q q q q y e q q q q q q q q q q q y q q q q q q q q q y y q q q q q q q q q q q q q y y q q q q q q q q q y y y q y q y y y q y u = . . & k k k ) ' ' ) g u f u y u 3 = k / / ( ( ( / q 3 y u u u u u u u u u u u u u u u u u u u u u u u u u u u u u u u u u u d u d u f u d u u u f u u f u u f d u f u u u f f u f f f f f f f f f f f f f f f f u f u u u f f u u f 3 = f ( [ [ { { [ u 9 f f f g f y y 9 & & & k [ +.X.[ l k f 9 y ` [ [ { [ [ l 3 3 u u u u u u u u u u u u u u u u u u y u u u u u u u u u u u u u u u u u u y u u u u u y u u u u u y y y u u u u y y y u y u y y y u u u y y y u u u y y u u y y u u y y u y y y y y 3 = e v / / / / / u = 9 9 y y y y u u 9 9 e = o . o g / v l 9 q 9 q q q q y q q y y q q 9 q q y q q q q q y y q q y y q q y e e e q q y y 9 q y q 9 q y e y q q y y q 9 9 9 e e e q 9 9 9 9 q 9 e q q q q e q y q q q q q q e e q q q 9 9 9 9 9 9 9 9 9 9 9 9 9 9 9 9 9 9 9 q y q = * 9 g f f g k u = = = = 3 u u u u g u + o o + y u u u u u y u u y y c %.%.@.( l l l z z z v l l z l l l l l l l [ %.%.",
"O.i.cXvXlX3X>Xs.:X9X9X:Xa.a.a.a.p.a.s.p.a.a.;X<.[ [ ' u u u u u u u u u u u u & . . . y / l k l l l y 3 3 3 3 y g k f f f f 2 2 3 3 y y y y y u y q y u y y y y y y y y y y y y y y y y y u u u u u u y u u u u u y y u u y u u f f d u u u f f f f f u f u f f f f f u f f f f f f f f f f f f f f f f g f f f f f f g g g 3 . . & k k k ) ' ' ' l f f g g d 9 3 l / ( ( ( / l e = y k k g k k g g g g g g g g g g k k g k k g g k k g k k k k g k g g k l l g l l l l l l l k l l l l l l l l l l l l l k k l l l l l l c l l c c c c c c l l c c l c l l c l l q = g ( | O.{ [ ( u 9 q k k l f y y 9 & & + k [ +.+...c / l 9 e ( [ [ [ [ ( l 3 * y g f f g f f g g g g g g g g g g g g g g g g g g g g g g g f f g f f f f f f f f f f f u f u f g f f f f f g f f f f f f f f u u f f u u u u u f f f f f u f f f g f f f f f f f f 9 * y v v / / c v u + 3 9 y y u y y u q 9 9 3 o o o k ) ( v u y u u u u y y u u u u u u u u u u u u u y u u u u u u y u y u u u y u u u y u y y q q q y y y y y y y e q q y u y y y y y y y y y y y y y y y y y y y y y y y y y y y y y y y y y y y y y y y e y y y y y y y y y q 3 = y f f g g g f = = 3 = 3 f u g g f f + o o + y u u u u u u f f y y v %.%.%.) l l l z z z l l l l l l z l l l l [ %.@.",
"O.i.cXbXxX3Xs.;X>XeXrX:Xa.s.a.a.p.p.p.a.s.a.s.<.[ ' ) u y y u u u u u u u u u & . o . y / k f k k k y 9 9 2 3 u g f g g u f 3 2 3 9 y y u f y y y q u f y u u u u f u f u f f f f f f f f f f f f f f f f f f f f f f f f f f f g f f g f f f f g g g g g g g g g g g k g g k g g g g g g g k k k k k g k k k k l k l l l l 9 . o & l k k ) [ [ [ / l l l l g 9 3 l ( ) ( ( ( / y 3 u v l l l l l l l l l l l l l l l l l l l l l l l l l l l l l l l l l l l l l l l l l l l l l l l l l l l l l c l l l l l l / / ( ( ( ( ( ( ( ( ( ( ( ( ( ( ( ( ( ( ( ( ( ( ( y * u ] { ..{ [ ` u e u v / / k y u 9 & $ + k [ %.%...v ( / e 9 ( [ [ _ ( ( c 3 2 f / c c / c c c c v / / c v v v v c / v c / v v v v l v c l l l l l l l k k k k l l l k k l l k k k k l k k l k k k k k k k k k k k k k k k k k k k k k k k k k k k k k k k k k l g 9 * y / v c / / v g & 3 f g f g u y u e 9 q 3 o o o k ' ) ) k g g g g g g g f g g g g g g g g f g f g g g g g g g g g g g g f g g f g g g f g u y u y u u u f u u u y y e u f f f y y y u u u u u u u u u u u u u u u u u u u u u u u y y y y y y y y y y y y y y y y y y y y y q 2 = y f f g f u f 9 2 e 3 9 g f f g g f + o o o e y u f u u u f f u y c %.%.@.) l c l z z l l l l l l z l l l l l [ @.@.",
"O.a.vXvXlX2Xa.;X>X6X6X;Xs.s.a.a.s.a.a.p.a.a.;X<.[ [ ' f u u u u u u u u u u d & . . . y / l g k k k y 9 y 9 9 u g f g f f f 3 3 3 9 q y y u y y u q u f y u u f f f f f f f f f f f f f f f f f f f f f f f f f f f f f f f u d f f f g f g g g g g g g f g g g g g g g g g g k g g g g k g g g k g g g g g k k g g l k l l 9 . o & l l l ) [ [ [ v l c l l l 9 3 c ( / ) / ( ( q 3 y v l l l l l l l l l l l l l l l l l l l l l l l l l l l l l l l l l l l l l l l l l l l l l l l l l l l z c l c l l l l l ( ( ( ( ( ( ( ( ( ( ( ( ( ( ( ( / ( ( ( / ( ( ( ( y = u [ [ ..[ ` ( 9 * f ( ( / k e u 9 & & + l  .%.%.{ v ( l 3 9 ( [ [ [ ) ' / 3 = d / v v c v v v v v / / / v v v / / / / v v v / v v v c v l l l l l l l k k k k k k l l l k l l k k l l l k k k k k k k k k k k k l k k k k k k k k k g k k k k k k k k k k k k k k 9 * y v v v / / / f & 3 k g k k g u f y 9 q 3 + o o k ) ' ( g g g g g g g g g g g g f g g g g g g g g g g g g g g g g g g g g g g g g g g f g u u u y y u u g f f u y u e u f f g y y u u u u u u u u u u u u u u u u u u f u u u i u y y y y y y y y y y y y y y y y y y y y y q * * y k g g f u f 3 * 2 3 y g g g g g f + . . o e u u u u u u u f u y v %.%.%.) l c l l l z l l l l l l l l z l l { %.@.",
"@.a.vXvXlX9X9X6X<X>Xs.s.s.s.a.s.a.a.s.s.a.p.s.<.[ [ ' f y y u u u u u u f u u & o o   y v k l l l k q 9 y e 3 9 f f f f k f 3 q e 9 y f y y u y y y u u f g u u f f f f f f f f f f f f f f f f f f f g f f f f f f f f f f f f f f k g g g g g g g g g g g g g g g g k g g g g g g g g g g g g g g g g g g g g h g l k k l 9 o o & l l l ) ' [ [ c l c l c l 9 3 l ( ' ) ( ] ( y 3 u v l l c c l l l l l l l l l l l l c l l l l l l l l l l l l l l l l l l l l l l l l l l l l l l l l l l l l l v c c ^ c / ( ( ( / ( ( ( ( ( ( ( ( ( ( ( ( ( ( ( ( ( ( ( ( ( y & y ` { { [ [ [ g 9 l ( / ( l e u 9 & & & c  .+.+.../ ( / 9 q ( ] [ [ [ [ / 9 * u / v v / / v v / / / / / / / / v / / / / / / / / / / v v l l l l l l l l k k l l l l l l k l k k k l l l l k k k k k k k g k l l k k k k k k k k k k k k k k k k k k k k l l k k k 9 * q c / / / / ( f & 3 g k k k g u f y 9 y 3 + o o l ' ' ( k g g g g g g g g g g g g g g g g g g f g g g g g g g g g g g g g g g g g g g g f f y y y u u f f f f u y y y u f f f u u u u u y u y u u u u u u u u f u u u u f u u u u y y y y y y y y y y u y y y y y y y y y y 9 = * y k g f f g g 3 * 3 9 q f g f g g g + . o o e u y u u u u u u u y c %.%.%.) l c c l l l l l l l l l l l l l l { %.%.",
"@.a.bXvXxXtXsX9X,X;Xa.a.s.s.s.s.a.p.a.a.s.a.;X<.[ [ ' f u y u u u u u u u u d & o o . y v k k l l k y q 9 9 9 9 f g g f g y q u y q u g u u u y f g u y u f u f f f f f f f f f f f f f f f g f f f f g f f g g f f f f f f f g f f f f g f g g g g g g g g g k g k g k k g g g g g k g g g g g g g k g g g g g g l l k k l 9 o o & l l k ) [ [ ' v l l l l l u u f k g k g f l l f k l l l c l l l l l l l c l l l l l l l l l l l l l l l l l l l l l l l l l l l l l l l l l l l l l l l l l l l c l / / / ( / / ( ( ( / ( ( ( ( ( ( ( ( ( ( ( / ( ( / ( ( / ( v l l v l l l / ( / l / ( / ( l y u 9 & & + c [ +.+...( / ( / l / l l v z l l l l c v v / / / v v v v / v v v v v v / / / / / / / / / / c v l l l l l l k k l k l l l l k l k k k k k k l l k k k k k k k k k k k k k k g k k k k k k k k k k g k g k k k k k k k k k u y u g y u u u g u 9 u k g g k g u f q 9 q 3 + o o l ' ' ) j g g g g g g g g g g g f g g g g g g g g g g g g g g g g g g g g g g f g g g g g f f u u f g f g g f f u u u f f f f u u u u u y u u u u u u u u i u u f u u u u u f u y y y y u u u u u u y y y y u y y y y y u y y q y 9 y u u f g y = 3 9 3 q g k g g g g $ o o o y u u f u u u u u u u c %.%.%.( l c c l l l l l l l l l l l l l l { %.@.",
"@.s.bXvXzXtXeXeX>Xa.s.s.s.s.a.a.a.a.a.p.a.a.s.2.[ ' ) f y y u u y y u u u u u & . o . y v k g l k l y y q 9 q 9 3 9 9 3 * 9 y u u y y y f f f u g k y y y f f f f f f f f f f f f f f f f f f f f f f f g f g f f f f f f f f f f f f f g g g g g k k k k g g k g g k k k k g g g k k k g g g g h h g k k g l k l l l l l l 9 o o & l k k ) ..[ [ v l l l l l c c l g 3 3 9 * y / l c l c l l l l l l l l l l l l l l l l l l l l l l l l l l c c c l l l l l l l l l l l l l l l l l l l l l l l l / / ( ( ( ( ( ( ( ( / ( ( ( ( ( ( ( ( ( ( ( ( / ( ( ( ( ( ( ( ( ( ( u 3 9 3 * g / / ( ( ( ( l y f 9 & $ $ c [ +.+.[ ( ( ( ( ( l 2 3 9 3 * f ( / / v / v / / v / / / / / / / v / v / v v v / / / / / / / c l l l l l k k k l l l l k l l k k k k k k k k l k k k k k k k k k k k k k k g k k k k k k k k l k k k g k k k k k k l k g k l k y * 3 3 = e u k k k l l k g u f q 9 e 3 + o o c ' ' ) g g g g k g g g g j j g g g g g g g g g g g g k g g g g g g g g g g g g g f g g g g g g g g g g g g g f g g g g g g g f f f f f y y y u u u f f f f i f f f u u u u f u y u y u g f g f g g f g f f f u y y y y y u u y u y 3 * = * = = 9 y y q y k k k g g g + o o . y u u f g f g u u u u c %.%.%.) l c c l l l l c l z l l l l l l l { %.%.",
"O.s.bXvXcX9X9XeX;Xs.s.s.a.s.a.s.a.a.s.a.a.a.;X2.[ [ ) u u u u u u u u u u u u & . o . y v k k l l k u y u y y y 3 3 3 2 3 y y q y y q y u u u f g g u u y u u u f f f f f f f f f f f f f f f f f f g f f f g f f f f f g g f f f f f g g g g g g g g k g k g g g g k g g g g g k k k k k k k k h l l l k g g l k l l l l l q o o * c l c ' [ [ [ v l l l l c / c / g 3 9 9 3 u c l l v c l l l l l l l l l l l l l l l l l l l l l l l l l l l l l l l l l l l l l l l l l l l l l l l l l l l c c ( ( ( ( ( ( ( ( ( ( ( ( / ( ( ( ( ( ( ( ( ( ( ( ( ( ( ( ( ( ( ( ( ( 9 * 9 9 = f / / ( ( ( ( l y u 9 & & + c  .+.+...( ( ( / ( l = 3 3 = * g ( / / / / v / / / / / / / / / v v v v / v / / / / / / / / / c l k l l l l l l l l l l k k k k k l k k k k l l l l l l l k k k k k k k k k k k k k l k k k l k l k k k k l k k k k k k k l l k y * = = 2 9 y k k k l k k g u f y 9 y 3 + o o c ' ' ) g k k k k k g g g g g g g g g g g g g g g g g k k g g g g g g g g g g g g g g g g g g g g g g g g g g f f g f f f f g f g f f f y y y y f f f f f f f g f u f f u u f u y u u u g g g f g g g g g g f y y y y y u u f u y u 9 * = * * e y u y y u k k k g g g $ . o o e u y u f g k u u u u c *.*.%.) l l l l l l l l l l l l l l l l l ..%.%.",
"+.f.bXbXvX6X,X>Xs.s.s.a.s.s.a.a.s.a.a.s.s.s.;X2.[ [ ' f u y u u u u u u u u u & . . . y v l k k l l y u y y y y q q 9 2 9 u u y u y q y q u u f f f u u u g g f g f g g g f f f f g f f f f f g f f f f f f g g f f g g k f f g f f g g g g g g g g g g g g g g g g g g g k k l g k k k k h g k l g l l k k l l l l l l k l q o o * l c c [ ....{ / l l l l l c c c l f g g k l l l l c c c c l l c l l l l l l l l l l l l l l l l l l l l l l c c l l l c l l c l l l l l c c l c l l l c c l c c ( ( ( ( ( ( ( ( ( ( ( ( ( ( ( ( / / ( ( ( ( ( ( / ( ( ( ( ( ( ( ( ( / l k g g c / ( ( ( ( ( l y u e & & + c [ +.+.[ / ( ( ( ( c k g f u y l ( / / / v / / / / / / / / / / / / / v / / / / / / / / / / / / l k l l l l l l l l l k k k l l l k l k k l k l l l k l l l k k k k k k k l k k k l k k k k k k k k k k l k k k k k k k k l k l g 9 9 9 e u g k k k k k k j u f y 9 e 3 o o o l ' ' ) k g g g g k g g k g f g g g g g g g k g g g g g k k g g g g g g g k g g g g g g g g g g g g g g g g g f g g g g g g g g g f f f y y y y f u f f f f f f f u u u u f g u u y u u f g g g f f g g f g u u y y y y u u f f u u q 3 3 9 9 y q y y y y k k g k g g + . o + y u u k k l c k u u u c *.*.%.) l l l l l l l l l l l l l l l l l [ %.%.",
"+.s.bXvXxX2Xs.>X;Xs.s.s.s.a.a.a.a.a.a.a.s.a.;X2.[ ' ' f y u u u u u u u u u u & o o . y v k k l k l y y y u y q q u q y q q y y f y q y y u u u u u u u f f f f g f g g g f f f f f f g g f f f f f f g g f f f g f g f g g f g g g g g g k g g g g g g g g g g g g g g g k k k k g g g k l l k g k k k g g g g k g l l l l q + o * c l l ' [ [ [ c c l v v l l v c c / / v / / c l v c c c l c c l l l l l l l l l l l l l l l l l l l l l l l l l c l l l l l l l l l l l l l l l l l l l l c c c ( ( ( ( ( ( ( ( ( ( ( ( ( ( ( / / / ( ( ( ( ( ( ( ( ( ( ( / / ( ( ( ( ( ( ( ( ( ( ( ( ( ( ( l y u q & & + c  .%.+.../ ( / ( / ( ( ( ( / / / / / / / / / v / / / / / / / / / / / / / / / / / / v v / / / v c c l l c c c c c c c c l l l l l l l k k l l l k k k k k k k k k k k k l l l k k k k l k k h h k k k k l k k k k k k k k l k k l l l l l l l k k l k k k g u f y 9 e 3 + o + c [ ) ) g g g g g g g k g g g g g k k g g g g g g g g g g g g g g g g g g g g k g g g g g g g g g g g g g g g g g g g g g f i g f f f f u y u u u f f f u f f f f f u u u u u u u y u u u u u f u u u u u f u u u u y y u f u u f y y 9 e u y y y y y y e k k g g g g + . o + f c c l k k l g d f u c *.*.%.' l c l l l l l l l l l l l l l l l [ @.%.",
"+.s.nXvXlX2Xs.s.s.s.s.s.a.a.a.a.s.a.a.a.a.a.;X2.[ [ ' f u u u u u u u u u u f & . o . y v k l k l l q y y u u u f f u u u y y y y y q q y u u u u u u f u u y u y u g g f f f f f f g g g f g f f f f f f f f f f f g f g g g g g g g g g g k g g k g g g k k k k g g k k k k g k g k g k k g k k g k k g g g h g g l l l c q o o * c c c ' { [ [ c l l l c l l c c v v v / z / c l l c c l l l l l l l l l l l l c l l l l l l z l l l l l l l l l l l l l l l l l l l l l l l l l c l l l l l c c ( ( ( ( ( ( ( ( ( ( ( ( ( ( ( ( ( ( ( ( ( ( ( ( ( ( ( / / ( ( ( ( ( ( ( ( ( ( ( ( ( ( ( ( ( l y f y & & + c ..%.+.[ / / ( ( ( / ( ( / / ( / / / / / / / / / / / / / / / / / / / / / / / / / v v v / / / v / / v c v v v / / v v v / l k l k l l k l l l l k k k k k k l k l l k k k k k k k k k l k k k g l k k l k k k l k l k k k k l k l l l l l l l k k l l k k g y f y 9 e 3 $ . + c ' ' ) k g g g g k g g g g g g g g g g g g g g g g g g g g g g g g g g g g g g g g g g g g g g g g g g g g g g g g g g g g f g g g f f f g f f f f f f f f u f f u y u y u u u u u u u u u u f u y y y y f i u u y y y f f u u u y y y u u u y y y y q y k h g g g g + . o o u c k k k f f f f f u c *.*.%.' l c l l l l l l l l l l l l l l l [ @.%.",
"+.>XMXbXlX2X;X;X:X:Xs.s.a.s.a.a.s.a.a.a.a.a.:X2.[ [ ' f y u u u u u u u u u f & o o . y v l l l l l y u u u u u f f u y u y q y u f y y y y f u y y y f f y y u u u f f f f f f f g f f f f g f f f g f f g f g f f f g g g g g g g g g g g g g g g g g g l l l k k k k k k k k k g g h g g g g g g l h h g g l h g g l l l y + o * c c c ' ....{ v l c l l l l l v c c v l l l c l l l l l l c l l l l l l l l z l l l l l l c l l l c l c l l l l l l l l l l l l l l l l l l l l c l c / c / / / / ( ( ( ( ( ( ( ( ( ( ( ( ( ( ( ( ( ( ( ( ( ( ( ( ( ( ( ( ( ( ( ( ( ( ( ( ( ( ( ( ( ( ( ( ( l y u y & & + c  .+.+.../ / / / ( / / ( ( ( / / / / / / / / / v v / / / / / / / / / v / / / / / / / v / / v / / / v v v v v / / / v v c c l l k k l k k k k k k k k k k k k k k k k k g k k k k k k l l l k k k k k k k k k k k k k k k k k l l l l k l l l l k l l l k k u f u 9 e 9 + . + c [ ' ) k g g g g k g g g k k g g g g g g g g g g g g g g g g g g g g g g g g g g g g g g g g g g g f g g g g g g g g g g g g g g f g g f g f f f f f g f f u f u y u u u u u y u u u u u u u u u u y y u u u u u u y u f f u y u y y y u u u y y y y y u l k g g g g + . o + i l h l k u f f f f u c *.%.%.' l l l c l l l l l l l l l l l l l ..@.%.",
"$.>XnXnXxX2Xs.s.s.;Xs.s.s.a.s.s.a.a.a.a.a.a.;X2.[ ' ' f y u u u u u u y u u f & o o   y v l l c l l u u u y y y f u u q y u q u g g g f u u f y u u u u u u u u f f f f f f f f f f g f f f f f f f g f g g g g g f g g g g g g g k g g g g h k k g k k k g g g g k k g k k g k k k l h k g k g g g h h g g g h h h l l l c y + o = c l l ' ....../ l c c l l l c l c c l l l l l c c l l l l l c l z l l l l l z l l l l l l l l l l l l l l l l l l l l / / / / / / ( / / / / / ( / ( / / / ( / ( ( ( ( ( ( ( ( ( ( ( ( ( ( ( ( ( / / ( ( ( / ( ( ( ( ( ( ( ( ( ( ( ( ( ( / / ( ( ( ( ( ( ( ( l y u y & & + l  .+.+.[ / / v / / / / / / v / / / / / / / / / / / / / / / / / v / / / / v / / / / / / / / v / / / v / v v v c v / v v v v l l l l l k k k k k k l l k k k k k k k k k k l k l k k l l l k k k k k k k k l k k l k k k k k k k l l l l k l l l l l k l l k u f u 9 e 9 + o o c [ ' ( k k g g k g g k g k g g g g g k g g g g g g g g k g g g g g g g g g g g g g g g g g g g g g g g g f g g g g g g g g g f g g g g g g g g f g g g g f f f u y y u u u u u u u u u u u u u u u y y u g f u y y u u f f u u u u u u y y y y y y y y u l k k g k g + . o + u l l c k f f f u f u c %.*.%.` l z l l l l l l l l c l l l l l l { +.%.",
"$.s.bXbXlX>Xs.s.s.s.s.s.s.a.a.s.a.a.s.a.a.s.;X2.[ [ ` f u u u u u u u u u u u & o o   y v l l l l l u y u y y u u u u y y y y g g g g g f u u u u u f u u u u u u u u g g f g f g g g g g g g g g f g g g g g g g g g g g g g g g g g g g g g g g g g k g g g g k k k g g g k k k g l h g k g g g l l h k g h l l l l l l / y + $ = l l l [ ......v l l l c c v z c v l l l l l l l l l l l l l c z l l l z l l l l l l l c l l l l l l l l c c v c l l l / ( / / ( ( / / / / / ( ( ( ( ( ( / / ( ( ( ( ( ( ( ( ( ( ( ( ( ( ( ( ( ( ( ( ( / ( ( ( ( ( ( ( ( / ( ( ( ( ( ( ( ( ( ( ( ( ( ( ( ( ( l y g y * & @ c [ +.+. ./ / v v / / / / / / / / / / / / / / / / / / / / / / / v / / / / v v / / / / / / v v v / / v v v / c c v c v v v c l l l l l l l l k k k l l l l k l k k h k k l l l l k k k k l k k k k k l k k k k k k k k k k l k l l l l l k l l l k k k k k g y f u 9 e 9 $ o o c [ ' ( k g g k k g g g g k k k k k k g g g g g g g g g g k k g g g g g g g g g g g g g g g g g g g g g g g g g g g g g g g g g g g g g f g g g f f f u f f g g g u f f u y u y u u u u u u u y u u y y f h f f u y u u u f f f u u f u u u u u y y y y y k k k k g g + . o o y c k k l g u u u f u c %.%.%.) l l l l l l l l l l l l l l l l l ..@.%.",
"$.s.bXvXlX<Xs.;Xs.s.s.s.a.s.a.a.s.a.a.a.a.a.;X2.[ [ ' f u u u f d d u u u u u & o o . y v l l l c l y u u y y u u u y y y u u g f u f g f u u u f u f u y u u u f u u f f f f f f f f f g g g g g g g g g g g g f g g g g g g k g g g g g g g k g g g g g g l g g k l l k k k k k g g k l l h l g g l l l h l l l l h l l / u + + = l c c [ ......( l c c c c c l c l l l c l l z l c l l l l c l z l l l l l l l l l l l l l l l c l l l l l l ^ c v c c / / ( ( ( ( ( ( ( / / ( / ( ( ( ( ( ( ( ( ( ( ( / ( ( ( ( ( ( ( ( ( ( ( ( ( ( ( ( ( ( ( ( ( ( ( ( ( ( ( ( ( ( ( ( ( ( ( ( ( ( ( ( ( ( l u u u * & & c  .+.+.[ / / v / / / / / ( / / / / / / v / / / / / / / / / / / / / / / / / / v / / / / / / v v / v c v v v / v v c c c c c l l l l l l l l l l l l l l l k l l l l l l l l l c c l l l k k l k k k k l l l k l k k k k k k k k k k l l l l l l k k k k k k u f u 9 e 9 $ o o c [ ' ) k k k k k g g g k k g g g k k k k g k g g g g g g g g g g g g g g g g h g g g g g g g g g g g g g g g g g g g g g g g g g g f g f g g g f f f f f f f f f g f g f u u u u u u u u u u u u u u u f f u u u u u u y u f u u u f u y u u y y y y y u k k k k g f + . . + y c c v c f y f u u u c %.*.%.) l l l l l l l l l l l l l l l l l ..@.%.",
"%.s.vXcXcX5X>X;Xs.s.s.s.a.s.s.s.s.a.a.s.a.a.;X2.[ [ ' f u y u u u u u u d u u & o o . y / c l l l l u y u u y y u u y y y y u g g f f f u u f f f d u u u u f f g f y y y u f f f f f f f f g g g g g g g g g g g g g g g g g g g h h g g g g g h k k g k k l g g g l k l h g k k k k k l k h l h h h l l l l h k l l l c / u $ $ = v c c [ ....{ / / / c c l l l l l c l c l l l z l c l c c l l c l l l l l l l l l l l l l l l l l l l z l l l l / l / / / ( ( ( / / / / ( ( ( / / / / ( ( ( ( ( ( ( ( ( ( ( ( ( ( ( ( ( ( ( ( ( ( ( ( ( ( ( / ( ( ( ( ( ( ( ( ( ( ( ( ( ( ( ( ( ( ( ( ( ( ( l u g u * & & v [ O.+.../ / v / / / / / / / v v / / / / / / / / / / / / / / / / / / / / / / / / v v / / / / v v v v v v v / / c c c c c c v v / v v c v c l l l l l l l l l l l c v l l c c l c l l k k k h k k k k l l l l k k k k k k k k k k k k l l l k k k k l k k h u f u 9 e 3 + o + c [ ' ) k h k k k g k g k g g g g g k k k g g g g k g g g g g g g g g g g g g g g g g g g g g g g g g g g g g g g g g g g g g g g f f f g g g g f f f f g g g f g f f f u u u u u u u u u u u u u u u u u y y u g f u u y u f u y y u u u u u y y y y y u k k k g g f + . o + u c l l l u u f f f u c %.*.@.( l l l l l l l l l l l l l l l l l ..@.%.",
"%.s.bXvXbX6Xs.;Xs.;Xa.s.s.s.s.s.s.s.a.s.a.a.;X2.[ [ ' u y y u u u u u u d u d & . o   y / l l k l l y y u u u u u u u u y y y y u y y y u f u f f y u u u u f f g f u u u u f g f g f f g g g f g g g g g g g g g g g g g k g g g g g g g k k g g g g g g g k l k g k k g g g k k k l l l k l g h l l h l l l l l l l l l / u + + 2 v v c [ O...../ ^ / / / c l l l c / c z l l c l z l l l l l v l l l c c l l l l l l l c l l l l l l l l l / l c l l / ( ( ( ( ( / / ( ( ( ( ( / / ( ( ( ( ( ( ( ( ( ( ( ( ( ( ( ( ( ( ( / ( ( ( ( ( ( ( ( ( ( ( ( ( ( ( ( ( ( ( ( ( ( ( ( ( ( ( ( ( ( ( ( ( l u g u * & & c [ X.X.' / / v / / / / / / / v v / / ( / / / / / / / / / / / / / / / / / / / / / v / / / / / / v v v / / v v c c c c v v c c v c c l l l c l l l l c l l l l l l c c l c c c c c l l l k l k k k k k k k k k k k k k k l k k k l l l l l l k k k k k l k h u u u 9 q 9 + o + c [ ' ( k g g k g g k k k k k k k k k k k g g g g g g g g k g g g g g g g g g g g g g g g g g g g g g g g g g g g g g g g g g g g f f g f g f f g g f g g g f f f g f g f u u u u u u u u y u y y y y u u y u f g g f u u u u u u y y u u u u u q y y y y g g l g g g + . o + u l k k l f u u u f f c %.%.@.( l l l l l l l l l l l l l l l l l ..%.%.",
"%.;XnXvXlX,Xa.s.s.s.s.s.s.s.s.s.s.s.a.s.a.a.;X2.[ [ ' f y y u u u u u u d u u & . . . q v l c l l h y u u u u u u u f f y y f u e y y y f f f f f u u u u f f g k g f f y y f g g g f g g g g g g g g g g g g g g g g g g g g g g g g g g j l k g g g g g g g g k l l k g g g g l l l l k l l h k k k l l l l l l l l v / ( f $ o 2 v / v [ O.O.O./ l / / / l l l l l c c l l l l l l l l l l l l l l l l l v l l l l l l l l l l l l l c l l c c / l / / ( ( ( ( / / / ( ( ( ( ( ( ( ( ( ( ( ( ( ( ( ( ( ( ( ( ( ( ( ( ( ( ( ( ( ( ( ( ( ( ( ( ( ( ( ( ( ( ( ( ( ( ( ( ( ( ( ( ( ( ( ( ( ( ( ( l u g u * & & v [ O.O.[ v / v / / / / / v / / / / / / / / / / / / / / ( / / / / / / / / / / / v v v v / / / v v v v / / / c / c c v v v c c c c c c c l l c c c l z l l c c c c c c c c c c c v l l l l l k k k k l l l k k k l l k l l k k k l l k l k k l k k k k l l k u u u 9 y 9 + o + c [ [ ) k k k k g g k k k k k k k k k k g k g g g g g g k k g g g g g g g g g g g g g g g g g g g g g g g g g g g g g g g g g g g g g g g g g g g g g g g g g g f f f g f u u u u q u u u u u u y u y y u u f g f g g f f f u y u y y u u u g f u y u y y l k k k g g + . o o y l j g k f f u u u f c %.%.+.) l l l l l l l l l l l l l l l l l { +.%.",
"%.s.bXvXlX>Xa.s.s.a.s.s.s.a.s.s.s.a.s.s.a.s.s.4.[ [ ' f y u u u u u u u u u d & o .   y v l l l l l y y u u u y y y q u u f g f y y y y f f g g u y u u y u f g k g u u u u g g g g g g g g g g g g k g g g g g g g g g g g g g g g g k l g g l h k k k k g g g k k g k k k l l l l k l l l g h l g l l l l l l l l l v ( ' f $ $ = v v c { O.O.X./ l / / l l l l l c l l l l l l l l l l c l z l l l l c z c l l l l l l l z l l l l l c / / / / / / / ( ( ( ( / ( / / ( ( ( ( ( ( ( ( ( ( ( ( ( ( ( ( ( ( ( ( ( ( ( ( ( ( ( ( ( ( ( ( ( ( ( ( / ( ( ( ( ( ( ( ( / ( ( ( ( ( ( ( ( ( ( ( ( ( ( l u g y * & & c [ O.O.[ / v v / / / / / / / / / / / / / / / / / / / / / / / / / / / / / / / / / v v v / / / / v v v / / / / c c c c v v c c c c c c c c c c c c c l l c l c c c l l l l c c c c l h l l l k k l l l l l g k l l l l l l k l l l l l l k k l l k k k l l k u u u 9 y 9 $ + + c [ [ ) k k k k g g k k l k g k k g g k g k g k g g g g k g k k g g g g g g g g g g g g g g g g g g g g g g g g g k g g g g g g g g g g f g g g g g g g g g g g g g g g f u u u u u u u u u u u y u y y y u g g f f y q u g f g f y u u y u g g f f f u f c k l l k g + o o . 3 9 9 9 y y f u u f u c %.%.+.( l l l l l l l l l l l l l l l l l ..+.%.",
"+.s.vXxXlX,Xa.s.s.s.s.s.a.s.a.s.s.a.a.a.a.a.;X7.[ [ ' f u u u u u u u u u u d & o .   y v l l l l k y y u u u y u y q u g f g g u y y f g f g g f u u u y u u g g f f f f f g f f g f f g g g g g g g g g g g g g g g g g g g k k k k g g k g g g k g g l l g h l k k g g k k l l l l l k g h h h g l l l l l l l l l l / ( f $ $ = c c c [ ....[ / l c l c c c l l l l z l l l l l l l l l l l l l l l l l l l l l l l l l l l c v / / / / / / / / / ( / ( / / / ( ( ( ( / / / / ( ( ( ( ( ( ( ( ( ( ( ( ( ( ( ( ( ( ( ( ( ( ( ( ( ( ( ( ( / ( ( ( ( ( ( ( ( ( ( ( ( ( ( ( ( ( ( ( ( ( ( ( ( ] l u g u * & & c ' O.X.' v c / v / / / / / / / v v / / / / / / / ( / / / / / / / / / / / / / / / v v / / / / / / / v v v v v v v c c c / c c c c c c c c c c c l l l l l l c c l l l l l c v v c l c l c c c c c c c c c c l c l c c l l k k k k l l l k l k l k k k l l k u f u 9 y 9 & o + c [ ' ) k l k k g g k k k k k g k k g g k g g k k k k g g g g g g g g g g k g g g g g g g g g g g g g g g g g k g g g g g g g g g g g g g g g f g g g g g f g g g g g g u u u f u u f u y u u y y y u y u u f f f u u y u g f g g u y y y y u u u g u u u l l l l k h + . o + = 3 3 9 9 q u u u f u c %.%.@.( l l l l l l l l l l l l l l l l l [ +.%.",
"O.s.bXxXlX<Xa.s.s.s.s.a.a.s.a.a.a.a.a.a.a.a.;X7.[ [ ' f u u u u u u u u u u u & o .   q v l l l l k u u u u u u u u u u g u f g f g f f u u f g f u u u u u f f g g g f f f f f f f f f g g g g g g g g g g g g g g g g g g g k k j k g g g g g g k g k k k l h k k l l g l g l l h k g k l h h l l l l l l l l l l h c ( ( f $ $ = c c v ......[ / l / c c z z c c l l z z l l l l l l l l l l l l l l l l l l l c / ^ l l l l / v / / / / / / ( / / / / ( ( / / ( ( ( / / / ( ( ( ( / ( ( ( ( ( ( ( ( ( ( ( ( ( ( ( ( ( ( ( ( ( ( ( ( ( ( ( ( ( ( ( ( ( ( ( ( ( ( ( ( ( ( ( ( ( ( ( ( ( ( ( _ l u g u * & & v ) O.X.' / v / / / / / / c / / / / / / / / / / / / / ( / / / / / / / / / / / / / / / / / / / / / v / v v v v v v v v / c v c v c c c l l l l c l c l l l l l c c c l c c c c c c c c c c c c v c v v v v c c c l c c c l k k l k k l l l k k l l l l l l k u f u 9 y 9 $ . + c [ [ ) k l g k k g k k k k k k g k g g k g k g g g g g g g g g g g g g g g g g g g g g g g g g k g g g g g g g g g g g g g g g g g g g g g g g g g g f g g g g g f f g u u u f y u f g g u u u y u f u u f u y u y u y u f g g f u u u y q u f u u u u f l l l k k g o . o o & 3 9 3 9 y u u u f u l %.%.+.( l l l l l l l l l l l l l l l l l [ O.%.",
"O.a.vXxXlX,Xs.s.s.s.s.a.a.a.s.a.s.a.a.s.a.a.;X4.[ [ ' f u u d u u u u u u u u & o o   y / c l c v l u u u u u u u u u u f g g f g g g d u u u f f u f f f f f f f f f f f f f f g f g g g g g g g g g g g g g g g g g g g g g g g k k k g g g g g k k k k k k h l k l l l l l l l l l l k l l l l l l l l l l l l l l / [ [ f $ $ = v v c ..O...O./ l v / / l l l v l l l l l l l l l l l l l l l c c l c c l l l l / l / / / / l / / / / ( / / / / ( / ( / / / / ( ( ( ( ( ( ( ( ( / / ( ( ( ( ( ( ( ( / ( ( ( ( ( ( ( ( ( ( ( ( ( ( ( ( ( ( ( ( ( ( ( ( ( ( ( ( ( ( ( ( ( ( ( ( ( ( ( ( ( _ ] l u g y * & & c ' O...' c / c / / c v / / / / / / / / / / / / / / / / / / / / / / / / / / v / / / / / v v v / v / / c v / / / / v v l v v v v c v c c c c c c c c c c c c c c / c c c c c l c c c c c c v c v c c c c v c c c c l c c l l l l l l k l l k k l l l l l l g u f u 9 y 3 $ o + c [ [ ) l l k k k k k g k k k k g g k k k k k g g g g g g g l g g g g g g g g g g g g g g g g g g g g g g g g g g g g g g g g g g g g g g g f g g g g g g g g g g f f g f u u u f f f g k u u u u g g f g g f y u y y y u g g g f y y u y u f f u f u u f c k l l k g + . o o 3 y y y y u i u u f y l %.%.+.) l l l l l l l l l l l l l l l l l [ O.%.",
"O.s.cXcXlX,Xa.s.s.a.a.a.a.a.s.a.s.a.a.a.a.a.;X5.[ [ [ f u u u u u u u u u u u & o o . y / v v c v l u u u u u u u u u u u f u u f g f d u u u u u f u u u u f f f f f f g g f g g g g g g g g g g g g g g g g g g g g g g g g g g k g k g g k k k g g g k k k k k k l l k h h l l l l l l k l l l l l l l l l l l l l / { { g o $ = v / c [ O.O.O.( l c c l c l l l l l l l l z l z l l l l l c l l l v l v l l ^ c / / v v ^ / / / / / / ( / / / / / / / / ( ( ( ( ( / / ( ( ( ( ( / ( ( ( ( / ( ( ( ( ( ( ( / ( ( ( ( ( ( ( ( ( ( ( ( ( ( ( ( ( ( ( ( ( ( ( ( ( ( ( ( ( ( ( ( ( ( ( ) ( ( ( [ l u g u * & & v ' ....' l / v c c / / c v v / / / / / / / / / / / / / / ( / / / / / / / / / / / / / / v / / / / v v c / c c / v v v l v c / c c c c c c c c l c v l / c c l v c c c l c l v c v c c c c c c v c c c c v v c c v c c c l l l l l l k k l k l k l k l l l k u f u 9 y 9 $ o + c [ [ ) l l k l l k k k k k k k k k g k k g k k k k g k k g k g g k k g g g g g g g g g g g g g g g g g g g g g g g g g g g g g g g g g g g g g g g g g g g g g g g g g f u u u f f f g g u u u u g g f g f u u u u y y u g g f u u u u u f u f f g g u i c l k l k k + . $ o y v g f f g g u u f f l %.%.+.( l l l l l l l l l l l l l l l l l [ +.%.",
"+.s.bXvXxX2Xa.s.s.s.a.s.s.a.s.s.s.a.a.s.s.a.;X4.[ [ [ f u u u f u u u u u f f & o o   y / c v c c c u u u u u u u u u u u u u u u f f u u u u u f u u f u f f f f f f f g g f f g g g g g g g g g g g g j g g g g g g g k k g g g g k k k k g g k g h g k k k k k k k l l l l k k l l l l l l l l l l l l l l l l l l / { { k $ $ = c / / [ O.O...( l l l c c c l l l c c l l l l l l l l l z l l c v v z c c ^ ^ / / ^ c / / / / / / / / / / / ( ( / / / ( / / / ( / / ( / / ( ( ( / ( ( / / ( ( ( ( ( ( ( ( ( ( ( ( ( ( ( ( ( ( ( ( ( ( ( ( ( ( ( ( ( ( ( ( ( ( ( ( ( ( ( ( ( ( ( ( ( ( ( ( [ c u g u * & & c ) X.X.' l c l c c c c l c v v / / / / / / / / / / / / / / / / / v / / / / / / / / / / / / / / / / / v v v c v v / v v l c v c v c c c c c c c c v c c c c l v l c c c c c c c c c c c c v v c c v c c c c / v c v v c l l l l l k k k l k l l l l l l l g u g u 9 e 9 $ o + c [ [ ) l l k l l k g k k k k k k k g g k g k k g k g g k g k g g g k k k k k k g g g g g g g g g g g g g g g g g g g g g g g g g g g g g g g g g g g g g g g g g g g g f y u u f u u f f u f u u u f f u u u f f u u u y u u u u f f f g g g f g g g g g c c k k k g o . + o u c l l f f f u u f d l %.%.O.) l l l l l l l l l l l l l l l l l ..@.+.",
"@.a.bXvXxX>Xp.a.s.s.s.s.s.a.s.s.s.s.s.s.s.s.;X5.[ { [ f u u u u u u u u d f f & o o   y ( c v c c c u u u y u u u u u u u u u u u u u u u u u u f u u u f f f f f f f f g g f f g g g g g g g g g g g g g g g g g g g g g g g g g g g g g g g g g g g g g g g g k g k h g l h g k l g l l h l l l h l h l l l l l l l v [ { k $ $ * l / v ..O.O.O./ l l l l v c c l c c l l l l l l l l l l l l l l l l c c c c ^ / / / / / / / / / / / / / / / / / / / / / / ( ( / ( / ( / ( ( ( ( ( ( ( / / / / / / ( / ( ( ( / / / / ( ( ( / ( ( ( ( ( ( ( ( ( ( ( ( ( ( ( ( ( ( ( / ( ( ( ( ( ( ( ( _ _ ( [ c u f u * + $ c ) X.X.' l c l l c c c / c / c v / / / / / / / / / / / / / / / / / / / / / / / / / / / / / v / / / / v v v v c v v c c l c v c v c c c c c c c l l c c c c c c c c l c c l l l c c c v c c c c c v c c v c v v v c v l l l l l l l l l l l l l k k k k l g u f u 9 y 9 $ + + c [ [ ) l l l l l k k h k k k k h k k k k k g k k g g g g k k g g k k k g k k k g g k g g g g g g g g g g g k g g g g g g g g g g g g g g g g g g g g g g g g g g g g g f u u u f u u f g f g f u u f u u u u f u u f f u u u u u g f f f g g g u f g f g c l k k k g + . + o u v c c g f u y y u u l %.%.+.) l l l l l l l l l l l l l l l l l [ +.%.",
"@.s.bXcXxX>Xp.s.s.s.s.s.s.s.s.s.s.s.s.a.s.s.;X4.{ { [ f u u u u u u d u u d f & o o . y / v v c v c u u u u u u u u u u u u f u u u u u u u u f g g f f f f g g g g g k l l l k l l k l l l l l l l l l l l l l k l l l l l l l l l l l l l l l l l l l l l l l l l l l l l l l l l l l l l l l l c c l l l l c l l l ) O...l $ + * / / ( O.@.%.O.( v v v v v / / c / c v / v c v / / v c / / / / / / / / / / / / / / / / / / / / / / / / / / / ( / / / ( ( / / ( / ( ( / ( / / / / ( / ( ( ( ( / / / ( ( ( ( ( ( ( / ( ( ( ( ( ( ( ( / ( ( ( ( ( / ( / ( ( ( ( / ( ( ( ( ( ( ( ( ( ( [ ] [ [ [ l f g u * $ + c ) X.X.' c v c c c c c / v c c v / / / / / / / / / / / / / / / / / / / / / / / / / / / / / v v / v / v v v v v v c v c c c v v v c c v v c v c z v / / v v / v v v / c c c c c c c c c v v c c c v v v v v c v c c c l l l l l l l l l l k k l k k l l l k u f u 9 y 9 $ o + c [ [ ) l l l l l k k g k k k k k l l l l k k k g g k k l k k k k k k k k k g k g g k k g g k g g g g g g g g g g g g g g g g g g g g g g g g g g g g g g g g g g g g g g f g f g f f f f g g g u u f u u u u f u y u f f u u u u f f u u f g f u u u u f c l k k k g $ . + o u / l k g g f u u f f l +.@.O.) l l l l l l l l l l l l l l l l l [ +.%.",
"+.s.bXvXvX2Xa.;Xs.a.s.s.s.s.s.s.s.a.s.s.s.s.;X7.{ { [ g u u u u u u u u u u u & . o . y / c v l v c u u u u u u u u u u u u u u u u f f f u u f l l g g h l l l l l l c v / / / / / / ( / ( / ( ( ( ( ( ( ( ( ( ( ( ( ( ( ( ( ( ( ( ( ( ( ( ( ( ( ( _ [ [ ] ] ] ] ( ] [ [ [ [ [ [ [ [ [ [ [ [ [ [ { [ { [ [ [ { { [ [ =.4.4.) $ $ 3 [ O.{ 2.7.9.7.O.| O.O.O.| O.| | | | O.| O.} | | O.O.| O.O.O.O.O.O.O.O.O.O.O.O.O.O.O.O.O.O.O.O.O.O.@.@.@.@.@.@.@.@.@.@.@.@.@.+.+.@.@.+.+.+.+.+.+.+.+.+.+.+.@.+.+.+.+.+.+.@.@.+.+.+.+.+.+.+.+.+.+.+.+.+.+.+.+.+.+.+.+.@.@.+.+.+.+.&.$.+.+.&.&.&.&.%.&.&.%.%.*.[ g k g * $ + ) %.4.7.*.O.O.O.+.@.@.O.@.@.O.O.+.+.+.@.+.+.+.+.O.@.$.+.+.+.+.+.O.O.+.+.O.@.@.+.O.+.+.+.@.O.O.O.+.@.@.O.O.O.O.O.O.O.O.O.O.O.| O.O.| O.O.....O.{ | { | { { { { { { [ [ [ [ / c / / v v v c v c c v v v v v c v c c v c c c c c l c c c l l l l l l l l l l g u f u 9 y 9 $ o + c [ [ ) l l l l l k l g l k k k k k k k k k k k g k k k k k k l k k k l k k k k k g g g g k k g g g g g k g g g g g g g g g g g g g g g g g g g g g g g g g g f g g g f g f j f f f u u u u u u f g f u u u u u u u u f g u u u u u u u u f f f u u u u g l k l k l g $ . o o u c l l f k h f f f u l %.%.+.[ l l l l l l l c l l l l l l l l l [ O.%.",
"+.s.bXcXxX2Xa.s.s.a.s.s.s.s.s.s.s.s.a.a.s.a.:X8.[ [ [ g d u d u u u u u u u d & . o . y ( l v l v l f u u u u u u u u u u u u u u u u f f f u f k k k l g l l l v c l l v v / / / / / ( ( ( ( ( ( ( ( ( ( ( ( ( ( ( ( ( ( ( ( ( ( ( ( ( ( ( ( ( ( _ [ [ [ ] [ [ [ [ [ [ [ [ { [ [ { { { { { { { { { { { { | { { { } [ <.8.7.[ + + 3 { O.{ 2.r.r.q.@.O.@.O.O.@.@.O.O.O.O.O.@.@.O.O.O.@.O.@.@.@.@.@.$.+.@.@.&.+.&.&.&.&.&.&.@.&.&.&.&.&.&.%.&.&.&.*.*.&.*.*.*.*.*.*.*.%.*.%.%.%.*.*.%.%.%.%.%.*.*.%.*.*.*.*.%.*.*.*.*.*.*.*.*.*.*.*.*.*.*.*.*.*.*.*.*.*.*.*.*.*.*.*.*.*.*.*.*.*.*.,.*.=.=.<.<.=.<.O.g l g * & + ` %.8.9.2.O.+.+.+.&.&.&.&.&.&.&.%.%.%.%.%.%.%.%.%.%.*.*.*.%.%.%.%.%.%.%.&.&.&.&.&.&.&.&.&.&.&.$.$.&.&.&.&.&.&.&.&.&.&.$.+.@.$.&.$.&.+.O.O.O.O.O.@.O.| | { O.O.| { { { [ { ( l c v c c c c / / / v / v v v v v c v v c v c v c c c c c c l l l l l k l l l k u f u 9 y 9 $ o + v [ [ ) l l l l l l k g g k k l k g l k k k k k g g g k k k k l k k l k k k k k g g g g g g g g k k k k k l k g g g g g g g g g g g g g g g g g g g g g g g g g g g g g g f f g f f u y u f u f g g f f u u u u u u g g f u u u u u u u u u f f f f u u g l l k l k k + o o o u c l l f k g f f u u k @.+.X.) l l l l l l c l l l l l l l l l l [ O.%.",
"O.s.nXxXlX>Xa.s.a.a.s.a.s.a.s.s.a.s.s.;X:X:X:Xq.{ [ ' f u u d u u u u u u u u & o o . y ( c v l c c u u u u u u u u u u u u u u u u f f f f u f l l l l l l l l l l l l c l / ( / / / / / / / / ( ( ( / / / / / ( ( / ( ( ( ( ( ( ( ( ( ( ( ( ( ( _ _ ( ( ( ( _ _ ) _ _ [ _ [ _ _ [ [ [ [ [ [ [ [ [ [ [ [ [ [ [ [ [ [ *.7.7.) + o = { O.{ 4.r.r.9.+.{ } o.{ } o.O.| } } } | } { | } } { O.o.| O.| O.O.O.O.O.O.O.O.O.@.O.O.O.O.O.@.@.+.@.O.O.+.+.@.@.+.+.+.@.+.+.@.@.@.+.+.+.+.+.+.+.+.+.+.+.@.@.+.+.@.@.+.+.+.@.@.@.+.+.@.+.+.@.&.&.@.@.+.%.&.@.&.&.&.+.&.$.&.&.%.%.%.&.#.%.%.%.%.%.%.%.*.*.*.=.{ g k g & + + ) %.9.w.:...O.O.+.+.@.+.+.+.+.+.+.+.+.+.@.+.+.O.O.+.+.+.+.O.+.+.+.+.+.+.O.+.+.+.+.@.@.@.@.@.+.@.@.@.+.@.+.@.O.@.O.O.O.O.O.O.O.O.O.O.O.} | { { O.O.} { { { } } } { { { [ [ / / c / l v / v / c v c / / v / c v v v c c c c c c c c c c c c c c l l l l l l g u u u 9 y 9 $ . + c [ [ ) k l l l l l g g g g k k k k g k k k l g l l g k k g g k k g k k k g g g k k g g g g g g k k k k k k k k g g g g g g g g g g k j g g g g g g g g g g g g g g g g f g g g g f u u u f f f f f f g u u u u u u f g g f y u u u u u u u f f f u u u g c c l k k k + o o . e l g g k l f y u y y k +.O.X.' l c l l l l l l l l l l l l l l l [ O.@.",
"+.s.bXcXlX>Xy.a.a.s.s.s.a.a.a.a.a.a.a.s.5X9X5Xq.{ [ ' g u u u u u u u f u u u & o o . y ( c v c c l u u u u u u u u u u u u u u u u u f f f f g g g g l l l l / / c / / / / ( ( ( [ [ [ [ [ [ [ [ [ [ [ [ [ [ [ [ [ [ [ [ [ [ [ [ [ [ [ [ [ [ [ [ [ o.O.{ } { } o...O.O.O.O.O.O.O.O.O.O.O.O.O.O.O.O.O.O.@.@.@.O.O.O.} 8.r.8.[ o o = ..+.+.q.s.s.a.=.%.*.*.*.%.*.*.*.*.*.*.*.*.*.=.=.<.=.<.*.=.<.<.2.2.2.2.2.<.2.2.2.<.2.2.<.<.2.2.2.2.<.2.<.<.2.<.<.2.<.2.<.<.<.2.2.<.<.<.<.<.<.<.2.2.2.<.<.<.<.<.<.<.<.<.<.<.<.2.2.2.2.<.<.<.2.<.<.<.2.2.2.2.2.<.<.<.2.<.2.2.2.2.2.2.2.2.2.2.2.2.2.2.2.2.2.2.2.} g l f & + o ..7.a.a.7.$.%.*.=.=.=.=.=.<.=.<.<.=.<.=.<.:.<.2.<.<.2.2.2.2.<.<.=.<.<.=.<.=.<.=.=.<.<.=.<.=.=.=.=.=.=.=.=.=.*.*.=.*.*.*.*.*.*.*.*.*.=.%.@.&.&.&.%.%.@.@.+.@.@.+.+.@.O.O.{ ( ( / v c / / / c c c l v c c c v c c v v v c c l c c c l l l l c c l l l l l l k u f u 9 y 9 $ . + v [ [ ' l l l l l l g l l h l k k k g k k l l l l l k l k g g g g k k l k g g g g g g g g g g g k g k k g k k k g g g g g g k g g g g g g g g g g g g g g g g g g g g g g g g g g f d u f f u f u f u f u y u u u y f g g f u u u u u u u u f f f u u u f c k k l k k + o o . e g u f k k k u u y y k +.O.X.) l c c l l l l l l l l l l l l l l ) ..O.",
"@.s.bXxXlX>Xp.a.s.s.s.s.a.s.a.s.a.p.s.:XeXrXeX0.[ [ [ g u u f u u u f f u u u & . o . y ( c v v v c f u u u u u u u u u u u u u u f f f f f g g l l l c l / l c c / ' ) ( [ } O.| O.O.@.@.O.O.@.@.@.@.@.O.O.@.@.@.+.@.@.@.@.@.@.@.@.+.@.+.@.@.+.+.+.=.=.=.=.*.=.=.=.<.<.<.<.<.<.<.<.<.<.<.<.<.<.<.<.<.<.<.<.<.2.2.2.<.3X9X9X=.+ + 3 =.7.4.3XdXtXeX9.8.q.8.0.9.9.8.8.8.8.9.9.0.0.q.q.0.8.8.9.8.8.q.u.y.r.y.p.r.r.r.r.p.r.y.r.r.r.p.u.y.y.y.r.y.r.y.p.y.y.r.r.r.p.u.p.r.y.y.y.y.p.y.r.r.i.r.r.p.p.y.r.p.p.p.p.p.y.y.p.u.u.p.p.p.p.p.p.y.p.p.p.p.p.p.p.p.i.r.r.p.p.p.y.y.r.p.p.p.i.p.p.p.p.y.p.p.a.4.g c k * + + 4.3XsXsX4X8.r.r.r.r.r.r.r.r.r.r.r.r.r.r.r.r.r.r.r.r.r.r.r.r.r.r.r.r.r.r.r.r.r.r.r.r.r.q.q.q.q.r.q.q.q.q.q.q.q.q.q.q.q.q.q.q.r.q.q.q.r.9.7.7.7.7.7.7.7.8.7.7.7.7.4.4.4.*.&.&.| O.[ v v / / v v v v / / / v v v v c c c l v v c c l l c l l l l l l l l l c l f g u q y 9 $ . o c [ [ ) l l l l l l g l l l l l l k k k h l l l l h l l l l l k k l l l l k k k k g g g k k g k k g k k k k k g g g g g g k g g g g g g g g g g g g g g g g g g g g g g g f g g g f g f f g f f f f f f u u u u u u u u u u u u u f f f u u f u u u u u f l l k c k k $ o o . e f u f g c v g u f f k O.+.X.( l c l l l l l l l l l l l l l l l ( ..O.",
"+.s.nXvXlX;Xp.a.s.a.a.s.s.s.s.s.a.a.a.3XeX6X6Xq.[ [ [ g u u u u u u u f f u u & o o . y ( c v c v c f u u y u u u u u u u u f f f f f f f g l k l c c / / / / / / / / ( ( ( [ O.O.O.@.@.O.O.O.@.@.@.O.@.@.@.@.@.+.@.@.@.@.@.@.+.@.+.@.@.@.@.@.&.@.+.*.<.<.<.=.<.=.<.<.<.<.<.<.<.<.<.<.<.<.<.<.<.2.2.<.<.2.2.2.2.2.2.2.4XeXqX2.@ + 9 <.8.7.3XgXsXeX9.8.8.8.8.8.8.8.8.0.0.9.8.8.0.0.8.0.8.8.8.q.8.q.r.r.p.y.r.u.r.p.u.r.y.p.y.r.p.p.u.y.p.p.y.p.p.p.p.p.p.p.y.p.p.p.p.p.y.y.p.p.p.p.p.p.p.p.p.p.p.p.p.p.p.p.p.p.p.p.p.p.p.p.p.p.p.p.p.p.p.p.p.p.p.p.p.p.p.p.p.p.p.a.p.p.p.p.p.p.p.p.p.p.p.p.p.a.p.7.l c l * & & 6.3XsXsX8Xq.r.r.r.y.r.r.r.r.r.r.r.r.r.r.r.r.r.r.r.r.r.r.r.r.r.r.r.r.r.r.q.r.r.r.r.r.r.q.r.q.r.r.r.r.r.q.q.q.q.r.r.r.q.q.r.q.r.r.r.r.r.9.8.7.7.8.8.8.q.9.8.9.8.8.8.7.7.*.=.<.@.%.o./ ( ) / v / / v v c / / v c v c c c c c c c c c c c c c v l v c c c l c l g g u 9 y 9 $ o + c [ [ ) l l l l l l g h l l h l k k k k l l l l h l l l l l l l l l l k g k k k g g g g k k g k k k k k k g g g g g k g g g g g g g g g g g g g g g g g g g g g g g g g g g g g g g g g g g f f f f f f u f f u u u y u u u u u f f g u f f f f f u u u u k k c l c l + o o . e g u g k c c f y g f c *.%.O.) l l l l l c l l l l l l l l l l l ..X.X.",
"O.s.nXvXlX:Xy.a.a.s.a.s.s.a.s.s.s.a.a.5XaXpX9X8.[ [ [ f u u f u u y u g k f f & . o   y ( c c c v l f u u u y u u u u u u u f f f f f f f k c g k l l l l / / / ( ( _ { { [ { O.O.@.@.@.O.@.@.@.@.@.O.O.@.@.@.+.+.+.@.@.+.+.+.+.@.@.@.+.@.@.@.&.@.&.<.<.<.<.<.<.<.<.<.<.<.<.<.<.<.<.<.<.2.<.2.2.<.2.2.<.<.2.2.2.2.2.2.4XeX9X:.$ + 9 <.8.4.2XdXtX9X9.8.7.8.8.8.8.8.8.8.8.8.8.8.9.q.8.9.0.9.8.q.q.r.r.r.r.y.r.y.r.r.y.r.y.y.y.p.r.y.y.y.p.y.y.y.p.p.y.p.y.y.p.p.i.p.p.p.y.p.p.p.p.p.p.p.p.p.p.p.p.p.p.p.p.p.p.p.p.p.p.p.p.p.p.p.p.p.p.p.p.p.p.p.p.p.p.p.p.p.p.p.p.p.p.p.p.p.p.p.p.p.p.p.p.p.p.a.a.7.l c g * $ & 6.3XsXsX8Xr.r.r.r.r.r.r.r.r.r.r.r.r.r.r.r.r.r.r.r.r.r.r.r.r.r.r.r.r.r.r.r.r.r.r.r.r.q.q.r.r.r.r.r.r.r.r.q.q.q.r.r.r.r.r.r.r.r.r.r.r.r.8.7.7.8.9.8.8.q.8.q.q.8.8.0.q.7.<.*.&.@.O.[ v / ( c c v v v c v c v c c v v v c v v / / c v c c v v v c v v v c v v l g g u 9 y 9 & o + v { [ ' l l l l l h l l l l l l l h l l l l l l l l l l l l l l k l l k k k g g g g g g g g g k g g k g g k g g g g g k g g g g k g g g g g g g g g g g g g g g g g g g g g g g g g f g g g f f f f f f u f f u u y u u u u u u f f f f f f f f u u u u u l k l c l k + o o o e g g g k l c g u g u k *.%.O...v l / v l / l l l l l l l l c l l ..+.*.",
"O.f.bXcXlX>Xp.s.a.a.a.p.s.a.a.s.s.<X:X,X9XeX3X7.[ { [ f u u f f u u u f f f f & . o . y ( c v c c c u u u u u u u u u u u u f f f f f f f f l l l c v c l / ( ( [ _ [ O.O.O.O.O.| O.+.@.O.O.O.@.@.O.@.@.@.@.@.@.+.@.@.@.@.+.+.+.+.@.+.+.+.@.+.@.%.%.=.<.<.<.<.<.<.=.<.<.<.<.<.<.<.<.<.<.<.<.<.<.2.<.2.<.2.<.<.2.<.2.<.4XwXqX:.+ $ 9 <.7.2.3XsXaXeX9.8.8.8.8.8.8.8.8.8.8.8.8.8.8.8.0.q.8.q.9.9.8.r.r.y.r.r.y.r.p.y.r.r.r.r.p.y.y.y.r.p.y.p.p.y.p.p.p.p.y.y.y.p.p.y.y.p.p.y.p.p.p.p.y.p.p.p.p.p.p.p.p.p.p.p.p.p.p.p.y.p.p.p.p.p.p.p.p.p.p.p.p.p.p.p.p.p.p.p.p.p.p.p.y.p.p.p.p.p.p.p.y.p.p.p.p.p.a.4.l c k * + & 6.3XuXsX8Xq.r.r.r.r.r.r.r.r.y.r.r.r.r.r.r.r.r.r.r.r.r.r.r.r.r.r.r.r.r.r.r.r.r.r.r.r.r.r.r.q.r.r.r.r.r.r.r.q.r.r.q.q.r.r.r.r.r.r.q.r.r.8.6.7.9.9.8.8.8.0.q.9.9.9.8.8.7.2.2.<.=.=.+.[ { ..( / v c v c v / v v v c v v v / c v v c c c c v v v v v c v v c v l f g u q y 9 & o $ v [ [ ' l l l l l l l l l l l l l l l l l l l l l l k l l l l l l l l l l l k g g k g g g g g g g g k g g k g k g k k g g g g g g g g g g g g g g g g g g g g g g g g g g g g g g k g g k g f f g f f f u f f f g u u u u u u f f f f f f f f f i u u u u l l l c l k + . o o 9 g g g l c c f y u u k +.O.....( ( / l l c l l l l l l l l l l v { ..%.",
"O.s.bXcXlX>Xs.s.a.a.a.p.s.a.a.a.6XaXrX5X>X:Xp.7.[ { [ f u u f f u u u f u u f & o o . y ( c v c c c u u u u u u u u u u u f f f f f f f f f l k l / ( ( ( ( [ [ [ [ | | | O.O.O.O.+.O.@.@.O.O.O.@.O.@.@.@.@.@.+.@.@.+.@.@.+.@.@.+.@.+.+.+.@.+.@.*.&.*.<.<.<.<.<.<.<.<.<.<.<.<.<.<.<.<.<.2.<.<.<.<.<.2.2.2.2.<.2.2.<.=.4XwXqX2.$ & 9 <.7.2.2XsXsXeX8.7.8.8.8.8.8.8.8.8.8.8.8.8.9.8.8.q.q.q.0.0.0.r.y.y.r.r.y.r.r.r.r.p.u.p.y.r.y.y.r.p.r.p.p.p.p.p.y.y.y.y.y.p.y.y.y.y.p.p.p.y.p.p.y.p.p.i.p.p.u.p.y.p.p.p.p.p.p.p.y.p.p.p.p.p.p.p.p.p.p.p.p.p.p.p.p.p.p.p.p.p.p.p.y.p.p.p.p.p.p.y.y.p.p.p.y.p.p.7.l c k * & & 4.3XuXsX9Xq.r.r.r.r.r.r.r.r.r.r.r.r.r.r.r.r.r.r.r.r.r.r.r.r.r.r.r.r.r.r.q.r.r.r.r.r.r.q.q.r.r.q.q.q.r.r.r.q.q.q.r.r.r.r.r.r.r.q.r.r.r.r.r.r.y.y.r.i.p.q.q.r.q.q.8.9.q.8.0.7.4.7.4.&.*.#.[ / v v / / / / v v v v / c / v v v v c l c l c v v c v v v c c c l f g u q y 9 & o + v [ [ [ l l l l l l l l l l l l l l l l l l l l l l l l l l l l l l k k k l l g k k k k l k k k k k k k g g g g l l k k k g g g g g g g g g g g g g g g g g g g g g g g g g g g g g g g k g g g g f f f u g g u u u u u u f u f f f f f f f f f f u u f g l k k k l k + . o . 9 g f k k l l u u u u k +.@.@.%.[ / l / / l l l l l l l l l c c ( O.O.O.",
"O.>XbXcXlX>Xp.s.s.s.a.a.a.s.s.s.eXsXsX6Xa.p.u.8.[ { [ f u u f f f f f f u u f & o o . y ( c v v c c u u u u u u u f u u f f f f f g g g g l c l / _ _ _ ( ) [ _ ( [ O.O.O.O.O.O.O.O.O.O.O.O.O.@.@.O.O.O.@.@.@.O.@.O.O.@.@.@.@.@.@.+.@.@.+.+.@.@.*.*.*.<.<.<.<.<.<.<.<.<.<.<.<.<.<.<.<.<.<.<.<.<.<.<.<.<.2.2.2.2.2.<.<.8XqX9X2.+ $ q <.7.2.2XsXtXeX8.8.8.8.8.8.8.8.8.8.0.0.0.0.8.q.p.s.s.p.r.q.r.y.y.y.y.r.r.y.y.y.y.y.r.y.p.p.p.p.y.r.y.y.y.p.p.p.p.p.p.p.p.p.p.p.y.r.p.p.p.p.p.p.p.p.p.p.p.p.p.p.y.p.y.p.p.p.p.p.p.p.p.p.p.p.p.p.p.p.p.p.p.p.p.p.p.y.p.p.p.p.p.p.p.p.p.i.p.p.y.p.p.p.y.p.p.p.p.4.l c k * & $ 3.4XsXsX0Xq.r.r.r.r.r.r.r.r.y.r.r.r.r.r.r.r.r.r.r.r.r.r.r.r.r.r.r.r.r.r.r.r.r.r.r.r.r.r.r.r.q.q.q.q.q.r.r.r.q.q.r.r.r.r.q.q.q.q.r.r.y.a.a.a.a.s.s.s.s.r.q.q.q.q.q.q.8.q.q.8.8.7.7.=.*.{ [ [ ( / ( / / / v v v v v v / v v v v l l c c v v v c v v v c v c l g g u y y 9 $ o + v [ [ ' l l l l l l l l l l l l l l l l l l l l l l l l l l h g k l l k g k l l k l k k k l g k g g g g g g k k l l l l k k g g g g g g g g g g g g g g g g g g g g g g g g g g g f f g g g g g g f f f u g f f g f u u u f u u f f u f f f f f f u u u f l k k k k g + . . . 3 f u g l k k f y u f c %.%.+.X.) [ ) [ ( l l c c l l l l l c c l ..O.[ ",
"O.>XbXcXlX>Xp.a.a.s.a.a.a.p.s.>X6XgXgX<X;Xa.;X0.[ [ [ f u u f f f f f u f u u & o o . y ( c v v v c f u u u u u u u f u u f u f f g g g g l c l c ( ( ( ( ( _ [ [ { O.O.O.O.O.O.O.O.O.O.O.O.@.O.@.O.O.@.@.@.O.O.@.@.O.@.@.@.@.@.@.@.+.@.+.+.O.+.+.*.,.<.<.<.<.<.<.<.<.<.<.<.<.<.<.<.<.<.<.<.<.2.<.<.<.2.<.2.2.<.2.2.2.9XwX9X2.$ $ q <.7.4.2XsXuXeX8.8.8.8.8.8.8.8.8.8.8.0.8.9.0.r.s.a.s.s.p.q.r.p.p.y.y.y.y.y.r.y.y.y.y.y.y.y.y.p.y.y.p.y.y.p.y.p.p.p.u.p.u.p.p.p.y.p.p.p.p.p.i.p.p.p.p.p.p.p.p.p.y.p.p.p.p.p.p.p.p.p.p.p.p.p.p.p.p.p.p.p.p.p.p.p.p.p.p.p.p.p.p.p.p.p.p.y.p.u.y.y.p.p.p.p.y.p.p.4.l v k * & & 7.4XsXsX9Xr.r.r.r.r.r.r.r.r.r.r.r.r.r.r.r.r.r.r.r.r.r.r.r.r.r.r.r.r.r.r.r.r.r.r.r.r.r.r.q.r.r.q.q.q.q.r.q.q.r.r.q.q.r.r.q.q.q.q.r.r.y.i.i.a.p.a.a.a.a.r.q.8.8.r.9.8.9.q.8.9.8.7.6.2.2.O.+.+.( / ( v v / v v v v c c v c / v v l c c c v v v v v v c c v v l f g u y y 9 $ o + v { [ ' l l l c l l l l l l l l l l l l l l l l l l l l l l h k l l l l l l l k l l l l l k g g k k g g g g k l l k k l l k g g g g g g g g g k g g g g g g g g g g g g g g g g g f f g g g g g f f f u u f f f f u u u u f g u u f u f f f f f f u u u f k k k k k k + . . . 9 f u g l k l f y u f c *.%.%.' l / ' [ / l l l c l l l l l / [ v [ [ / ",
"O.>XnXvXlX>Xp.a.s.a.p.a.a.a.s.6X,X3X<Xp.a.:X:X0.' [ [ f f u u f f f u f u u f & o o   y ( c v c v c u u u u u u u f f f f u f g f g g f g l c l / _ [ [ ' { } } o.O.O.O.O.O.O.O.O.O.@.@.O.@.O.@.@.@.@.+.@.O.@.@.@.+.@.@.O.+.+.+.+.+.+.@.&.*.&.*.*.<.<.<.<.<.<.<.<.<.<.<.<.<.<.2.<.<.<.<.<.<.2.<.<.<.<.2.<.2.2.2.2.2.<.4XqX9X:.+ & y <.8.7.2XsXuXqX8.8.8.7.8.8.8.8.8.0.8.0.8.9.8.r.s.;X;Xp.p.y.p.r.y.y.r.r.r.y.p.y.p.y.y.y.y.y.p.y.y.p.y.p.p.p.y.y.y.p.p.p.p.p.p.p.p.p.p.p.y.p.p.p.p.p.p.p.y.p.p.p.p.p.p.p.y.p.p.p.p.p.p.p.y.p.p.p.p.p.p.p.p.p.p.p.p.p.p.p.p.p.p.p.p.p.p.p.y.p.p.p.p.p.p.y.p.p.p.7.l v k * $ & 7.4XsXsX0Xr.r.r.r.r.r.r.r.r.r.r.r.r.r.r.r.r.r.r.r.r.r.r.r.r.r.r.r.r.r.r.r.r.r.r.r.q.q.r.r.r.r.r.r.r.r.r.r.r.r.q.r.q.q.q.q.r.r.r.r.r.r.r.p.p.p.a.p.p.a.q.9.8.r.>Xy.8.q.q.q.9.8.8.7.9.7.$.%.O.` ` ' ( / / / / / v c v v v v v v c c c c v v / c v v c v c c l g h u q y 9 $ o + v { [ ' l l l l l l l l l l l l l l l l l l l l h l l l l l l l k l k l l l l k l l k l l k g g g k k g g k k k l l l l l k k k g g g g g g g g g g g g g g g g g g g g g g g g g g g g g g g g g g f f f g f u u u u u f f u u u u u f f f f f u u u u f k k k k k g + . o o 9 f u g k l l u y f f c %.%.%.[ l c v ) l l l l l l l l l ^ / ' / c / / ",
"O.>XnXcXlX>Xp.p.a.s.a.a.>X3X,XaX9Xa.p.a.p.s.;Xq.' { [ f f u u u f u f f u u u & o o   e ( c v c c l f f u u u f f f u u u u f g f g f g g l / c / [ [ [ [ O.O.| O.O.O.@.O.O.O.O.O.@.@.@.@.@.@.@.@.O.@.@.@.@.O.@.+.@.@.@.@.+.+.+.+.+.@.+.*.<.<.<.<.<.<.<.<.<.<.<.<.<.<.<.<.<.<.<.<.<.<.<.2.<.2.2.2.2.<.2.2.2.2.<.2.2.2.4XqXqX2.+ & y 2.8.4.2XsXuXeX8.8.8.8.8.8.9.9.8.8.8.8.8.8.8.q.p.s.a.y.r.r.y.y.p.y.y.r.y.p.p.y.y.r.y.p.y.p.y.y.p.y.y.y.p.r.p.y.y.p.p.y.y.p.p.p.p.p.p.p.y.p.p.p.p.p.p.p.p.p.p.p.p.i.p.p.p.p.p.p.p.p.p.p.y.p.p.p.p.p.p.p.y.p.p.p.p.p.p.p.y.p.p.p.p.p.p.y.y.p.p.p.p.p.y.y.y.p.a.7.l v k * $ $ 7.8XsXsX9Xq.r.r.r.r.r.r.r.r.r.r.r.r.r.r.r.r.r.r.r.r.r.r.r.r.r.r.r.r.r.r.r.r.r.r.r.r.r.r.r.r.r.r.r.r.r.r.q.r.r.q.r.r.r.q.q.r.r.y.y.i.i.y.i.p.a.a.a.a.a.r.q.q.r.>Xs.8.q.9.q.9.8.9.9.9.7.2.7.4.+.+.O.[ / ( v / / / v v / / v / / c c c c v v v c v c c c c v l g g u y y 9 $ o + v ..[ ' l l l l l l l l l l l l l l l l l l l l l l l l l l l l l l l l l l l l l l l l l k g k k g g g g k k k k l l l k g k k k k g g g k g g g g g g g g g g g g g g g g g g g g g g g g k g k g f f g f u u f u f f f f u u u u f f u f f f f u u u g c k l l l k + . o o 9 g u f g k f u u u d c %.%.%.' c c c c c c l l l l l l ' ' c / / / / ( ",
"O.>XvXcXlX,Xp.p.p.a.;X;X6XaX3XeX9Xs.p.s.a.a.s.8.' { ' u u u u f f f f f f u u & o .   y ( / / c c c u f u u u f u u u u u u g g f g g g g l / c / [ [ [ [ { O.| O.| O.O.O.O.O.@.O.O.O.@.O.O.@.O.O.@.@.@.@.+.+.@.@.@.@.+.+.+.+.+.+.O.+.@.*.<.<.<.<.<.<.<.<.<.<.<.<.<.<.<.<.<.<.<.<.<.<.2.<.2.<.<.2.<.2.2.<.2.2.<.2.2.2.6XwXqX2.$ & y 2.8.7.3XsXsXeX8.8.8.8.0.8.8.8.8.8.8.q.0.8.9.q.r.r.y.p.p.p.y.y.y.y.u.p.r.r.y.y.y.y.p.p.y.u.y.y.y.p.p.y.y.i.y.y.p.p.p.p.u.p.p.p.p.p.p.p.p.p.p.p.p.p.p.p.p.p.p.p.p.p.p.p.p.p.p.p.p.p.p.p.p.p.p.p.p.p.p.p.p.p.p.p.p.p.p.p.p.p.p.p.p.p.p.p.p.p.p.p.p.p.p.p.p.p.p.6.l v k * & & 8.8XsXsX0Xq.r.r.r.r.r.r.r.r.r.r.r.r.r.r.r.r.r.r.r.r.r.r.r.r.r.r.r.r.r.r.r.r.r.r.r.r.r.r.r.q.r.r.r.r.r.r.q.r.r.q.9.q.r.r.q.r.i.p.p.a.a.p.p.p.a.a.a.a.a.y.r.q.p.>X>Xq.r.q.q.q.8.9.8.9.8.7.9.8.*.*.{ [ ( v v v / / / v / v / v v l c c c v v v v v c c v c v l g k f q y 9 $ o + c { [ ' l l l l l l l l l l l l l l l l l l l l l l l l l l l l l l l l l l l l k k l l l k g g g g g g k l l k k k l l k k k k g k k g k g g g g g g g g g g g g g g g g g g g g g g g g g k g g k f f f u u f f f f f f f u u u u u f f f f f f u u u f l l c v c k + . o o 3 f y q e y f y f f u c %.%.%.' l c l c l l l l l l / ' { { [ ( l / ( ( ",
"O.>XvXcXlX,Xp.a.a.r.:X>X2XrX6Xs.s.s.p.a.p.a.s.0.' [ ' u u u u u f f f f u u f & . o   y ( v / c c c u u u u y u u u u u u u f f f g g g g l / c / _ [ [ [ { O.O.O.O.O.O.O.O.@.O.@.@.O.@.O.O.O.O.@.@.@.@.@.+.@.@.@.@.@.@.+.@.@.O.O.O.@.%.,.<.<.<.<.<.<.<.<.<.<.<.<.<.<.<.<.<.<.<.<.<.<.2.2.2.<.2.2.<.2.2.<.2.2.2.2.2.<.6XwXqX2.$ & y 2.8.7.3XsXsXeX8.8.8.8.8.8.8.0.8.q.8.0.8.8.q.q.u.y.y.y.p.y.y.r.y.u.p.r.y.r.p.y.y.y.y.r.r.y.p.y.p.y.y.y.y.p.p.p.p.p.p.p.p.p.p.p.p.p.p.p.p.p.p.p.p.p.p.p.p.p.p.p.p.p.p.p.p.p.p.p.p.p.p.p.p.p.p.p.p.p.p.p.p.p.p.p.p.p.p.p.y.p.p.p.p.p.p.p.p.p.p.y.y.p.y.y.y.p.p.7.l c k * $ & 8.8XsXsX9Xq.r.r.r.r.r.r.r.y.r.r.r.r.r.r.r.r.r.r.r.r.r.r.r.r.r.r.r.r.r.r.r.r.r.r.r.r.r.r.r.r.r.r.r.r.r.r.r.r.q.q.q.q.i.y.r.i.i.i.y.a.a.a.p.a.a.a.a.a.a.r.y.r.y.>Xs.q.q.q.q.9.9.9.9.9.8.8.7.6.=.O.` [ ) v v / / v v v v v v / / l c l v / v v v v v v c c v l g h f q y 9 $ o + v { [ ) l l l l l l l l l l l l l l l l l l l l l l l l l l l l l l l l l l l l k k k l l k k g k k g g k l l k k k l k k l l g g k g g g g k g g g g g g g g g g g g g g g g g g g g g g g g g k g g g f g f f f u f f g f u u u u f u f u u u u f u u u c c c v c l & o o o 9 u 3 e e q f y u f u c %.%.+.) l c l c l l l l c l l ' ' / [ / / ( / / ",
"O.>XvXcXxX2Xi.a.s.<X3X9X;Xs.:Xp.p.s.a.a.a.p.s.0.' ' ) u u u u u u f f f f u f * . . . y ) v / c c c f u u u u u u u u u u f g g f g g g g l v c / [ [ [ [ | O.O.O.| O.O.O.O.O.O.O.O.O.@.@.O.@.@.O.@.@.@.@.@.@.@.@.@.@.@.@.@.@.@.@.@.+.%.<.*.<.<.<.<.<.<.<.<.<.<.<.<.<.<.<.<.<.<.<.<.<.<.<.<.<.<.<.<.2.2.2.2.2.2.2.2.<.6XwXqX2.$ & y <.8.7.3XsXsXeX8.8.8.9.0.0.8.8.0.q.q.q.q.q.p.q.r.r.y.y.y.r.r.y.r.r.y.y.y.y.y.y.y.y.y.u.p.p.p.y.p.r.y.p.p.p.p.p.p.p.p.p.p.p.p.p.p.p.p.p.p.p.p.y.p.p.p.p.p.p.p.p.y.p.p.p.p.p.p.p.p.p.p.p.p.p.p.p.y.p.p.p.p.p.p.p.p.p.p.p.p.p.p.p.p.p.p.p.p.p.p.y.y.y.p.p.p.p.a.4.l c k = & & 9.8XsXsX0Xq.r.r.r.r.r.r.r.r.r.r.r.r.r.r.r.r.r.r.r.r.r.r.r.r.r.q.q.r.r.r.r.q.r.r.r.r.r.r.r.r.q.q.q.q.r.r.r.r.q.q.r.r.s.s.a.a.p.a.a.a.a.a.a.a.s.s.a.a.i.r.y.q.q.r.q.9.q.q.q.9.q.q.q.9.9.8.8.8.7.2.*.2.@.' ' [ ( v v v v v / / / l l c c v v v v v v v c v c l g k f y y 9 $ o + c ..[ ' l l l l l l l l l l l l l l l l l l l l l l l l l l l l l l l l l l l l k l l l l k k k g k g g k l l l k l l k k l k k g k k g g k g g g g g g g g g g g g g g g g g g g g g g g g g k g g g g g k g g f f f f f u u u u u u f f u u u f f u u g c v l l v l + o o + e y 3 y q 9 f u u f f c %.%.%.) l l l l l l l l l / c [ ( g c l l ( / / ",
"O.>XbXvXxX3Xr.p.;XpXrXrX:Xy.a.a.a.s.s.a.a.p.;X0.' [ ( u u u u u f f u u f f f & . o . y ) c / v c c u u f u u u u u f u f f g g f g g g k c v c / [ [ [ [ | | | | O.O.O.O.@.O.O.O.O.O.O.@.O.@.@.@.+.@.@.@.O.+.+.+.+.@.@.@.@.@.@.&.@.O.@.<.<.<.<.<.<.<.<.<.<.<.<.<.<.<.<.<.<.<.<.<.<.<.<.2.<.<.2.<.2.2.2.2.2.2.<.2.2.2.4XqXqX4.& & y 2.8.7.3XsXsXeX8.8.8.8.9.8.8.0.q.q.q.r.u.q.y.y.r.r.r.r.r.y.y.y.y.y.y.y.r.y.y.r.r.y.y.y.p.y.y.y.p.p.p.p.p.y.y.y.y.p.y.p.p.p.p.p.p.p.p.p.p.p.p.p.y.p.p.p.p.i.p.p.y.p.p.p.p.p.p.p.y.p.p.p.p.p.p.p.p.p.p.p.p.p.p.p.p.p.p.p.p.p.p.y.y.p.p.p.p.p.p.y.y.p.y.p.y.p.p.4.l v k = & & 9.8XsXuX0Xq.r.r.r.y.r.y.r.r.r.r.r.r.r.r.r.r.r.r.r.r.r.r.r.r.r.r.r.r.r.r.r.r.r.r.r.r.r.r.r.r.q.r.q.r.r.r.r.r.q.r.r.r.a.a.a.a.a.a.a.a.s.a.a.a.a.a.a.a.a.r.r.q.q.q.q.q.q.q.q.q.9.9.9.9.9.8.9.9.9.7.2.7.=.{ { [ ( v v ( v ( / / / c v c c v v v v v v v v v v l g h u y y 9 & o + c ....[ l c l l l l l l l l l l l l l l l l l l l l l l l l l l l l l l l l l k l l l l l k k k k k g g k l l l l k k k k k l k g g k g k k g k k g g g g g g g g g g g g g g g g g g g g g g g g g k g g k k k f f f u f f u u u u u f f f f f f u u u g k k l l c k + . . . 9 g u u f g g f f f f c %.%.*.) l l l l l l l l c ..../ c l l l l / / / ",
"O.>XvXvXlX3X:X6X,X9XaXqX;Xa.a.a.a.a.s.a.a.a.s.8.] ' ` u u u u u f u u f f u f & o o . y ( v / v v c u f f u u u u u u u f f f g f g g g g l c c / [ [ [ [ | | | O.O.O.O.O.O.O.O.O.O.O.@.@.O.@.@.@.@.@.@.@.@.@.+.+.+.+.+.+.@.@.@.=.=.&.*.<.,.<.<.<.<.<.<.<.<.<.<.<.<.<.<.<.<.<.<.<.2.<.<.2.<.2.<.<.<.2.2.2.2.2.2.2.2.2.6XqXeX4.$ & q 2.8.7.3XsXsXqX8.8.8.8.8.8.8.9.0.r.r.q.r.r.r.r.r.r.r.r.r.r.r.y.y.r.r.r.y.p.y.r.r.y.y.y.p.p.p.p.p.p.p.y.p.y.p.p.p.p.p.p.p.p.p.p.p.p.p.u.p.p.p.p.p.p.p.p.p.p.p.p.p.p.p.p.p.p.p.p.p.p.p.p.p.p.p.p.p.p.p.p.p.p.p.p.p.p.p.p.p.p.p.p.p.p.p.p.p.p.p.p.p.p.y.p.y.p.p.7.l v k = & & 9.8XsXsX0Xq.r.r.r.r.r.r.r.r.r.r.r.r.r.r.r.r.r.r.r.r.r.r.r.r.r.q.r.r.r.r.r.r.r.r.q.q.q.r.r.r.r.r.r.r.r.r.r.r.r.r.r.p.p.s.a.s.a.a.a.p.a.p.p.a.s.s.s.a.a.y.y.q.q.r.r.q.q.q.q.q.q.q.9.9.9.9.9.8.8.8.6.2.%.[ ' [ ( z / ( ( ( ( / / c c v c v v v v v v c v v v c g h f y y 9 & o + v ..[ ' l c l l l l l l l l l l l l l l l l l l l l l l l l l l l l l l l l l l k l l l k k k k g k k k k l l k l l k l k k k k g g g g g g g g g k g g g g g g g g g g g g g g g g g g g g g g k g g g g k g g g f f u f u f u u u u u f f f f f u u y u l k k k c l + o o o e g g f f g f f f f d c %.%.%.( l l l l l l l l l ( ( l l l l l l / / / ",
"O.>XvXcXvX6X3XtX9X9X,X>Xp.a.p.a.a.a.s.s.s.a.s.7.' ' ( u f u u u f u u f u u f & o o . y ( v / c v c f u u u u u u u u u f f g g g g g g k l c / / [ [ [ ] | O.| O.| O.O.O.O.O.@.O.@.@.@.O.O.@.@.@.O.@.+.+.@.@.@.@.+.@.+.@.@.@.@.*.<.<.<.,.<.<.<.<.<.=.<.<.<.<.<.<.<.<.<.<.<.<.<.<.<.<.<.2.2.2.<.2.2.2.2.<.2.7.2.7.6.2.4XqXeX4.$ & q 2.9.7.3XsXsXeX8.8.8.0.0.8.8.8.8.r.r.r.r.r.r.r.r.y.r.r.y.r.r.y.r.r.r.y.y.p.y.i.p.r.p.p.p.p.p.p.y.p.y.p.p.p.p.p.y.y.p.p.p.p.y.p.p.p.p.p.p.p.p.y.p.p.p.p.p.p.p.p.p.p.p.p.p.p.p.p.p.p.p.p.p.p.p.p.y.p.p.p.p.p.p.p.p.p.p.p.p.p.p.p.p.p.p.y.p.p.p.p.y.y.p.p.p.p.p.6.l v l = & & r.8XsXsX0Xr.r.r.r.r.y.r.r.r.r.r.r.r.r.r.r.r.r.r.r.r.q.r.r.r.r.q.q.r.r.r.r.r.r.r.q.q.q.q.q.r.r.r.r.r.r.q.r.r.r.i.r.y.a.s.s.a.a.a.a.a.a.a.a.a.a.s.s.s.p.r.r.q.q.r.r.q.q.r.q.q.q.q.9.8.9.9.9.9.8.7.7.9.4.@.+.=.[ ( [ ( v / / v v c c l c v v v c c v c v v v l g k f q y 9 & + + v { [ ' l l l c l l l l l l l l l l l l l l l l l l l l l l l l l l l l l l l l l l l l k k k k g g k g k k l l l l g k k l g g k g g g g g k g k g g g g g g g g g g g g g g g g g g g k g g g g g g g g g g k g f f u f u u f u u u u u f f u f u y y u c k k c v k o . o . e f f f f f g f f f f c *.*.%.( l l l c l l l ( ( l l l l l l l l / / / ",
"@.>XvXvXcXqX6X5X9X6Xp.s.p.a.a.a.a.a.s.s.a.s.s.8.( ' ( u u u u u f u u u u u u & o o . y ) v v v v c f u u u u u u u f u u f g g g g g g g l c c / [ [ [ [ { O.O.O.O.O.O.O.O.O.O.O.@.@.O.| O.O.O.O.O.+.@.@.+.@.@.@.+.+.@.+.@.@.@.%.=.<.*.*.<.<.<.<.<.<.<.<.<.<.<.<.<.<.<.<.<.<.<.<.2.<.<.<.<.2.2.2.<.2.2.2.7.8.7.7.7.6.6XeXeX4.$ & y <.8.7.2XsXsXeX8.8.8.8.8.8.8.0.q.q.r.r.r.r.r.r.r.r.r.r.r.y.y.y.p.r.r.y.r.r.y.r.p.u.p.y.y.p.y.p.y.p.p.p.y.p.p.p.y.p.p.p.p.y.p.y.y.p.p.p.p.p.p.p.p.p.p.p.p.p.p.p.p.p.p.p.p.p.p.p.p.p.p.p.p.p.p.p.p.p.p.p.p.p.p.p.p.p.p.p.p.p.p.p.p.p.p.p.y.y.p.p.p.y.y.p.y.y.p.6.l v l = & & r.8XsXsX0Xr.r.r.y.r.y.r.r.r.r.r.r.r.r.r.q.q.q.r.r.r.r.r.r.r.r.q.r.r.r.q.r.r.r.r.r.q.r.r.r.r.r.q.r.r.r.p.a.y.p.a.p.a.a.a.a.a.s.s.a.a.a.y.a.a.p.a.p.a.p.r.r.r.r.r.r.r.q.q.q.9.q.q.q.9.9.9.9.9.9.8.8.9.7.2.2.3.%.{ O.../ / / / v l c v l v v c v v v c c / v c g k u q y 9 & + + v ..[ ' l l l l l l l l l l l l l l l l l l l l l l l l l l l l l l l l l l l l l l l l l k k k g g g k k g k k g g g g k l k g k k g k k k k k k k g g g g g g g g g g g g g g g g g g g k g k k g g g g g k k k f f u f f f f f u u u u f u f u u y y u v c c c v l + . o . y g f g f f g f f f f c *.%.%.( l l l l c ) ( [ ..l l l l l l l l l / / ",
"+.>XvXvXlXrXgXqX4X>Xa.s.s.a.a.a.a.a.a.s.s.s.s.7.' ` ( u u u u f u u f f f u f & o o . y ) v v c v c f u u u u u f f f u u f g g g g g g k l v c / [ [ [ [ | O.O.O.O.| O.O.@.@.O.O.@.O.@.O.O.@.O.@.@.+.$.$.$.@.@.@.@.+.@.+.&.@.&.<.<.=.<.*.<.<.<.<.<.<.<.<.<.<.<.<.<.<.<.<.<.<.<.<.<.<.<.<.<.2.2.2.<.2.2.2.7.8.8.7.7.7.6XeXeX4.$ & y <.8.7.3XsXaXeX8.8.8.8.8.0.8.q.q.r.r.r.r.r.y.r.r.y.y.y.r.p.y.y.p.r.r.y.r.y.y.r.r.r.r.r.y.p.y.u.y.y.p.y.y.p.p.p.p.p.p.p.p.u.p.u.u.p.p.p.p.p.p.p.p.p.p.p.p.p.p.p.p.p.p.p.p.p.p.p.p.p.p.p.p.p.p.p.p.p.p.p.y.p.p.p.p.p.p.p.y.p.p.p.p.p.p.y.y.p.p.p.p.p.p.y.y.p.p.4.l v k = & & r.9XsXsX9Xr.r.r.r.y.y.r.y.r.y.r.r.r.r.r.r.r.q.q.r.r.r.r.r.r.r.r.q.r.r.q.r.r.r.r.r.r.r.r.r.r.r.r.r.r.r.a.a.a.a.a.a.a.a.a.s.a.a.a.a.a.i.a.a.a.a.a.p.y.r.r.r.r.r.r.r.r.q.q.q.9.q.q.q.9.9.9.9.9.9.9.9.9.7.6.4.4.$.[ O.[ / / / / / c c v c / v c v v v / v c v c g k f y y 9 & o + v ....' l l l l l l l l l l l l l l l l l l l l l l l l l l l l l l l l l l l l l l l l k k l k k k g k g k k k g g k g g l k k k k k k k k k k k k g g g g g g g g g g g g g g g g g g g g k k g k k g g g k g g f f f u f u u u u f u u f u f f u u u f c v c c v l + o o . y g f g g g g f g g f v %.%.%.( l l l l v { ` v ( l l l l l l l l l / / ",
"$.>XvXvXxX9XeXqX:Xs.a.a.s.s.s.s.s.s.s.s.s.s.;X8.` ` ( u u u u f f f f f f u f & o o . y ) v v c v c f u u u u u u u u u u u g g f f g g k l v v / [ [ [ [ | @.O.O.O.O.| @.@.@.O.@.O.@.@.@.@.@.@.+.@.&.*.*.&.@.@.+.@.@.O.*.=.*.<.<.<.<.<.=.<.<.<.<.<.<.<.<.<.<.<.<.<.<.<.<.<.<.<.<.<.2.<.<.<.<.2.2.<.<.2.2.8.8.8.7.7.6.6XrXeX4.+ & y <.8.7.3XsXaXeXq.0.8.8.q.q.q.8.q.r.r.r.r.r.r.r.r.y.r.y.r.r.y.y.y.y.r.y.y.y.r.y.y.r.y.y.y.y.y.r.p.p.p.p.p.p.p.p.i.p.p.p.p.p.p.p.p.p.p.p.p.p.p.p.p.p.p.p.p.p.p.p.p.p.p.p.p.p.p.p.p.p.p.p.p.p.p.p.p.p.p.p.y.p.p.p.p.p.p.p.p.p.p.p.p.p.p.p.p.p.p.p.y.p.p.p.i.p.p.4.l v l = & & t.9XsXsX9Xq.r.r.r.r.r.r.r.r.y.y.r.r.r.r.r.q.q.q.r.r.r.r.r.r.r.r.r.r.r.r.q.r.r.r.r.r.r.r.r.r.r.r.r.r.r.p.a.s.a.a.a.a.a.a.a.a.a.a.p.i.y.a.a.p.a.p.p.p.r.r.r.q.r.q.q.q.q.q.q.9.q.q.q.q.q.9.9.9.9.9.9.8.8.7.7.4.$.{ O.[ / / ( ( ( v v v v / / v v v v v / v / c g k u y u 9 & + + v ....[ l l l l l l l l l l l l l l l l l l l l l l l l l l l l l l l l l l l l l l l l l l l k k k k k g k k g k k k k l k k l l l k k k k k g g k g g g g g g g g g g g g g g g g g g k k g g k g k k g g g j g f f f f f f f u u f f f f f f f u f f g v v v c v c + o . . y g g g g g f g f f f v *.%.%.( l l l / / [ [ ( l l l l l l c l l / / ( ",
"$.>XvXnXnX2X;X:X;X:Xa.a.a.a.s.s.s.a.s.s.s.a.s.7.( ' ( u u u u u f u f f f f f & o o . y ( / / v v c f u u u u f u u u u u f f g g g g g g l c v / [ [ [ [ | @.O.O.O.O.O.@.@.@.@.@.O.@.@.O.@.@.@.@.O.&.*.%.&.+.O.+.+.$.@.&.*.*.,.<.<.<.<.<.<.<.,.<.<.<.<.<.<.<.<.<.<.<.<.<.<.<.<.<.<.<.<.<.2.<.<.2.<.<.<.2.7.9.8.8.7.7.6XeXeX4.$ & y <.8.7.3XsXaXeX9.q.8.8.8.0.q.q.r.r.r.r.r.r.r.r.r.r.y.r.r.y.r.y.y.r.y.y.y.y.y.r.p.y.y.p.p.r.r.y.p.p.u.p.p.y.p.p.u.p.p.p.p.p.p.p.p.p.p.p.p.p.p.p.p.p.p.p.p.p.p.p.p.p.p.p.p.p.p.p.p.p.p.p.p.p.p.p.p.p.p.p.p.p.p.p.p.p.p.p.y.p.p.p.p.p.p.p.p.p.p.p.p.p.p.p.y.p.a.4.l v l = & & r.9XsXsX9Xr.r.r.r.r.r.y.y.y.r.y.i.p.p.r.q.q.r.q.r.r.r.r.r.r.r.r.r.q.r.r.r.r.r.r.r.r.r.r.r.r.r.r.r.r.y.a.a.a.a.s.s.a.s.a.a.a.s.a.a.a.a.a.s.a.p.p.p.p.r.r.r.r.r.q.q.q.q.q.q.q.q.q.q.q.q.q.9.9.9.9.9.9.8.8.8.8.4.<.2.*.' ( ) / / v v v c v c / v v v c c c v l g k u y u 9 & o + v ..[ [ l l l l l l l l l l l l l l l l l l l l l l l l l l l l l l l l l l l l l l l l l l l l k g k k k k g k k k k k k l l l k l l k k k k k k k g g g g g g g g g g g g g g g g g g g g g g j g g k k k k k g f u f u f f u u u u u f f f u f f f f g c v v v v c + . o . y g f f g f f f f f f c %.%.%.( l l v [ c c [ [ l l l l l l c v l l / ( ",
"+.>XvXnXvX<X:X;X;X:Xs.a.a.s.s.s.s.s.a.s.p.a.s.7.( ( / y u y u u u u u f f f f & o . . y ) v / c v c f u u u f g f u u u f g f g g g g f g c c c / [ [ [ [ { | O.O.O.@.@.O.| | O.@.O.O.@.O.@.@.@.O.@.&.*.&.*.&.O.O.+.@.@.@.*.=.,.<.<.<.<.<.,.,.<.<.<.<.<.<.<.<.<.<.<.<.<.<.<.<.<.<.<.2.2.2.<.<.2.2.2.2.2.7.8.7.8.8.8.8.4XqXqX4.$ & q <.7.6.3XaXtXeX0.q.q.q.q.q.q.r.r.r.r.q.r.r.r.y.r.y.y.y.r.r.y.r.r.r.r.y.y.y.p.y.y.p.y.p.y.p.y.y.p.p.p.p.p.p.p.r.p.p.p.p.p.p.p.p.y.p.p.p.p.p.p.p.p.p.p.p.p.p.p.p.p.p.p.p.p.p.p.p.p.p.p.p.p.p.p.p.p.p.p.p.p.p.p.p.p.p.p.p.p.p.p.p.p.y.p.p.p.p.p.y.y.p.p.p.r.y.p.4.l v l = & & r.0XsXsXqXr.r.y.y.r.r.i.p.i.i.p.p.a.p.r.9.q.r.q.q.r.r.r.q.q.q.r.r.r.q.r.r.r.r.r.r.r.q.r.r.r.r.r.r.q.y.a.a.a.a.a.s.a.s.a.a.a.a.a.p.a.a.p.a.y.p.p.i.y.r.r.q.r.q.q.q.q.q.q.q.q.q.q.q.q.q.q.9.9.9.9.9.9.8.8.9.8.8.4.4.=.{ ) / / v v v c c / c v c v v l v c c l f k u y u 9 & o + v ....[ l l l l l l l l l l l l l l l l l l l l l l l l l l l l l l l l l l l l l l l l l l l l k g k k k k g k g k k k k k k l l l l k l k k k k g g g g g g g g g g g g g g g g g g g g g g g k g k g k k k g f g f f f f f u u u u u f g f f g f u u g v v v v v v + o o o y g f g g f f f f f f c +.%.@./ l l ( ..( l c v l l l l l l l l c / v / ",
"+.>XvXbXxX<X;Xs.s.s.s.s.a.a.s.s.s.s.a.a.a.a.s.8.) ( ( u u u y g u u f f f u f & o o . y ) / / c v c u u u u u u u f j g f f f g g g g f g l v c / [ [ [ [ | | | | O.@.@.O.| | O.O.O.O.O.@.@.@.@.@.+.&.*.*.*.@.@.+.&.&.@.,.<.*.<.<.<.<.<.<.<.<.<.<.<.<.<.<.<.<.<.<.<.<.<.<.<.<.<.<.2.2.2.2.<.<.<.2.2.6.2.7.8.8.8.8.8.8.4XqXeX4.& & q <.8.7.3XsXsXeXq.q.r.q.r.q.q.r.r.r.r.r.r.r.r.y.r.r.r.r.y.r.r.r.r.y.y.y.p.y.y.r.y.p.p.p.y.y.y.y.y.y.p.p.p.p.p.p.p.p.p.p.p.p.y.p.p.p.p.p.p.p.p.p.y.p.p.p.p.p.p.p.p.p.p.p.p.p.p.p.y.p.p.p.p.p.p.p.y.p.p.p.p.p.p.p.y.p.p.p.p.p.p.y.y.p.p.p.p.p.p.p.y.p.u.p.p.i.p.4.l v l = & & r.0XsXsXwXr.y.y.y.y.i.i.p.y.i.p.p.y.p.q.q.q.r.i.p.r.r.q.9.q.q.q.r.r.r.r.r.r.r.r.r.r.r.r.r.r.r.r.r.q.y.a.a.a.a.a.a.s.a.a.a.a.a.a.a.p.a.p.r.r.r.r.r.r.q.r.r.r.q.q.q.q.q.q.q.q.q.q.q.q.q.q.9.9.9.9.8.8.9.8.9.8.8.7.2.=.{ ` ..' ( v / / / / / / / / / v v c v l g k u y u 9 & o + / ....[ l l l l l l l l l l l l l l l l l l l l l l l l l l l l l l l l l l l l l l l l l l l l l k k g g k g g g k k g g g g l k k l k g g k k g k g g g g k g g g g g g g g g g g g g g g k g g g k g k g g g g j g g g g g f u u u f f f f f g u f u g v v c v v v & o o . y f f g g f g g f f f v %.%.@.( l c v ( / c l l l l l l l l l l l ( / ( ",
"+.>XbXnXvX<X;Xs.s.s.s.s.a.s.s.a.s.a.p.a.s.s.s.7.( ( ( u f f l ( v u u f g u f & o o . y ' / / v v c f u u f f u u f g g f g f f g g g g g l c v / [ [ [ [ | O.O.| | | O.O.O.O.@.O.O.O.O.O.O.@.+.&.&.@.@.&.&.@.+.*.<.<.<.<.<.<.<.<.=.=.<.<.<.<.<.<.<.<.<.<.<.<.<.<.<.<.<.<.<.<.<.2.2.2.2.<.<.<.<.2.4.7.2.7.7.8.0.8.8.7.4XeXeX4.$ & y <.8.4.3XsXsXeXq.q.q.q.q.r.q.r.r.r.r.r.r.r.q.y.r.y.r.y.y.r.r.r.y.y.r.r.y.y.y.p.r.r.y.p.y.y.y.y.p.p.y.y.p.p.p.p.y.p.p.p.p.p.p.p.p.p.p.p.p.p.p.p.p.p.p.p.p.p.p.p.p.p.p.p.p.p.p.p.p.p.p.p.p.p.p.p.p.p.y.p.p.p.p.p.p.p.p.p.p.p.p.p.p.p.y.p.p.p.p.p.p.y.u.p.y.y.p.4.l v k = & & r.0XsXsXqXr.r.r.y.y.i.i.p.y.y.u.p.p.p.q.r.9.a.;X>Xs.r.r.q.q.r.r.r.r.r.r.r.r.r.r.r.r.r.r.r.r.r.r.r.r.p.a.a.a.a.a.a.a.a.a.a.a.s.a.p.a.y.r.r.r.r.r.r.r.r.r.r.r.r.q.q.q.q.q.q.q.q.q.q.9.q.9.9.9.9.8.9.9.9.9.9.8.8.7.7.7.%.$.2.O.z / / ( ( / ( / / / / / v v v l g l u y u 9 & + + v ..{ [ l l l l l l l l l l l l l l l l l l l l l l l l l l l l l l l l l l l l l l l l l l l l l k k k k k k k k g k g g k k l k l l k k k k k k k g g g g g g g g g g g g g g g g g g g g g g g g g g j g k k k g k k k g f u f u u f f u u f f f u f g c v c v v c $ o o o y f f g g f g g g g f v %.%.+.( c / c l l l l l l l l l l l l l l / l v ",
"$.>XbXnXvX<Xs.s.s.s.s.s.s.s.a.a.s.s.s.s.s.a.;X7.( ( ( u u g v ( ( u u u f u f & o o . y ) ( / v v c f u u f f u u f g f g g f g g g g g g l c / / [ [ [ [ | O.O.@.@.| | O.@.O.O.O.@.O.O.O.O.@.@.&.&.@.@.+.&.+.&.*.=.<.<.<.<.<.<.<.<.,.<.<.<.<.<.<.<.<.<.<.<.<.<.<.<.<.<.<.<.<.<.<.<.2.2.<.2.<.2.4.2.7.8.8.8.8.8.8.8.8.6XeXeX4.$ & y 2.8.4.3XsXtXeXq.r.q.q.r.r.q.r.r.r.r.r.r.q.r.y.y.r.r.r.y.y.r.r.y.y.y.y.r.r.r.y.y.y.p.u.p.y.r.p.p.p.p.p.p.p.p.u.y.p.p.p.p.p.p.p.y.p.p.p.p.p.p.p.p.p.p.p.p.p.p.p.p.p.p.p.p.p.p.p.p.p.p.p.p.p.p.p.p.p.p.p.p.p.p.p.p.p.p.p.p.p.p.p.p.p.p.p.p.p.p.p.p.p.p.p.y.y.p.4.l v k = & & y.9XsXsX0Xq.r.r.r.i.i.y.i.y.i.r.p.p.u.9.q.q.a.s.s.s.r.q.q.q.q.r.q.q.r.r.r.r.r.r.r.r.r.q.r.r.r.r.r.r.p.p.a.a.a.a.a.a.a.a.a.a.a.p.p.s.y.r.r.q.r.r.q.q.q.r.q.q.r.q.q.q.q.q.q.q.q.q.q.q.q.q.q.9.9.q.9.8.9.9.9.9.8.8.8.8.2.&.@.O.` { { / / / / v / / / / v v v c g k u y y 9 & + + v ....[ l l l l l l l l l l l l l l l l l l l l l l l l l l l l l l l l l l l l l l l l l l l l k k g k k k k k k k k k k k k k l k k k k k k k k k g g k g g g g g g g g g g g g g g g g g g g k k g g g k k j k g k k g g k f u u u u f f f f f f f u g v v c v v c $ o o o u g g g g g g g g g f v %.@.@.) l v v l l l l l l l l l l l l l l / / ( ",
"$.>XnXnXcX<X:Xs.s.s.s.s.a.a.a.a.p.a.s.s.a.a.s.7.( ( ( u u u z ' ( f f u f g f & o o . y ' / ( v v c f u u u u u u u f f g f f g f g g g k c c v / [ [ ] ] | | | @.@.O.O.| O.O.O.O.@.O.O.@.@.@.@.@.+.+.@.&.&.+.%.<.*.<.<.<.<.<.<.<.<.=.<.<.<.<.<.<.<.<.<.<.<.<.<.<.<.<.<.<.<.<.<.<.<.<.2.<.<.2.7.8.7.8.9.0.q.8.8.8.8.8.4XeXeX4.$ & q <.8.4.3XsXtXeXq.q.q.q.r.r.q.q.q.r.r.r.r.r.r.r.r.r.r.y.y.y.y.r.y.y.y.r.r.y.r.y.p.y.p.p.p.p.p.p.y.p.p.p.p.p.p.p.p.p.p.p.p.p.u.p.p.p.p.p.p.p.p.p.p.p.p.p.p.p.p.p.p.p.p.p.p.p.p.p.p.p.p.p.p.p.p.p.p.p.p.p.p.p.p.p.p.p.p.p.p.p.p.p.p.p.p.p.y.p.p.p.p.i.p.p.p.p.p.4.l v k = & & y.0XsXsX0Xq.r.y.y.i.p.r.y.p.p.p.p.p.i.r.q.9.i.s.s.s.r.q.r.r.q.q.q.q.q.q.q.9.q.r.r.r.r.r.r.r.9.r.r.r.a.a.a.a.p.a.a.p.a.a.a.a.a.s.a.a.y.r.r.r.r.q.q.r.q.q.r.q.r.q.9.q.q.q.q.q.q.q.q.q.q.9.q.9.9.9.9.9.9.9.9.9.8.8.8.9.7.=.1.=.O.@.O.) / v / / / / / / / / v c g k u y y 9 & + + / ....[ l c l l l l l l l l l l l l l l l l l l l l l l l l l l l l l l l l l l l l l l l l l l k k g k k k k k k g k k k g g k g k k k k k k k k k g k g g g g g g g g g g g g g g g g g g g g k g g k g k g g k k g g k g k g u f f u g f u f u u u u g v v v v v c + o o . y g g g g f g g g g f v %.%.%.) l c c l l l l l l l l l l l l l l [ [ [ ",
"%.>XnXnXbX<Xs.s.s.s.a.a.s.s.a.p.p.a.s.a.p.s.;X7.( ( / u q y f k g f f f f f f * o o o y ) v ( v v c f f u u u u u u f f f g g g f g g g g l c v / ] [ [ [ { | | | O.O.O.| | O.O.@.O.@.O.@.@.@.@.@.@.@.@.%.*.+.+.*.<.<.<.<.<.<.<.<.<.<.<.<.<.<.<.<.<.<.<.<.<.<.<.<.<.<.<.<.<.<.<.2.<.2.2.<.<.<.7.q.8.7.7.8.8.8.8.8.8.7.6XqXeX4.& & w <.7.7.3XsXsXeXr.r.r.q.r.q.r.r.r.r.r.r.r.r.r.r.y.r.r.y.r.r.r.y.y.y.y.y.y.p.p.p.p.p.y.y.p.p.p.p.p.p.p.p.p.p.p.p.p.p.p.y.u.p.p.p.p.p.p.p.p.p.p.p.p.p.p.p.y.p.p.p.p.p.p.p.y.p.p.p.p.p.p.p.y.p.p.p.p.p.p.p.y.p.p.p.p.p.p.p.y.p.p.p.p.p.p.y.y.p.p.p.p.y.y.y.y.u.p.4.l v k = & & y.9XsXsX9Xr.r.y.i.i.r.y.p.p.p.s.s.s.s.s.p.y.a.s.:Xs.r.r.r.r.r.r.r.r.q.r.r.q.q.r.r.r.y.r.q.e.9.r.i.r.a.a.a.a.a.a.a.p.p.a.a.a.a.a.a.a.y.r.r.r.r.r.q.q.q.q.r.q.q.q.q.q.q.q.q.q.q.9.q.q.9.9.q.9.q.9.9.9.8.9.9.8.8.8.8.8.2.2.7.=.| +.{ / z v ( ( / / ( / / / / l g k u y u 9 & + + / ..{ [ l l c l l l l l l l l l l l l l l l l l l l l l l l l l l l l l l l l l l l l l l l l l g k k k k k k k k g k k g g g g k g k k k k k g k k g g g g g g g g g g g g g g g g g g g g g g g g g g g g g g g g g g g g g f u u f f f f u f f u u u g v v v v v v $ o o o u g g g g f g g f g f / *.%.%.' c c l l l l l l l l l l l l l l v ( ( ' ",
"%.>XbXnXvX<X:Xs.s.s.s.a.s.a.a.p.a.a.a.a.s.s.s.7.( ( ( u y u u u u u u f f f f * o o o y ) / ( v v c f f d f f u y u f f f g g g g g g f g c c v / [ [ [ [ | | | | | | O.| O.O.@.O.@.@.O.@.@.@.@.@.+.@.@.+.&.+.@.&.*.=.<.<.=.<.=.,.<.<.<.<.<.<.<.<.<.<.<.<.<.<.<.<.<.<.<.<.<.<.<.<.<.2.<.<.2.2.4.8.7.7.7.8.8.8.8.8.8.7.6XwXeX3.& & q 2.9.7.3XsXsXeXr.q.q.q.r.r.r.r.r.r.r.r.r.r.r.p.y.y.r.r.r.r.r.r.r.y.r.y.y.r.y.r.r.r.r.y.p.y.y.p.p.p.p.p.p.p.p.p.p.u.p.p.p.p.p.u.p.p.p.p.p.p.p.p.p.p.p.p.p.p.p.p.p.p.p.p.p.p.p.p.p.p.p.p.p.p.p.p.p.p.p.p.p.p.p.p.p.p.p.p.p.p.p.p.p.p.p.p.p.p.p.p.p.p.p.p.y.y.p.6.l v k = & & y.0XsXsX9Xq.y.i.p.p.y.p.p.y.p.a.;X:Xs.s.s.s.a.a.p.i.r.q.q.q.r.q.r.r.r.r.r.r.r.i.p.p.p.p.r.9.9.r.r.y.a.a.s.s.a.a.p.a.a.a.a.a.a.a.a.a.r.r.r.r.r.r.r.q.r.q.q.q.r.q.q.q.q.q.q.q.q.9.q.9.q.q.9.9.9.9.q.9.9.8.9.9.8.8.9.9.8.8.4.<.O.%.+.' / ( ( ( ( / / v / / / l g k u y u 9 & + + v ....[ l l l l l l l l l l l l l l l l l l l l l l l l l l l l l l l l l l l l l l l l l l l l k k g k k k k k k k k k g k g k k k g k k k g k g g g g g g g k k g g g g g g g g g g g g g g g g g k g g g g g g g g g g g k g f g f f f f f u u f u u g v v v v v v $ o o o u g g g g f g g g g g / *.*.%.) l l c l c l l l l l l l l l l l l ' [ v ",
"%.>XbXnXcX>Xs.s.s.s.s.s.s.a.s.a.p.p.a.a.s.s.s.7.( ( ( f u g f f k d f g u f f & . o o y ) / / / v c f f u u u u u f g f f g g g g g g f g c c v / [ [ [ [ | O.O.O.| O.O.@.@.@.@.O.@.@.@.@.@.@.+.+.+.&.@.@.@.@.@.%.*.=.<.<.<.=.=.<.<.<.<.<.=.=.<.<.<.<.<.<.<.<.<.<.<.<.<.<.<.2.<.<.<.2.2.<.<.2.7.8.8.8.8.8.8.8.8.8.8.8.4XqXeX6.& & u <.7.7.2XsXaXeXr.q.r.r.y.r.r.r.r.r.r.p.y.y.y.y.y.r.r.r.r.r.y.y.r.r.r.r.r.r.p.y.r.r.r.y.r.y.p.p.u.p.p.u.r.p.y.y.p.u.u.p.p.p.p.p.p.u.p.p.p.p.p.p.p.p.p.p.p.p.p.p.p.p.p.p.p.p.p.p.p.p.p.p.p.p.p.p.p.p.p.p.y.p.p.p.p.p.p.p.p.p.p.p.p.p.p.p.p.p.p.p.p.p.r.y.p.y.p.6.l v k * & & y.0XsXsX9Xq.y.i.y.p.p.p.i.p.s.s.s.s.s.s.s.s.p.s.p.r.r.r.q.r.r.r.r.r.q.q.y.i.y.p.y.p.y.i.i.r.r.r.r.a.a.a.a.s.a.a.a.a.a.s.a.a.a.p.p.p.r.r.q.q.r.r.r.q.q.q.q.r.q.q.q.q.9.q.q.q.q.q.9.9.9.q.9.q.9.9.9.9.9.9.9.9.9.9.9.9.8.8.9.7.2.4.2.O.} ) ' ( v / / v / / / l g k u y u 9 & + + / ....[ l l l l l l l l l l l l l l l l l l l l l l l l l l l l l l l l l l l l l l l l l l l l l k k k k k g k g g k k g g g k k g k k k k g k g g g g g g g g g g g g g g g g g k g g g g g g g j g g k k k k k k j j k k g j k k g g f f u u f f f u g c v v v v v + o o o u g g g g g g g g g g / *.*.*.) l c l l l l l l l l l l l l l l l ( ) l ",
"*.>XbXnXvX>Xs.s.s.s.s.s.s.a.a.p.p.p.p.p.p.a.;X7.( ( ( f u u u f k f k k f g f & o o . y ) ( / v v c u f d f f f f f f f f g f g g g g g g l z c / [ [ [ [ | O.O.O.@.O.O.O.O.O.O.O.O.O.O.O.@.@.+.+.+.@.$.@.&.&.@.<.<.,.<.<.=.<.<.<.<.<.<.<.<.<.<.<.<.<.<.<.<.<.<.<.<.<.<.<.<.<.<.<.<.2.<.2.2.2.8.9.8.0.9.8.8.8.0.8.8.8.6XeXeX6.& & u 2.8.7.2XsXtXqXr.r.r.q.q.q.q.r.r.r.y.y.y.r.r.r.r.r.r.y.p.y.y.y.r.y.r.r.y.y.p.y.p.u.y.p.p.p.p.p.p.p.y.p.p.p.u.u.y.p.p.u.p.p.p.p.p.p.p.u.p.p.p.p.p.p.p.p.p.p.p.p.p.p.p.p.p.p.p.p.p.p.p.p.p.p.p.p.p.p.p.p.p.p.p.y.p.p.p.p.p.p.p.p.y.p.p.p.p.p.p.y.p.p.y.y.r.y.p.6.l v k * & & y.0XsXsX0X9.y.y.i.p.p.i.p.r.r.r.q.r.r.r.r.r.r.y.r.r.r.q.q.r.r.r.r.q.r.r.p.p.a.p.r.y.y.y.p.i.p.p.y.p.a.a.a.a.a.a.a.a.a.a.a.y.r.r.r.r.r.q.q.r.q.q.r.q.q.q.q.r.q.q.q.q.q.q.q.q.q.q.q.9.q.q.q.q.q.q.q.9.9.9.9.9.9.9.q.9.8.8.9.7.6.7.2.O.+.( ( v v / ( / v / / l g l f y u 9 & + + v ..{ [ l l l l l l l l l l l l l l l l l l l l l l l l l l l l l l l l l l l l l l l l l l l l l k k k g l k k k k k l k g k g g k k k g k g g g g g g g g g g g g g g g g g g g g g g g g g j k k g g g k k k g k k k g k k k g j g g f f f f f f f f g c v v v v v + o o o y g g g g g g g g g g v +.@.@.( l l l c c l l l c c c l l l l l l l l v ",
"%.,XnXnXcX<Xs.s.s.s.s.s.s.a.a.p.p.p.a.p.a.a.a.5.( ) / f f k c c z l l g k f d & o o . y ) / / v v v f f u d f f f f f f g g g g g g g g g l z / / [ [ [ [ | O.O.O.O.| O.O.O.O.O.O.@.O.O.O.@.@.@.@.@.+.@.@.*.<.*.*.*.<.<.<.<.<.<.<.<.<.<.<.,.<.<.<.<.<.<.<.<.<.<.<.<.<.<.<.<.<.<.<.<.<.2.<.2.2.7.8.8.8.9.8.8.8.8.8.8.7.6XeXqX6.& & u 2.8.7.2XsXaXeXr.r.r.q.q.q.r.q.r.r.y.r.r.r.r.r.r.y.r.y.r.r.y.r.y.y.y.y.y.p.p.p.p.p.p.p.y.y.y.p.u.p.y.p.p.p.p.p.y.p.p.p.p.p.p.p.p.p.p.p.p.p.p.p.p.p.p.p.p.p.p.p.y.p.p.p.p.p.p.y.y.p.p.p.p.p.p.y.y.p.p.p.p.p.p.y.y.p.p.p.p.p.p.y.y.p.p.p.p.p.y.p.y.p.u.p.i.y.p.6.l v k * & & y.qXsXsX0X9.y.y.p.y.u.i.p.q.9.9.9.r.q.q.q.9.r.r.r.r.q.r.q.r.r.q.q.q.q.r.i.y.y.p.i.p.p.i.i.i.y.p.a.p.a.a.a.a.a.a.a.a.a.a.a.y.r.r.q.q.q.r.q.q.q.q.r.q.q.r.q.q.q.r.q.q.q.q.q.q.q.q.q.q.q.q.q.9.9.q.9.9.9.8.9.9.9.8.8.9.8.8.8.7.7.8.2.%.%.[ { ' / / ( / / / / l g l f y u 9 & + + v ....[ l l l l l l l l l l l l l l l l l l l l l l l l l l l l l l l l l l l l l l l l l l l l l l l l l l l k k l l l k g k g g g k k g k k g k k g g k g g g g g g g g g g g k g g g g g g k g k g k j g k g g g g g k k k k g g g g f u u u f f u u g c v v v v v $ . . o y f g g g f g g f g f v +.+.+.( l l l c l l l c ( ' ' v l l l l l l l v ",
"%.>XnXvXcX>Xs.s.s.s.s.s.s.s.a.a.a.p.p.p.p.p.a.4./ ( v f f v [ ( [ [ f y y q y * . o . y ' / / v v c f f f f f f f f g f g g g g g g g g g l c / / [ [ [ [ { | | | | | | O.O.@.@.O.O.@.O.@.O.@.@.@.O.+.@.+.=.<.*.<.<.<.<.*.*.<.<.<.<.<.<.<.<.<.<.<.<.<.<.<.<.<.<.<.<.<.<.<.<.<.<.<.<.<.<.2.4.4.2.7.0.8.8.8.8.8.8.8.8.8.6XqXeX6.& & y 2.8.7.2XsXaXeXr.q.r.q.r.r.r.r.r.r.r.r.r.y.y.r.r.y.r.r.y.y.y.r.p.y.y.r.r.y.y.p.u.r.y.y.y.y.r.r.r.p.y.p.p.p.p.p.y.y.p.u.u.p.p.p.p.p.p.p.p.p.p.p.p.p.p.p.p.p.p.p.p.p.p.p.p.p.p.p.p.p.y.p.p.p.p.p.p.p.p.p.p.p.p.p.p.p.p.p.p.p.p.p.p.p.p.p.p.p.p.p.p.p.r.u.y.r.a.4.l v l = & & y.qXsXdX9Xq.y.r.r.y.i.i.p.r.r.q.9.q.r.r.9.9.r.r.r.r.q.r.r.q.r.r.q.r.r.r.r.r.p.p.p.p.p.p.p.p.y.a.a.p.s.s.s.a.a.a.p.a.s.a.p.p.q.r.q.q.q.r.r.r.r.q.q.q.q.q.r.r.q.q.q.q.q.q.q.q.q.q.q.9.9.q.9.9.9.9.9.9.9.9.8.9.9.9.9.9.8.9.8.8.8.8.7.6.2.@.%.O./ / / / / / / c g l f y u 9 & + + v ....[ l l c l l l l l l l l c l l l l l l l l l l l l l l l l l l l l l l l l l l l l l l l l l l l l l l l l l g l l l k k k k k k g g k k g g g g g g g g g g g g k k g g g g g k g g g g g k g k g g j g k k k g k g k g g k k g g u u u f u u u u g v v v v / v $ . o o u f f g g g g g g g f v +.+.+.( l l l l l c l c ' ( [ ' l l l l l l l v ",
"%.>XbXvXcX>Xs.s.s.s.s.a.s.a.a.a.a.p.a.a.p.p.s.4.( ( v f g v [ ) [ [ k q 9 q u & o + + y ' / / / / v f f f f f f f g g g g g g g g g g g g c l / / [ [ [ [ | O.| O.| | O.O.@.@.@.@.@.O.O.@.O.@.O.@.@.*.*.*.*.*.<.<.<.=.,.<.<.<.<.<.<.<.<.<.<.<.<.<.<.<.<.<.<.<.<.<.<.<.<.<.<.<.<.<.<.<.2.7.8.7.7.8.8.8.8.8.8.8.9.9.8.8.9XeXeX6.& & u 2.7.8.2XsXtXeXr.q.q.r.r.r.r.y.y.y.r.r.r.y.y.u.y.r.r.r.y.y.y.y.y.p.p.y.y.p.u.p.p.y.y.p.y.u.p.p.y.y.r.p.p.u.p.p.p.p.p.p.p.p.p.p.y.p.p.p.p.p.p.p.p.p.p.p.p.p.p.p.p.p.p.p.p.p.p.p.p.p.p.y.p.p.p.p.y.p.p.p.p.p.p.p.p.p.p.p.p.p.p.p.p.p.p.p.p.p.p.p.i.p.p.p.p.p.a.4.l / l = & & i.qXsXsX9X9.r.r.r.y.r.r.i.9.9.q.9.q.q.9.9.9.r.r.r.r.r.r.r.r.q.q.q.q.r.r.r.r.p.p.p.p.p.p.p.p.p.a.a.a.s.a.s.a.a.a.p.a.a.a.p.p.q.r.q.q.q.q.r.r.q.q.q.q.q.q.q.r.q.q.q.q.q.q.q.q.q.q.q.q.9.9.9.9.9.9.q.9.9.9.8.9.9.9.8.8.9.9.8.8.8.8.7.8.2.O.O.O.( v ( / c v / l g l f y u 9 & + + v ..{ [ c l c c l l l l l l l l l l l l l l l l l l l l l l l l l l l l l l l l l l l l l l l l l l l l l l l l l l l l h k k k k g k k g k k g g g g g g g g g g g g g g g g g k j g g g g g g k k k k g k k k k k g g g k j k k k k k u u f u u u f u g v v v v ( v + o o o y g g f f g g g g g f v +.+.+.( l l l l l l l l ` [ ' ( l l l l l l l v ",
"%.;XbXnXcX,Xs.s.s.s.s.s.s.a.a.p.a.s.a.a.a.a.s.2.( ( v k f l ( [ { [ g q y q y & . + + y ' ( ) / / v f f f u f f f g g g g g g g g g g g g c v / / [ [ [ [ { | | O.| O.O.O.O.@.@.| @.@.@.@.O.O.O.@.&.&.$.*.=.*.*.*.*.,.=.<.<.<.<.<.<.<.<.<.<.<.<.<.<.2.<.<.<.<.<.<.<.<.<.<.<.<.<.<.<.<.6.0.8.7.8.8.8.8.8.8.8.8.8.8.8.8.6XeXeX3.& & q <.7.7.2XsXtXqXr.r.r.r.r.r.y.y.r.r.r.r.r.y.y.y.y.r.r.r.y.p.y.p.y.y.y.y.p.y.p.p.p.p.u.p.y.p.p.p.p.y.p.p.y.p.i.p.p.p.p.p.p.p.p.p.p.p.p.p.p.p.u.p.p.p.p.p.p.p.y.y.p.p.p.p.p.p.p.p.p.p.p.p.p.p.p.p.p.p.p.p.p.p.p.p.p.p.p.p.p.p.p.p.p.p.p.p.p.p.p.p.p.p.y.p.p.y.p.4.l v l = & & y.9XsXsX9X9.r.r.r.y.y.i.p.q.q.q.q.r.q.9.q.9.q.r.r.r.r.r.r.q.y.r.y.p.r.r.r.r.i.a.a.a.p.p.p.p.p.i.a.p.s.p.s.p.p.p.p.a.y.p.y.r.r.q.q.q.q.q.r.q.q.q.q.q.q.q.q.r.q.q.q.q.q.q.q.q.q.q.q.q.9.9.9.9.9.9.9.9.9.9.9.9.8.8.9.8.9.8.8.8.8.8.7.8.2.@.=.%.[ [ [ / z v / c k l f y u 9 & + + v ....[ l l c c c l l l l l l l l l l l l l l l l l l l l l l l l l l l l l l l l l l l l l l l l l l l l l l l l l l g h g k k k g k g k k k k g g g g g g g g g g g k g g g g k j g g g k g k k g j g k g g j g g k k j k g g k k k k g u f u f f u f g v v / / ( v + o o o u g g g f f g g g g f v @.+.+./ l c l l l l l l v ( v l l l l l l l l v ",
"%.s.bXnXcX>Xs.s.s.s.a.a.a.s.s.a.s.a.a.a.a.a.;X7.) ' ( k f c ) [ { [ k u f y u & o + . u ' ) ( / v v f f f u f f g g g g g g g g g g g g g c c c / [ [ [ [ { O.O.O.O.| O.O.@.@.@.@.@.@.@.@.O.@.@.@.&.&.&.=.<.*.*.*.*.<.<.<.<.<.<.<.<.<.<.<.<.<.<.<.<.<.<.<.<.<.<.<.<.<.<.<.<.<.<.<.<.<.4.8.8.7.8.7.8.8.8.8.8.8.0.8.8.7.6XeXeX3.& & y <.7.7.2XsXsXeXr.y.r.r.r.r.r.r.r.r.r.r.r.y.y.y.y.r.y.r.y.p.y.y.y.p.r.p.p.y.p.y.p.y.r.y.y.p.p.p.y.y.y.y.y.p.p.u.p.r.p.y.y.p.p.p.p.p.p.p.y.p.p.p.p.p.p.p.y.p.p.p.p.p.p.p.y.p.p.p.p.y.p.p.y.p.p.p.p.p.p.p.y.p.p.p.p.p.p.p.y.p.p.p.p.p.y.y.y.p.p.p.p.p.y.y.y.p.p.4.l v l = & & r.9XsXsX9X9.r.r.p.p.r.r.p.q.q.q.q.r.q.r.r.9.r.r.r.r.r.r.r.y.>X:Xs.;Xp.r.r.y.p.p.p.a.p.p.p.p.p.p.a.i.s.y.r.r.q.r.r.r.r.e.q.r.q.q.q.q.q.q.r.r.q.q.q.q.q.q.q.q.q.q.q.q.q.q.q.q.9.q.q.q.q.q.9.9.q.9.8.8.8.8.9.9.8.9.9.8.8.8.9.8.8.8.8.8.7.4.7.1.+.@.@.' v / / v k l f y u e & o + v ....[ l l c c c l l l l l l l l l l l l l l l l l l l l l l l l l l l l l l l l l l l l l l l l l l l l l l l l k l l l g k k k k k k g k k k k g g g k g k k g g g g g g g g g g g g g g k g k g k g g k g g g g g g g g g g g g g g f f u u f f u f g v v v v / v + o o o u g g g f g k g g g f v @.%.+./ l l l l l l l l l l l c l l l l l l l c ",
"+.s.vXbXlX>Xs.s.s.s.a.a.a.a.a.a.a.p.s.s.p.a.;X7.( ) ( g f v ' [ [ [ l u f f f * o + o y ' ( ( v v v f f f f f f f g f f g g g g g g f g g v v v / [ [ [ [ { O.O.O.| | O.O.O.O.@.@.@.+.@.@.@.*.=.*.*.*.*.<.<.=.<.=.*.<.<.<.<.=.<.<.<.<.<.<.<.<.<.<.<.<.<.<.<.<.<.<.<.<.<.<.<.2.<.<.<.<.2.7.8.8.8.8.8.8.8.8.8.0.0.8.8.8.6XeXeX6.& & q <.8.7.2XsXtXeXr.y.r.r.r.y.r.q.r.y.y.r.r.r.r.r.r.y.r.y.p.r.y.r.r.r.y.u.r.p.y.y.y.r.y.y.r.u.p.p.r.y.y.y.r.y.y.y.p.r.y.y.y.r.r.u.p.y.p.p.p.p.p.p.p.p.y.y.p.p.p.p.p.p.p.p.p.p.p.p.p.p.p.p.p.y.p.p.p.p.p.p.p.p.p.p.p.p.p.p.p.p.p.p.p.p.p.p.p.p.p.p.p.p.p.p.y.p.p.4.l c l * & & y.9XsXsX9Xq.y.y.y.p.r.q.r.9.9.9.q.q.r.r.r.q.q.q.r.r.q.r.r.s.;X;X;Xs.a.r.r.y.a.a.p.p.p.i.p.p.p.p.p.r.r.q.q.r.r.r.q.r.r.r.r.r.q.r.r.q.r.q.q.q.q.q.q.q.q.q.q.q.q.q.q.q.q.q.q.q.9.q.q.q.q.q.9.9.q.9.9.8.9.9.9.9.9.9.9.9.8.8.8.8.8.8.8.9.7.7.7.4.@.O.O.) / / / l k l f y u 9 & + + v ....[ l l l c l l l l l l l l l l l l l l l l l l l l l l l l l l l l l l l l l l l l l l l l l l l l h l l l k k l k k k k k k k k k k g k k k g g g g g k g g g g g g g g g g g g g g g g g g g g g g g g g g g g g g g g g g g g g f u u u f u f u g v v v v ( v + o . o u g g g g g g g g g g v @.%.@./ l l l l l l l l l l l l l l l l l l l c ",
"O.s.vXbXcX>Xs.s.s.s.s.a.s.p.s.s.s.a.a.s.s.s.:X7.( ( v f u v [ [ [ [ l u u f f * o o . y ' ( ( / v v f f f f f f f g g g g g g g g g g g k c c v / [ [ { [ { O.| | | O.O.O.O.@.@.+.@.@.@.@.@.%.=.*.*.=.=.<.<.=.,.<.=.<.<.<.<.<.<.<.<.<.<.<.<.<.<.<.<.<.<.<.<.<.<.<.<.<.<.<.<.<.<.<.<.<.4.8.7.8.8.8.8.8.8.8.8.8.0.8.8.8.6XeXeX4.& & y <.8.7.2XsXtXqXr.r.r.r.r.r.r.q.r.r.r.r.r.r.r.r.r.y.y.u.r.y.y.y.y.r.y.u.p.u.r.y.p.y.y.y.y.r.y.y.y.p.r.y.p.p.p.p.p.p.p.p.y.y.p.p.p.p.p.p.p.p.p.p.p.p.p.p.p.p.p.p.p.p.p.p.p.p.p.p.p.p.p.p.y.p.p.p.p.p.p.p.p.p.p.p.p.y.p.p.p.p.p.p.p.p.p.p.p.p.p.p.p.p.y.p.y.y.a.4.l v l = & & i.qXsXgX9X9.y.p.y.p.p.r.q.q.q.9.q.r.r.r.r.r.r.r.r.r.r.r.r.s.s.s.;Xs.a.r.r.y.p.p.p.p.p.p.p.p.y.i.p.p.r.q.r.q.r.r.q.r.r.q.q.q.q.q.q.q.q.q.q.q.q.r.r.q.q.q.q.q.q.q.q.r.q.q.q.q.q.q.q.q.q.q.q.9.q.q.9.9.9.9.9.9.9.9.9.9.9.8.8.9.8.9.9.9.8.7.7.4.*.$.#.{ ` / ( c g l f y u 9 & o + v ....[ l l c l l l c l c l l c l l l l l l l l l l l l l l l l l l l l l l l l l l l l l l l l l l l l l l l l k g g k k k k k g g g g g g k g g g g g k g g g g g g g k k g g k k g k g g g k g g g g g g g k k k g g k j k g k k g g g u u f f u f u g v v v / / c + . o o u g g g f f g f f g g v @.%.+./ l l l l l l l l l l l l l l l l l l l c ",
"+.s.vXvXcX>Xa.a.s.s.s.a.a.a.s.s.a.a.a.s.s.s.:X7.( ( v f u l [ [ [ [ k u f f f * o + . y ' / / v v c f f f f f f g g g g k g k k k k k g k c v / / [ [ { { { O.| | | O.O.@.@.+.+.&.@.@.@.@.@.*.*.,.*.=.*.,.=.<.,.<.*.*.<.*.=.<.<.<.<.<.<.<.<.<.<.<.<.<.<.<.<.<.<.<.<.<.<.<.<.<.<.<.<.<.7.8.8.7.8.8.8.8.0.8.8.0.8.8.8.8.6XqXeX6.& * y <.8.7.2XsXtXeXq.r.r.r.y.r.r.r.r.r.r.y.y.r.r.r.y.y.r.y.r.y.y.y.p.r.p.y.y.p.p.p.p.p.p.p.y.y.p.p.p.p.p.u.p.p.p.p.p.p.p.p.p.p.p.p.p.p.p.p.p.p.p.p.p.p.p.p.p.p.p.p.p.p.p.p.p.p.p.p.p.y.p.p.p.p.p.p.p.p.p.p.p.y.p.p.y.p.p.p.p.p.p.p.y.p.p.p.p.p.p.y.p.p.p.u.p.p.a.6.l v l 3 & & i.9XsXsX9X9.y.i.p.i.r.r.r.9.9.9.q.r.r.r.q.r.r.r.r.r.r.r.r.s.>X>Xs.>Xs.r.r.y.y.i.y.y.p.p.p.p.p.p.r.r.q.q.q.r.r.r.r.r.r.q.q.q.q.r.r.q.q.q.q.q.q.q.r.q.q.q.r.q.q.q.q.q.r.q.q.9.q.q.9.q.9.q.q.q.q.9.9.9.q.9.9.9.9.9.9.9.9.9.9.8.8.9.9.9.8.8.8.7.6.4.1.2.O...{ / g k f y u 9 & + + v ....[ c l l l l l c c c c l l c l l l l l l l l l l l l l l l l l l l l l l l l l l l l l l l l l l l l l l k g g k g g g g k k g g g g g g k g g k g g g g g g k k g k k g g g k k g g k g g k k g g k k k k k k k k k k k k k k g g g f f f f f f u g v v / v ( v + . . o y g g g f g g g g g g v @.%.+./ l l l l l l l l l l l l l l l c l l l z ",
"O.s.cXvXxX>Xa.a.a.s.s.a.a.a.s.a.a.a.a.s.s.s.s.6.( ( v u u l ( [ [ [ k u f f g * o + . y ) / ( / v v f f f f f f f g g g g g f g g k g g k l v / / [ [ [ [ { | | | | O.O.O.O.@.&.&.$.@.@.@.+.*.*.*.<.*.=.<.<.,.<.<.=.,.<.*.=.<.<.<.<.<.<.<.<.<.<.<.<.<.<.<.<.<.<.<.<.<.<.<.<.<.2.2.2.2.8.8.8.8.8.8.8.8.8.8.8.8.8.8.8.8.9XeXeX7.& & y <.8.7.2XsXtXeXq.r.r.r.r.y.r.r.r.r.y.y.y.y.y.r.y.y.r.r.r.y.r.y.p.y.y.u.y.p.p.u.r.i.y.p.y.y.p.p.p.p.r.p.p.u.p.p.p.p.p.p.p.p.p.p.p.p.p.p.p.p.p.p.p.p.p.p.p.p.p.p.y.p.p.p.p.p.p.y.y.p.p.p.p.p.y.p.y.p.p.p.p.p.p.y.y.p.p.p.p.p.p.y.y.p.p.p.p.p.p.y.y.p.p.u.u.p.a.6.l v l = & & i.9XsXsX9X9.r.r.r.r.r.q.r.q.q.9.r.q.r.r.r.q.r.r.r.r.q.r.9.y.s.s.i.a.y.r.r.r.y.y.p.y.p.p.p.p.p.y.r.r.r.r.r.r.r.r.r.r.r.r.r.r.r.q.r.r.r.r.q.q.q.q.q.r.r.r.q.q.q.r.q.q.q.q.q.q.q.q.q.q.q.9.9.q.9.9.9.9.9.9.9.9.9.9.9.9.9.9.9.9.8.8.9.8.8.8.9.7.7.6.4.4.@.O.../ f k f y u 9 & + + / ....[ c l l l l l l l l l c l l l l l l l l l l l l l l l l l l l l l l l l l l l l l l l l l l l l l l l l l g g k k g g g g g g k k g k g k k k k g g g g k k g g g g k g g k k k g g k k g k k k k k k k k g k j g g k k g k g g g g g g g f f u u g v v v / ( v + o o o y g g g g g g g g g g v %.%.+./ l c l l l l l l l l l l l l l l l l l l ",
"O.s.cXvXvX>Xs.a.s.s.s.a.a.s.s.s.a.s.a.s.s.s.s.5.( ( v u u v ` [ [ ' k f u f f * o + o y ) ( ) / v v f f f f g g g g g g g g g g g g k g k l v / / [ [ [ [ { | | | | O.O.O.O.+.+.@.@.+.@.@.@.*.=.*.<.=.*.<.=.<.<.<.<.<.<.<.<.<.<.<.=.<.<.<.<.<.<.<.<.<.<.<.<.<.<.<.<.<.<.<.<.=.7.8.8.8.7.8.7.8.8.8.8.8.8.8.0.8.0.8.8.8.9XeXeX7.& & q <.8.7.2XsXtXeXr.r.r.q.r.r.r.y.y.y.y.y.r.r.r.y.y.y.r.r.r.r.r.r.r.y.r.u.p.p.p.u.y.r.y.r.r.u.p.r.p.r.p.y.p.y.y.p.r.y.p.y.p.p.p.p.u.y.p.p.p.p.p.p.p.p.p.p.p.p.p.p.p.p.p.p.y.p.p.p.y.p.p.p.p.p.p.p.p.y.y.y.p.p.p.p.p.p.p.p.y.p.p.p.p.p.p.p.u.p.p.p.p.p.y.p.p.p.p.6.l v l = & & y.9XsXsX9X8.q.q.r.r.r.r.r.9.q.q.q.q.q.q.q.q.y.a.s.p.q.q.q.q.q.q.q.9.r.y.y.y.p.i.i.p.p.p.p.y.y.p.y.r.r.r.r.r.r.r.r.r.r.q.q.q.r.q.q.q.q.q.q.q.q.q.q.q.q.q.q.q.q.q.r.q.q.q.9.q.q.q.q.q.q.q.q.q.q.q.9.9.9.9.9.9.9.9.9.9.9.9.9.9.9.9.8.9.9.9.9.9.4.4.7.2.| { ..[ k c g y u 9 & + + ( O...{ c / l l c l l l l l l l l l l l l l l l l l l l l l l l l l l l l l l l l l l l l l l l l l l l l l l l g k k k l l k g k k h k k k k g g k g g k g g g k g g g g k k k g k k g g g k k k g g k g k k g g g g g g g k k g g g g g g g g g f f f g v v v / ( v $ o o o u g f g g g g g g g g v %.%.+.( l l l l l l l l l l l l l l l l l l l l ",
"..a.cXvXvX>Xs.s.s.s.s.a.a.s.s.a.a.s.a.a.a.a.s.6.( ( / u u v ' [ ] [ k u d f g * o + . y ' ( ) / / / f f f f f g g g g g g k g k k g g g g l v / / [ [ [ [ { O.O.O.@.O.@.@.@.@.@.+.@.@.@.@.@.*.*.<.<.*.,.<.<.,.<.=.<.<.=.<.<.<.<.<.<.<.<.<.<.<.<.<.<.<.<.<.<.<.<.<.<.2.<.<.2.<.7.8.7.8.8.8.8.8.8.8.8.8.8.0.0.0.0.8.8.8.9XqXeX7.& & q <.8.4.2XsXtXqXr.r.q.r.r.r.r.r.r.r.r.r.y.y.r.y.p.y.y.r.r.r.y.r.y.p.r.r.p.p.p.p.y.r.u.u.r.p.p.p.p.p.y.p.y.p.p.u.y.y.p.y.p.p.p.u.p.p.p.y.p.p.p.p.p.p.p.p.p.p.p.p.p.p.y.y.p.p.p.p.p.p.p.p.p.p.y.p.y.p.p.p.p.p.p.p.p.p.p.p.p.p.p.p.p.p.p.p.p.p.p.p.y.p.p.p.i.i.p.7.l v l = & & y.9XsXsX9X8.q.r.r.r.r.q.r.q.9.q.q.q.q.q.r.q.r.s.s.s.q.q.q.9.q.r.q.q.r.r.y.y.p.i.i.y.y.y.y.r.r.r.r.r.r.r.r.r.r.r.q.r.r.q.q.q.q.q.q.q.r.q.q.q.q.q.q.q.q.q.q.q.q.q.q.q.q.q.q.q.r.r.y.q.q.q.q.q.q.q.9.9.9.9.9.9.9.9.q.9.9.9.9.9.9.9.8.9.9.9.9.7.7.7.7.4.*.*.=.+.l / g y i e & + + ) O...[ z l l l l l l l l l l l l l l l l l l l l l l l l l l l l l l l l l l l l l l l c l l l l l l l l l l l h k k k k k k k k k g g k k k k k k g k g g g g g g g k k g g k g g g g g k k g j g g g k g g g g g g g g g g g g g g g g g g g g u f f g v v / v ) v $ o o o y f f g g g g g f g g / @.%.+./ l l l l l l l l l l l l l l l l l l l l ",
"..s.vXbXcX>Xs.s.s.s.a.a.a.a.a.a.p.p.p.p.p.p.s.2.( / / f g v ( ( ( ) k f f f f & o o . y ) ( ) v / / f f f f g g g g g g g g g g g g g g g c v / / [ [ [ [ { O.O.O.@.O.O.O.O.@.@.@.@.@.@.@.@.*.=.*.<.*.,.<.<.<.<.<.<.<.<.<.<.<.<.<.<.<.<.<.<.<.<.<.<.<.<.<.<.<.<.<.<.2.<.<.2.<.7.8.8.8.8.8.8.8.8.8.0.8.8.0.8.8.8.8.8.8.9XqXeX6.$ & q <.7.7.2XtXtXqXr.q.q.r.r.r.r.r.r.r.r.r.r.r.r.r.r.y.y.y.r.r.r.r.p.p.y.r.u.p.p.p.p.r.p.i.p.p.p.y.p.p.p.u.y.y.p.p.p.p.p.r.r.p.u.p.p.p.p.p.p.p.p.p.p.p.y.p.y.y.p.y.y.p.p.p.p.p.p.p.p.p.p.y.p.p.y.p.p.p.p.p.p.p.p.p.p.p.p.p.p.p.p.p.p.p.p.p.p.p.p.p.p.p.p.y.p.p.p.7.l v k = & & i.9XsXsX9X8.q.q.q.r.r.q.r.q.9.q.q.q.q.q.r.q.r.:Xs.a.q.q.9.q.r.q.q.q.q.r.y.y.y.y.p.y.y.i.y.r.r.r.r.r.r.r.r.r.r.r.q.q.q.r.q.r.q.q.q.r.r.q.r.r.q.q.q.r.q.q.q.q.q.q.q.q.q.q.q.r.s.a.s.q.q.q.9.q.q.9.9.9.9.9.9.9.9.9.q.9.9.9.9.9.9.8.9.9.8.7.8.8.8.8.7.4.2.2.=.O.l / g y g e & + + / O...[ c l l l c l l l l l c l l l l c l l l l l l l l l l l l l l l l l l l l c l l l l l l l l l l l l l l l h g k k k k k k k k k k k k k k k k g g g g g g g g g g g g g g g g g g g g k g k g g g g g g g g k g g g k g g g g g g g g g g f f f f g v v / / ( c + o o o y g f g g g g g g g g / @.@.+./ l l l l l l l l l l l l l l l l l l l c ",
"..s.cXvXcX;Xa.a.a.s.s.a.a.s.a.a.p.p.p.a.p.p.s.4.( / / l l / v / v l f f f f g & o o . y ) / ( / v v f f f f g g g g g g g g k g g j k g g c v / / [ [ [ [ { O.O.O.O.| O.O.O.@.@.@.@.@.@.@.@.*.,.,.<.<.=.<.=.<.<.<.<.<.<.=.<.<.<.<.<.<.<.2.<.<.<.<.<.<.<.<.<.<.<.<.<.2.<.<.<.<.7.8.8.7.8.8.7.8.8.8.8.0.8.8.8.8.0.8.8.8.9XwXrX6.& & y <.8.7.2XtXtXeXr.r.r.r.y.r.r.r.r.y.r.r.r.r.r.y.y.r.r.y.y.y.p.y.y.y.r.r.u.p.p.p.y.y.p.u.p.y.p.r.y.p.p.p.r.p.u.p.p.y.y.p.u.p.u.p.p.y.p.p.p.p.p.p.y.p.s.;X;X:Xp.p.y.p.p.p.y.p.p.p.p.p.p.p.y.p.p.p.p.p.p.p.y.p.p.p.p.p.p.y.p.p.p.p.p.i.p.y.p.p.p.p.p.y.y.y.i.p.a.7.l v l = & & i.9XsXdX9X9.q.q.q.r.r.q.r.q.q.9.q.q.q.9.r.9.y.:Xs.s.q.q.q.q.q.q.q.9.q.r.r.i.i.i.y.r.p.i.i.r.r.r.r.r.r.r.r.r.r.r.q.r.r.r.q.r.r.q.r.r.r.q.r.r.r.r.q.q.q.q.q.q.q.q.q.r.q.q.q.y.s.a.s.q.q.9.9.q.9.9.q.q.9.9.9.q.q.9.9.9.9.9.9.9.9.9.9.9.7.7.9.9.8.8.8.7.6.7.=.+.v l g y u y & o + / O...../ c c / c c c l l c c c c l c c c v c l c l l l l c l l l l l l c c l l l l l l l l l c l c l l l l l l l l k k g l l k k g k k k k k k g g k k k k k k k k k k g g k g k g k g g k k k g g g g g g g g g g g g g g g g g g g g g g g g f f f f g / v / / ) v $ o o o y g g g g g g k g g g v @.%.@.( l l l l l l l l l l l l l l l l l l l l ",
"..s.cXvXvX>Xs.a.a.s.s.s.s.s.s.s.p.y.p.p.p.p.s.2.( / ( l l v / v k f f f f f g * o o . y ' / / / v / f f f f f g g g g g g g g g g g g g g c v v / [ [ [ [ { O.O.O.O.O.O.O.O.@.@.@.+.+.@.@.@.*.<.<.<.<.<.<.<.<.<.<.<.*.<.<.<.<.<.<.<.<.<.<.<.<.<.<.<.<.<.<.<.<.<.<.<.<.<.<.<.<.7.8.8.8.7.8.8.8.8.8.0.0.0.8.8.8.0.8.8.8.9XeXrX6.$ & y <.7.7.2XsXtXeXr.r.r.y.y.y.r.r.r.r.r.r.r.y.r.r.r.r.r.r.r.u.r.r.y.r.r.r.u.r.p.y.r.y.y.p.p.y.y.r.y.p.u.p.y.p.p.p.p.p.p.p.p.u.p.p.p.p.p.p.p.p.p.p.p.s.<X<X<X,Xp.y.p.p.p.p.p.p.p.p.p.p.p.p.p.p.p.p.p.p.p.p.p.p.p.p.p.p.p.p.p.p.p.p.p.p.p.p.p.p.p.u.p.p.p.p.p.i.p.4.l v l = & * a.9XsXdX9X9.q.q.q.r.r.q.r.q.q.q.q.q.r.r.9.9.i.;X;Xs.q.9.q.q.9.q.q.q.r.r.r.r.y.r.y.p.y.y.r.r.r.r.y.r.q.r.r.r.r.q.r.r.r.r.r.r.q.q.r.r.r.r.r.r.r.q.q.q.q.q.q.q.q.q.q.q.r.y.r.r.p.s.a.q.q.9.9.9.9.q.9.9.9.q.9.9.9.9.9.9.9.9.9.9.9.9.9.9.8.9.9.9.9.9.9.8.8.8.7.4.) v l y i 9 & o + ( O.....c c c v v c c / c c c c l c c c c l l l l l l l l l l l l l l l l l l l l l l l l l l l l l l c l l l l l l l l l h l k k h k k k k k k k k k k g g k k g k k k g g g g k g g k g g g g g g g g g g g g g g g g g g g g g g g g g g g g g g g f g / v / ) ) v + o o o y g g g f f k g g g g v %.%.+./ l l l l l l l l l l l l l l l l l l l c ",
"[ >XcXvXcX>Xp.s.s.s.s.a.s.a.s.s.p.p.a.a.p.p.s.4.( / ( l c v v v g f g f f f g * o o . y ) / / / / / f f f f f g g g g g g g g g g g g g g c v / / [ [ [ ] { O.O.O.O.O.@.O.@.@.@.@.@.+.+.@.+.=.<.<.<.<.<.=.<.<.<.<.<.<.<.<.<.<.<.<.<.<.<.<.<.<.<.<.<.<.<.<.<.<.<.<.<.<.<.<.<.<.7.8.8.8.7.8.8.8.8.8.8.8.0.8.8.8.8.8.8.7.9XeXrX4.$ & q <.7.7.2XtXtXeXr.r.r.r.r.y.y.y.y.r.r.r.r.r.r.r.r.y.u.r.r.p.r.r.r.r.y.r.y.y.p.y.y.y.r.u.y.p.p.p.r.r.i.u.u.y.y.y.p.u.p.p.p.p.p.p.p.p.y.p.p.p.p.p.p.a.,X<X<X>Xa.y.p.p.p.p.p.p.p.p.p.y.p.p.p.p.p.p.p.p.p.p.p.p.p.p.p.p.p.p.p.p.p.p.p.p.p.p.y.p.p.p.p.p.y.p.y.p.a.7.l c l 3 & & i.9XsXdX9X8.9.9.q.q.r.q.q.r.r.q.q.q.q.q.r.9.y.:Xs.a.q.q.q.q.q.q.q.r.q.r.r.r.y.r.y.r.a.y.r.r.r.r.r.r.q.r.r.r.r.r.r.q.q.q.q.q.r.q.r.q.r.r.q.q.q.q.q.q.q.q.q.q.q.q.q.q.p.p.i.y.p.s.y.q.q.q.q.q.q.q.q.9.9.9.9.9.9.9.9.9.9.9.9.8.8.9.9.9.9.9.9.9.8.8.8.8.8.7.7.7.) ' v u g q * + + ( +.O.[ c c c c / c c c c c c c c c l l l c v v l l l l l l l l l l l l l l l l l l l l l l c c l l l l l l c l l l l l l l l l l k k k k k k k k k k k g g k k g g g g k k k g g g g g g g g g g g g g g g g g g g g g g g g g g g g g g g g g g f g f g v / / ) ( v + o o o y f g g f g k g f g g v @.%.+./ l l l l l l l l l l l l l l l l l l l l ",
"[ >XcXcXcX,Xp.a.s.p.s.a.s.s.s.a.a.a.p.a.p.a.s.4.( / ( l c / v v g g g f d f f & o o . y ' ( ( / / v f f f f g g g g g g g k g g g g g g k c v v / [ [ [ ] { O.O.O.O.O.O.@.@.@.@.@.@.+.@.@.@.*.,.<.,.=.<.<.<.<.<.<.<.<.<.<.<.<.<.<.<.<.<.<.<.<.<.<.<.<.<.<.<.<.<.<.<.<.<.<.2.<.7.8.8.8.8.8.8.0.8.8.8.8.8.0.0.0.q.q.8.8.9XeXrX4.$ & 9 =.7.4.2XtXtXqXr.r.r.r.r.r.r.r.y.y.r.r.r.r.r.r.r.y.y.y.u.y.r.r.r.p.y.p.p.y.i.y.p.p.r.r.r.p.p.p.p.r.i.p.p.p.p.p.y.p.p.p.p.y.p.y.y.p.p.p.y.p.p.p.p.a.>X<X2X>Xs.p.p.p.p.p.p.p.p.p.p.p.p.p.p.p.p.p.y.y.p.p.p.p.p.p.y.p.p.p.p.p.p.p.y.p.p.p.p.p.p.y.i.i.p.p.p.p.p.6.l v l 3 & & p.9XsXdX9X8.q.q.q.r.q.q.q.r.q.q.q.q.q.q.r.9.y.;Xs.s.q.9.9.9.9.q.q.q.r.q.r.r.r.r.a.s.s.p.r.r.r.r.r.r.r.r.r.r.r.r.q.q.q.q.q.r.r.r.r.r.q.q.q.q.q.q.q.q.q.q.q.q.q.q.q.r.p.i.a.p.r.r.q.q.q.9.9.q.q.q.9.9.9.9.9.9.9.9.9.9.9.9.9.9.8.9.9.9.9.9.8.9.8.8.9.8.8.9.7.4.[ ' v u g y * + + ) O...[ c c c c c c l l c c c c c c c l l l c l c c l l l l c l c c l l c c l l l l c c l l l l c c l l l l l l g k h h l h h l h h l l l l k g g k g k k k k g k k g g k k k g g g k g g g g g g g k g g g g k k g g g g g g g g g g g g g g g g f g f g / / / ) ( v $ o o o y g g g f g g g f g f v @.%.+./ l l l l l l l l l l l l l l l l l l l l ",
"[ >XcXcXcX>Xp.s.s.;X9X6X<Xa.a.p.p.p.p.p.p.a.s.4.( v / l c / / c g f u f f u u & o o . u ' ( ( / / / f g f f g g g g g g k k k k g g k g k c v / / [ [ [ [ { O.| O.O.O.@.@.O.@.O.@.+.+.O.@.+.*.<.<.,.<.=.<.=.=.<.<.<.<.<.<.<.<.<.<.<.<.<.<.<.<.<.<.<.2.<.<.<.<.<.<.<.<.<.<.<.<.8.8.8.8.8.8.8.8.8.8.8.8.8.0.0.0.0.0.9.8.9XeXeX4.$ & 9 <.7.7.2XtXtXeXr.r.r.y.r.r.r.r.r.r.y.r.r.r.y.y.r.r.u.i.y.y.y.y.y.p.u.p.u.r.y.r.y.p.r.r.y.p.p.p.u.p.p.p.p.y.p.p.p.p.p.p.p.y.y.p.p.p.p.p.y.p.p.p.y.a.,X>X,X>Xp.p.p.p.p.p.p.y.y.p.y.p.p.p.p.y.p.y.y.p.p.p.p.p.p.y.y.p.p.p.p.p.p.p.p.p.i.p.p.p.p.y.y.p.p.p.p.p.p.4.l c k = & * a.9XsXdX9X8.9.q.r.r.r.r.q.r.r.q.q.q.r.r.q.q.p.;Xs.s.q.q.9.q.q.9.9.q.q.q.r.9.q.q.a.s.s.y.r.r.r.r.r.r.r.r.r.r.r.q.r.r.r.r.r.r.r.r.q.q.q.q.r.r.r.q.r.r.q.q.q.q.r.q.q.q.a.a.a.s.y.q.q.q.9.9.q.q.q.9.9.9.9.9.9.9.9.9.9.9.9.9.9.9.9.7.9.9.9.8.8.8.7.7.8.7.7.8.8.4.[ _ ( k k y 2 + & [ +.O...v c v / c / / / / c c c c c c c l l l c c c l l c c c l c c l l c c l l l l c c l l l l c l l l l l l l h g l h h h k g g g l l l l k k g k g k k k k g k k k k k g g k k k k g g k g k g k g k g g k g g g g g g g g g g g g g g g g g g f f f g / v / ) ( v $ o o o e g g g f f g g f g g / %.@.+./ l l l l l l l l l l l l l l l l l l l l ",
"[ >XcXvXcX>Xa.p.a.,XeX9XeXs.a.p.p.p.p.p.p.p.s.4.( v / l c / / l u y y u f f d & o o . u ' ) ( / ( v f g f g g g g g g g g g k g g g g g g c v / / ] [ [ [ { O.O.O.O.O.@.@.O.+.O.+.@.+.+.@.+.<.<.,.,.<.=.=.<.<.<.<.<.=.=.=.<.<.<.<.<.<.<.<.<.<.<.<.<.<.<.<.<.<.<.<.<.<.<.<.2.<.7.8.7.7.8.8.8.8.8.8.8.8.8.8.0.0.0.8.8.8.9XeXeX4.$ & 9 =.7.4.2XuXrXqXr.r.r.r.r.r.r.r.r.r.y.r.r.r.r.r.r.r.y.r.r.r.r.y.p.r.u.r.r.p.u.u.p.p.r.r.r.u.p.p.r.y.p.y.r.y.p.p.p.y.p.y.p.y.y.p.p.p.p.p.p.y.p.p.p.p.>X,X>X>Xp.p.p.p.y.y.y.p.p.p.p.y.y.y.p.p.y.p.p.p.p.p.y.p.p.p.p.p.i.p.p.p.p.p.p.p.i.p.p.p.p.p.p.p.r.p.r.p.a.7.l c l 3 & * a.9XsXdX9X8.q.q.9.r.q.r.r.r.r.q.q.q.r.9.9.q.p.s.:Xa.q.q.9.9.q.q.q.q.q.q.q.q.q.q.y.s.a.y.r.q.r.r.q.r.r.q.r.r.r.r.q.r.r.q.r.r.r.r.r.r.r.r.r.r.r.q.q.q.r.r.r.r.r.r.q.q.r.r.r.q.q.r.q.q.9.q.q.q.q.9.9.9.q.9.9.9.9.9.9.9.9.9.9.9.9.8.7.8.9.9.8.9.8.7.7.7.7.9.8.4.[ [ ( k c u 3 & & ..=.*.+./ / c c c c / / / l c c c c c l l v c c c l l l l l l l c l l l l l l l l l l c l l l c l c l c l l l l l k g h h l h l h g g l l l l k k g g k k k k g k g g g g g g k g g k g k g g k g k g g g g g g g g g g g g g g g g g g g g g g g g f f g / / / / ) v + o o o y g f f f g g g g g g / %.@.+./ l l l l l l l l l l l l l l l l l l l l ",
"[ >XvXvXvX>Xa.;X;X>X9XrX5Xs.a.a.p.a.p.p.p.p.a.2.( v / l c v v l f u y u g f f & o o . u ' / / / / / f g f g g g g g g g g k k j g k k g k c v / / ( [ [ [ | O.O.O.O.O.O.@.O.O.O.@.+.%.*.=.*.<.<.<.<.<.<.<.<.<.<.<.<.<.<.<.<.=.<.<.<.<.<.<.<.<.<.<.<.<.<.2.2.<.<.<.<.<.2.<.<.<.<.2.2.<.8.8.8.8.8.8.8.0.0.8.8.8.0.8.8.8.9XeXeX4.& & 9 <.7.4.,XtXtXqXr.r.r.r.r.r.r.y.r.r.r.r.r.r.y.r.r.r.r.y.r.r.r.r.r.r.y.r.p.i.r.r.u.u.p.u.u.y.p.y.y.p.r.y.y.u.p.p.p.p.p.y.p.p.p.p.r.y.p.p.p.y.p.p.p.p.p.a.a.a.p.a.p.p.p.p.y.p.y.y.p.p.p.p.p.y.p.p.p.p.p.p.p.y.p.p.p.p.p.p.p.p.p.p.p.p.p.p.p.p.p.p.p.p.p.p.p.p.p.7.l v l 3 & * a.9XsXgX9X8.q.q.9.r.q.r.r.q.r.r.r.r.q.r.q.q.y.:X;Xs.q.9.9.q.q.q.q.q.r.q.q.q.q.q.r.;Xs.r.r.q.q.r.q.r.r.r.r.r.r.r.q.r.r.r.r.q.r.r.r.r.r.r.r.r.q.q.q.q.q.q.r.r.r.q.q.q.8.q.q.q.q.q.q.9.9.9.9.9.q.q.9.9.9.9.9.9.9.9.9.9.9.9.9.9.9.9.9.9.9.9.9.9.9.8.9.7.8.9.8.7.[ [ ( k c f 2 + & { =.4.%.c / v l v c c / c c c c c c v c c l l l l l c c c c c c l l l l l l c c l l l l l l l l l l l l l l l l l h g k l l l k h g g h l k h k g g k k k g g j g g g g g g k g g g g g g k g g g g g g g g g g g g g g g g g g g g g g g g g g g g g f g v / / / ( v $ o o o y f f f f g g g g g g / %.+.+./ l l l l l l l l l l l l l l l l l l l l ",
"[ >XcXcXxXqXtXeXrX9Xs.s.a.a.a.p.p.a.p.p.p.p.p.2.( v ( l l c l c g f u f f f f * o o . u ' ( ( / / / f g f f g g g g g g g g g g g g g g k v v / / [ { [ [ | O.O.O.O.O.O.@.O.@.O.@.+.*.*.<.<.<.<.<.<.<.<.<.<.<.<.<.<.<.<.<.<.<.<.<.<.<.<.<.<.<.<.<.<.<.<.<.<.<.<.<.<.2.2.<.<.<.<.2.2.2.7.8.8.8.8.8.0.0.0.0.0.8.8.8.8.8.9XeXeX4.+ & 9 =.7.4.,XtXtXqXr.r.r.r.r.r.r.r.r.r.r.y.r.r.p.r.r.r.y.y.r.r.r.r.r.y.r.r.y.i.u.y.p.u.u.p.p.p.p.y.p.p.y.p.u.p.p.u.p.p.p.y.y.p.p.i.p.y.p.y.p.p.p.y.p.u.p.y.y.p.p.p.p.p.p.y.p.y.y.y.p.p.p.p.y.p.p.p.p.p.p.p.y.p.p.p.p.p.p.p.y.p.p.p.p.p.p.p.p.p.p.p.i.p.y.p.r.y.p.6.l v l 3 & * a.8XsXdX0X8.9.9.r.q.q.r.r.r.r.r.9.r.9.9.q.7.y.s.s.a.q.9.9.q.9.q.q.q.9.q.q.q.9.q.r.q.r.q.q.9.9.r.r.q.r.r.r.r.r.r.r.q.r.r.r.r.q.q.r.q.q.q.q.q.q.q.q.q.q.r.q.q.r.q.q.q.9.9.9.q.q.9.9.q.q.q.q.9.9.9.9.9.9.q.9.9.9.9.9.9.9.9.9.9.9.9.9.9.9.9.9.9.9.9.9.9.8.9.9.7.{ ..( g c u 3 $ & %.8.2.+./ c l c c v / / c c c c c c c c c c c l l l c c c c l / c l l l l c c l c l l c c l l l l l l c l l l l h l h h g h l k l h h g l k k l l k k l l l l l k k k k k k k k k k k k k k k k k g g g g g g g g g g g k g g k g g g g g g g g g f f u g v v / ( ) v $ o o o y f u f f g g g g g g v %.%.+./ l l l l l l l l l l l l l l l l l l l l ",
"' ,XcXxXlXtXaX9XrXrXs.i.a.a.a.p.p.p.p.p.p.p.a.2./ v / l l l l l g u d f f u f * o . . y ' / / / ( / f g g g g g g g g k g g g k k g k g k v / / ( O.@.O.| O.O.@.O.O.@.O.O.O.O.O.O.+.*.=.<.<.<.<.<.<.<.<.<.<.<.<.<.<.<.<.<.<.<.<.<.<.<.<.<.<.<.<.2.<.<.<.2.<.<.<.<.<.2.<.<.2.2.<.2.2.2.7.8.9.8.8.8.0.8.0.8.8.8.8.8.8.8.9XeXrX4.$ & 9 =.4.4.,XtXtXqXr.r.r.r.r.r.r.r.r.r.r.y.r.r.r.r.r.r.y.y.y.r.p.r.y.y.r.r.i.p.p.r.p.p.r.p.p.p.p.y.p.p.p.p.p.p.y.p.p.u.y.y.y.p.u.u.p.p.p.p.p.p.p.p.p.r.p.p.y.p.p.p.y.p.p.p.y.p.p.p.p.y.y.y.y.p.p.p.p.p.p.y.y.p.p.p.p.p.p.y.y.p.p.p.p.p.p.p.y.p.i.p.p.p.y.y.r.p.a.6.l v l 3 & & a.9XsXgX9X9.q.q.r.r.r.q.r.r.r.r.r.r.q.r.r.q.a.;Xs.a.q.9.9.9.9.9.9.9.9.9.q.q.9.q.q.q.q.r.q.q.r.r.r.q.q.r.q.r.r.r.r.q.r.r.q.q.q.r.r.q.q.q.q.r.r.r.r.r.q.q.r.r.r.9.9.q.q.9.9.9.q.9.9.9.9.9.9.9.8.9.8.q.9.9.9.9.9.9.9.9.9.9.9.9.9.8.9.9.7.8.9.7.9.9.7.8.8.8.8.7.[ [ ) g c f 3 $ & :.y.r.4./ c l v v c c c l c l c c c c c c c c l l l l c l c l l l l l l l c c c c l l l c l l l l c c c c l l l h l h h h h h l l l l k l l l l l l l l l l l l l l l l l l l k l l l l k l k l l k k g g g g g g k g g g g g g g g g g g g g g g g f f g v v / / ) v $ o o o y g f f f g g g f g g ( %.%.+./ l l l l l l l l l l l l l l l l l l l l ",
"[ >XcXcXcX9X9XtXtXeXs.p.p.p.p.p.y.p.p.p.p.p.a.2./ / / k g f u u u u u f f f f & o . . y ' ) ( / v v f f f f g g f g k g g g g g g g g g k v / / ( O.O.O.O.O.O.O.O.O.O.O.@.@.@.O.+.@.,.<.<.<.<.<.<.<.<.<.<.<.<.<.<.<.<.<.<.<.<.<.<.<.<.<.<.<.<.<.<.<.<.<.<.<.<.<.<.<.2.2.<.<.2.<.2.2.<.7.q.9.9.8.8.8.8.0.0.8.8.9.9.9.9.9XeXeX4.$ & 9 =.7.4.2XtXtX9Xr.r.r.r.r.r.r.r.r.r.r.r.r.r.r.r.r.y.r.y.y.r.r.r.r.r.y.r.u.r.p.y.r.r.r.y.r.p.p.u.y.y.r.y.r.y.p.y.p.p.p.p.y.p.p.p.p.y.y.p.y.p.p.p.p.p.p.p.p.p.p.p.p.p.p.p.p.p.p.p.p.p.y.p.p.p.p.i.p.p.p.p.p.p.p.p.p.p.p.p.p.p.p.p.p.p.p.p.p.i.p.p.p.p.y.y.y.y.p.6.l v l 3 & * a.9XsXgX9X8.q.9.r.r.q.r.r.r.r.9.p.s.a.a.s.s.a.s.s.a.q.9.9.9.9.9.9.q.9.q.q.q.q.9.9.q.q.q.8.q.q.9.9.9.q.q.q.q.q.r.r.q.q.r.r.q.q.q.q.q.q.q.q.q.r.q.r.q.q.q.r.r.q.q.q.q.9.9.9.q.q.q.q.q.q.q.9.9.8.8.9.9.9.8.8.9.9.9.9.8.9.9.9.8.8.9.9.9.9.9.8.8.8.8.9.8.9.9.9.7.{ [ ( g l f 2 + & :.t.y.9.' ) ) / / c c l c c l l l l c / c l c l l c l c c l c l c l l l l l l l l l l l c c l c l c l c l l l l h h l l l l k k k h h l g l k l l l l l l l l l l l l l l l l l l l l l l k k k k k g g g g g g g g g g g g g g g g g g g g g g f u g f g v v v ) ) / + o o o y f f u f g g g g g g / %.%.+./ l l l l l l l l l l l l l l l l l l l l ",
"' >XxXxXcX6X;X9X2X,Xs.s.p.p.p.p.y.p.p.p.p.p.p.2./ / ( g y u u y u g f f f f f & o o . u ' ) ( ( v / f f f f g g g g g f g g g k g g j g k v / / ( | O.O.O.O.O.O.O.O.@.O.@.+.+.@.@.&.,.<.<.<.<.<.<.<.<.<.=.<.<.<.<.<.<.<.<.<.<.<.<.<.<.<.<.<.<.<.2.<.<.<.<.<.<.<.<.2.2.<.<.2.2.2.<.2.<.7.9.8.8.8.8.8.8.8.0.8.0.q.9.8.8.9XeXeX4.$ & 9 =.7.2.,XtXrX9Xr.r.r.r.r.r.r.r.r.r.y.r.r.r.r.r.r.r.r.r.p.r.r.r.r.y.r.r.r.r.y.y.r.r.r.p.p.p.u.y.r.r.y.y.p.y.p.y.p.p.y.p.y.y.p.p.p.y.y.y.p.p.p.y.p.p.p.p.p.p.p.p.y.p.p.p.p.p.p.y.p.y.y.p.y.p.p.p.p.p.p.p.p.p.p.p.p.p.p.p.p.p.p.p.p.p.p.p.y.p.u.p.u.p.r.r.r.y.p.4.l c k = & & a.9XsXgX9X8.q.9.r.r.r.r.r.r.r.q.p.s.s.s.s.s.s.s.s.s.q.9.9.9.9.9.9.9.9.9.9.q.9.9.9.9.9.q.9.9.e.q.9.q.q.q.q.q.r.q.q.q.q.r.r.q.q.q.9.q.q.q.q.q.q.q.q.q.9.q.q.q.9.q.q.8.9.q.q.9.q.9.9.9.q.9.q.9.9.9.9.9.9.9.9.9.9.9.9.8.9.9.9.9.9.9.9.8.9.9.9.9.9.9.8.8.8.9.9.7...[ ( k c f 3 & & 2.r.9.4.' [ [ / / c c l c c c ^ ^ c c c c c c c c c l c l c c l c c l c l l l l l l l l l l l l l c l c c l l l l l l l h l k h g g h h l l g h l l h l l l l l l l l l k l k l k k l l l k l l k k g g g g g g g g g g g g g g g g g g g g g g g f g f g v / / ) ) / + + $ o y f u u f g g g g g g / %.%.+./ l l l l l l l l l l l l l l l l l l l l ",
"[ >XvXvXvX9Xs.s.i.y.s.y.p.p.a.p.a.p.p.p.p.p.a.2.( / ( g y u u y y g f f f f f * o o . y ' ( ( / / v f f f f g g g g g g g g g g g g g k g v / / / O.O.O.O.O.O.O.O.@.@.O.@.@.+.O.| &.<.<.=.<.<.<.<.<.=.<.<.<.<.<.<.<.<.<.<.<.<.<.<.<.<.<.<.<.<.<.<.<.<.<.<.<.<.<.<.<.<.<.<.<.2.2.<.2.<.7.0.0.8.8.8.8.8.0.8.8.q.q.8.9.8.9XeXeX4.+ & 9 =.7.2.,XtXrX9Xr.r.r.r.r.r.r.r.r.r.y.y.y.r.r.r.r.y.r.y.y.y.p.r.r.r.r.p.r.r.y.y.u.u.p.r.y.p.r.y.r.u.y.p.p.p.p.p.y.y.y.p.p.p.y.y.y.p.p.p.p.p.p.p.p.y.p.p.y.p.p.p.p.p.p.p.p.p.p.p.p.p.p.y.p.y.y.p.y.p.p.p.p.p.p.p.p.p.p.p.p.y.p.p.y.p.p.p.p.p.p.y.y.r.r.r.r.y.p.4.l v k = & * a.9XsXgX9X8.9.9.q.q.q.r.r.e.r.r.s.s.s.:Xs.s.s.s.s.a.r.9.9.9.9.9.9.q.q.9.9.q.9.q.9.q.q.q.q.9.9.q.q.9.9.9.q.q.q.q.q.q.q.q.q.q.q.q.q.r.q.q.q.q.9.q.q.q.9.9.q.q.q.9.9.9.9.9.9.q.q.9.9.9.9.q.9.q.9.9.q.q.9.9.9.9.9.q.9.9.9.9.9.9.9.9.9.9.9.9.9.8.8.9.8.8.8.9.9.7.{ [ ( g c g 3 $ & 9.3X>X9.( [ [ ( ( l / c z c c c / l c c c l c c c c l l l / l c c c c c l l c c c c c l l l l l c c c l l c l l l l l k k l k l l k l l l l k l k k k k h l k l l l k l k l l l l l k k l l k k l k g g g g g g k g g g g g g g g g g g g g g g g g g f g v ( / / ( v $ o o + u f u f f g g g g g g / %.%.+./ l l l l l l l l l l l l l l l l l l l l ",
"[ >XvXvXlX3Xs.>X<Xs.p.i.a.p.p.p.p.p.p.p.p.i.a.2.( / / f u u u u f g f f f f f & o o . u ' ( ( / v / f f f g g g g g g g g g g g g g g g l v / c / | O.O.O.O.@.@.@.@.@.@.O.O.@.O.O.%.<.<.=.<.<.<.<.<.<.<.<.<.<.<.<.<.<.<.<.<.<.<.<.<.<.<.<.<.<.2.2.<.<.<.<.<.2.<.<.<.<.<.<.<.2.2.2.2.<.4.q.0.9.8.8.8.8.0.8.0.q.q.9.9.9.qXrXeX4.+ & 9 =.7.4.,XtXtXeXr.r.r.r.r.r.r.r.r.y.r.r.r.r.y.r.r.p.y.y.p.p.r.r.r.r.p.p.r.y.r.y.p.u.p.p.u.y.u.y.r.u.y.p.p.p.y.y.y.p.y.p.p.p.y.y.p.p.y.p.p.y.p.p.p.p.p.p.p.p.p.p.p.y.p.y.p.p.p.p.y.p.y.p.p.p.p.y.y.p.p.p.p.p.p.y.y.p.p.p.p.p.y.y.y.p.p.p.i.r.r.y.r.p.r.p.u.y.p.4.l v l 3 & * a.9XsXgX9X8.9.q.r.q.r.r.r.9.e.r.s.s.s.s.s.s.s.s.s.a.q.9.9.9.9.9.q.q.9.9.q.9.9.9.q.q.q.9.9.9.9.9.9.9.9.q.q.9.q.q.q.q.9.q.q.q.q.q.q.r.q.q.q.q.q.q.q.q.q.9.q.q.9.9.9.q.q.9.9.9.9.9.9.q.9.9.9.9.9.9.9.9.9.9.9.q.9.9.8.8.7.9.9.9.9.9.9.9.9.9.8.8.8.8.9.9.9.9.9.7...[ ( g c g 3 & & r.3X3Xs.+.} O.{ ( l / v c v l c / c c c c l c c c c c l l l l l l l c c l c c l l c c c l c l c l c c c l l l l h h h l l h h l l l l l l l l k k k k l l l l l g k l l k l l l h k k k k k l l l k g g k k g g g g g g g g g g g g g g g g g g g g f f g / / / / ) / + o o o y f f g f g g g f g g / %.%.+./ l l l l l l l l l l l l l l l l l l l l ",
"[ >XcXxXlX3X:X>X2X;Xs.p.p.p.p.p.p.p.p.p.p.p.p.2.( / / f u f g f g g f g f f f & . o . u [ / / ( ( / g g f f g k g g g g g k g g g g g g l v / / / } O.O.O.O.O.@.O.O.@.O.O.O.O.@.O.&.<.<.<.,.<.<.<.<.<.,.<.<.<.<.<.<.<.<.<.<.<.=.<.<.<.<.<.<.<.<.<.<.<.<.<.<.<.<.<.<.<.<.<.2.<.<.<.2.2.4.8.8.0.8.8.8.8.9.8.9.8.9.8.7.8.9XtXeX2.$ & 9 =.4.4.,XtXrX9Xr.r.r.r.r.r.r.r.r.r.r.r.r.r.r.r.r.r.r.r.r.r.r.r.u.r.r.r.r.r.y.y.r.r.r.u.r.r.y.r.r.r.r.p.r.r.y.p.y.p.y.y.y.y.p.p.y.y.y.y.p.y.y.y.p.y.y.p.y.y.p.y.y.y.p.y.p.y.y.p.p.y.y.p.y.y.y.p.p.i.p.y.y.p.p.p.p.i.p.y.p.p.p.p.p.p.p.p.p.p.p.p.y.p.y.r.r.r.p.4.l v l 3 & * a.9XsXfX9X8.q.q.r.r.q.r.r.e.r.r.s.s.s.s.s.a.a.s.a.a.q.q.9.9.9.q.9.q.9.9.9.9.9.9.9.9.q.9.9.q.q.q.q.q.q.9.q.9.q.r.q.q.r.q.q.q.q.q.q.q.q.q.q.q.q.q.r.q.q.q.q.q.q.q.q.q.q.9.9.q.q.9.q.9.9.9.9.9.9.9.9.9.9.9.9.9.9.9.7.9.8.9.9.9.9.9.9.9.8.8.8.9.8.9.8.7.8.8.8.7...[ ( k l g 3 & & t.3X3X<X*.O.O.[ ( ^ / v v c c c c c c c c l c c l l c c c l l l l l l l l l l l c l c c l l c l l c l c l l l l l l h h h h h h l l l k g k k k l l k l l k l l l l l l l l l k l l l l l l l l l k g g g k g g g g g g g g g g g g g g g g g g f g f f g / / / / ) v $ o o o y f f g f g g g f g g / %.%.@./ l l l l l l l l l l l l l l l l l l l l ",
"[ >XcXlXlXdXrX9X3Xy.a.p.p.p.p.p.p.p.p.p.p.p.a.2.) / / f f f f f f g g f f f f & . o . y ) / / / ( ( g g f f g g g g g g g g g g g g g g g c / / / { O.O.} | O.O.O.O.@.O.O.O.O.O.O.%.<.<.<.<.<.,.<.<.<.,.<.<.<.=.<.<.=.<.<.<.<.<.<.<.<.<.<.<.<.<.<.<.<.<.<.<.<.<.<.<.2.2.<.<.<.<.2.2.<.4.8.8.0.8.8.9.9.q.9.q.7.8.8.8.9.9XrXeX4.+ & 9 *.4.4.,XrXrX9Xr.q.q.q.r.r.r.r.r.r.r.r.r.r.r.r.r.r.r.r.r.r.y.p.r.u.r.r.r.y.p.y.r.y.r.u.r.u.p.r.r.r.r.y.r.r.p.y.p.p.y.y.y.y.p.p.y.y.y.y.y.y.y.p.p.y.y.y.r.r.y.p.p.p.p.p.p.p.p.p.p.p.p.y.y.p.y.p.y.p.p.p.p.p.p.p.y.p.p.p.p.p.p.p.y.p.p.y.p.p.p.p.y.y.p.y.r.y.p.6.l v l 3 & & s.9XsXdX9X8.r.q.q.r.q.r.r.9.e.r.s.s.s.s.s.a.s.a.a.a.9.9.9.9.9.9.q.9.9.q.9.9.q.q.q.9.9.9.9.9.9.q.q.q.q.q.9.9.q.q.q.q.q.q.q.q.9.q.q.q.q.q.q.q.q.q.q.q.q.q.q.9.9.q.q.q.q.9.9.q.q.q.q.9.9.9.9.9.9.9.9.9.9.9.9.9.9.9.9.9.9.9.9.9.9.8.9.9.9.7.9.8.8.8.9.8.9.8.8.7...[ ( g l f 3 & & t.8X4X>X2.=.@._ { [ ) v v c / c l l c c c / c l c l l c l l c c l c l l l l c l l c l c l l l l l c c l l l l l l l h k l g h h l l l k k k k k g k l l l l l k k k l l l l k k l l l l l l k l l l g g g g g g g g g g g g g g g g g g g g g g g g f f g v / / / ) v & . o o y f f f f g g g f g g / @.%.+./ l l l l l l l l l l l l l l l l l l l l ",
"[ >XcXlXlXhXaX3X2Xy.r.y.p.p.p.i.i.p.p.p.p.p.a.2.) ( ( g f f f g f f f f f f f & o o . y ' / ( / ( / g g g f g g g g g g g g g k g g g g k c / / ( { O.O.O.O.O.O.O.O.O.O.@.+.+.O.O.%.<.<.=.<.<.=.=.=.=.*.=.<.=.=.=.=.<.<.<.<.=.<.<.<.<.<.<.<.<.<.<.<.<.<.<.2.2.2.<.<.2.<.<.2.2.2.2.2.2.4.8.7.7.8.8.8.8.q.9.q.q.q.0.7.8.9XrXeX2.$ & 9 *.4.1.2XrXeXqXr.r.r.r.r.r.r.r.r.r.r.r.r.r.r.r.r.r.y.r.p.r.r.u.r.r.r.y.y.r.y.y.y.r.r.r.r.y.p.y.p.p.p.p.p.p.y.y.p.y.r.y.y.y.y.p.y.p.y.y.y.y.p.p.p.p.y.p.y.r.y.y.y.y.i.p.y.y.p.p.p.y.p.y.y.y.p.y.y.p.i.p.y.p.p.p.p.p.p.y.y.p.p.p.p.p.p.p.y.y.i.p.p.y.p.y.r.y.p.4.l v l = & & a.9XsXdX9X7.q.r.q.9.r.r.r.r.r.r.s.s.s.s.a.a.s.a.a.a.9.9.9.9.9.9.9.9.9.9.9.9.9.q.q.9.9.9.9.q.q.9.9.q.q.q.9.9.q.q.q.q.q.q.q.q.q.q.q.r.q.q.q.q.q.q.q.q.q.q.q.q.9.9.9.9.q.9.9.9.q.q.q.9.9.9.9.9.9.9.9.9.9.9.9.9.9.9.9.9.9.9.9.9.9.9.7.9.9.9.9.9.9.8.8.9.9.9.9.7...[ ( k c g 3 & & t.8X8X2X4.2.<.@.%...[ l c / c c l l c c c c c l c c c c c c c c / c c c l l c c c l c l c l l l l c c l l c l l l l h l l l l l l l l l k l l k l l l l l l l l k k l l l l k k k l k h l k k g k k g g g k g g g g g g g g g g g g g g g g g g g f u u g v v / / ( v & o o o y f f f g g g g f g g / %.@.+.v l l l l l l l l l l l l l l l l l l l l ",
"[ >XxXxXcXhXsXtX>Xy.p.u.p.p.p.i.i.p.p.p.p.p.a.2.) / ( f f f f f f f f f f u f * . o . y ' / ) ( v / f g f f g g g g g g g g g g g g g g k c / / ( O.O.O.O.O.O.O.O.+.@.O.O.#.%.@.&.*.<.<.<.,.,.=.<.<.=.=.<.<.<.=.=.=.<.<.<.<.<.<.<.<.<.<.<.<.<.<.<.<.<.<.<.2.2.2.2.2.2.<.<.<.2.2.2.2.<.2.2.2.2.0.8.9.9.9.q.q.0.q.q.9.9.9XrXeX1.& & 9 *.4.4.2XtXrXqXr.r.r.r.r.r.r.r.r.r.r.r.r.r.r.r.r.r.y.r.y.r.y.u.p.y.r.y.r.r.p.r.y.r.y.y.y.y.r.y.p.r.i.p.p.p.p.p.i.r.y.y.y.y.y.p.p.p.y.y.p.p.y.y.y.y.r.p.y.y.p.y.p.p.p.p.y.y.p.p.p.p.p.y.y.y.p.p.p.p.p.y.y.p.p.p.p.p.p.y.y.i.i.p.p.p.y.y.y.p.p.p.p.r.y.r.r.y.p.4.l v l = & & s.9XsXdX9X7.9.9.r.e.9.r.a.a.i.a.s.s.s.s.y.a.s.s.a.a.w.9.9.9.q.9.q.q.q.9.9.9.9.q.9.9.9.9.9.9.9.9.9.q.q.9.9.9.9.q.q.r.q.q.q.q.q.q.q.q.q.q.9.9.q.q.q.q.q.q.9.9.q.9.9.q.q.9.9.9.9.9.q.9.9.9.9.9.9.9.9.9.9.9.9.8.9.9.9.9.9.8.9.9.9.9.9.9.8.9.9.9.9.9.9.9.9.9.8.7...' ) k c g 3 $ & t.7X3X<X2.%.<.*.O.( ) / / / v l l l c c / c c l c l c c l c c c c / l l c c c c c l c l l l c c c c c l l l l l l k l l l l l l l l h k l k l l l l l l l l l l l k l l l l k k k l k k k k k k k k k g k h g g g g g g g g g g g g g g g g g g g f f f g v / v / ( v & o o o u g f f f g g g f g g / @.%.+./ l l l l l l l l l l l l l l c l l l l l ",
"[ >XcXcXxX3X3X2Xp.p.p.p.p.p.p.p.i.p.p.p.p.p.a.2.) ( ( f f f f f f f f f f f f & . o . y ' ) ) v ( ( g g g g g g g g g g g g g g g g g g g c / / / { O.O.O.O.O.O.O.+.+.@.+.*.%.*.*.*.,.<.<.*.*.*.=.<.<.=.<.<.<.<.<.<.<.<.<.<.<.<.<.<.<.<.<.<.<.<.<.<.<.<.<.<.<.2.2.2.<.<.<.<.<.2.2.2.2.<.2.2.4.8.9.9.q.0.9.q.q.q.q.9.9.9XeXeX4.$ & 9 *.6.2.<XtXrX9Xr.r.r.r.r.r.r.r.r.r.r.r.r.r.r.r.r.r.r.r.r.r.r.r.r.r.r.r.r.y.y.y.y.r.r.r.r.y.r.y.y.r.r.r.r.r.p.y.y.y.y.p.y.y.y.y.y.y.y.p.p.p.y.p.p.y.y.y.p.p.p.p.p.p.p.y.y.p.p.p.p.p.p.p.y.p.p.y.p.p.p.p.p.p.p.p.y.p.p.p.y.p.p.p.p.p.p.p.y.y.r.r.r.y.y.y.y.r.p.6.l v l = & & s.9XsXdX9X8.9.9.q.r.w.r.a.a.a.a.s.a.s.a.y.a.s.s.s.a.q.9.9.9.9.q.q.9.9.9.9.9.9.9.q.9.9.q.q.9.9.9.q.q.q.q.q.q.9.9.q.q.q.q.q.q.q.9.q.q.q.q.q.q.q.q.q.q.q.q.9.q.9.9.9.q.q.9.9.9.9.9.9.9.9.9.9.9.9.9.9.9.9.9.9.9.8.9.9.9.8.8.8.9.9.7.7.8.9.9.9.9.9.9.8.9.9.9.9.7...[ ) k l g 3 & & t.7X3X<X4.2.2.*.=.+.{ ( ( ( / c l c / / c c l l c l l c l c l l / c c c l l l l l l l l l l l l l l l l l l h l k h l l k l l l k l l l k k g k l l l l l l l l l l l l k k l l l l l l l l k g k k l k l k k g k g g g g g g g g g g g g g g g g f g g g v ( / / ) v $ o o + u g f f f g g g g g g / %.+.+./ l l l l l l l l l l l l l l l l l l l l ",
"..>XcXvXlXa.s.a.p.p.p.p.p.p.p.p.p.p.y.y.p.p.a.2.) ( / f f u f f f f f f f f f * . o . u ' ) ( / ( v g g g g g g g g g g g g g g g g g g g l / / / [ [ { { [ O.O.O.+.O.O.&.*.&.*.*.<.<.<.*.*.<.,.=.*.=.<.<.<.<.<.=.<.=.<.=.<.=.<.<.<.<.<.2.<.2.<.<.<.<.<.<.<.<.2.2.2.2.<.<.<.2.2.2.2.2.2.2.<.2.8.8.8.q.8.8.9.8.9.9.9.9.9XeXeX2.& & 9 *.2.2.>X0XwX9Xq.r.q.r.r.r.r.r.r.r.r.r.r.r.r.r.r.r.r.r.r.r.y.r.r.r.y.r.r.r.r.y.p.r.y.y.r.y.y.p.r.y.r.r.y.r.y.y.y.p.y.y.i.y.y.y.y.y.y.p.y.y.y.p.p.p.p.y.y.p.r.r.p.y.p.p.y.p.p.p.p.p.p.p.y.p.p.p.p.p.p.p.y.p.p.p.p.p.p.p.p.i.u.y.p.y.p.p.r.y.p.y.y.y.r.y.r.y.p.4.l v l 3 & & s.9XsXgX9X7.9.q.9.r.r.t.a.a.a.a.s.s.s.s.a.s.s.s.s.a.q.q.9.9.q.q.9.9.q.q.q.9.9.q.q.q.9.q.q.q.9.q.q.9.9.q.q.9.9.9.9.9.9.9.q.q.9.9.q.q.9.9.q.q.q.q.q.q.9.q.q.q.q.q.q.q.9.9.9.9.9.9.9.9.9.9.9.9.9.9.9.9.9.9.9.9.9.9.9.8.8.9.9.9.8.9.8.8.8.8.9.9.8.8.8.9.8.9.9.7...' ) g l g 3 & & t.8X4X1X2.2.4.2.6.2.%.{ O.O./ c / l / / c c l l c l l l l l c c c c l l l l l c l l l l h l h l l h k l k l l h l l h l g l l l l l l l k l k h l l l l l l l k l l h l l k l l l k h l l l k g g g g k k k g g g g g g g h g g g g g g g g g g g f f u g v / / / ) v & . o o u f f f f g g g f g g / @.%.+./ l l l l l l l l l l l l l l l l l l l l ",
"[ >XcXxXlXs.a.p.p.p.y.p.y.y.p.p.p.p.p.p.p.p.a.2.( ( ( f f f f f f f f f f f f * . o . u ' / / / v / f g g g g g g g g g g g g g g g k g k l / / / [ [ { { { O.O.O.@.+.@.%.*.*.*.=.<.<.<.=.<.<.<.=.=.<.<.<.<.=.=.=.=.=.<.<.<.<.<.<.<.<.<.<.<.<.<.<.2.<.<.2.<.<.<.2.2.2.2.2.2.2.2.2.2.2.2.<.<.2.8.8.8.9.8.9.0.0.q.9.8.9.9XeXeX2.& & 9 *.4.:.>X9XeX9Xr.r.r.r.r.r.r.r.r.r.r.r.r.r.r.r.r.r.r.r.y.r.r.r.y.y.r.y.y.r.y.r.r.y.r.y.r.y.p.y.y.y.r.p.r.p.y.y.y.p.y.p.p.p.p.y.y.y.y.p.p.y.y.p.y.p.p.p.p.p.p.p.p.p.p.p.p.p.p.p.p.p.p.p.y.p.p.p.p.p.i.p.p.p.p.y.y.p.p.p.p.y.p.p.y.p.p.p.p.y.y.y.r.y.r.r.r.y.p.6.l v l 3 & & s.9XsXgX9X8.e.r.q.e.e.y.y.i.a.a.a.s.a.s.a.a.s.s.s.a.q.9.9.9.q.q.q.q.q.q.q.9.9.9.q.9.9.q.9.9.q.q.9.9.9.q.q.q.q.q.q.9.9.9.q.q.q.q.q.q.q.q.q.q.q.q.q.q.9.9.q.q.q.q.q.q.9.9.q.q.q.9.9.9.q.9.9.9.9.q.9.9.9.9.9.9.9.9.9.9.9.9.9.8.9.9.9.8.8.8.9.9.9.8.8.8.9.9.9.7.[ ' ) g l g 3 $ & y.8X7X2X4.2.4.4.4.2.=.| O.{ / v c l / c c c l l c l l l l l l l l l c l c l l l l l l l l l l l l l h l l l h l l l l g k h k l l l l l l l k k l l k k k l k k k l k g k k k l l l l l l l k h h l k k k k g g g g k g g g g g g g g g g g g g g f f f f v / v / ) v & o o o y f f g g k g g f g g / @.%.@./ l l l l l l l l l l l l l l l l l l l l ",
"..>XcXxXlXs.p.p.y.p.p.p.y.y.p.p.p.y.p.u.p.p.s.2.) ( ( f f f f f f f f g f f f * . o . u ' ( / / / / g g g g g g g g g g g g g g g g k g g c / / / [ { [ [ o.O.O.O.+.@.&.&.&.@.@.@.%.%.*.*.%.&.%.%.%.*.*.<.=.=.=.=.=.<.<.<.<.<.<.<.<.<.<.=.<.2.<.<.<.<.<.<.<.2.2.<.<.2.2.2.2.2.2.<.2.2.2.<.2.2.4.8.0.8.8.7.8.9.9.9.9.8.9XeXeX4.$ & 9 =.2.2.>XeXeXqXr.r.r.r.r.r.r.r.r.r.y.r.r.r.r.r.r.r.r.r.r.r.r.r.r.u.r.u.r.r.r.r.r.r.r.y.y.y.y.y.y.r.u.y.y.y.r.y.y.y.y.p.p.y.y.y.r.p.p.y.p.y.y.y.y.p.p.p.p.p.p.y.y.p.p.y.p.y.p.p.p.p.p.p.p.p.p.y.p.p.i.i.i.y.y.y.y.p.p.p.p.y.p.y.y.p.i.p.p.y.y.y.y.y.r.y.r.y.p.7.l v l 3 & & s.6XsXdX9X8.q.9.9.e.9.r.y.r.a.a.a.s.s.s.a.i.y.r.r.y.q.9.9.q.q.9.9.q.q.q.9.q.9.9.q.9.9.q.q.q.q.q.q.9.9.q.q.9.9.q.q.9.9.q.q.q.q.q.9.q.q.q.q.q.q.q.q.q.q.q.q.9.9.9.9.9.9.9.9.q.q.9.9.9.q.9.9.9.q.q.9.9.9.9.9.9.9.9.9.9.9.9.9.7.9.9.9.8.8.8.8.9.9.9.8.9.9.9.9.7.{ ' ' k c g 3 $ & t.8X7X,X2.2.2.2.4.=.=.O.O.O.[ / c c / c c c l c c c c c c l l l l c c c l l l l l l l l l l g l k h k l k l l l l l h g h k k k h l l l h k k k l l l k k l g g g k k k k k k g l l l l l l k h h k k k k k h g k g g g h g g g g g g g g g g g g g u u g v v v ) ) v & o o o y f g g g g g g f g f / %.@.+./ l l l l l l l l l l l l l l l l l l l l ",
"..>XcXcXlXs.p.p.p.p.p.p.p.p.p.p.p.r.p.p.p.p.a.2.) ( / f f f f f f f f f f f g * . + . u ' ( ( ( / / f g g g g g g g g g g g g g g g g g g c / / / [ { [ [ { O.O.| O.O.@.&.@.@.+.@.+.@.@.@.@.@.@.+.+.@.%.<.<.*.*.<.<.<.<.<.<.<.<.<.<.<.<.<.<.<.<.<.<.<.<.<.2.2.2.2.2.2.2.2.2.2.2.2.<.2.2.<.2.2.2.2.2.7.q.9.9.9.9.9.9.9.9XeXeX2.$ & 9 =.4.4.>XeXeX9Xr.r.r.r.r.r.r.r.r.r.r.r.r.r.r.r.r.y.r.r.r.r.r.r.r.r.r.r.r.y.r.r.r.r.r.r.r.r.r.r.r.y.r.y.y.p.y.y.r.r.r.r.y.y.r.y.y.r.r.p.r.y.y.y.p.y.r.r.p.p.r.y.y.y.p.p.p.p.p.p.y.p.i.r.p.p.p.p.p.y.p.r.p.p.p.p.y.y.p.y.p.p.p.i.y.y.r.u.r.y.y.y.y.y.r.y.r.y.p.7.l v l 3 & & s.7XsXgX9X8.9.9.q.9.r.y.a.a.a.a.a.s.s.a.s.a.r.r.w.e.q.9.9.q.q.9.9.q.q.q.q.q.9.q.9.9.9.9.9.9.q.q.9.9.9.9.9.9.9.q.q.9.9.9.9.q.9.9.9.q.9.9.9.q.9.9.q.q.9.9.9.9.9.9.9.9.9.8.9.q.q.9.9.9.9.9.9.9.9.9.9.9.9.9.9.9.9.9.9.9.9.9.9.8.8.8.8.8.8.9.8.8.8.8.8.8.9.9.9.7.[ [ ' j l g 3 & & t.9X8X2X4.2.4.4.4.4.2.*.=.<.O.( ( / l c / / / c c c c c l l c l c l l c l l c c l h l l l l h l k l h l h h h l l l h g k k l g h h l l k l k l l l l k l l l l l l l l l k l h l l l l k k k l l k k k g h h h h k g g g h g g g g g g g g g g g g u u g v v v / / v & o o o u f f g g g g g g g g v @.@.+./ l l l l l l l l l l l l l l l l l l l l ",
"..>XxXxXlXs.p.p.p.p.p.p.p.p.y.p.y.y.p.p.p.y.a.2.( ( ( f f f f f f f f f f f f * o o . u ' ( ( ( ( / g g g g g g g g g g g g k g g g g g g c / / / [ { [ [ { O.O.O.O.O.@.@.@.+.+.@.@.@.@.+.+.+.@.+.@.@.*.,.=.<.*.=.<.<.<.<.<.=.<.<.<.<.<.<.<.<.<.<.<.<.<.<.2.2.2.2.2.2.<.2.2.2.2.2.2.2.2.<.<.2.2.2.2.4.q.9.9.9.9.9.9.9.9XeXeX2.$ & 3 =.4.4.,XtXtX9Xr.r.r.r.r.r.r.r.r.r.r.r.r.r.r.r.r.p.r.r.r.r.r.r.r.r.r.r.y.i.r.r.y.r.r.r.r.p.p.y.r.r.y.r.r.y.r.y.r.r.r.y.r.p.p.r.y.y.y.y.r.p.y.r.p.y.r.y.y.i.r.i.p.y.y.y.y.p.p.p.r.i.i.p.p.p.p.p.p.p.p.p.p.p.p.p.p.p.p.y.p.p.r.p.i.y.p.y.r.y.r.y.r.r.y.r.r.y.p.4.l c l 3 & & s.9XsXdX9X8.9.9.r.r.r.a.a.a.a.a.s.s.s.a.a.a.r.r.9.9.9.q.q.q.q.9.9.9.q.9.9.9.9.9.9.9.9.9.9.9.9.q.q.9.9.q.q.9.9.9.q.9.9.9.q.q.q.9.q.q.q.9.9.q.9.q.q.q.9.q.q.q.9.q.q.9.9.9.9.q.9.9.9.9.9.9.9.9.8.9.9.9.9.8.8.9.9.8.8.9.9.8.9.9.9.9.9.9.8.9.9.9.7.8.8.9.8.9.8.7...[ ' g l g 3 & & i.9X8X3X6.4.6.6.4.4.2.=.<.*.{ / ) ( l c v / / c l l c c l l c c l c c c l c l l l l l l h h h h h l g k h h l k l l h g l h k g l g k g l l k l k l g l l l l l k l l l l l l l g k l l l k g k k l k k h g h g g h g g h h g g g g g g g g g g g g u f g / / / / ) v & o o o u f f f g f g g f g f v %.%.+./ l l l l l l l l l l l l l l l l l l l l ",
"..>XxXxXlXs.p.p.p.p.y.p.p.y.y.p.y.p.p.p.p.p.a.2.) ( ( f f u f f f f f f f f f * o o . u ' ( / / ) / f f f f g g g g g g g g g g g g g g g c / / / [ [ [ [ { O.O.O.O.+.+.+.+.+.O.@.@.@.@.+.+.+.@.+.+.+.%.*.*.<.=.<.=.=.=.<.=.<.<.<.<.<.<.<.<.<.<.<.<.<.<.<.<.<.2.2.2.<.<.<.<.2.2.2.2.2.2.2.2.2.<.2.2.7.q.8.9.9.9.9.8.9.9XeXeX2.& & 3 =.4.4.,XtXeX0Xr.r.r.r.r.r.r.r.r.r.r.r.r.r.r.r.r.y.u.r.r.r.r.r.y.r.u.r.r.y.y.y.y.r.y.p.r.r.p.y.y.y.r.r.y.r.r.y.y.y.y.y.r.y.y.y.y.y.r.y.y.p.p.p.y.y.y.y.y.p.y.r.y.y.y.y.y.p.p.p.p.p.p.p.y.p.p.p.p.p.p.p.y.p.p.p.p.p.p.y.y.p.p.p.p.p.y.r.y.y.r.r.y.y.y.r.r.y.p.7.l v k = & & s.6XsXdX9X8.9.9.q.e.r.a.a.a.a.a.a.s.a.a.i.y.r.9.9.9.e.q.q.q.9.9.9.q.q.9.9.q.q.9.9.q.q.q.q.9.9.q.q.q.q.q.q.q.9.q.q.9.9.9.q.9.q.q.q.q.q.q.q.q.q.q.q.q.q.q.q.9.9.q.q.9.q.9.9.9.9.9.9.9.9.9.9.9.9.9.9.9.9.8.8.9.9.9.8.9.9.9.9.9.9.9.9.9.9.8.9.9.9.8.9.9.9.8.8.7...) ( g l g 3 & & t.8X7X3X6.4.4.6.7.2.2.2.2.<.+.O.@.O./ / / / / / l l c l l c l c l l l c l c l l l l l l l l l l g l l l l l l l l l l l l l h g l l l l h k k k l l k h h l k g l g l l k k k k k k g h l h l l g l k k g k h g h g g g g g g g k g g g g g g g g g f f g v / v / ( v $ o o o y f f g g g g g g g g / +.+.+./ l l l l l l l l l l l l l l l l l l l l ",
"..>XxXxXlXs.y.p.i.p.p.p.p.p.p.i.y.p.y.y.y.p.a.2.) ( ( f f f f f f f f f f f f * . o . u ' ( ( / v v g f g g g g g g g g g g g g g g g g g c / / / [ [ [ [ { O.O.O.O.@.@.+.@.@.@.O.@.+.+.+.+.+.@.+.+.@.&.*.*.*.*.<.=.,.<.<.<.<.<.<.<.<.<.<.<.<.2.<.<.<.<.<.<.2.2.2.2.<.<.<.<.2.2.2.<.2.2.2.2.2.2.2.2.7.q.9.9.9.9.9.8.8.9XrXeX2.& & 9 =.4.4.>XrXrX9Xr.r.r.r.r.r.r.r.r.r.r.r.r.r.r.r.r.r.r.r.r.r.r.r.u.r.r.r.r.r.y.r.r.y.y.r.r.r.y.y.y.y.r.y.r.y.y.y.p.y.r.y.y.y.y.y.y.r.y.y.y.y.r.y.y.y.y.r.r.y.y.r.r.y.p.p.y.y.y.y.p.i.p.p.y.p.p.p.p.y.p.y.y.p.p.p.p.y.y.y.y.p.p.p.p.y.r.y.y.y.r.y.u.r.r.r.r.y.y.7.l v k = & & s.6XsXdX9X8.9.9.w.e.r.a.s.s.s.a.a.s.s.s.a.a.r.9.q.q.9.q.q.9.q.q.9.9.9.9.e.q.q.9.9.9.9.q.q.9.9.9.q.9.9.9.q.9.9.9.9.9.9.9.q.q.q.q.9.q.9.q.q.q.9.q.q.9.9.q.q.9.9.9.9.9.9.q.9.9.9.9.9.q.q.9.9.9.9.9.q.9.9.9.9.9.9.9.9.9.9.9.9.9.9.9.9.8.9.9.9.9.9.8.8.8.8.8.9.7.[ ' ( j l g 3 & & t.8X8X3X6.4.7.4.4.4.2.2.4.4.=.*.=.O.( / / / l c l l c c c c l c c l l l l l l l l l l l l l l l l l l k k l l l l k k l h k l k l k k l h l l k l g g h h l k k h k l k k k k l k k l l l h k k l l g g g k k g g g g g g g k g g g g g g g g g g f g f g v / / ( ) v & o o o y f g g f g g g g g g / O.X.O./ l l l l l l l l l l l l l l l l l l l l ",
"..>XxXxXlXs.p.p.p.p.p.p.y.y.p.r.u.p.p.u.p.p.a.2.( ( ( f f f f f f f f f f f f & . o . u [ ( ( / ( / g g g f g g g g g g g g g g g g g g g c / v / [ [ [ [ O.@.O.O.+.@.@.+.+.+.@.@.+.+.+.&.+.+.+.+.@.@.+.+.&.@.@.@.%.=.=.<.<.<.<.<.<.<.<.<.<.<.<.<.<.<.<.<.<.<.2.<.2.<.<.<.<.<.2.2.2.2.2.2.2.2.2.2.2.7.q.9.9.9.9.8.7.8.9XeXeX2.& & 9 =.4.4.>XrXrX9Xy.r.r.r.r.r.r.r.r.r.r.r.r.r.r.r.r.r.r.r.r.r.r.r.r.r.r.r.r.r.r.r.r.r.r.r.r.r.r.r.r.r.r.y.y.r.y.r.p.r.r.r.y.y.y.y.y.r.r.y.r.y.r.r.y.y.y.p.p.y.p.y.u.p.r.p.r.y.y.y.p.p.y.y.y.p.p.p.p.p.p.p.p.p.p.y.p.p.p.p.y.y.u.p.p.p.p.p.y.y.y.r.r.y.r.r.r.y.p.7.l v l 3 & & s.6XsXdX0X7.9.9.9.q.r.a.a.s.a.a.a.s.y.y.y.r.q.r.9.9.q.9.q.9.q.q.q.q.q.q.9.q.q.9.9.9.9.9.9.9.9.9.9.9.9.9.9.9.9.9.9.9.9.9.9.q.9.9.9.9.9.9.q.9.9.9.9.9.9.q.9.9.9.9.9.9.9.9.9.9.9.9.9.q.9.9.9.9.9.9.9.9.9.9.9.9.9.9.8.9.9.8.8.7.8.8.8.8.8.9.8.8.8.8.8.8.8.9.9.7.{ ' ( g l g 3 & & t.9X8X3X6.4.7.4.4.4.4.4.4.2.=.*.*.[ ( ( / / l l l c c c c l c c l l g h l l l l l l l l l l l l l l l k g g l h l k k k h l h g l l h l g h k l l l l l h l h l l h l h l k h k g l l l l k k l l k g h g h h g g g g g g g g g g g g g g g g g g g f g g v ( / / ) v & o o o u g g g g f g g g g g / O.O.X.v l l l l l l l l l l l l l l l l l l l l ",
"..,XcXxXlXs.y.p.p.p.p.p.p.p.p.y.p.y.p.p.i.p.a.2.( ( ( f f u f f f f f f f f f & . o . u ' ) / / / v g g g g g g g g g g g g g g g g g g k v / c / [ { { { } O.O.+.@.O.O.O.O.@.@.@.@.O.@.+.@.@.+.@.+.@.&.@.@.@.&.@.*.<.=.<.=.<.<.<.<.<.<.<.<.<.2.<.<.2.2.<.<.<.2.<.2.2.<.<.<.2.2.2.2.2.2.2.2.2.2.2.2.7.q.9.q.9.9.8.8.7.9XeXeX2.& & 9 =.7.4.>XtXrXqXy.r.r.r.r.r.r.r.r.r.r.r.r.r.r.r.r.r.r.u.r.r.r.y.r.r.r.r.r.r.r.r.r.r.r.r.r.y.r.r.y.r.r.y.y.r.r.y.y.r.r.r.r.y.y.y.r.y.r.r.y.r.y.y.p.p.r.p.p.p.y.y.y.p.p.p.y.p.p.p.y.p.y.y.y.p.p.p.p.p.p.y.p.p.p.p.p.i.p.p.y.p.p.p.p.r.r.y.r.y.r.r.y.y.r.r.r.y.p.7.l v l 3 & & s.4XsXdX9X7.9.9.w.e.r.a.s.a.s.s.a.s.y.9.q.q.e.e.9.9.q.9.9.9.q.q.9.9.9.9.9.9.q.9.9.9.9.q.q.9.9.q.9.9.9.q.q.q.9.9.q.q.9.9.9.q.9.9.q.9.9.9.9.9.9.9.9.9.9.9.9.9.9.9.9.9.9.9.9.9.9.9.8.9.9.9.9.9.9.9.8.9.9.8.8.9.9.8.9.7.9.9.9.9.9.8.8.9.9.8.9.9.9.8.8.8.8.9.9.7...) ( g l f 3 & & t.8X8X1X2.4.4.4.4.2.4.4.4.2.<.2.4.%.O.+.O.../ c / / c c c l c l c l l l l l l c l l l l l l l l l l l l k k h k l l l l l l g h k l k k g l k k l l l l h k l l l l l l k k l l l h k h k l k g g k k g g g g g g g g g g g g h g g g g g g g g g g g g g v ( / ) ) v & o o o u g g g f f g g g g g ( @.%.+.( l l l l l l l l l l l l l l l l l l l l ",
"..,XlXxXlXs.y.p.p.p.p.p.p.p.p.p.y.r.r.u.i.p.a.2.( ( ( f f f f f f f f f f f f & . o . u ' ( ( / ( / g g g g g g g g g g g g g g g g g g g c v c / [ { { o.O.O.O.@.@.O.O.O.O.+.+.+.+.@.O.@.@.@.+.+.@.@.&.+.@.+.@.@.&.%.+.*.<.<.<.<.=.<.<.<.<.<.<.<.<.<.<.<.<.<.2.2.2.<.<.<.<.2.2.2.2.2.2.2.2.2.2.4.1.4.9.9.q.9.q.9.8.8.9XeXeX2.& & 3 =.7.7.,XeXeX9Xr.r.r.r.r.r.r.r.r.r.r.r.r.r.r.r.r.r.r.r.r.r.y.r.r.r.r.r.r.r.y.y.y.r.r.r.r.p.y.y.y.r.r.y.r.p.y.y.r.r.y.p.p.p.y.y.p.y.y.p.y.p.y.y.p.p.y.r.r.y.y.y.y.y.p.p.p.p.p.p.p.i.p.p.p.p.p.y.y.p.p.p.p.p.p.y.p.p.p.p.u.p.p.y.r.r.r.r.r.y.y.y.r.y.r.r.y.y.p.7.l c k = & & s.4XsXdX9X7.w.9.w.r.r.a.s.a.a.s.a.s.y.e.r.9.9.9.9.q.q.9.9.9.9.9.9.9.q.9.9.9.9.9.9.9.9.q.q.q.9.q.q.9.9.9.r.q.9.9.q.q.q.9.9.q.q.q.q.q.9.9.q.q.q.q.q.q.9.9.q.9.9.q.q.9.9.9.9.9.9.9.8.8.9.9.9.9.9.9.9.9.9.9.8.9.7.9.9.9.9.9.9.9.9.9.9.9.9.9.9.9.9.8.7.8.8.9.9.7.{ ) ) g l f 2 & & t.9X8X3X6.4.6.4.7.4.4.4.4.4.4.2.2.=.=.@.*.o./ / / c l l l c l l c l l l l c l l l l l c l l l l l l l l l l l g l l l k k l l l l l k l l l k h l l l l k k l l l l l h l l l k l l l h g l g g k k h g k g k g g g g g g g g g g g g g g g g g g g g g g v v / v ) v & o o o u g g g g g g g g g g ) %.%.+.( l l l l l l l l l l l l l l l c c c c l ",
"O.,XlXxXlX;Xy.p.p.p.p.p.i.u.r.p.y.r.r.p.p.p.p.2.( ( ( f f f f f f f f f f f f & . o . u ' / ( ( / / g g g g g g g g g g g g g g g g g g g c / / / [ { [ [ } +.+.O.O.O.O.O.O.O.@.+.+.@.@.@.@.@.@.O.@.@.@.+.@.+.@.@.@.+.@.=.<.<.<.=.<.<.<.2.<.<.2.<.<.2.<.2.<.<.<.2.<.<.<.<.<.2.2.2.2.2.2.2.2.2.2.1.2.4.9.9.q.q.q.9.8.8.9XeXrX2.& & 9 <.7.7.>XrXeX9Xy.r.r.r.r.r.r.r.r.r.r.r.r.r.r.r.r.r.r.r.r.r.r.r.r.r.y.p.r.r.r.r.y.r.r.y.r.r.p.r.r.r.r.r.y.y.y.y.r.r.r.y.p.y.y.p.p.y.r.y.r.y.y.y.p.y.y.r.r.p.y.p.y.r.p.p.p.p.p.p.y.i.p.i.p.r.y.y.y.p.p.p.p.y.y.y.y.y.u.p.p.y.r.y.r.p.r.u.p.r.r.y.r.y.y.r.r.y.r.7.l v k = & & a.4XsXdX9X7.9.9.9.r.r.a.a.a.a.a.a.s.y.r.r.9.9.e.9.q.r.q.9.9.q.9.q.q.q.q.9.q.q.q.q.9.9.9.q.9.9.q.q.9.9.9.q.9.9.8.9.q.9.9.9.q.q.9.9.9.9.9.q.q.9.9.q.q.9.9.q.q.q.q.9.q.9.9.9.9.q.9.9.9.9.9.9.9.9.9.9.9.q.9.9.9.9.9.9.8.8.9.9.9.9.9.8.9.8.9.8.8.7.7.8.8.8.9.8.7...) ) g l g 3 & & t.9X8X8X6.6.7.4.4.4.4.4.4.4.2.2.2.=.=.+.+.{ / l c c l c l l l c l l k l l l l c l l l l l l l l l h k l h l g g k l l k g k l k k h k k k g g g h l k k k g g l l h l l h k g k l l l g h l k k k l k k g g g g g k g g g g g g g g g g g g g g g g g g g v v ( v ( v & . o o u g g g g k k g g g g ( @.%.+.( l l l l l l l l l l l l l l l l l c l c ",
"O.,XlXlXlXs.p.p.p.p.p.y.p.u.p.p.i.y.i.p.p.i.p.4.( ( ( f f f f f f f f f f f f & . o . u ) / / / / c f g g g g g g g g g g g g g g g g g g c / / / [ [ [ [ { O.O.O.O.O.O.O.@.O.@.+.$.+.@.+.@.@.@.@.+.@.+.@.@.@.+.@.@.@.&.*.<.*.<.<.=.<.<.<.<.<.2.<.2.<.<.2.<.2.2.2.2.<.<.<.<.2.2.2.2.2.2.2.2.2.2.2.2.4.9.9.9.9.9.9.9.8.9XrXrX2.& * 9 =.7.4.>XeX9X5Xr.r.r.r.r.r.r.r.r.r.r.r.r.r.r.r.r.r.r.r.r.r.r.r.r.r.r.r.r.r.r.r.r.r.r.r.r.r.y.y.r.r.r.r.r.p.p.y.r.y.r.y.y.y.i.y.y.p.y.y.p.y.p.y.p.p.y.r.r.r.r.y.y.y.y.r.r.y.y.p.y.y.p.r.y.p.y.y.y.y.p.r.p.p.p.p.y.y.r.r.r.r.r.p.y.r.r.r.r.r.y.y.r.r.r.r.r.r.y.7.l v k 3 & & a.4XsXdX9X7.9.9.9.w.r.a.a.a.a.a.a.s.y.9.9.9.w.r.r.r.q.q.q.q.q.q.q.q.q.q.9.q.q.q.9.9.9.9.9.9.9.9.9.9.9.9.9.9.9.9.9.9.9.9.9.9.9.9.9.9.9.9.9.9.9.9.9.9.9.9.9.9.9.9.9.9.q.8.8.q.q.9.9.9.q.9.9.9.9.9.9.9.9.9.9.9.9.9.9.9.8.9.8.8.8.8.8.8.8.8.8.8.8.8.8.7.8.8.8.7...) ) k l f 3 $ & t.9X8X3X6.4.4.4.4.4.2.4.4.4.4.4.2.2.2.2.2.%.{ { ../ v c c c c c l l l l l l l l l l l l l l l l l l l l l l l h k k l l g k l l l k g k k k h h h k k k g g h l g g l l k k k g l l k k k k l h k k l l g g k g k g g g g k g g g g g g g g g g g g f f g v / / / ) v & . . o u g g g k k l g k g f ( @.%.%.( l l l l l l l l l l l l l l l l l l l l ",
"O.>XlXlXlXs.p.p.p.p.p.i.p.p.p.p.y.y.p.p.p.y.a.4.) / ( f f f f f f f f f f f f & . + . y ' / / / / / f g g g g g g g g g g g g g g g g g g c / / / [ [ [ [ { O.O.O.O.@.@.@.@.@.@.&.@.@.@.+.@.O.@.@.@.@.@.@.@.@.@.@.@.$.$.&.,.<.<.=.*.<.<.<.<.<.<.<.<.<.<.2.2.2.<.2.2.<.<.<.<.2.2.2.2.2.2.2.2.2.2.2.2.7.q.9.q.9.9.8.8.7.9XrXrX2.& * 9 <.2.2.;XqX9X5Xr.r.q.r.r.r.r.r.r.r.r.r.r.r.r.r.r.r.r.r.r.r.r.r.r.r.r.r.r.r.r.r.r.r.r.r.r.y.y.r.y.y.y.r.r.y.y.y.y.r.r.r.y.r.y.r.r.y.r.y.y.y.p.y.p.p.p.p.p.y.p.y.p.p.p.y.y.y.p.p.y.p.p.u.y.p.p.i.y.p.p.p.p.p.p.p.y.y.p.y.y.i.p.p.p.p.r.r.r.r.r.r.r.r.r.r.r.r.r.7.z v k 3 & & a.4XsXdX9X7.9.9.9.e.r.a.a.a.a.a.a.a.r.q.r.q.r.y.i.y.r.r.r.q.r.q.q.9.9.9.9.9.9.q.9.9.9.9.9.9.9.9.9.9.9.q.q.q.q.9.9.q.9.9.9.9.9.9.9.9.q.9.9.q.9.9.q.9.9.9.9.9.9.9.9.9.9.9.9.9.q.9.9.9.9.9.9.9.9.9.9.9.9.9.9.8.8.9.9.9.9.8.9.9.9.8.9.8.8.8.8.8.8.8.8.8.8.9.9.7...) ) g l f 3 & & t.9X0X4X6.4.6.4.7.4.2.4.2.4.4.2.4.2.4.4.2.<.%.+.+.( l c / c c c c l k l l l l l l l l l l l l l l k l l l l l k k k k g l l k k k g l h l k k g k l l l l k l k h l l h k k l k l l k g k k k l l l k k g g g g g g g g g g g g g g g g g g g g g g f f g / / / / ) v & . . . u g f g k k k g g g f / @.%.@.( l l l l l l l l l l l l l l l l l l l l ",
"O.>XzXxXlXs.p.p.p.p.p.y.y.y.i.r.r.y.p.p.r.r.p.4.) ( ( g f f f f f f f f f f f & . o . u ' ( ) ( ) / f g g g g g g g g g g g g g g g g g g c / / ( [ [ [ [ { O.O.O.O.@.@.@.@.+.&.&.@.O.@.&.@.@.+.@.O.@.@.@.@.@.+.+.@.$.@.&.<.<.*.<.<.<.<.<.<.2.<.<.<.<.<.<.2.<.<.2.<.<.<.2.2.2.2.2.<.2.2.2.2.2.2.2.2.4.q.9.9.8.9.8.7.7.9XrXrX2.& & 3 =.7.2.>XeXeX9Xr.r.r.r.r.r.r.r.r.r.r.r.r.r.r.r.r.r.r.r.r.r.r.r.y.r.r.r.r.y.r.r.r.r.r.r.r.r.r.r.y.r.r.r.r.r.r.r.y.y.y.y.r.y.r.y.y.r.r.r.r.r.y.p.p.r.r.p.p.p.p.y.p.p.y.p.y.y.i.i.p.p.p.y.y.p.p.p.i.p.p.p.i.p.p.p.p.p.i.y.r.y.r.r.p.r.r.r.r.r.r.r.r.r.r.r.r.r.r.7.l v k = & & a.4XsXsX9X6.9.9.9.r.r.a.a.a.a.a.a.a.y.e.e.r.i.y.r.y.r.e.q.9.9.q.q.9.9.9.9.9.9.9.9.q.q.q.q.9.9.q.q.9.9.q.q.9.q.q.9.q.q.q.9.q.9.9.q.q.q.9.9.q.9.q.q.q.9.9.q.9.9.9.9.9.q.9.9.9.9.9.9.9.9.9.8.9.9.9.9.8.8.9.9.9.9.8.9.9.9.9.9.9.9.9.9.9.8.8.8.8.9.9.9.8.8.9.8.7...) ) j k g 3 $ $ t.9X8X3X6.4.4.4.4.2.4.2.4.4.4.4.4.4.4.4.2.<.@.{ o./ l c / c l l l l k l l l l l l l l l l l l l l l l l k l h g l g k g k l k k k l l l l l k k l l l l l l l l k l k l l l k h l l l l h h l k k k g k g g g g k g g g g g g g g g g g g g g g g g g g g v / ( / ) v $ . . o u k g k g k g k g g g / %.%.@.( l l l l l l l l l l l l l l l l l l l l ",
"O.,XlXxXlXs.i.p.i.p.y.y.r.r.p.r.u.p.r.r.r.y.p.2.' ( ( g f f f f f f f f f f f & . o . y ' ( ) ( ( / g g g g g g g g g g g g g g g g g g h c / / / [ [ [ [ [ O.| o.O.O.@.@.@.+.$.@.+.&.&.*.%.@.@.@.@.@.@.+.@.+.+.+.+.&.@.*.=.*.,.<.<.<.<.=.<.<.2.<.<.<.<.<.2.<.<.<.<.2.2.2.2.2.<.<.2.2.2.2.2.2.2.2.2.4.q.8.7.8.8.8.8.8.9XeXrX2.& & 9 =.7.4.>XeXwX9Xr.r.r.r.r.r.r.r.q.r.r.r.r.r.r.r.r.r.r.r.r.r.r.r.y.r.r.r.r.y.r.r.u.r.r.r.y.r.r.r.r.r.r.y.r.r.y.y.y.r.r.r.r.r.y.r.r.y.r.y.y.y.y.p.p.r.r.y.r.y.y.r.p.r.r.p.y.p.i.p.p.p.y.y.y.p.p.p.p.p.y.y.y.p.p.p.p.p.r.y.r.y.r.r.p.r.r.r.r.r.r.r.r.r.r.r.r.r.r.7.l c k 3 & & a.4XsXsX9X6.9.9.9.q.r.a.a.a.a.a.a.s.r.q.r.r.t.y.r.y.r.q.9.9.9.q.q.q.q.r.9.9.9.q.9.q.9.9.9.9.9.q.q.9.9.9.9.9.9.q.9.9.9.9.9.q.9.9.9.q.9.q.9.9.9.9.q.9.9.9.9.9.9.9.9.9.q.9.9.9.9.9.9.9.9.9.8.9.9.9.9.9.9.9.9.9.9.9.9.9.9.9.9.9.9.9.8.8.9.8.9.8.8.8.8.8.8.8.8.7...) ' k k g 3 & $ t.0X0X3X6.4.6.4.4.4.4.4.1.4.4.4.4.4.2.2.2.2.&.O.%.( c / / l l l l l l l l l l l l l l c l l l l l l k l l l l l l l g g k l l l l l k k h k k k l k k l g l l l l g h h g h h h l h g g k h k g k g g g g g g g g g g g g g g g g g g g g g g g g g f f g v / / / ) v & . . + i g g l k g k l g g g ( %.%.@.( l l l l l l l l l l l l l l l l l l l l ",
"..,XlXxXlXs.p.i.p.p.y.y.p.r.y.r.r.r.r.y.y.r.p.2.' ( ( k f f f f f f f f f f f & . o . y ' ( ) ( ( / g g g g g g g g g g k g g g g g g g k c / / / [ [ [ [ { O.| O.O.+.&.+.&.&.&.+.@.%.%.&.%.+.+.+.+.@.@.@.+.@.@.+.+.@.+.$.=.*.=.<.<.<.=.<.<.<.<.<.<.<.<.<.2.<.<.<.<.<.2.2.<.<.<.<.2.2.2.2.2.2.2.2.4.4.8.7.8.9.9.8.7.8.9XrXrX2.& & 3 =.7.4.>XrXwX9Xr.r.r.r.r.r.r.r.r.r.r.r.r.r.r.r.r.r.r.r.r.r.r.r.r.r.r.r.r.r.r.r.r.r.y.r.y.r.r.r.r.r.r.y.r.r.y.y.r.r.r.r.y.r.r.y.y.r.r.y.r.r.y.p.r.r.y.r.r.y.y.y.p.r.r.y.y.p.i.p.u.p.y.y.p.p.p.p.p.p.p.p.y.p.p.p.r.y.y.y.r.r.r.r.r.r.r.r.r.r.r.r.r.r.r.r.r.r.r.8.l c k 3 & & a.4XsXsX9X7.9.9.9.9.r.a.a.a.a.a.a.a.y.q.y.r.y.y.y.y.q.9.q.9.9.q.q.q.e.q.9.9.9.9.9.q.q.9.9.9.9.9.9.9.9.9.9.9.9.9.9.9.9.9.9.9.9.9.9.9.9.9.9.9.9.9.9.9.8.q.9.9.9.9.9.9.9.9.9.9.9.8.8.9.9.8.9.9.9.9.9.9.9.9.9.8.8.8.9.8.9.8.9.9.9.8.8.9.8.8.8.8.8.8.8.9.8.9.8.7...) ) k k f 3 & & t.9X8X3X6.4.6.4.4.4.4.4.4.4.4.4.4.4.2.4.4.2.<.<.<.$.[ ) ..( l c c l l l l l l l l l l l l l l l l l k l l k l k k l h l k l h k k k k l h k k k k k l l h g g g k l l l k g g g l k l g g g k l k k g k g g g g g g g g g g g g g g g g g g g g k g g g g v v / v ) v $ . o + g l l l k g k k g g g / %.%.@.( l l l l l l l l l l l l l l l l l l l l ",
"..,XlXxXlXs.y.p.p.y.r.y.y.y.y.y.r.r.r.p.r.r.p.4.) ( ( g f g f f f d f f f f f & . o . y ' ( ( v ( v f g g g g g g g g g g g g g g g g g k / / / / [ [ [ [ { O.O.O.O.+.%.&.*.%.&.&.@.%.%.%.*.@.+.@.@.@.@.@.@.@.+.+.+.@.@.$.*.*.*.=.=.<.=.=.<.<.<.<.<.<.<.2.<.<.2.<.2.2.2.2.2.2.<.2.<.2.2.2.2.2.2.4.2.7.8.8.8.8.8.8.7.8.9XeXrX2.& * 9 =.7.4.>XrXrX9Xr.r.r.r.r.r.r.r.r.r.r.r.r.r.r.r.r.r.r.y.r.r.r.r.r.r.r.r.r.r.r.r.r.r.r.r.r.r.r.y.r.r.r.r.r.y.r.r.r.r.r.y.y.r.r.r.r.y.y.y.r.r.y.r.r.r.y.y.y.p.p.r.y.y.p.r.y.y.u.p.y.y.y.y.y.p.p.y.p.y.p.y.u.y.i.y.y.y.y.r.i.y.y.y.r.r.r.r.r.r.r.r.r.r.r.r.r.r.r.7.c c k 3 & & a.7XsXdX9X7.9.9.9.w.w.a.a.a.a.a.a.a.a.a.y.y.y.y.i.y.r.r.e.q.q.q.q.9.9.9.9.9.9.9.9.9.9.9.9.9.9.q.q.9.q.q.9.9.q.9.9.9.9.9.q.9.9.9.9.9.9.9.9.9.9.9.9.9.9.q.9.9.9.9.8.9.9.9.9.9.9.8.7.7.7.7.7.8.8.8.9.7.7.7.8.9.8.8.7.7.8.8.8.8.8.8.8.9.8.8.8.8.8.8.8.8.8.9.8.7...) ) k k g 3 & & t.0X8X4X6.4.4.4.4.4.4.4.4.4.6.4.4.4.4.4.4.4.2.<.:.%.O.{ o.' c c c l l l c l l l l l l l l l l l l l l l l k l l l l k k l k g g k k g k k l k l l l l k k l l l k l l l l h k g h k k k g g l l k l g k l g g g k g g g g g g g g g g g g g g g g g g g g v v / v ) c + o o o l [ [ ( g k g g g g g / %.%.@.( l l l l l l l l l l l l l l l l l l l l ",
"O.>XlXxXlXs.y.r.u.r.r.r.p.p.p.r.r.i.u.r.y.p.p.4.) ( ( k f f f f f f f f f f f & . o . y ' ( ( v ( v f g g g g g g g g g g g g g g g k k k v / / / [ [ [ [ { O.O.O.O.+.+.&.&.&.&.@.&.%.*.*.*.@.+.@.@.@.@.+.+.@.@.$.&.@.&.$.%.&.%.<.=.<.<.<.<.=.<.<.<.<.2.2.<.2.2.2.2.2.2.<.<.<.<.<.2.<.2.2.2.2.2.2.2.7.8.7.7.8.8.8.8.8.9XrXrX4.& & 9 =.7.7.>XrXrX9Xr.r.r.r.r.r.r.r.r.r.r.r.r.r.r.r.r.u.r.r.r.r.r.r.r.r.r.r.r.r.r.r.r.y.r.r.r.r.r.r.r.r.r.r.r.r.r.r.r.r.y.p.p.r.y.r.r.p.y.r.y.r.p.r.r.y.r.y.i.p.p.y.y.p.r.r.p.y.p.y.r.y.r.i.p.p.i.i.p.y.r.u.p.y.y.p.y.y.y.r.r.r.y.r.r.r.r.r.r.r.r.r.r.r.r.r.r.r.r.7.c c k 3 & & a.4XsXdX9X7.9.9.9.w.9.p.a.a.a.y.a.a.p.a.y.y.r.r.r.y.r.q.9.q.r.q.q.q.q.9.9.9.q.q.9.9.9.q.q.q.9.q.q.q.9.q.q.9.q.9.9.q.q.9.9.q.q.9.9.9.9.q.9.9.q.9.q.9.9.q.9.9.9.9.9.9.9.9.9.9.9.8.8.8.9.7.7.9.7.7.7.7.7.9.9.8.8.8.7.8.8.8.8.8.9.7.9.8.8.8.9.8.8.8.8.9.8.9.9.7...) ) k k f 3 & & t.9X8X4X6.4.4.4.4.4.4.4.4.4.6.4.4.4.4.4.4.4.<.<.2.&.{ O.O.v l c l l l l l l l l l l l l l l l l l h l l k k l l k l l l k l l g h l l l k k l l l l k k l l h l l l l l g k h k l l k l l l k k k l k l k k h g g g g g g g g g g g g g g g g g g g g g g / v v v ) c + . o o l O.[ ( g k g k g k g / %.+.@.( l l l l l l l l l l l l l l l l l l l l ",
"O.<XlXxXlXs.y.y.y.p.p.r.p.p.p.y.y.y.p.r.r.i.p.2.) ( [ k f f f f f f f f f u f & . o . y ' / / ( ( / g g g g g g g g g g g g g g g g k k k v / / / [ [ [ [ { O.O.O.O.@.@.&.&.&.&.&.@.&.*.*.*.@.+.+.@.@.+.+.+.@.@.$.$.&.+.+.&.@.*.<.<.<.<.<.<.<.<.<.<.<.2.<.<.<.<.<.2.2.<.<.2.2.<.<.2.2.2.2.2.2.2.2.4.2.4.2.4.8.8.8.8.8.9XeXrX2.& & 9 =.7.4.;XrXeX9Xr.r.r.r.r.r.r.r.r.r.r.r.r.r.r.r.r.r.r.r.r.r.r.r.r.r.r.r.r.r.r.r.r.r.r.r.r.y.r.y.r.r.r.r.r.y.r.r.r.r.y.y.y.r.r.r.y.r.r.y.r.r.r.y.y.p.r.y.p.p.p.p.y.p.y.p.i.p.p.p.y.y.p.p.i.y.y.y.y.p.p.p.p.y.p.y.y.p.u.u.r.r.r.r.r.r.r.r.r.r.r.r.r.r.r.r.r.r.r.7.l v k = & & i.4XsXdX9X7.9.q.9.9.e.r.r.r.r.r.r.r.r.r.r.r.r.q.e.q.9.q.9.9.q.q.q.9.q.9.q.9.q.q.9.9.9.9.q.q.9.9.q.9.9.9.9.9.9.9.9.9.9.9.9.9.9.9.9.9.9.9.9.9.9.q.q.9.9.9.9.q.9.9.9.9.9.9.9.9.9.7.8.8.9.8.8.8.7.7.8.7.7.8.9.9.8.9.9.9.8.9.9.9.9.9.9.9.9.8.8.8.8.8.8.8.8.9.9.7...( ) j k g 3 & & t.9X8X4X6.4.4.4.4.4.4.4.4.4.4.4.4.2.2.4.4.2.<.2.2.%.O...} ( v c l l l l l l l l l l l l l l l l h l l k k l l h g k k k k l l g k k l k k k g k k l l l l g g h h k k l k l l k k k k l l k k h k k k l k k g g g g g g g g g g g k g g g g g g g g g g g v v / v ) v $ . o + k [ [ [ g g g g g g g / %.%.@.( l l l l l l l l l l l l l l l l l l l l ",
"O.<XxXxXlXs.p.y.y.p.r.r.p.p.p.r.r.p.r.p.r.y.p.2.) ( ) l g l l l f f f f f u f & . o . y ' ( / / ( / g g g g g g g g g g g g g g g g g g g c / / / [ [ [ [ { O.| O.O.+.&.&.&.&.&.&.&.&.*.*.%.+.+.+.@.O.@.@.@.@.@.+.$.$.@.@.@.&.*.*.=.<.<.<.2.<.=.<.<.<.2.<.<.<.<.<.<.<.<.2.2.2.2.2.2.2.2.2.2.2.2.2.2.2.2.2.2.7.8.9.7.9.9XeXrX4.& & 9 =.7.4.>XrXwX9Xr.r.r.r.r.r.q.r.r.r.r.r.r.r.r.r.r.r.r.r.r.r.r.r.r.r.r.r.r.r.r.r.r.r.r.r.r.r.r.y.r.r.r.r.r.y.r.r.r.r.r.r.y.y.r.y.r.r.y.p.r.r.r.y.u.r.r.y.y.r.y.r.r.r.y.y.u.r.r.y.p.y.y.u.p.p.p.p.p.p.p.y.p.p.p.p.p.y.r.r.y.y.r.r.r.r.r.r.r.r.r.r.r.r.r.r.r.r.r.7.l z k 3 & & i.4XsXdX9X7.9.9.r.w.9.e.r.r.r.r.r.r.r.r.r.y.r.9.9.q.9.q.q.q.q.q.q.9.q.q.q.q.q.q.9.9.9.9.9.9.9.9.9.9.9.8.9.9.9.9.9.9.9.9.9.9.9.9.9.9.9.9.9.9.9.9.9.9.9.9.9.9.9.9.9.9.9.9.9.9.9.8.7.9.8.8.8.7.7.8.8.7.7.8.8.9.9.8.7.8.9.8.8.8.9.8.8.8.8.8.8.8.8.8.8.8.8.8.8.7...( ) k k g 3 & & t.9X8X4X8.4.4.4.4.4.4.4.4.6.4.4.4.2.4.4.4.1.2.<.2.*.&.+.O.{ ` { / l l l c c l c l l l l l l l l k l k l k k h g k g k g k l g k k k h g k k l l k g h g k g l k h h k k g g k g k g k l k k k k k k g k k k g g g g g g g g g g g g k g g g g g g g f f g v v v ) ) v $ . o + k v c c g l l g k g g ( %.%.@.) l c l l l l l l l l l l l l l l l l l l ",
"O.,XlXxXlXs.y.u.r.y.r.r.y.r.u.u.r.r.r.u.r.r.p.2.) ( ( l l l / ( k f f f d u u & o o . y [ ( ( / ( / f g g g g g g g g g g g g g g g g g g c / / / [ [ [ [ { O.O.O.@.+.&.@.@.@.@.&.&.&.*.%.%.+.@.+.@.@.@.@.@.+.O.+.$.$.@.@.+.$.*.*.<.<.<.<.<.<.<.<.<.<.<.<.<.<.2.<.<.<.<.<.<.2.2.2.2.2.2.2.2.2.2.2.2.2.2.4.2.7.8.q.7.8.9XeXeX4.& & 9 =.7.7.>XrXeX9Xr.r.q.q.r.r.r.r.q.q.r.r.r.r.r.r.r.r.r.r.r.r.r.r.r.r.r.r.r.r.r.r.r.r.r.r.r.r.r.r.r.r.r.r.r.y.r.r.r.r.y.p.r.r.r.r.r.r.r.r.y.r.y.p.p.r.r.y.p.y.r.i.y.r.y.y.r.y.r.r.r.y.p.y.p.y.p.p.y.p.p.p.p.y.r.y.y.y.r.r.r.p.r.r.r.r.r.r.r.r.r.r.r.r.r.r.r.r.r.7.l v k 3 & & a.4XsXdX9X7.9.9.9.e.9.r.r.r.r.r.r.r.t.r.r.r.r.9.9.9.9.9.q.e.r.9.q.q.9.q.q.q.9.9.9.9.9.9.q.9.9.q.q.9.9.9.9.9.9.9.9.9.9.9.9.9.9.9.9.9.9.9.9.9.9.9.9.9.9.9.9.9.9.9.9.9.9.9.9.9.9.8.9.9.8.7.7.7.7.8.7.7.8.8.8.9.9.8.8.8.8.8.9.8.8.8.8.8.8.8.8.8.8.8.8.8.8.8.8.7...) ' k k f 3 & & t.9X8X4X7.4.6.4.4.4.4.4.4.6.4.4.4.2.4.4.4.4.<.<.2.%.@.%.*.O.{ O.) l l l l c l l l l l l l l l l l l l l k h k k g g l k l k k k l k g h h l g l g g l l l l l k g k l k h l g k l k k k k k k k k k g k k k g g g g g g g g g g g g g g g g g g g g f f g v v v / ) v + o o + g ' v v v ( v g k g g v %.%.@.) l l l l l l l l l l l l l l l l l l l l ",
"X.,XxXlXlXs.r.r.p.p.y.p.r.r.r.r.r.r.r.p.y.r.p.2.( / ( l / c / / k f f f f u u & . o . y [ ) ( / / / g g g g g g g g g g g g g g k g g g g c / / / [ [ [ [ { O.O.O.O.&.@.%.%.&.&.&.&.&.&.%.%.+.+.@.@.+.@.$.@.@.@.@.$.+.@.+.@.$.*.*.*.<.=.=.=.<.<.<.<.<.<.<.<.<.<.2.2.<.<.<.<.<.<.<.2.2.2.2.2.2.2.2.2.2.2.2.2.7.7.8.7.9.9XwXeX2.& & 9 =.7.7.>XtXrX9Xr.r.r.q.r.r.r.r.r.q.r.r.r.r.q.r.r.r.r.r.r.r.r.r.r.r.r.r.r.r.r.r.r.r.r.r.r.r.r.r.r.r.r.r.r.r.r.r.r.r.r.r.r.r.r.y.r.r.r.r.y.r.r.r.r.r.r.r.r.y.r.p.y.r.r.r.y.y.r.r.u.y.y.y.r.y.r.r.u.p.y.y.y.y.r.u.u.y.r.r.y.r.r.r.r.r.r.r.r.r.r.r.r.r.r.r.r.r.r.7.c c k 3 & & a.4XsXsX9X7.9.9.9.r.9.r.r.r.r.r.r.r.r.r.r.r.r.9.9.9.q.r.r.r.r.r.r.q.9.9.9.9.q.9.9.q.q.9.q.9.9.q.q.9.9.9.9.q.q.q.9.9.q.9.9.q.9.q.9.9.9.9.q.9.9.9.9.9.9.9.q.9.8.9.9.9.9.9.9.9.9.9.9.9.9.9.9.q.9.9.7.7.7.7.8.9.8.8.8.8.8.8.8.8.8.9.8.9.8.8.8.8.8.8.8.8.8.9.8.7...) ) k k f 3 & & t.9X8X3X7.4.4.6.4.4.4.4.4.6.4.4.4.2.4.4.4.4.=.=.<.*.@.$.%.O.| o.v l v l l c l l l l l l l l l l l l l l l l l l l l l k l l l l l l k g l l k l k k l h l l k l k l k l l l k k g k l l k k l l k g g g g k g g k g g g g g g g g g g g g g g g g g f f g / v v ) ) v + . o + g ) / / / ) / g g g f v %.%.@.) l l l l l l l l l l l l l l l l l l l l ",
"X.,XlXxXlXs.r.p.p.p.r.r.r.r.r.i.r.r.u.y.r.r.i.2.( / ' l c v l / g f f f f u u & . o . y [ ) ( / ( / g g g g g g g g g g g g g g g g g g g c / / / [ [ [ [ { O.O.O.O.&.&.&.&.@.@.&.&.&.&.%.%.@.@.@.@.@.@.@.@.@.@.@.@.+.+.@.+.+.&.@.@.+.+.*.<.<.<.<.<.<.<.<.<.<.<.2.2.<.<.<.<.2.2.2.<.2.2.2.2.2.2.2.2.2.2.2.2.7.7.8.7.9.9XeXeX2.& & 9 =.7.6.>XtXrX9Xr.r.r.r.r.r.r.r.r.r.r.r.r.r.r.r.r.r.r.r.r.r.r.r.r.r.r.r.r.r.r.r.r.r.r.r.r.r.y.r.r.r.r.r.r.r.r.r.r.r.r.r.r.r.r.y.r.y.r.r.r.r.p.r.u.u.r.r.r.r.r.r.r.p.u.p.r.y.p.p.p.r.r.y.y.p.p.p.p.r.y.y.y.p.p.p.p.y.r.y.r.y.p.r.r.r.r.r.r.r.r.r.q.r.r.r.r.r.r.7.c c k 3 & & i.7XuXsX9X7.9.9.9.e.9.r.r.r.r.r.r.r.r.r.r.r.r.9.q.9.r.i.p.p.y.i.9.q.q.9.9.q.q.9.9.q.q.q.9.9.9.9.9.9.9.9.9.9.q.q.9.9.9.9.q.9.9.9.9.9.9.9.9.9.9.9.9.9.9.9.9.9.9.9.9.9.9.9.9.9.9.q.9.9.9.q.9.9.9.9.7.7.7.7.8.9.7.8.8.8.8.9.8.9.9.9.8.8.8.8.9.8.9.8.8.8.8.8.9.7...) ' k k f 3 & @ t.0X8X4X7.4.4.6.6.4.4.4.4.6.6.4.4.4.4.4.4.4.=.%.%.%.&.+.+.O.O.+.[ ) [ / v l l l l l l l l l l l l l l l l l l l l l k k k l k k l l l k k l l l k k k l h l l h h k h g l g g g k k l k k g k h g g k g g k g g g g g g g g k g g g g k g g g g g g g g g / v v ) ) c + o o + g c k l k l v l g g g v @.%.+.) l c l l l l l l l l l l l l l l l c l l ",
"X.,XlXxXlXs.r.y.y.r.r.y.r.y.r.u.r.r.p.p.r.u.p.2.( / ( l v / z l f u f f f u u + . o . y [ ( ( / ( / f g g g g g g g g g g g g g g g g g k c / / / [ [ [ [ { O.O.O.O.+.&.&.&.&.&.&.+.$.@.+.+.@.@.@.@.@.@.@.@.$.$.&.@.$.+.+.$.@.@.@.@.@.@.*.<.<.<.<.<.2.2.<.<.<.<.2.2.<.<.<.<.2.<.<.<.2.2.2.2.2.2.2.2.2.2.2.2.7.8.7.8.9.9XeXeX2.& * 9 =.7.7.>XtXtX9Xr.q.r.q.r.r.r.r.r.r.r.r.r.r.r.r.r.r.r.r.r.r.r.r.r.r.r.r.r.r.r.r.r.r.r.r.r.r.r.r.r.r.r.r.r.r.r.r.r.r.r.r.r.r.r.r.r.r.r.r.r.r.p.r.r.p.p.y.y.u.i.r.r.i.r.y.y.i.p.p.p.y.p.p.y.y.y.p.p.y.i.y.y.y.y.p.p.p.y.u.r.r.y.r.r.r.r.r.r.r.r.r.r.r.r.r.r.r.r.7.c c k = & & i.8XsXsX9X7.9.9.9.9.8.r.r.r.y.r.r.r.r.r.r.r.9.9.q.q.i.y.y.p.r.y.r.q.q.9.9.q.9.9.9.9.9.q.9.9.9.9.9.9.9.9.9.9.9.9.9.9.9.9.9.9.8.9.9.9.9.9.9.9.9.9.9.q.q.9.9.9.9.9.9.9.9.9.8.8.9.9.9.8.9.9.9.e.9.9.7.7.7.8.8.8.8.8.8.8.8.8.8.9.8.8.8.9.8.8.8.8.8.8.8.8.8.9.9.7...( ' k k f 3 & & t.0X8X3X7.4.4.4.4.4.4.4.4.4.4.4.4.4.4.4.4.2.*.%.%.%.%.&.%.@.@.#.O.O.O./ l c l l l l l l l l l l l h l l k k l k k l l k l k g h l l g l k k l l g l l h l k k k l l k g k l h k g h k k k k k k k g k k g g g g g g g g g g g g g g g g g g g g g g g g j v v v ) ) c + o o + k ( v / / ( v l k k g / %.@.@.) l l l l l l l l l l l l l l l l l l l l ",
"X.,XlXlXlXs.r.r.y.p.r.r.p.p.r.r.r.r.p.p.u.u.p.2.( / ( l l / c l f f f f f f u & . o . q ' ( / / ( / g g g g g g g g g g g g g g g g g g g l / / / [ [ [ [ { O.| O.@.@.&.&.&.@.&.@.+.+.+.@.@.+.@.@.@.@.@.@.@.+.@.@.@.&.$.@.@.@.@.+.+.&.+.*.<.<.<.<.<.<.2.<.2.<.<.2.<.<.<.<.2.<.2.<.<.2.2.2.2.2.2.2.2.2.2.2.2.7.q.8.7.8.9XqXeX2.& * 9 =.8.6.>XrXeX9Xr.q.q.q.r.r.r.r.r.r.r.r.r.r.r.r.r.r.r.r.r.r.r.r.r.r.r.r.r.r.r.r.r.r.r.r.r.r.r.r.r.r.r.r.r.r.r.r.r.r.r.r.r.r.r.p.r.r.r.r.r.p.r.y.r.p.u.r.r.r.u.p.u.r.i.y.y.p.u.p.y.y.y.y.u.p.i.r.y.p.r.i.r.r.r.p.u.p.y.r.r.r.r.r.r.r.r.r.r.r.r.r.r.r.r.r.q.r.r.7.l l k 3 & & i.7XsXsX9X7.9.9.9.9.8.r.r.9.r.r.r.r.r.r.r.r.q.9.q.9.i.i.y.p.i.i.r.e.q.9.q.q.q.9.9.9.9.9.9.9.9.9.9.9.q.9.9.9.9.9.9.9.9.q.9.9.9.9.9.9.9.9.9.9.9.9.9.9.9.9.9.9.9.9.9.9.9.9.8.9.9.9.9.9.9.9.q.r.9.9.8.7.7.8.8.8.8.8.9.9.8.8.8.9.9.8.8.8.8.8.8.8.8.8.8.8.8.8.9.7...( ' k k f 3 & & t.9X8X3X6.4.4.4.4.4.4.4.4.4.4.4.4.4.4.4.2.2.%.%.%.&.%.%.%.&.&.@.@.O.O.[ [ [ c l c l l l l l l l l l l l l l k l l l k l l l l h h l k k l l l l l l g g g g k k l l g k l l l g l k g l k k k k k g k k k k k g g g g g g g g g k g g g g g g k g g g g g v v v v v v + . o + k [ ) ) [ ' ( l k k g / %.@.@.) l l l l l l l l l l l l l l l l l l l l ",
"X.,XlXlXlXa.y.r.r.p.r.r.p.r.p.r.r.r.r.r.r.u.p.2.( / ( z l l l c g f f f f u u & . o . e ' / / / ) / j g g g g g g g g g g g g g g g k k g l / / / [ [ { [ { O.| O.O.@.@.@.@.+.+.&.@.$.+.@.O.@.@.+.@.@.@.@.+.+.@.@.@.$.@.+.@.@.@.+.@.+.@.*.<.<.<.<.<.<.<.<.<.<.<.2.2.2.<.<.2.2.2.<.<.2.2.2.2.2.2.2.2.4.4.2.2.7.8.7.7.9.9XqXeX2.& * 9 =.8.6.>XrXeX9Xr.r.r.q.r.r.r.r.r.q.q.r.r.r.r.r.r.r.r.q.r.r.r.r.r.r.r.r.r.r.r.r.r.r.r.r.r.r.r.r.r.r.r.r.r.r.r.r.r.r.r.r.r.r.r.r.r.r.r.r.r.r.r.r.p.r.r.r.r.r.r.u.u.u.r.u.r.p.u.r.r.i.i.u.u.r.r.r.r.y.r.u.u.r.r.r.r.p.r.r.r.r.r.y.r.r.r.r.r.r.q.r.r.r.r.r.r.r.r.7.l c k 3 & & i.7XsXsX9X7.9.9.9.9.9.9.r.r.r.r.r.r.r.r.r.r.r.9.9.r.r.r.y.r.i.y.q.q.q.9.q.q.9.9.9.9.9.9.9.9.9.q.q.q.9.9.q.q.q.9.9.9.9.9.9.9.9.q.q.9.9.9.9.9.9.9.9.9.9.8.9.9.9.9.9.9.9.9.9.9.9.9.9.9.9.9.9.9.9.9.7.7.7.8.8.9.9.8.8.8.9.8.8.8.8.8.8.8.8.8.8.8.8.8.8.8.8.8.9.7...( ' k k f 3 & & t.8X8X4X6.4.4.4.4.4.6.6.4.4.4.4.4.2.4.4.4.2.%.%.&.%.%.%.$.&.%.$.+.+.O.[ { [ v l c c l l l l l l l k l k l l l l k k l l k g l l l h l l k l l l l l k k l l l g k l l k l l k l k l l l l k k g g k k k k k k g g g g g g g g g g g g g k j k g k j g g k ( ( / ( v c + . o + k [ ) / ) / v k g g g / %.%.@.) l l l l l l l l l l l l l l l l l c l l ",
"X.,XlXlXlXs.r.y.r.r.r.r.r.r.u.u.y.r.r.u.r.u.p.2.( ( ` l f f g l f f f f f f u & . o . y ) / ( / ( ( g g g g g g g g g g g g g g g g g g g c / / / [ [ { [ { | | | O.@.+.@.+.@.@.$.$.+.@.O.@.@.@.@.@.+.+.+.$.+.@.@.$.&.@.@.@.@.@.+.+.+.@.%.<.<.<.<.<.<.<.<.<.<.<.2.<.<.<.<.2.2.2.<.<.2.2.2.2.2.<.2.2.4.2.2.2.7.8.8.7.9.9XqXeX2.& * 9 <.8.6.;XrXrX9Xr.r.r.q.q.r.r.r.r.r.r.r.r.r.r.r.r.r.r.r.r.r.r.r.r.r.r.r.r.r.r.r.r.r.r.r.r.r.r.r.r.r.r.r.r.r.r.r.r.r.r.r.r.r.r.r.r.r.q.r.q.q.q.q.q.q.q.q.q.q.q.q.q.q.q.q.q.q.q.q.q.q.q.q.q.q.q.q.q.r.q.r.q.q.r.r.r.r.r.r.r.r.r.r.r.r.r.r.r.r.r.r.r.r.r.r.r.r.r.7.l c k 3 & & a.8XsXdX9X7.9.9.9.9.9.9.r.9.9.9.9.9.9.9.q.q.9.9.q.9.9.9.9.q.9.q.r.q.9.9.q.9.9.9.q.9.9.9.q.q.9.9.9.9.9.9.9.q.q.9.9.9.9.9.9.9.9.9.9.9.9.9.9.q.9.9.9.9.9.9.9.9.9.9.9.9.9.9.8.8.9.9.9.9.9.9.9.q.9.9.8.7.7.8.8.8.8.8.9.8.8.8.8.8.9.8.8.8.8.8.8.8.8.8.8.8.8.9.8.7...( ' k k f 3 & & r.8X8X4X8.4.4.4.4.6.4.4.4.4.4.4.4.4.4.4.4.4.%.%.%.%.$.&.$.@.&.+.@.&.+.{ ..) l l c c l l l l l l k l k l l l l k k l l k l l l l l k k g k l k l l h k l l k k k l l l k k g k g g l k g g k k g k g k k k g k k k g k k g k g k g g g g g g g g g g g g k ( ( / ) ) c + . . + k / l / c l v l g k g ) @.@.@.) l l l l l l l l l l l l l l l l l l c c ",
"X.,XlXlXkXs.y.i.y.p.p.i.r.r.r.r.r.p.r.r.r.r.p.2.( / ' k u u u u f f f f f f u & . o . y ' / ) ( ( / k g g g g g g g g g g g g g g g g g g c / / / [ [ [ [ { O.| O.@.@.+.+.+.+.+.$.+.+.@.@.+.@.+.@.@.@.@.+.+.@.+.@.@.+.@.+.@.@.@.+.+.+.+.*.<.<.<.<.<.<.<.<.<.2.<.2.<.<.<.<.<.<.<.<.2.2.2.2.2.2.<.2.2.2.7.4.7.7.7.7.4.8.9XwXeX2.& & 9 =.8.6.>XrXeX9Xr.q.q.q.r.r.r.r.r.r.r.r.r.r.q.r.r.r.r.r.r.r.r.r.r.r.r.r.r.r.r.r.r.r.r.r.r.r.r.r.r.r.r.r.r.r.r.r.r.r.r.r.q.r.r.q.q.q.q.q.q.9.9.9.9.9.q.q.9.9.9.q.9.q.q.q.q.q.q.q.q.q.q.q.q.q.q.q.q.q.q.q.q.q.q.q.r.r.q.q.q.r.q.r.r.r.r.r.r.r.r.q.q.r.r.r.q.r.r.7.c c k 3 & & i.4XsXsX9X7.8.9.9.9.9.9.9.9.9.9.9.9.9.9.9.9.9.9.9.9.q.9.9.q.q.q.q.q.9.9.r.9.9.q.q.9.9.9.9.9.9.9.9.9.9.9.9.9.q.8.8.9.9.9.9.9.9.9.9.9.9.9.9.9.9.9.9.9.9.9.9.9.9.9.9.9.9.9.8.8.8.9.9.9.9.9.9.9.8.9.9.7.7.8.9.9.9.9.9.9.9.9.9.8.9.8.8.8.8.8.8.8.8.8.8.8.8.8.8.7...( ' k k f 3 & & r.9X8X4X8.4.4.4.4.6.4.4.4.4.2.4.4.4.4.4.2.4.*.&.&.&.%.&.%.#.&.&.&.%.%.$.+...( z l l l l l l l l l l l l l l k k k k l l l l l l k g g k k k l l h h g k k k l l k k k k k k k g l l g g g k g k g g k k k k k k k g g k k g g g k g g g g g g g g g g g k v ( ( v v v $ . o o k v k l l v / c g h g / %.+.+.) l l l l l l l l l l l l l l l l c l l l ",
"..,XlXlXkXa.r.u.r.r.y.r.r.r.u.i.r.r.r.r.u.r.u.2.( v ( k f f u f f f f g f u f & o o o y ' ( ( ( ( / g g g g g g g g g g g g g g g g k k g c / / ( [ { [ [ { O.| O.O.O.+.@.$.$.$.&.+.+.@.@.@.@.@.$.@.@.+.@.+.+.+.@.@.+.+.+.@.@.@.+.+.+.+.%.<.<.<.<.<.<.<.<.<.2.2.<.<.<.<.<.<.2.<.2.<.2.<.2.2.2.2.2.2.4.7.4.7.8.4.7.7.8.9XqXeX2.& & 3 =.7.7.>XrXrX9Xr.q.9.q.r.r.r.q.q.r.r.r.r.q.r.q.r.r.r.r.r.r.r.r.r.r.r.r.r.r.r.r.r.r.r.r.r.r.r.r.r.r.r.r.r.r.r.r.r.r.r.q.q.r.r.q.q.q.q.q.q.9.9.9.q.q.q.9.9.8.0.q.q.q.q.q.9.q.q.q.q.q.q.q.q.q.q.q.q.q.q.q.q.q.q.q.q.r.r.r.r.q.q.r.r.q.q.r.r.r.q.r.q.r.r.r.r.r.r.7.v v k 3 & & i.8XsXdX9X7.9.9.9.9.9.9.9.9.9.9.9.9.9.9.9.9.9.9.9.9.9.9.9.9.9.9.9.q.r.q.q.9.9.q.q.9.9.9.q.9.9.9.9.9.9.9.9.9.9.9.q.9.9.9.9.9.9.9.9.9.9.9.9.9.9.9.9.9.9.9.9.9.9.9.9.9.9.9.8.9.9.9.9.8.9.9.9.9.9.9.8.7.8.9.8.9.9.9.9.9.9.8.9.9.8.8.8.8.8.8.8.8.8.8.8.8.8.8.8.7...( ' k k g 3 & & t.9X8X4X8.4.4.4.4.4.4.4.4.4.2.4.4.4.4.4.4.4.*.&.&.%.%.&.%.#.%.&.&.%.$.$.+.$.{ ( [ ( l l l l l l l l l l k k h g k k l l l k l l h k k k k l l l k l g k l l k g k l l l k l l k l l k g k l k k k g k l k k k k k k k k g g g g g g k g g g j g g g g g g v v v v v v + . . + u l g g k ( ( l k g f v %.+.+.) l l l l l l l l l l l l l l l l l l l c ",
"X.<XlXlXhXa.r.i.r.y.r.r.r.r.r.u.u.r.r.r.r.u.p.2.( / ( g f f f f f f f f f f f & o o . q ' / / / ) / g g g g g g g g g g g g g g g g k k h c / / / [ { [ [ { O.| O.O.O.@.@.@.+.+.@.&.@.@.@.O.@.@.@.@.@.@.@.@.@.@.@.+.+.+.+.@.@.@.+.+.+.+.%.<.<.<.<.<.<.<.<.<.<.2.2.2.2.<.<.<.2.<.<.<.2.2.2.2.2.2.2.2.2.2.2.2.2.2.4.4.7.9XqXeX2.& & 9 =.7.6.;XrXrX9Xr.q.q.q.r.q.q.r.r.r.q.r.r.r.r.r.r.r.r.r.r.r.r.r.r.r.r.r.r.r.r.r.r.r.q.r.r.r.r.r.r.r.r.r.r.r.r.r.r.r.r.r.r.q.q.q.q.8.q.q.8.8.q.8.9.q.9.9.9.q.q.q.q.q.q.q.q.q.q.q.q.q.q.q.q.q.q.q.q.q.q.q.q.q.q.r.p.y.r.q.r.r.q.q.q.q.r.r.r.r.r.r.r.r.r.r.r.r.r.7.l v k 3 & $ i.8XsXsX9X6.9.9.q.9.q.9.q.9.9.9.9.q.9.9.9.9.9.9.9.9.9.9.9.9.9.9.q.9.r.q.q.9.9.9.q.9.9.9.q.9.9.9.9.9.q.9.9.9.9.q.9.9.9.9.9.9.9.9.9.9.9.9.9.9.9.9.9.9.9.9.9.9.9.9.9.9.9.8.7.8.7.9.8.7.7.7.9.9.9.9.7.7.8.8.8.8.8.8.8.8.8.8.8.9.8.8.8.8.8.8.8.8.8.8.8.8.8.8.8.7...( ) k k g 3 & & t.9X8X4X7.4.4.4.4.4.4.4.4.4.4.4.2.2.*.*.*.=.%.%.&.&.%.%.%.%.&.&.%.%.+.$.&.+.{ [ O.[ l v c l l l g l l g k k h g k k l l g k l k g l l l l l l l l l k h h l k k l l l l k k l l l l g g k l g k k k k k k g k k k g j g g j g g g g g g g g g g g g g g k ( ( / ( ( v + . . + y u f g g v ) v ) ) ( [ %.+.+.) l l l l l l l l l l l l l l l l l l c l ",
"X.,XlXlXhXa.r.i.r.p.i.r.i.r.r.u.r.u.r.u.r.r.p.2.) ) [ g f u f f f f f f f u u & . o . q ' / ( / ( / g g g g k k g g g g g g g h g g k k h / / / / [ [ [ [ { O.| O.O.@.@.O.@.$.@.@.@.@.+.@.@.@.@.@.@.@.@.@.@.@.@.@.@.@.@.@.@.@.$.+.@.+.@.%.<.<.=.<.<.<.<.<.<.2.2.2.2.2.<.<.2.2.2.<.<.2.<.2.2.2.2.2.2.2.2.2.2.2.2.2.2.7.9XqXeX2.& & 9 =.7.7.>XrXeX9Xq.9.9.q.r.r.q.r.r.r.q.r.r.r.r.r.r.r.r.q.r.r.r.r.r.r.r.r.r.r.r.r.r.r.q.r.r.r.r.r.r.r.r.r.r.r.r.r.r.r.r.q.r.q.q.q.q.q.q.9.9.8.0.9.9.9.9.9.q.q.q.q.q.q.9.q.q.r.r.r.r.q.q.q.q.q.q.q.q.q.q.q.q.r.r.r.p.r.p.u.r.q.r.r.r.q.q.q.r.r.r.r.r.r.r.r.r.r.r.7.c c k 3 & & i.8XsXdX9X7.9.9.9.9.9.9.9.9.9.9.9.9.9.9.9.9.9.9.9.q.9.9.9.9.9.9.q.q.q.q.9.8.9.9.q.9.9.9.9.9.9.9.9.9.9.9.9.9.9.9.9.9.9.9.9.9.9.9.9.9.9.9.9.9.9.9.9.9.9.9.9.8.8.8.9.7.9.8.8.9.7.7.7.7.7.7.7.7.7.7.8.7.8.7.8.8.8.8.8.7.8.8.8.8.8.8.8.8.8.7.9.8.8.8.8.8.7.8.8.7...( ' k k g 3 & & r.8X8X4X7.4.4.4.4.4.4.4.4.4.4.4.4.2.*.*.%.%.%.&.&.%.%.&.&.&.&.&.%.%.$.+.&.O.{ { } ( z v c l l l l k k k l h l l l k g g g k k g g l l k l l l l k h k h g k k l l h k k k k g g k l k g g h k k k k k l g k k k g g g g g g g g g g g g g g g g g g g g k / ( v v ( v + . o o y y y f u l ......X.X.X.@.%.+.( l l l l l l l l l l l l l l l l l l l l ",
"O.,XlXlXhXa.r.i.i.y.y.r.r.r.u.r.u.r.r.p.r.r.y.2.' ' [ g f f f f f f f f u f f & . . . y ' / ) / / / g g g g g g g g g g g k k g g g k g k v / / / [ [ [ [ { @.O.O.O.O.@.O.@.&.+.@.@.$.@.@.@.@.+.@.O.O.@.+.@.@.+.+.@.@.@.+.+.+.+.@.@.@.@.%.<.<.<.<.<.<.<.<.<.<.<.<.<.<.<.<.<.<.2.<.2.2.<.2.2.2.2.2.2.2.2.<.2.2.2.4.2.7.9XqXeX2.& * 9 <.8.6.>XrXrX9Xr.q.q.q.q.r.q.r.r.r.r.r.r.r.r.r.q.r.r.q.r.r.r.r.r.r.r.r.r.r.r.r.r.r.r.r.r.r.r.r.r.r.r.r.r.q.r.r.q.q.q.q.q.q.q.q.q.q.9.9.9.8.0.9.9.9.9.9.9.q.9.q.q.9.q.q.q.r.r.r.q.r.r.q.q.q.q.q.q.q.q.q.q.q.q.r.p.r.p.r.q.r.q.q.r.q.r.r.r.r.q.r.q.r.r.q.q.r.r.7.l v k 3 & & i.8XsXsX9X7.9.9.9.q.9.9.9.9.9.9.9.9.9.9.9.9.9.9.9.9.9.9.9.9.9.9.9.q.q.9.9.9.9.9.9.9.9.9.9.9.9.9.9.9.9.9.9.9.9.9.9.9.9.9.9.9.9.9.9.9.9.9.9.9.9.9.9.9.8.9.9.7.7.7.7.8.9.9.8.8.8.7.8.7.7.7.8.7.7.7.8.8.8.8.8.8.8.8.8.8.8.8.8.8.8.8.8.8.8.8.8.8.8.8.8.8.8.8.8.7...( ) k k f 3 & & e.8X8X3X7.2.4.4.4.4.4.4.4.4.4.4.2.2.%.%.%.%.%.%.%.*.%.&.%.&.&.&.%.&.&.&.$.+.&.O.@.| [ [ ( l l c l l l l l l l l l k l g g g g h h g k h k l l l k k l l l k h k k g k k k k k k k l k k k k k k k k k k k k k k k g g k g g g j k k g g g g g g g g g f k ( v v / v v & o o . e y u f g c ......{ ..X.@.@.+.) l c l l l l l l l l l l l l l l l c c l ",
"O.<XlXlXhXa.r.i.u.r.r.r.u.u.u.r.u.p.r.r.r.u.p.2.' ' ( f u f g f f f f u f u f & . o . y [ / ) / ( / g g g g g g g g g g g k k k g g k g k v ( ( / [ [ [ [ { O.O.O.O.O.@.@.@.&.&.$.$.$.@.O.@.O.@.+.@.@.@.+.@.@.$.+.@.+.@.@.@.+.@.@.@.@.@.%.<.<.<.<.<.<.<.<.<.<.2.<.<.2.<.<.<.2.2.<.<.<.2.<.2.2.2.2.2.2.2.<.2.2.2.4.2.7.9XqXeX2.& * 9 =.7.6.;XrXeX9Xr.q.q.q.r.r.r.q.r.r.r.r.r.r.r.q.q.r.r.q.r.q.r.q.r.q.r.r.r.r.r.r.r.r.r.r.r.r.q.r.r.r.r.r.q.q.r.r.q.q.q.r.r.q.q.q.q.q.q.9.q.8.9.0.9.9.9.9.9.9.9.9.q.q.9.q.r.r.r.r.r.r.r.q.q.q.q.q.q.q.q.q.q.q.q.r.p.p.p.r.q.r.q.q.q.q.r.r.q.q.q.r.r.q.q.q.q.r.r.7.l c k 3 + + i.9XsXsX8X7.9.9.9.9.9.9.9.9.9.9.9.9.9.9.9.9.q.9.9.9.9.9.9.9.9.9.9.q.q.9.q.9.q.q.q.9.9.9.9.9.9.9.9.9.9.9.9.9.9.q.9.9.9.9.9.9.9.9.9.9.9.9.9.9.9.9.9.8.9.8.9.7.8.7.8.9.9.8.7.8.7.7.7.7.8.8.7.8.8.8.8.8.8.8.8.8.8.8.8.8.8.8.8.8.8.8.8.8.8.8.8.8.8.8.8.7.7.8.8.7.{ ( ) k k f 2 & $ e.8X8X3X7.2.4.4.4.4.2.4.4.2.4.4.2.2.&.%.%.%.%.%.&.&.&.&.%.%.&.%.%.&.&.&.&.&.$.@.&.+.{ O.{ v v c l l l l l l l k l k l l k k l l l l g l h k l l h l k k k k g k l g k k k k k k k l k k k k k k k k k k k k k k j k k k k k j j k k k g g g k k g g f g k ( ( ( v ( v & o o . 9 u u g g c [ ) ' { [ X.@.+.+.) k l l l l l l l l l l l l l l c c c l c ",
"X.>XlXlXhXa.r.y.r.r.r.r.u.u.p.r.r.r.r.r.r.u.p.4.[ ' ( f u u f f f u u f f u f & . . . y [ ( / / / / g g g g g g g g g g g g g k g g k g k c / / / [ [ [ [ [ @.O.O.O.@.@.@.O.@.&.$.$.&.@.@.O.O.+.+.@.@.@.@.@.@.@.@.O.@.O.O.@.@.@.@.@.+.@.%.<.<.<.<.<.<.<.<.<.<.<.<.2.<.2.<.<.<.2.2.<.2.2.<.2.2.2.2.2.2.2.2.2.2.2.2.2.7.9XqXqX2.& & 9 =.7.2.;XrXeX9Xr.8.9.9.9.9.q.8.9.q.q.q.q.q.q.q.q.q.q.r.r.q.r.q.q.r.q.r.r.q.r.r.q.r.q.r.r.q.q.q.q.q.q.r.q.q.q.q.q.q.q.q.q.q.q.q.9.9.q.q.9.9.9.9.8.8.9.9.9.9.q.q.q.9.q.q.r.q.q.r.q.r.q.q.q.q.q.q.q.q.q.q.q.q.r.r.r.p.r.p.r.r.r.r.r.r.r.q.q.q.r.r.q.r.q.q.q.r.r.7.l l k 3 + + i.9XsXsX8X7.9.9.9.9.9.9.9.9.9.9.9.9.9.9.9.9.9.9.9.9.9.9.9.9.9.9.9.r.q.q.q.9.q.q.q.9.9.9.q.q.9.9.9.9.9.9.9.9.9.9.9.9.9.9.9.9.9.9.8.9.9.9.9.8.9.9.9.9.8.9.9.8.9.8.9.8.8.9.8.8.8.8.8.7.8.7.8.8.7.8.8.8.8.8.8.8.8.8.8.8.8.8.8.8.8.8.8.8.8.8.8.8.8.8.8.7.8.8.8.7.{ ( ' k k f 2 & & e.8X8X4X7.2.4.4.4.4.2.4.4.4.4.4.4.2.&.%.%.%.&.%.%.%.%.&.%.%.&.&.%.&.%.%.&.&.$.$.$.O.O.O.{ ( c c k k l k l l g k l h l l l k k l l k h g g k k g k g k k k k l h g k k k g l k k l l k k k l k k k k k k k k k k g k k k g g k k g g k k k g g g g k g g k ( ( ) ) ) v + . . . 9 e u g g l [ ) ) [ [ O.%.+.+.( l l l l l l l l l l l l l l l c c l l l ",
"X.,XlXkXhXa.r.r.r.r.r.r.p.y.r.r.r.r.r.r.r.r.p.4.[ ' ) g u u f f j f u f f u f & . o . y [ ( / / / / g g g g g g g k g g g g g g g g k k k v / / ( [ [ [ [ { @.O.O.O.O.@.@.O.@.@.O.@.+.@.@.O.@.+.@.@.+.@.$.&.$.&.+.O.O.O.@.@.@.@.@.@.+.+.%.2.<.2.=.<.<.<.<.<.<.<.<.<.<.<.<.<.<.<.2.2.2.2.2.2.2.2.2.2.2.2.2.2.2.2.2.2.7.9XqXqX2.& & 9 =.7.5.;XrXeX9Xr.8.9.8.8.8.8.8.7.8.8.8.8.8.8.q.q.r.r.r.r.r.r.q.q.q.q.r.r.q.q.q.q.q.q.q.q.8.q.8.q.q.q.q.q.q.q.q.q.q.q.q.q.q.9.8.9.q.q.q.q.8.9.8.8.9.9.9.0.9.q.q.q.9.q.9.q.q.q.r.q.q.q.q.q.q.q.q.q.q.q.q.q.q.q.r.u.r.y.p.r.r.r.r.r.r.r.q.q.q.r.r.q.r.q.q.q.r.r.7.l l k 2 & + i.9XsXsX8X7.8.9.9.9.9.9.9.9.9.9.9.9.9.9.9.9.9.9.9.9.9.q.q.9.9.9.9.q.9.9.9.9.9.9.9.9.9.q.q.9.9.9.q.9.9.9.9.9.9.q.9.9.9.9.9.9.9.9.9.9.9.9.9.9.9.9.9.9.9.r.9.7.8.7.9.8.8.9.7.7.6.8.8.7.7.8.8.8.7.8.8.8.8.8.8.8.8.8.8.8.8.8.8.8.8.7.8.8.8.8.8.8.7.7.8.8.8.8.7.6...( ' k k f 2 & & r.9X8X3X7.2.4.2.4.4.2.4.2.2.2.4.2.2.&.%.%.%.%.&.&.&.%.&.&.&.&.&.$.%.&.&.&.&.+.+.$.$.@.O.[ l ( ' c l k l l l g k g l l l l l k l k g l k g g l k k k l k k g g g h k k k g g k k l k k k k k k k k k k k k k k k k g g j g g g g g k g g k k g g g g g g g / v v ) ) v + o o . 3 y u i u k ..' ( ' [ ..%.+.+.( l l l l l l l l l l c l l l l l l l l l ",
"X.,XlXkXhXa.r.r.u.u.i.y.y.u.r.r.r.r.u.r.r.r.i.2.' ' ( g u u f l / l u f f u f & . o . q [ ( ( / ( / f g g g g g g g g g g g g k g g k g g c / / ( [ [ [ [ [ @.@.O.O.O.O.@.O.@.@.O.@.@.@.+.+.+.+.+.@.@.@.&.&.$.&.+.| O.O.+.$.@.@.@.@.+.+.&.<.<.<.<.<.<.<.<.<.<.<.<.<.<.2.<.<.<.<.2.2.<.2.2.2.2.2.2.2.2.2.2.2.2.2.2.2.7.9XqXeX2.& & 9 =.7.4.f.rXeX9Xr.8.9.9.9.8.8.8.8.8.8.8.8.8.8.q.q.q.q.q.r.r.q.r.r.r.q.r.q.r.q.q.q.q.q.q.q.8.8.8.q.q.q.q.q.q.q.q.0.q.9.q.q.q.9.q.q.0.9.9.9.9.8.8.8.8.9.9.9.9.9.q.q.q.q.q.r.r.r.r.q.r.q.q.q.q.q.q.q.q.q.q.q.q.q.r.u.r.p.i.r.i.r.q.r.r.r.r.q.q.r.r.r.r.9.q.r.r.r.7.l v k 3 & + i.9XsXsX9X7.9.9.9.9.9.9.9.9.9.9.9.9.9.9.9.9.9.9.9.9.9.9.9.9.9.9.9.9.9.9.9.9.9.9.9.8.9.9.9.9.9.9.9.9.9.9.9.9.9.9.9.9.9.9.8.9.9.9.9.9.9.9.9.9.9.9.9.9.8.8.9.9.9.8.8.8.8.8.8.8.7.8.8.7.8.8.7.8.8.8.7.8.8.8.8.8.8.7.8.8.8.8.8.8.8.8.8.8.8.8.8.8.9.8.7.7.8.8.8.7.{ ( ' k k f 3 & & r.8X7X4X7.2.4.4.4.2.4.4.2.2.2.4.2.2.&.&.%.%.%.%.%.&.%.%.%.&.&.&.&.%.&.&.&.+.&.&.&.&.+.+.O.[ [ { / k k l l l g l l l l l k k l l l g g h g g l l h k k k k k l l k k k k k k k k k k k k k k k l k k k k k k k k k g g j g k k k g j k g g k g g g g g g g / ( / ) ) v + . o . 9 u g f f j c c / [ ' X.%.@.+.( l l l l l l l l l l l l l l l l l l l l ",
"O.>XlXkXhXp.r.r.u.i.u.r.r.r.r.r.r.r.r.r.q.p.>X7.' ) ) f u u f c / / f f f u d & . o . 9 ' ) ) v / / f f g g g g g g g g g g k k g g g g g c / ( ( [ [ [ [ { O.O.O.@.O.O.O.@.@.O.@.@.O.O.O.O.O.@.+.@.@.@.&.&.$.&.@.@.O.O.@.@.@.@.@.@.+.+.&.<.<.<.<.<.<.<.<.<.<.<.<.2.<.<.<.2.2.2.2.2.2.2.2.2.2.2.2.2.2.2.2.2.2.5.2.2.7.9XqXeX2.& & 9 *.7.4.s.rXwX9Xr.8.8.8.8.8.8.8.8.8.8.8.8.8.8.q.q.r.r.q.q.q.q.q.q.q.q.q.q.q.q.q.q.8.q.9.8.8.9.8.9.8.q.q.0.0.9.q.q.q.q.q.9.9.9.0.9.8.9.9.8.0.8.8.9.8.8.9.8.9.8.9.q.q.q.q.q.r.r.r.q.q.q.q.q.q.q.q.q.q.q.q.q.q.q.q.r.r.q.r.r.r.r.q.r.q.r.r.r.r.r.r.r.r.r.q.q.r.r.7.l v k = & + i.9XuXsX9X7.9.9.9.9.9.9.9.9.9.9.9.9.9.9.9.9.9.9.9.9.9.9.9.9.9.q.r.9.9.q.q.9.9.9.9.9.9.9.9.9.9.9.9.9.9.9.9.9.9.9.9.9.9.9.9.9.9.9.8.8.9.7.9.9.9.9.8.9.9.7.9.9.9.8.7.8.8.7.7.8.7.8.8.7.7.8.8.7.8.8.8.8.8.8.8.8.8.8.8.8.8.8.8.8.8.8.8.8.8.8.8.8.8.8.8.8.8.8.8.7...( ) k k f 3 & @ e.8X7X3X7.2.4.2.4.2.2.2.2.2.2.2.2.2.&.&.&.%.%.%.%.%.%.%.%.%.%.%.&.*.%.&.%.&.&.&.+.$.$.$.$.| [ { ` l l l h h l l h g k l h k l l k k g k k l l l l k k l l k k k g k l k k k k k k k k k k k k k k k k k k k k k g g k g k k k k g g g k j g g g g g g f k / / ( / ) c + . o o y f g f f g f f g k l ..@.+.@.( l l l l l l l l l l l l l l l l l l l l ",
"..>XlXkXhXp.r.u.u.u.i.r.r.r.r.r.r.r.r.p.p.;X2X7.( ` ( f u f k c / / f u y u f & . o . 9 ' ) ) v v v g g f f g k g g g g g g k g g g k g k c / ( ( [ [ [ ] [ O.O.O.@.@.@.@.+.@.@.+.@.$.$.%.&.&.&.$.@.$.@.+.%.&.&.@.@.$.@.O.@.@.@.@.$.+.+.%.<.<.<.<.<.<.<.<.<.<.<.<.<.<.<.<.2.2.2.<.2.<.<.2.2.2.2.2.2.2.2.2.2.2.2.2.<.2.6XqXeX2.& & 9 *.7.4.;XrXeX9Xr.7.8.8.8.8.8.8.8.8.9.9.8.8.8.q.q.r.q.q.r.q.q.q.q.q.q.q.q.q.q.0.q.9.q.q.q.8.8.9.8.q.q.q.q.q.q.q.q.q.q.8.8.9.9.9.9.8.9.9.8.8.8.8.8.8.9.8.8.8.q.9.9.q.q.q.r.q.q.r.q.q.q.q.q.q.q.q.q.q.q.q.q.q.q.q.q.r.r.r.q.r.r.q.r.q.q.r.r.q.r.r.r.r.r.q.q.r.r.7.l c k = & + i.9XsXsX8X7.9.9.9.9.9.9.9.9.9.9.9.9.9.9.9.9.9.9.9.9.9.q.9.9.9.q.q.9.9.q.q.9.8.9.q.9.9.9.9.9.9.9.9.9.9.9.9.9.9.q.9.8.9.9.9.9.9.9.9.9.9.9.9.9.9.8.8.7.q.9.9.7.8.8.8.9.8.7.7.8.7.7.7.7.7.7.7.7.8.8.8.8.8.7.8.8.8.8.8.8.8.8.8.8.8.8.8.8.7.8.8.8.8.8.9.8.7.8.7.7...( ) k k f 2 & & e.8X8X3X6.2.4.2.4.2.2.2.2.2.2.2.4.2.&.&.&.%.%.&.&.&.&.%.&.%.&.&.&.&.%.&.%.%.%.$.&.&.$.$.O.{ O.O.[ l l l k l l l k l l l h l l k g g k l h l h l l l h l h g k k k k l k k k l k k k k k k l k k k k k k k k k k k g k g k k g g g j j g g g g g g g f f g / / ( / ) v + . . o u k g f f f f f g f f ..%.@.+.( l l l l l l l l l l l l c l l l l l l l ",
"..>XlXkXhXp.r.u.r.r.i.r.r.r.r.r.u.r.r.p.:X;X>X2.( ( ( f u f l v ( / f u u u f & . o . 9 [ ( ( / / / f g f g k g g g k g g g g g k k k g h c / / ( [ [ [ ] [ @.@.@.O.@.@.@.@.@.@.O.O.&.*.%.*.*.*.*.$.@.+.+.@.&.@.O.@.+.@.+.+.+.@.+.+.+.+.%.<.<.<.<.<.<.<.<.<.<.<.<.<.2.<.<.<.<.2.<.<.<.<.2.2.2.2.2.<.<.<.2.2.2.2.2.2.7.9XqXqX2.@ & 9 *.7.6.>XrXeX9Xq.8.8.8.8.8.8.8.8.8.8.0.8.9.8.q.q.q.r.r.q.r.r.q.r.q.q.q.q.q.q.q.q.q.q.0.q.7.7.q.0.q.q.q.q.q.q.8.q.0.q.q.9.9.q.8.8.8.8.8.8.8.8.8.8.8.8.8.8.8.q.9.8.q.q.q.r.r.r.r.q.q.q.q.q.q.q.q.q.q.q.q.q.q.q.q.q.q.q.q.r.r.q.q.q.q.r.r.q.r.r.q.q.q.q.q.q.r.r.4.l v k 3 & + i.9XuXsX8X7.9.9.9.9.9.9.9.9.9.9.9.9.9.9.9.9.9.9.9.9.9.9.9.8.9.9.9.9.9.9.9.9.8.9.9.9.9.9.9.q.q.9.9.9.9.9.9.9.9.9.9.8.9.9.9.9.9.9.9.9.9.9.9.8.8.8.9.8.8.8.q.9.8.7.8.8.7.7.7.7.7.7.7.7.7.7.7.7.7.7.8.8.7.8.8.8.7.8.7.8.8.7.8.8.8.8.8.8.7.7.8.8.8.8.7.7.7.7.7.7.{ ( ) k k f 2 & & r.9X8X2X6.2.2.2.2.2.2.4.1.2.2.2.4.2.&.%.%.%.&.&.&.&.&.&.&.%.&.&.&.&.&.&.&.&.$.$.&.$.+.+.+.O.O.O.] l / / l k l l l l l l h l l l l g k g g l l l k g g g g l k k k g g k k k l k k k k k k k k k k k k k k k k k k g g g g g g g g g g g g j k g g g g g g v / / / ( c + . . o u g g g g f g g f f g ..%.%.@.( l l l l l l l l l l l l l l l l l l l l ",
"O.>XlXkXfXi.r.r.r.r.r.r.r.r.r.r.r.r.q.p.>X2X2X7.( ( ( f u g l ( ) c f u u u f & . o o 9 [ ( / / / / f f f f g k g k g g g g g g g k g g g / ( / ( [ [ [ [ { @.@.O.O.O.@.@.@.@.@.+.@.&.*.&.*.*.%.*.&.@.@.@.@.+.@.@.@.+.@.@.&.@.$.+.+.+.@.%.<.<.<.<.<.<.2.<.<.<.<.<.<.<.<.<.<.<.<.2.<.<.2.<.<.<.2.2.2.2.<.2.2.2.2.2.<.6.9X0XqX2.+ & 9 =.7.2.;XeXqX9Xq.7.8.8.8.8.8.8.8.8.8.8.8.0.8.q.q.q.r.q.r.r.q.q.r.q.q.q.q.q.q.q.q.q.q.q.q.q.q.q.q.q.q.q.q.0.q.q.q.q.q.q.q.8.q.q.q.q.q.0.0.9.q.0.q.q.9.q.q.q.q.q.q.q.q.q.q.q.r.q.q.q.q.q.q.q.q.q.q.q.q.q.q.q.q.q.q.q.q.q.q.r.r.q.q.r.r.r.r.q.q.q.q.r.q.q.q.q.r.4.l c k 3 & + y.9XuXuX8X7.9.9.9.9.9.9.9.9.9.9.9.9.9.9.9.9.9.9.9.9.9.9.9.8.8.9.9.8.8.9.q.9.9.9.9.9.9.8.9.9.9.8.9.9.9.9.9.9.9.9.9.9.9.9.9.9.9.9.8.9.9.9.9.9.9.8.9.7.7.8.9.8.7.7.7.7.7.7.7.8.8.7.7.7.7.7.7.7.8.7.8.8.7.7.8.8.8.8.8.8.8.8.8.8.8.8.8.8.8.8.8.7.8.8.7.8.7.7.7.6.{ ( ( g k f 3 & & r.8X8X2X6.2.2.2.2.4.2.2.4.2.4.2.2.2.%.%.&.%.&.&.&.&.&.&.&.&.&.&.&.&.&.&.&.&.$.$.$.+.&.$.$.&.@.+.O.[ [ { / l / l l l l l l l l l g g k k l l g k k k l l k l k l k k l k k l k k k k k k k k k k k k k k k k k k g g g g g g g g g g g g g g g g g g g g k ( v / / ( v + . . o u g g g g g g f f f f ' +.%.+./ l l l l l l l l l l l l l l l l l l c l ",
"..<XlXkXfXy.r.r.r.r.r.r.y.r.r.r.r.r.r.r.<X<X2X2.] ( ( f f f g l l g f f f u f & . o . 9 [ ( / / / v g f f f g g g g g g g g g g g k k g l / ( / ( [ [ [ [ { @.@.O.O.O.O.@.@.@.@.O.@.$.*.%.*.*.*.*.&.@.@.+.+.&.+.+.@.@.@.&.&.&.@.$.+.+.@.%.<.=.=.<.<.<.<.<.<.<.<.<.<.<.<.2.2.<.<.2.2.2.<.<.<.<.2.2.2.2.2.2.2.2.2.2.2.6.9XqXqX2.@ & 9 *.7.2.s.eXqX9Xq.7.8.8.8.8.8.8.8.8.0.8.8.8.8.q.q.q.q.q.q.q.q.q.q.q.q.q.q.q.q.q.q.q.q.q.q.q.q.q.q.q.q.q.q.q.q.q.q.q.q.q.q.q.q.r.q.r.r.q.q.q.r.r.q.r.q.q.r.q.r.q.q.q.q.q.q.q.q.q.q.q.8.q.q.q.q.q.q.q.q.q.q.q.q.q.q.q.q.q.q.q.r.r.q.r.q.r.r.q.q.r.q.r.q.9.q.r.r.7.l v k 2 @ + y.9XuXsX8X8.9.9.9.9.9.9.9.9.9.9.9.9.9.9.9.9.9.9.9.9.9.9.9.9.9.q.q.9.8.9.q.9.9.9.9.9.9.9.9.9.9.9.9.9.9.9.9.8.9.9.9.9.9.9.9.9.9.9.8.8.8.8.9.9.9.7.8.8.8.9.7.7.7.7.7.7.7.7.7.7.7.7.7.7.7.7.7.7.8.7.7.7.8.8.7.8.8.7.8.7.7.8.8.8.8.8.8.7.8.8.7.7.7.7.7.7.7.7.7.7.{ / ) j k f 2 & & r.8X8X2X6.2.2.2.2.2.2.2.2.2.*.=.<.=.%.%.%.%.&.&.&.%.%.&.&.&.&.&.%.%.&.&.&.&.%.&.$.&.&.$.$.$.&.+.+.| { ../ c ( l k l k l l h l l g g k k l l l l l l k k k k l l l k k k k k k k k k l k k k k k k k g k k k k k k g k k k g g g k g k g k g g k g g g g k ( ( / / ( v + . . + f g g g g g k g g f f ' %.@.@.( l l l l l l l l l l l l l l l l l c c c ",
"..>XkXhXfXi.r.r.r.y.r.r.r.r.r.r.r.a.p.p.a.p.r.=._ ` ( f f f f f f f f f f u f & . o o 9 [ ( ( v ( / g g g g g g k g g g k k k k g k k k k c ( / ( [ [ [ [ { O.O.O.O.O.O.O.@.@.O.@.@.$.&.&.%.%.%.&.+.@.+.@.@.&.+.+.@.@.+.$.$.+.+.+.$.$.@.&.<.=.<.<.<.<.<.<.<.<.<.<.2.<.2.<.<.<.<.2.2.2.2.<.2.2.2.2.2.2.2.2.2.2.2.2.2.6.9X0XqX2.& & 9 *.7.4.s.rXwX9Xq.7.8.8.8.8.8.8.8.8.8.8.8.8.9.9.9.q.9.q.q.q.q.q.q.q.q.q.q.q.q.q.q.q.q.q.q.q.q.q.q.q.q.q.9.q.q.q.q.q.q.q.q.q.q.q.q.q.q.q.r.q.r.r.r.r.q.r.r.q.q.q.q.q.q.q.q.q.q.q.q.q.q.q.q.q.8.9.q.q.q.q.q.q.q.q.r.q.q.q.r.r.r.q.r.q.q.q.q.q.q.q.q.r.q.q.q.r.r.7.l v k 2 + + t.9XuXsX4X7.9.9.9.9.9.9.9.9.9.9.9.9.9.9.9.9.9.9.9.9.9.9.9.8.9.q.q.9.9.9.q.9.9.9.9.9.9.9.9.9.9.9.9.9.9.9.9.9.9.9.9.9.9.9.9.9.9.9.9.8.8.9.9.9.9.9.9.8.7.8.7.7.7.7.7.8.7.7.7.7.7.7.6.7.7.6.6.7.7.7.7.6.7.7.6.6.6.6.6.6.6.7.6.7.6.4.7.7.8.7.8.8.7.7.7.7.7.7.7.4.{ / ( g k f = & & e.8X4X1X4.2.2.2.4.2.2.2.2.2.@.%.@.%.%.&.&.&.&.&.%.%.%.&.%.&.&.&.%.%.%.%.%.&.%.%.%.&.$.&.&.@.+.$.O.| O.[ ( / l l l k k l g g l l l g k k l l l k h l k k k l l k k k k k k k l k l l l k k k k k l k k k k k k k k k k k k k k g g g k k k k g g g g k j k ( ( ( / / v + o o o u g g g g g g g g g f [ %.%.@./ l l l l l l l l l l l l l l l l l c c l ",
"..>XkXhXgXp.y.r.u.y.r.r.r.r.r.y.i.<X4X:Xp.8.8.*.' ( ( f u f f f f f f f f u f & . o . 9 [ ( ( / ( ( g g g f g g g g g g g k k k g g k g k v / / ( [ [ { [ { O.@.@.@.@.O.O.@.@.@.@.@.@.+.@.@.+.@.@.+.@.@.@.@.@.&.%.&.+.&.$.@.@.+.$.&.&.&.%.*.=.*.&.*.<.<.<.<.2.2.2.<.<.<.<.2.2.<.2.2.2.2.2.2.2.2.2.2.2.2.2.2.2.2.2.2.4.9X0XqX4.& & 9 *.7.6.;XeXqX9Xr.7.8.8.8.8.8.8.8.8.8.9.8.8.9.7.8.q.8.q.q.q.q.q.q.q.q.q.q.q.q.q.q.q.q.q.q.q.q.q.q.q.q.q.q.q.q.q.q.q.q.q.q.q.q.r.q.q.r.q.r.r.r.r.r.r.r.r.r.r.r.r.q.q.q.q.q.q.q.q.q.q.q.q.0.q.q.q.q.q.q.q.q.q.q.q.r.q.q.r.q.r.q.r.q.q.q.q.q.q.e.9.q.r.r.q.q.r.r.7.c v k 3 + + t.9XuXsX4X7.9.9.9.9.9.9.9.9.9.9.9.9.9.9.9.9.9.9.9.9.9.9.9.9.9.q.9.9.8.9.9.9.9.9.9.9.9.9.9.9.9.9.9.q.9.9.9.9.9.9.9.9.9.9.9.9.9.9.9.9.9.9.9.9.9.9.8.7.7.7.7.7.7.7.7.7.7.7.7.7.7.6.7.7.8.7.7.7.6.6.7.7.7.6.6.6.6.4.7.6.6.6.6.6.4.4.4.6.8.7.7.7.8.7.7.7.7.7.7.4...( ( g k f 2 & & r.7X7X2X4.2.2.2.4.2.2.2.2.=.%.%.&.%.%.&.&.&.&.&.&.%.%.%.&.&.&.%.&.%.&.&.&.&.&.%.%.%.&.&.&.@.+.+.+.@.+.+.[ ' { ( l l l l k k l l l l k k k k g h g l k l k g k k g l k k l k k k k k k k k k k k k k k k k k k k g k g g g k k k g k k k k k g j g g g j k ( ( / / ) v + o o + u k g g g g g k g g f [ %.%.%./ l l l l l l l l l l l l l l l l c c c c ",
"{ >XkXhXgXi.r.r.y.i.r.y.y.r.r.r.y.3X9X;Xq.8.8.*.( ( ( f u u f f f f f f f f f * . o . 9 [ ( ( ( ( / g g g g g g g g g g g g g k g g k g l v / / / O.@.+.O.O.O.O.@.O.O.@.@.@.@.@.@.+.@.+.+.+.+.+.+.@.+.$.@.+.*.,.*.<.%.+.@.@.+.+.+.@.@.&.%.%.%.*.@.=.<.<.<.<.<.<.<.<.2.2.2.<.<.<.2.2.2.2.<.2.2.2.2.2.2.2.2.2.2.2.2.2.4.9X0XqX2.& & 9 =.7.5.;XeXeX9Xr.7.8.8.8.8.8.8.8.8.8.0.9.q.8.8.9.9.q.8.0.9.8.q.q.q.q.q.q.q.q.q.q.q.q.q.q.q.q.q.q.q.q.q.q.q.q.q.q.q.q.q.q.q.q.q.q.q.q.q.q.q.r.r.q.q.r.q.q.q.r.q.q.q.q.q.q.q.q.q.q.q.q.q.q.q.q.q.q.q.9.9.9.q.q.q.q.q.r.q.q.q.q.r.q.q.q.q.q.q.q.q.q.q.q.q.q.q.r.7.l v k 2 + + t.9XuXsX8X8.9.9.9.9.9.9.9.9.9.9.9.9.9.9.9.9.9.9.9.9.9.9.9.9.9.9.q.9.9.9.9.9.9.9.9.9.9.9.9.9.9.9.9.9.9.9.9.9.9.9.9.9.9.9.9.9.9.9.9.9.9.9.9.9.9.9.9.7.7.8.7.7.7.7.7.7.8.7.7.8.7.7.7.8.8.7.7.7.7.7.6.7.7.6.7.7.6.6.6.6.6.7.6.6.5.4.6.4.8.8.7.7.7.7.8.7.7.7.7.4.../ ) j k f = & @ r.8X7X1X4.2.2.2.4.2.2.2.2.2.$.$.&.%.%.&.&.&.%.&.&.%.%.%.&.&.&.%.%.&.&.&.%.%.%.&.+.%.&.&.&.&.&.$.%.+.@.+.| ` O.( l l c l l l l l l l l g k k k k k k g g g k k l k g g k k g k k k k k k k k k k k k k k g k g g k g g k k k k g g k j g g g g g g g g f k ( ( / / ) v + . . + u g g g g k g g f g f [ %.%.%./ l l l l l l l l l l l l l l l l c l l l ",
"[ >XkXhXgXy.r.r.r.y.r.r.y.r.r.y.r.;X>Xr.q.9.q.%.( ( ( u u f f f f f f f f u f * . o . 9 [ ( / ) ) / g g g g g g g g g g g g k k k g g g k v / / ( ..O.+.O.| O.O.@.O.@.@.@.+.@.@.@.@.@.@.@.+.@.+.@.+.+.$.+.@.*.<.*.*.&.+.&.&.+.@.+.&.&.%.%.&.&.%.@.=.<.<.2.<.<.<.2.<.2.2.2.2.<.2.2.2.2.2.2.2.2.2.2.2.2.2.2.2.2.2.2.2.6.6X0XqX2.& & 9 *.7.4.;XeXqX9Xq.7.8.8.8.8.8.8.0.9.8.8.8.0.8.9.8.8.9.q.8.q.8.q.q.q.q.q.q.q.q.q.q.q.q.q.q.q.q.q.q.q.q.q.q.q.q.q.q.q.q.q.q.q.q.q.q.q.0.q.q.q.q.q.q.q.q.q.q.r.q.q.q.q.q.q.q.q.q.q.q.q.q.8.0.q.q.q.q.q.q.q.q.q.q.q.q.q.q.q.q.r.q.q.q.r.q.q.q.q.q.q.q.q.q.q.q.9.r.7.l c k 2 + + t.9XuXsX4X7.9.9.9.9.9.9.9.9.9.9.9.9.9.9.9.9.9.9.9.9.8.8.9.9.8.9.9.9.9.9.9.8.9.9.9.9.8.9.9.9.9.9.8.9.9.9.9.9.9.9.9.9.9.9.9.9.9.9.9.9.9.9.8.7.8.9.9.7.7.8.8.7.7.7.7.7.7.7.7.7.8.7.7.7.8.7.7.6.7.7.6.6.6.7.7.6.6.6.2.7.7.7.7.5.4.6.2.7.8.7.7.8.7.7.7.7.7.7.7.4...( ) j k f = & & r.8X7X2X4.2.2.2.2.2.2.2.4.2.&.%.%.&.%.&.&.&.&.&.&.%.%.%.&.&.&.&.&.%.&.%.&.&.&.&.&.%.&.&.&.&.+.&.$.&.$.O.| O.{ { ( ( ( l k l l l l l g g l l k k k k k l l l k g k g k k k k k k k k k k k k k k l k k k g k g k k k k k k g k k g k g g k g g g g k g g k ( ( ( v ) v + . . + u f g g g k k g g g d [ %.%.%./ l l l l l l l l l l l l l l l l l c c l ",
"[ >XkXkXfXr.r.r.r.r.r.r.r.r.r.a.r.8.9.r.q.q.q.%.( ( ( f f f f f f f f f f f f * . o . 9 [ ) ) ( ( v g g g g g k g k k k k g k g g g k g l / / ( ) O.O.O.O.O.@.@.O.@.@.@.@.@.@.O.O.@.@.@.@.@.@.@.@.+.+.+.@.+.%.*.*.<.%.@.&.&.&.&.+.@.&.&.%.*.&.&.@.*.<.<.<.<.<.2.<.<.2.2.2.<.<.<.<.<.2.2.2.<.2.<.2.2.2.2.2.2.2.2.2.2.2.6X9XqX2.& & 9 *.7.4.s.eXqX9Xq.7.8.8.8.7.8.8.8.0.8.8.8.8.8.8.8.8.8.8.8.9.8.q.q.q.q.q.q.q.q.q.q.q.q.q.q.q.q.q.q.q.q.q.q.q.q.q.q.q.q.q.q.q.q.q.9.9.0.q.q.q.q.q.q.q.q.r.q.r.q.r.q.q.q.q.q.q.q.q.q.9.9.0.0.q.q.q.q.9.9.q.q.q.q.q.q.q.q.q.r.q.q.q.q.r.q.r.q.q.q.q.r.r.q.q.q.q.q.4.l v k 3 & + i.9XuXsX8X7.9.9.9.9.9.9.9.9.9.9.9.9.9.9.9.9.9.9.9.9.9.9.q.9.8.9.9.9.9.9.9.9.9.q.9.9.9.9.9.9.9.9.9.9.9.9.9.9.9.9.9.9.9.9.9.9.9.9.9.9.9.9.8.9.9.9.8.8.7.8.8.7.7.7.7.7.7.7.7.7.7.8.7.6.7.7.7.7.7.6.7.7.6.7.4.6.6.6.4.6.7.7.6.6.6.6.4.6.8.7.7.7.7.7.7.7.7.7.7.6...( ( g k f 2 & @ r.8X3X1X4.2.2.2.2.2.2.2.4.2.%.%.$.&.%.%.&.&.&.%.%.%.%.%.%.&.&.%.%.%.&.*.&.&.&.&.%.%.%.&.&.&.&.$.+.&.$.@.O.O.+.O.{ / ( / l h l l k k k h l l g k k k k l k k l k k k k k k l k k k k k k k k k k k k k k k k k k k k g k k g k g k g g g g g g g k g g g k ( v ) v ( c + . o o u g g k g g g g g g f [ %.%.%./ l l l l l l l l l l l l l l l l l c l l ",
"[ >XhXkXgXr.r.r.r.r.r.r.r.a.y.y.y.9.9.q.q.9.r.%.) ( ( f f f f f f f f f f f f * . o . 9 [ ) ) / ( v g g g g g k g k g g g k k k k k k k l / ( / ( O.O.O.@.@.@.@.@.@.@.@.@.@.@.O.@.@.@.@.@.+.+.+.+.+.+.@.+.@.&.*.=.*.&.&.&.&.&.&.$.&.&.&.*.*.&.&.+.*.<.<.<.<.<.<.<.<.<.2.2.<.<.<.<.<.<.2.<.<.2.2.2.2.2.2.<.<.2.2.2.<.6.6X0XqX2.& & 9 *.7.4.:XeXqX9Xr.7.8.8.8.9.8.8.8.8.8.8.8.8.8.8.8.8.8.8.8.q.8.q.q.q.q.q.q.q.r.q.q.q.q.q.q.q.q.q.q.q.q.q.q.q.q.q.q.q.q.q.q.q.q.q.q.q.q.q.q.q.q.q.q.q.q.r.r.r.q.q.q.q.q.q.q.q.q.q.q.9.q.q.q.q.q.q.q.q.q.q.q.q.q.q.q.q.9.q.r.q.q.r.q.q.q.q.q.q.q.q.q.q.q.q.r.q.r.7.l v k 3 & + i.9XuXsX4X7.9.9.9.9.9.9.9.9.9.9.9.9.9.9.9.9.9.9.9.9.9.q.q.9.9.9.9.9.q.9.9.9.9.q.9.9.9.9.9.9.9.9.9.9.9.9.9.9.9.9.9.9.9.9.9.9.8.9.9.9.9.7.8.9.9.7.7.7.7.8.7.7.7.7.7.7.8.7.7.7.7.7.7.7.7.7.7.7.7.7.7.7.7.7.7.7.6.6.4.6.4.4.6.6.4.4.4.4.8.7.7.7.7.7.6.7.7.7.7.4...( ) j k f 2 & @ r.8X3X,X4.<.2.2.2.2.2.2.2.=.&.%.%.%.%.%.%.&.&.&.&.%.%.*.%.%.%.*.*.%.&.%.&.&.&.%.%.$.%.&.&.$.$.+.+.+.+.+.+.O.+.O.] / ) ( l l l l k k k l l l h l l k k l g k k k k k k k k l k k l l k k k l k k k k g g k k g g g g k g g k k k k g k g j g g k g g g g h ) ( / ( ) v + . o o u g g g g g g g g g f [ %.%.%./ l l l l l l l l l l l l l l l l l l l l ",
"[ >XhXhXdXy.r.r.r.r.r.r.y.<X>Xr.q.q.9.q.q.q.q.*.' ( ( f f f g f f f f u f f f * . o . 9 [ ) ) / v v g g g g k g g g g g g g g g g k g k k / ( ( ( [ { { | | O.| O.O.@.@.@.@.O.@.@.@.@.@.@.@.@.@.@.+.@.@.@.@.+.@.&.&.@.&.&.&.&.&.&.&.&.&.*.*.&.%.#.*.<.<.<.<.2.2.<.<.<.2.<.<.2.<.<.<.<.<.<.<.<.2.2.<.2.<.2.2.2.2.2.<.6.4X9X9X2.& & 9 *.7.4.;XeXqX9Xr.7.7.8.8.8.7.8.8.8.8.8.8.8.8.8.8.8.8.8.8.q.9.q.q.q.q.q.q.q.q.q.q.q.q.q.q.q.q.q.q.q.q.q.q.q.q.q.q.q.q.q.q.q.q.q.q.q.q.q.q.q.q.q.q.q.q.q.q.q.q.q.q.q.q.q.q.q.q.q.q.q.q.q.q.q.q.q.9.9.q.q.q.r.q.q.q.q.q.q.q.q.q.q.q.q.q.q.q.q.q.q.q.q.q.q.q.q.r.7.l v g 3 $ + i.9XuXuX4X7.8.9.9.9.9.9.9.9.9.9.9.9.9.9.9.8.9.8.9.9.9.9.9.9.9.9.9.8.9.9.9.9.q.9.9.9.9.9.9.9.q.9.9.9.9.9.9.9.9.9.9.9.9.9.9.9.9.9.9.9.9.8.7.7.7.7.8.7.7.7.7.8.8.8.7.7.7.7.7.7.7.7.6.7.7.7.7.4.7.4.6.6.7.6.6.6.6.4.6.6.6.4.6.6.4.4.4.7.8.7.7.7.7.7.7.7.7.7.7.6.{ ( ( k l f 2 & & e.8X3X,X2.<.2.2.2.2.2.2.2.=.%.&.&.%.%.%.&.&.&.&.%.%.%.&.%.&.&.&.&.&.&.&.&.%.&.&.&.&.&.$.%.&.$.+.@.@.@.+.+.@.@.O.| { o.( l ( / l l l l l l l l g g g l l l k k k k l l l k l k k l k k k k k k k k g k k k k g g g g g g g g g g g g g g g g g g g g g g k ( ( / / ) v + o o + f k g g g g g f k g f [ *.%.%./ l l l l l l l l l l l l l l l l l l l l ",
"[ >XhXhXsXi.r.q.r.r.y.y.a.,X<Xr.q.q.q.9.q.9.q.*.( ( / f f f g g f f f f f f f * . o . q [ ) ) / / / g g g g g g k g g g g k h g g k k g k / ( / / ' [ { [ | O.{ O.@.@.@.@.@.@.O.@.@.@.@.@.@.@.@.+.@.@.@.@.@.+.+.@.*.&.&.&.&.&.%.&.%.&.&.%.%.%.*.#.%.2.<.<.<.2.<.<.<.2.2.2.<.<.<.<.<.<.<.<.2.2.2.<.<.<.<.<.<.2.2.2.<.2.4X9X9X2.& & 3 *.7.2.s.wX9X9Xr.7.7.8.7.7.7.8.8.8.8.8.8.8.8.8.8.8.8.8.8.9.8.q.q.q.q.q.q.q.q.q.q.q.q.q.q.q.q.q.q.q.q.q.q.q.q.q.q.q.q.q.q.q.q.q.0.q.q.q.q.q.q.q.q.q.q.q.q.q.q.q.q.q.q.q.q.q.q.q.q.q.q.q.9.9.9.9.9.q.q.r.q.r.r.r.q.q.r.q.q.q.q.q.q.r.r.q.q.q.q.q.q.q.q.q.q.q.r.4.l c g 2 + + y.9XyXsX4X7.8.9.9.9.9.9.9.9.9.9.9.9.9.8.9.9.8.9.9.8.9.9.9.9.9.8.8.9.9.8.9.9.9.9.9.9.9.9.9.9.9.9.9.9.9.9.9.9.9.9.9.9.9.9.9.9.9.9.9.9.8.7.7.7.7.8.7.7.7.8.7.8.7.7.8.8.7.7.7.7.7.7.7.7.7.7.8.8.7.6.4.4.4.7.4.4.4.7.4.4.6.4.6.6.4.4.2.6.8.8.8.7.7.7.7.7.7.7.7.4.{ ( ( k l f 2 & $ e.8X3X>X2.:.2.2.2.2.2.4.2.*.%.%.%.&.%.%.&.&.&.&.%.%.&.%.&.&.%.&.&.&.&.&.&.%.@.@.&.%.&.@.%.%.&.&.@.@.$.+.+.+.+.+.O.| O.{ ( ) ) l l k l l k h l h g l l l l l k h k k k k k g k k k k k k k k g g k k k k g g g g g g k g g g g g g g g g g g g g g g g g k / v / ( ) v $ o o o f g f g g g g g k g f [ %.%.%./ l l l l l l l l l l l l l l l l l l l l ",
"[ >XkXhXdXp.r.9.r.y.<X4X:Xa.a.r.9.q.q.q.q.q.q.*.( ( / f f u u g f f f f u f f & . o . 9 ' ( / / ( / g k k g g k g g g g g k k k k k k k k / / / / [ [ { [ | O.| O.@.@.@.@.@.O.@.@.O.@.@.@.@.@.@.+.@.@.@.@.O.+.@.%.&.@.@.%.%.%.&.&.&.%.%.%.*.*.*.=.<.<.<.<.<.<.<.<.<.<.2.2.2.<.<.<.2.2.<.2.2.2.<.<.<.2.2.2.2.<.2.2.2.4.4X9X9X2.& & 3 *.7.2.s.eXqX9Xr.7.7.8.7.8.8.8.8.8.8.8.8.8.8.8.8.8.8.8.8.q.8.q.9.q.q.q.q.q.q.q.q.q.q.q.q.q.q.q.q.q.q.q.q.q.q.q.q.q.q.q.q.q.q.q.q.0.q.q.q.q.q.q.q.q.q.q.q.q.q.q.q.q.9.9.0.q.q.q.q.q.q.8.9.q.q.q.q.q.q.r.r.y.r.i.r.q.q.q.q.q.q.q.q.r.q.q.q.q.q.q.q.q.q.q.q.q.q.7.l v k = $ + y.9XuXuX8X7.9.9.9.9.9.9.9.9.9.9.9.9.8.8.9.9.9.9.9.9.9.9.9.9.9.9.9.9.9.9.9.8.9.9.9.9.9.9.8.9.9.9.9.9.9.9.9.9.9.9.8.9.9.9.9.8.9.9.9.9.7.7.7.7.7.8.7.8.7.8.8.8.8.7.7.7.7.7.7.7.7.7.7.7.8.y.r.r.8.4.7.6.4.6.6.7.7.7.7.6.6.6.4.6.4.6.4.4.7.7.7.7.7.4.7.6.6.7.4.4.{ ( ) j k f 2 & @ e.8X3X,X2.=.2.<.2.2.=.*.=.*.%.%.%.%.%.&.%.%.&.%.%.%.%.&.%.%.%.%.&.&.&.%.%.%.&.&.%.%.&.%.%.%.&.&.@.&.@.+.$.+.+.+.@.{ | { ( / / l l k h k k k l l g l k k k k k k k k k k k k k k k k k k k k k g k k k k k k k k g g g k g k k g g g g g g g g g g g g g k ( ( / v ) v + o . o u g g g g k g g k g f [ *.%.@./ l l l l l l l l l l l l l l l l l l c l ",
"[ >XhXhXdXi.r.9.r.q.2X6X<Xq.q.8.q.q.q.q.q.q.q.*.( ( ( u f u f f f f u f f f f & . o . 9 [ ( ( / / / g g k g g k g g g k k g k g k k k k k v / ( ( [ { { [ { | { O.O.@.@.@.@.@.@.@.O.@.@.@.@.@.@.@.@.+.+.@.@.@.@.&.@.@.+.@.@.+.$.@.+.$.&.%.2.<.<.<.<.<.2.<.<.<.<.<.<.2.2.2.2.<.<.2.2.2.2.<.2.2.2.2.<.2.2.2.2.2.2.2.2.6.4X9XqX2.& * 3 *.7.4.:XeXqX9Xr.7.8.7.7.8.7.7.8.8.8.8.8.8.8.8.8.8.8.8.8.9.9.q.q.q.q.q.q.q.q.q.q.q.q.q.r.q.q.q.q.q.q.q.q.q.q.q.q.q.q.q.q.q.q.q.q.q.q.q.q.q.q.q.q.q.q.q.q.q.q.q.q.9.q.q.q.q.9.q.q.q.q.8.q.0.q.q.q.q.q.u.r.y.y.y.q.q.q.q.q.q.q.q.q.r.q.q.q.q.q.q.q.q.q.q.q.r.r.4.l c k 3 $ + y.9XuXuX4X8.9.9.9.9.q.9.9.9.9.9.q.8.9.9.9.9.9.9.9.9.9.9.9.q.q.9.8.9.q.9.9.9.9.9.9.9.9.9.9.9.9.q.9.9.9.9.9.9.9.9.9.9.9.9.9.9.9.9.9.9.7.7.7.8.7.8.7.8.8.8.8.7.8.8.7.7.7.7.7.7.7.7.8.7.9.i.9.i.9.7.7.7.7.7.6.6.7.4.7.6.7.6.4.4.4.4.4.4.4.4.6.6.4.4.4.4.6.6.7.4.../ ( g k f 2 & @ e.8X3X,X2.=.<.<.2.=.$.%.*.=.&.%.%.%.%.%.&.&.%.%.%.*.%.%.*.%.%.%.%.%.*.%.%.%.&.&.%.%.&.@.$.%.$.%.@.&.$.+.+.+.+.O.+.@.O.O.` [ { c l l l k l l k l h k k l l k k g g k k k k k k k k k k k k k k k k k k k k k k k k k k k k g k g g j k k k k g g g g g g k ( ( ( v ) c + o o o u g g g g g g g g g f [ %.%.%./ l l l l l l l l l l l l l l l l l l z z ",
"[ >XkXkXfXi.q.q.r.a.4X2X>Xr.r.q.q.q.q.q.q.q.r.*.( ( / f f u f f f f f f f f f & . o . 9 [ / ( ( / / g g k g g g k k g g k k k k k g g g k v ( ( ( [ { { [ [ | | O.O.@.@.@.@.@.@.@.@.@.@.@.@.@.@.O.@.@.@.@.@.@.O.@.@.@.+.@.O.@.+.+.@.@.@.*.<.<.<.<.<.2.<.<.<.<.<.<.<.<.2.<.<.<.<.2.2.<.<.<.2.2.2.2.<.<.2.2.2.2.2.2.2.6.4X9XqX2.& * 3 *.7.2.s.eX9X9Xr.7.7.7.7.7.7.7.7.7.8.8.8.8.8.8.8.8.8.8.8.8.8.q.q.q.q.q.q.q.q.q.q.q.q.q.q.q.q.q.q.q.q.q.q.q.q.q.q.q.q.q.q.q.q.q.q.q.r.q.q.q.q.q.q.q.q.q.q.q.q.q.q.9.q.q.q.q.q.0.q.q.q.0.q.q.q.q.q.q.q.y.r.r.y.r.r.q.q.q.q.q.q.q.q.q.q.q.q.q.q.q.9.q.q.q.q.q.r.6.l c k 3 & + y.8XuXsX8X7.9.9.9.9.9.9.9.9.9.9.9.9.9.9.9.9.9.9.9.8.9.9.9.9.9.9.8.9.9.9.9.9.9.9.9.q.9.9.9.9.9.9.9.9.9.9.9.9.9.9.9.9.9.7.8.9.9.7.9.9.7.7.7.7.7.8.8.8.8.8.7.8.8.7.8.7.7.7.7.7.7.8.8.7.9.i.r.y.9.7.7.6.7.7.7.4.7.7.7.7.7.6.6.4.4.4.4.4.4.6.4.6.4.4.4.6.6.7.4.4...( ( g k f 2 & @ e.7X3X>X2.<.2.<.2.<.%.%.*.=.=.=.=.*.%.&.%.&.*.*.*.%.%.&.&.*.%.%.%.&.%.%.%.%.&.%.%.%.%.#.&.&.&.&.@.&.+.+.+.+.@.+.+.+.O.O.O.{ O.[ c v / l l l h l l l l l g k k k k k k k k k k l k k k k k k k k g k k k k k k k k k k g k g k g g g j k g k k g k g g g k ( ( / / ) c + o o o f g g g g g g g g g f [ %.%.%./ l l l l l l l l l l l l l l l l l l l z ",
"[ >XhXhXsXy.r.u.<X3X4XrX2Xq.r.q.q.q.q.9.q.q.r.*.( ( / f f f f f g f f u f f f & . o . 9 ' ( ( / ( / g g k g g g k g g g g k k k g k k k l / / ( ( [ { { [ { | | | O.@.@.@.@.@.@.@.+.@.@.O.@.@.+.@.@.@.@.@.@.@.O.+.@.@.@.@.O.@.@.+.+.$.@.*.<.<.2.2.<.2.2.<.<.<.<.<.<.<.<.<.<.<.<.2.2.<.<.2.2.2.2.2.2.2.2.2.2.2.2.<.2.4.4X9X9X4.& & 3 *.7.4.:XeXqX9Xr.7.7.7.7.7.7.8.8.7.8.8.8.8.8.8.8.8.8.8.8.q.8.8.q.q.q.q.q.q.q.q.q.q.q.q.q.q.q.q.q.q.q.q.q.q.q.q.q.q.q.q.q.q.9.0.q.q.q.q.q.q.0.q.q.q.q.0.q.q.q.q.q.q.8.8.0.q.q.q.q.q.q.q.8.q.0.q.q.q.q.q.r.r.r.q.r.q.9.q.q.q.q.q.q.q.q.q.q.q.q.q.q.q.q.q.q.q.r.4.l v k 3 $ + y.9XyXuX4X7.9.9.9.9.9.9.9.8.9.9.8.9.9.9.9.9.9.9.9.9.9.9.9.9.9.9.8.9.9.9.9.9.9.9.9.9.9.9.9.9.9.9.9.9.9.9.9.9.9.9.9.9.9.9.8.9.9.8.9.9.8.8.7.7.7.8.8.8.7.8.7.8.8.8.8.8.7.7.7.7.7.7.8.7.8.r.r.r.7.7.7.6.7.6.3.6.7.7.4.6.6.4.6.4.4.4.6.6.6.6.6.6.6.6.4.7.7.7.6.4...) ) f k f 2 & @ e.7X1X>X2.<.<.2.2.=.%.%.*.2.2.2.2.=.*.%.%.%.*.*.*.&.%.%.&.&.&.%.%.%.%.%.%.&.@.&.%.%.%.&.&.&.&.&.&.&.+.+.+.$.+.&.+.+.+.O.| @.O.O.( ( _ l h h l l g g l h h k k k k k k k k k l k k k k k k k k k k k k k k k k g g g k g g g g g g k g g g g g g g g h g k ( / / / ) v + o o + u g g g g g g g k g f ..%.%.%./ l l l l l l l l l l l l l l l l l l l v ",
"[ >XhXhXsXr.r.i.3X9Xa.s.a.q.9.q.q.q.q.9.9.q.r.%.( ( ( f f f f f f f u f f f f & . o . 9 ' ( ( / ) / k g g g g g g g k g g g k k g g k g l v / ( ( [ { { [ { | | | @.O.O.O.O.O.O.O.@.@.@.@.O.+.@.@.@.@.@.@.@.+.+.+.$.+.+.+.+.@.$.+.+.@.@.%.<.<.<.<.<.<.<.<.<.<.<.<.<.2.2.=.<.<.<.<.<.2.<.2.<.2.2.2.2.2.2.2.2.2.2.2.<.4.4X9X9X4.& & 3 *.7.4.s.qXqX9Xr.7.7.7.7.7.7.7.8.8.8.8.8.8.8.8.8.8.8.8.8.8.8.0.9.q.q.q.q.q.q.q.q.q.q.q.q.q.q.q.q.q.q.q.q.0.8.9.q.q.q.q.q.q.q.0.q.q.q.q.q.0.0.q.9.9.q.q.q.9.q.q.q.q.0.0.9.0.q.q.0.q.q.q.q.q.q.q.9.q.q.q.q.q.q.q.q.9.q.q.q.q.q.q.q.q.r.q.q.q.9.9.q.q.q.q.9.q.q.4.l v k 3 + + y.7XyXuX7X7.9.9.q.9.9.9.9.9.9.8.9.9.9.9.9.9.9.9.9.8.9.9.9.9.9.9.9.9.9.9.9.9.9.9.9.9.9.9.9.9.9.9.9.9.9.9.9.9.9.9.9.9.9.7.7.8.8.9.8.7.7.7.7.7.7.7.7.7.7.7.7.7.7.8.8.7.7.8.7.7.7.7.7.7.7.8.8.7.7.7.4.6.6.7.7.6.6.6.6.6.4.4.4.4.4.4.4.4.4.4.4.4.4.6.6.4.4.7.4.4...( ( g k u * & @ e.7X1X>X2.=.<.<.2.=.%.%.*.2.2.<.2.<.%.%.%.%.*.%.%.&.%.%.&.%.%.%.&.%.%.%.&.%.&.&.&.%.%.&.%.%.&.&.&.&.&.+.+.$.$.$.@.+.+.+.O.+.O.{ ( / ( k l l h l k k l g h k k k k k k k k k k k k k k k g k k k k k k g g k k k k k k k g g g g k g g g g g g k g g g g k / ( / / ) v + o o + f k g g g g k g g g f ..%.%.%.v l l l l l l l l l l l l l l l l l l l l ",
"{ >XkXfXuXi.y.r.a.<Xr.7.q.q.q.q.q.q.q.q.q.q.r.*.( ( / f f f f f f u f f f f f * . o . 9 ' ( ) ( ( / k g g g g k g g g g k g k k g k k g k / ( / / [ { { [ { O.| O.O.O.@.O.O.O.O.@.@.@.@.+.O.+.@.@.@.@.@.@.@.+.+.+.+.+.+.@.+.+.&.&.+.+.+.%.<.<.<.<.2.<.<.<.<.2.2.<.<.<.<.<.2.2.2.<.<.2.2.2.2.2.2.2.2.2.<.2.2.2.2.2.<.2.4X8X9X4.& & 9 *.7.2.s.qX0X9Xr.7.8.7.7.7.7.7.8.7.7.7.7.8.8.8.8.8.8.8.7.7.8.8.9.q.q.q.q.q.q.q.q.q.q.q.q.q.q.q.q.q.q.q.8.q.9.8.q.q.q.q.q.q.q.q.0.q.q.q.0.q.q.q.q.q.q.q.q.q.q.q.0.0.8.0.0.q.q.q.q.q.q.q.q.q.q.q.9.9.q.q.q.q.q.q.q.q.q.q.q.q.q.9.q.q.q.q.q.q.q.q.q.q.q.q.q.q.q.4.l v k 3 + + y.9XtXuX4X7.9.9.9.9.9.9.9.9.9.9.9.9.9.8.9.9.9.9.9.9.8.9.9.9.9.9.9.9.9.9.9.9.9.7.8.q.9.9.9.9.9.9.9.9.9.9.9.9.9.9.9.7.7.7.9.9.8.7.7.7.7.7.7.7.7.7.7.7.7.7.7.7.7.7.7.7.7.7.7.7.7.7.7.7.7.7.7.7.7.6.7.4.7.8.7.4.7.7.6.6.4.4.4.6.4.4.4.4.6.4.4.4.6.6.4.4.4.7.6.4.[ ( ( g k f 2 & @ e.3X1X>X2.=.<.<.2.2.%.%.*.2.<.2.2.*.&.%.%.%.*.*.%.%.%.%.%.&.%.%.%.%.%.*.&.&.&.@.&.%.&.&.%.%.%.%.%.&.&.@.+.+.$.+.+.+.O.@.@.O.@.O.{ [ ( c l l l l l k g l l k k k l k k k g k k k k k k k g k k k k g k k g k k k k g g g g g k k j g g g g g g g g g g g k ( ) / ( ) v + o o + g g g g g g g g g g f ..%.%.%./ l l l l l l l l l l l l l l l l l l l l ",
"{ >XkXkXsXy.a.s.r.r.q.q.q.q.q.q.q.q.q.q.q.q.r.*.( ( / f f f f g f f f f f f f & . o . 9 ' ( ) / ( / g g g g g g g g k g g k k g k k k k l / / / / [ { { [ [ O.O.O.O.O.O.O.O.O.@.O.O.@.O.@.O.@.@.@.@.@.+.@.+.@.+.+.+.+.+.+.+.+.@.+.+.@.+.=.2.<.2.<.<.2.<.<.2.<.<.<.<.<.<.2.2.2.2.<.<.<.<.<.<.<.2.2.<.2.2.2.2.2.2.2.<.2.3X9X9X6.& & 9 *.7.2.:XqX9X9Xr.7.7.7.7.8.7.7.7.7.7.7.7.7.8.8.8.8.8.8.8.8.q.9.8.q.9.q.q.q.q.q.q.q.q.q.q.q.q.q.q.q.q.q.8.9.9.0.q.q.q.q.q.q.0.q.q.0.q.q.q.q.8.q.q.q.q.0.q.q.q.q.q.8.0.0.0.9.8.0.8.0.q.q.0.q.q.q.q.q.9.q.9.q.q.q.q.q.q.q.q.q.q.q.9.q.q.q.q.q.q.9.q.q.q.q.q.q.q.2.l v k 3 + o y.8XyXsX4X7.9.9.9.9.9.9.9.9.9.9.8.9.9.9.9.9.9.9.9.8.9.9.9.8.9.9.9.9.8.8.8.8.8.7.8.8.9.7.7.9.9.9.9.9.9.9.w.9.9.8.7.7.7.7.9.8.8.7.7.7.7.7.7.7.7.7.7.7.7.7.8.7.7.7.7.7.7.7.7.7.7.7.8.7.7.7.6.8.7.7.7.7.8.8.7.7.7.7.7.6.6.6.6.6.4.4.4.6.4.4.4.6.4.6.4.7.4.4.7.4.[ ( ( g l f * & & e.3X1X>X2.=.<.<.2.2.=.2.2.2.2.2.2.*.*.%.%.*.%.%.%.%.%.%.%.*.%.&.&.&.%.&.&.&.@.&.%.&.#.%.%.%.%.%.%.&.&.+.@.+.$.+.+.+.O.@.@.+.+.O.O.[ O.) v / ( l l l l l l l k k k k k k g k k k k k k k k k k g k k k k k g k g g g g k g g g g g g g g g g g g g g g g k ) ) ( v ) v $ o o o f g g g g g g g g g f [ %.%.%.v l l l l l l l l l l l l l l l l l l l c ",
"{ >XkXkXsXs.a.s.r.q.q.q.q.q.r.q.r.q.q.q.q.q.q.%.( ( / u f f f f g f f f f f f * . o . 9 [ ) ( / ) / g g g g g g k g g g g g g g g k k k l / / / / [ { { [ { O.O.O.O.O.O.O.O.@.@.@.O.O.@.@.@.@.@.O.@.@.@.+.+.+.+.@.+.@.+.@.+.$.$.@.@.@.@.=.2.<.2.<.<.<.<.<.<.<.<.<.<.<.<.2.<.2.2.<.2.<.<.<.2.2.2.<.2.2.2.2.2.2.2.2.2.2.3X8X0X4.& & 9 *.7.2.:X9X9X9Xr.4.7.7.7.7.7.7.7.7.7.7.8.8.8.7.8.8.8.8.8.8.q.8.9.q.q.q.q.q.q.q.q.q.q.q.q.q.q.q.q.q.q.9.9.9.8.q.q.q.r.q.q.q.q.q.q.q.q.q.q.q.q.q.q.q.q.q.q.q.q.q.q.q.q.q.q.q.0.8.0.0.9.0.q.q.q.q.q.q.q.q.q.q.q.q.q.q.q.q.q.9.q.q.q.q.q.q.9.q.q.q.q.q.q.q.q.q.q.2.l c l 3 $ + y.8XrXsX3X7.8.8.9.9.9.9.9.9.9.9.9.9.9.9.9.9.9.9.9.9.9.8.9.8.9.8.7.9.9.8.8.7.8.9.8.8.9.9.8.9.9.9.9.8.9.9.9.7.9.7.7.8.8.7.7.7.7.7.8.7.7.7.7.7.7.7.7.7.7.7.7.7.7.7.7.7.7.7.7.7.7.7.8.7.7.7.7.7.9.7.7.7.9.9.8.9.8.7.4.4.6.6.4.4.4.4.4.4.7.6.4.4.4.6.7.4.4.7.4.4.[ ( ( g l f 2 & & e.7X2X>X2.=.<.<.2.2.6.6.2.2.*.*.<.*.&.%.%.*.%.%.%.%.%.%.%.*.*.&.&.&.%.&.&.%.&.&.%.&.%.%.%.%.%.%.%.%.&.&.@.@.&.$.+.+.+.+.@.+.+.+...{ O.[ ( ) / l l k k l l l k k k k k k k k k k k k k k k k k k k k g k g g g g g g g g g g g g g g g g g g g g g g g g k ) ) ) v ) v & o o + f g g g g g k g g g f [ %.%.%.v l l l l l l l l l l l l l l l l l l l l ",
"..>XlXhXdX>Xr.y.r.q.9.q.q.q.q.q.q.q.q.9.9.q.r.*.( ( / f f f f f f f f g f f f &   o . e [ / ( / ) ( k g g g g g k g g g g k k k k g k k k / / / / [ [ { [ { O.| O.O.O.O.@.@.@.@.@.@.@.@.@.@.+.+.@.@.+.@.@.+.@.@.@.@.@.+.+.+.@.@.+.+.@.@.*.<.<.2.<.<.<.<.<.<.<.<.<.<.<.<.<.2.<.2.<.<.2.2.2.2.<.<.2.2.2.2.2.2.2.2.2.2.2.3X9X9X6.& & 3 *.7.2.:X9X9X9Xr.7.7.7.7.8.8.8.7.7.7.7.8.7.7.8.8.8.8.8.7.8.8.8.q.q.q.q.q.q.q.q.q.q.q.q.q.q.q.q.q.q.q.9.8.9.8.q.q.q.q.q.r.q.q.q.q.q.q.q.q.q.q.q.q.q.q.q.q.q.q.q.0.q.q.0.q.q.q.q.q.q.0.q.q.q.q.0.q.q.q.q.q.q.q.q.q.q.9.9.9.q.9.q.q.q.9.q.q.q.q.q.q.q.9.q.q.q.r.4.l v l 3 $ + i.8XrXsX3X7.9.9.9.9.9.9.8.9.9.9.9.8.8.8.9.9.9.9.9.8.9.9.9.9.9.9.8.9.9.9.8.7.8.8.8.9.9.9.8.9.8.7.8.8.8.9.9.8.9.9.7.7.7.7.7.7.7.8.8.8.7.7.7.7.7.7.7.7.7.7.7.7.7.7.7.7.7.7.7.7.7.7.7.7.7.7.7.9.e.r.7.9.7.8.9.7.9.8.4.4.4.4.4.4.2.2.4.4.4.6.6.4.4.4.2.4.4.6.4.4.[ ( / j l f 2 & & e.3X1X>X2.=.=.=.2.2.2.7.7.7.=.*.*.*.%.*.*.%.*.%.&.%.&.&.*.*.*.&.&.&.&.%.*.%.%.%.&.%.%.%.*.%.%.%.%.%.&.&.+.@.$.+.+.$.+.+.+.+.+.+.O.{ { [ ( ' c l l g k l k l k k l k k k k k k k g k k k k k k g k k k k g g k g g g g g k g g g g g g g g g g g g g g g k ( ( ) ( ) v $ . o o f g g g g k g g g g f [ %.%.%.v l l l l l l l l l l l l l l l l l l l c ",
"..>XcXhXlX2X0.r.q.q.q.q.q.q.q.q.q.q.q.q.q.q.q.&./ ( / u f u f f f f f f f f f & . o . 9 ' / ) / v v g g g g g g g g g g g g g g k k k k l / / / / [ { { [ { O.O.O.O.O.@.O.@.O.O.O.O.@.@.@.@.@.O.@.+.@.@.@.@.@.+.+.+.+.+.@.@.@.@.+.@.@.+.*.2.<.2.<.<.<.<.<.<.<.<.<.<.<.<.<.<.<.<.2.<.2.2.2.2.<.2.2.<.2.2.2.2.2.2.2.2.2.3X4X9X6.& & 3 *.7.2.s.0X9X9Xr.4.7.7.7.7.8.7.7.7.7.7.7.7.7.7.7.8.8.8.7.q.q.8.q.q.q.q.q.q.q.q.q.q.q.q.q.q.q.q.q.q.q.8.8.q.9.q.q.q.q.q.q.8.q.9.8.q.q.0.q.q.q.q.q.q.q.q.q.q.q.q.q.q.q.9.9.9.9.q.q.q.q.q.q.q.q.q.q.q.q.q.0.q.q.q.q.q.q.q.q.q.q.q.q.q.q.q.q.q.q.q.9.q.q.q.q.q.q.2.k c l 3 $ o t.8XrXuX3X7.8.9.9.9.9.9.8.9.9.9.9.9.9.8.8.8.8.8.9.9.9.9.8.9.9.7.8.9.9.9.8.7.7.7.8.9.8.8.7.7.8.8.8.8.7.7.9.q.8.9.7.7.7.7.8.7.7.7.7.7.7.8.7.7.7.7.7.7.7.8.7.7.7.7.7.7.7.7.7.7.7.7.7.7.7.7.7.9.9.r.8.7.7.7.9.9.9.8.4.4.4.2.4.4.4.2.4.6.6.4.2.2.4.4.4.4.4.4.4.2.[ ( ( g l f 2 & & e.3X1X>X2.*.*.=.2.=.*.2.<.<.*.%.%.%.*.%.&.&.%.*.%.%.*.%.*.*.%.&.&.&.&.%.&.%.%.@.@.%.&.%.*.&.%.%.%.&.&.&.&.+.+.+.+.+.+.+.+.+.+.O.O.[ o.{ ] [ [ ( l l l l k k k k k k k k k k k g g k k k k g g g k k k k k g g g g g g k k g g g g g g g g g g g g g g g k ( v ( ) ) v + o o + f g g g g g g g k g f ..%.%.%.v l l l l l l l l l l l l l l l l l l l l ",
"..>XcXfXfX2Xr.r.r.q.q.q.q.q.q.q.q.q.9.q.9.q.q.&./ ( / f f f f f f f g f f f f & . o . 9 ' ( ) / ) v k g g g g g g g g k g k g g k g k k k / / / / [ [ [ [ } @.O.O.O.O.@.O.O.O.@.@.O.@.O.@.@.@.@.@.O.@.+.@.@.+.@.+.@.@.@.+.+.+.+.$.@.@.@.*.<.=.<.<.<.<.<.<.2.<.<.2.<.<.2.<.<.<.<.2.<.2.<.<.<.2.2.2.2.2.2.2.2.2.2.2.2.2.3X4X9X6.& & 3 *.7.2.s.9X6X5Xq.4.7.7.7.7.7.7.7.7.7.7.8.8.8.8.7.8.8.7.8.8.9.q.8.9.q.q.q.q.q.q.q.q.q.q.q.q.q.q.q.q.q.q.9.q.8.8.q.q.q.q.q.q.q.q.q.q.q.q.q.q.q.q.q.q.q.q.q.q.q.q.q.8.8.8.9.9.q.q.8.8.9.9.9.9.8.q.q.q.8.0.8.0.9.9.q.q.9.8.0.q.q.q.q.q.q.q.9.q.q.9.q.9.9.q.9.q.q.2.k v l 3 $ o i.8XrXuX3X7.9.9.9.9.9.8.9.9.9.9.9.9.9.9.9.9.9.8.9.9.8.8.9.9.9.9.7.8.8.8.7.8.7.7.7.9.8.7.8.8.8.8.8.7.7.9.9.9.9.9.9.7.7.7.7.8.8.7.7.7.7.8.7.7.7.7.7.7.7.7.7.7.7.7.7.7.7.7.7.7.7.7.7.7.7.7.7.q.q.9.w.9.7.9.8.9.9.8.7.4.4.4.4.4.4.4.4.4.4.2.4.4.1.2.2.2.2.4.2.2.[ ) v g k f 2 & @ e.4X1X>X:.*.*.<.2.2.*.*.*.*.*.%.*.%.%.&.%.%.%.%.%.*.&.&.%.%.&.%.%.*.%.%.%.%.%.%.%.%.%.%.%.%.%.%.%.%.%.@.+.&.+.+.+.+.@.+.+.@.+.@.O...O.| O.o.....( / / l k l k g l l k k k k k k g k k k k k k k g k k k k k g k k g g g g g g g g g g g g g g g g g g g k / / / / ) v & o o + f g g g g g g g k g f [ %.%.%.v l l l l l l l l l l l l l l l l l l l l ",
"..>XcXkXfX>Xr.9.q.q.q.q.q.q.q.q.q.q.q.q.q.9.q.&./ ( / d f f f f f f f f f f g & . o . 9 ' ) ) / v v k g k g g g g g g g g g g g g k k g k / ( / / [ { [ [ | @.O.O.+.@.O.O.@.@.@.@.@.O.O.@.@.O.@.@.O.@.@.+.@.+.+.@.+.@.@.+.@.+.+.+.+.@.@.%.<.<.<.<.<.2.2.<.<.2.2.<.<.<.2.2.2.2.<.2.<.2.2.2.2.2.2.2.2.2.2.2.2.2.2.2.2.2.3X4X9X6.& & 3 *.7.2.s.6X4X5Xq.4.7.7.7.7.7.7.7.7.7.7.8.7.7.8.8.8.8.8.8.8.9.q.q.q.8.q.q.q.q.q.q.q.q.q.q.q.q.q.q.q.q.q.q.9.8.8.q.q.q.q.q.q.q.q.q.q.q.q.q.q.q.q.q.q.0.q.q.q.q.q.0.q.9.0.q.q.q.0.8.0.8.9.q.q.q.8.8.0.8.q.q.8.q.q.q.q.q.9.q.q.q.q.q.q.q.q.q.q.9.8.9.9.9.q.q.q.r.2.k c l 3 $ o a.8XrXuX3X7.9.9.9.9.9.9.9.9.9.8.8.9.9.9.8.7.9.7.9.9.9.9.9.8.9.8.7.8.8.8.7.7.7.8.8.7.8.8.8.8.8.7.7.9.9.9.8.9.e.9.9.8.8.7.7.7.7.8.8.7.7.7.7.8.8.7.8.7.7.7.7.7.7.7.7.7.7.7.7.7.7.7.8.7.7.7.7.q.q.q.r.8.9.q.8.9.9.9.7.4.4.4.4.4.4.2.2.4.4.4.4.2.4.2.2.2.4.2.4.2.' ) v g l f 2 & @ e.4X1X>X:.*.=.<.2.6.<.=.*.*.&.*.*.&.*.&.%.&.*.&.&.*.&.*.%.*.%.*.&.&.*.&.%.%.&.%.%.&.%.%.&.%.&.&.%.&.&.@.@.@.+.+.$.+.+.+.+.+.@.@...{ O.| O.O.{ { [ / ( c l l k k k k k k k k k k k k k k k k g k k k k g k g g g g g g g g g g g g g g g g g g g g g g g k / ( ( / ) v $ o o + u g g g g g g k g g f [ %.%.@.v l l l l l l l l l l l l l l l l l l l c ",
"[ s.lXkX9Xy.r.9.q.q.q.q.q.9.q.q.q.q.q.q.9.9.q.@.( / / u f f f f f f f f f f f & . o . 9 ' ) ) / v / g g f f g g g g g g g g g g g k k k l / / / / [ [ [ [ ..@.O.O.O.O.O.O.O.O.@.@.@.O.@.@.@.@.@.@.@.@.@.+.+.+.+.+.+.@.@.+.+.+.@.@.&.*.@.*.<.=.<.2.<.<.<.<.2.2.<.2.2.2.2.2.2.<.<.2.2.<.2.<.<.2.2.2.2.2.2.2.2.2.2.2.2.2.2X8X9X6.& & 3 =.7.2.a.6X9X4X9.2.4.7.7.7.7.7.7.7.7.7.7.7.7.7.7.7.8.8.8.8.8.8.8.8.9.9.q.q.q.q.q.q.q.q.q.q.q.q.q.q.q.0.q.q.0.8.8.9.q.q.8.q.9.q.q.q.q.0.q.q.0.q.q.0.q.q.q.q.8.0.q.q.q.q.q.q.9.8.q.0.q.q.q.q.9.9.q.q.q.q.9.q.q.9.0.q.q.q.q.q.q.9.9.q.q.9.q.q.q.9.9.q.9.9.9.q.q.2.k c l 9 $ + a.8XrXuX3X7.9.9.9.9.9.9.9.9.8.9.9.9.9.8.9.7.8.8.9.8.9.9.9.8.8.8.9.9.9.9.8.7.9.7.8.8.8.9.8.8.8.8.8.7.7.7.9.9.9.8.7.8.8.7.7.7.7.7.7.7.7.7.7.7.7.8.7.7.7.7.7.7.8.8.7.8.8.7.7.7.7.7.7.7.7.7.7.8.8.9.9.7.7.8.7.8.7.7.4.4.6.4.4.4.4.4.4.4.4.4.4.4.4.2.2.4.2.2.4.4.' ) ( g k f 2 & @ e.4X1X>X2.=.=.<.2.=.&.%.%.&.@.&.&.%.&.*.%.%.%.*.*.*.&.*.=.<.@.*.*.*.*.%.&.&.&.&.%.%.*.&.%.%.&.%.&.&.&.%.@.@.&.$.+.@.+.+.+.+.+.+.| O.O.O.O.} O.{ ( v ( l k l l k k k l k g k k k k k k g g k g k k k k g g k k g k g g g g g g g g g g g g g g g g g g g g / v ) ( ) v & o o + f g g g g g g k g g f ..%.%.%.v l l l l l l l l l l l l l l l l l l l c ",
"[ a.cXlX4Xr.r.9.9.q.q.q.9.q.q.q.9.q.9.9.9.q.q.&./ ( / u f f f f f f f f f f f & . o . 9 ' ( ) / ( / g g f g g g g g g g g g g g k g k k l / / / ( [ [ { [ | @.O.O.O.O.O.O.O.+.@.O.@.O.O.@.@.+.@.+.+.+.+.+.+.+.+.+.+.+.@.@.+.@.@.&.<.<.<.<.<.=.2.<.<.<.<.<.<.2.2.2.2.2.2.2.2.2.<.2.2.2.<.2.<.2.2.2.2.2.2.2.2.2.2.2.2.2.3X8X9X7.& & 3 *.7.2.s.6X9X4X9.2.1.2.4.7.7.7.7.7.7.7.7.7.7.7.7.7.7.8.8.7.8.8.7.8.8.q.q.q.q.q.q.q.q.q.q.q.q.q.q.q.q.0.0.8.8.8.8.8.8.8.q.q.q.9.0.9.q.9.9.q.q.8.8.q.q.0.0.0.8.8.9.8.9.9.9.q.q.0.0.0.9.q.q.q.q.q.q.9.9.0.8.0.q.q.q.q.q.q.9.q.q.9.q.9.q.q.9.q.q.9.9.8.9.q.9.9.q.<.l c l 9 & + i.4XrXuX2X7.9.9.9.9.9.9.9.9.9.9.9.8.9.8.8.9.9.8.8.8.8.9.9.9.8.8.8.9.9.8.9.8.8.8.7.9.9.8.7.8.8.9.8.7.7.7.9.9.9.9.8.9.8.7.7.7.7.8.7.7.7.7.7.7.7.7.7.7.7.7.8.8.7.8.7.7.7.7.7.7.7.7.7.7.7.7.7.7.7.7.7.7.7.6.7.7.3.3.7.4.4.4.6.4.4.4.4.4.4.4.4.4.4.4.2.2.4.4.2.4.[ ) ( k l f * & @ e.3X1X>X:.=.=.=.*.&.&.$.&.&.&.&.&.&.%.%.*.*.%.*.%.*.*.%.#.=.<.2.4.=.%.*.&.&.&.&.&.&.%.#.%.%.%.%.%.%.%.&.@.@.$.+.+.@.+.+.+.+.+.+.O.O.O.@.O.O.O.O.{ { [ / l c l l k k k g k k k k k k k g g k k k k g g g g k k k k g g g g g g k g g g g g g g g g g g g k / ) ) ) ) v & o o + u g g g g g g g g g f [ +.%.@.v l l l l l l l l l l l l l l l l l l l l ",
"[ a.lXkX6Xr.r.9.9.q.q.q.q.9.q.9.9.q.q.q.q.q.q.+./ ( / f f f f f f f f f f f f & . o . 9 ' ( ( / ( / g f f g g g g g g g k g g k g k k k k / ( / / [ [ { [ } @.O.O.O.O.O.O.O.O.@.O.@.@.@.O.@.@.@.@.@.@.@.@.@.+.+.@.@.@.+.+.+.+.@.%.<.<.2.2.<.<.=.<.<.<.<.<.<.2.<.2.<.<.<.2.2.<.<.<.<.2.2.2.<.<.<.<.2.2.2.2.2.2.2.2.2.2.2X4X9X7.& & 3 *.5.2.a.9X9X4Xq.2.4.2.4.4.4.4.4.4.7.7.7.7.7.7.7.8.7.7.7.8.8.8.8.7.8.q.q.q.8.q.q.q.q.q.q.q.q.q.q.q.9.q.8.9.9.8.8.8.8.9.q.8.q.q.9.q.0.9.0.q.q.8.9.q.0.q.q.8.8.8.8.8.9.q.0.0.8.9.9.9.9.q.q.q.9.9.9.q.q.q.q.q.9.q.9.q.q.q.8.9.8.9.9.9.9.9.8.9.8.9.8.9.9.9.9.9.r.<.l c l 3 & o i.8XrXyX2X7.8.9.9.9.9.9.9.9.9.9.9.9.9.9.8.9.8.8.9.9.9.8.8.9.9.7.8.8.8.8.7.8.8.8.8.7.8.8.9.9.8.8.8.8.7.7.7.7.9.8.8.8.8.7.7.7.8.7.7.7.7.7.7.7.7.7.7.7.7.7.8.7.8.7.7.7.7.7.7.7.7.7.7.7.7.7.7.7.7.7.7.7.7.7.7.4.4.7.4.4.4.4.4.4.4.4.4.2.4.4.2.4.4.4.4.4.4.4.2.4.[ ) / j l f 2 & & e.7X3X>X2.=.=.=.%.&.%.@.%.&.&.&.%.&.%.*.%.*.&.%.&.*.%.#.#.%.2.2.2.<.*.*.*.&.%.%.@.&.@.&.#.@.$.@.@.&.+.@.+.&.@.+.+.+.@.+.+.+.+.+.O.O.@.+.O.+.O.O.O.{ O.' ( [ v l l k k k l k k k k k k k k k k g k k k k g k g g g g g g g g g g g g g g g g g g g g g g g / ( ( v ) v $ o o + u g g g g g g g g g f [ %.%.@.c l l l l l l l l l l l l l l l l l l l c ",
"{ s.cXcXtXq.q.q.q.q.9.q.q.q.q.q.9.9.q.q.9.q.q.#./ / / f f u f f f f f g f f f & . o . 9 ' ( ( / ( / g f f f g g g g k g g g g g g k g g k / ( ( / [ [ { [ { @.O.O.O.O.O.O.@.O.@.O.@.@.O.O.O.O.@.@.@.@.O.@.@.@.+.+.+.@.@.+.@.+.@.%.2.<.2.=.<.=.*.<.<.<.<.<.<.<.<.<.<.<.<.<.<.2.<.2.<.<.<.2.2.2.2.2.2.2.2.2.2.2.2.2.2.4.2X4X9X7.& & 3 *.4.2.a.4X4X4Xq.2.4.2.4.5.4.4.4.4.4.7.7.7.7.7.8.7.7.7.7.8.8.8.8.8.8.q.q.q.q.q.q.q.0.q.q.q.q.q.q.q.8.q.8.8.8.8.8.0.8.9.8.8.0.0.8.9.8.8.q.q.0.8.0.0.8.9.8.8.8.8.8.8.9.8.7.9.9.9.q.9.q.9.8.q.9.8.q.8.8.9.8.9.9.q.q.9.9.9.9.9.9.9.9.q.9.q.9.9.9.9.9.9.9.8.9.9.q.<.k c l 3 $ o a.4XrXuX3X3.8.8.9.9.9.9.9.9.9.8.9.9.9.9.7.9.8.9.9.8.8.8.8.9.8.8.8.8.8.7.7.9.8.8.9.9.9.7.8.7.8.8.8.7.7.7.8.8.8.7.8.7.7.7.7.7.7.7.7.7.7.7.7.7.7.8.7.7.7.7.7.7.7.7.7.7.7.7.7.7.7.7.7.7.7.7.7.7.7.7.7.4.7.7.7.3.7.7.4.4.6.4.4.4.4.4.4.2.4.2.4.4.2.4.2.2.2.2.2.2.' ) v g l f 2 & @ e.8X3X>X2.=.*.=.=.%.&.&.%.%.%.&.%.&.%.%.&.*.%.%.%.%.%.&.%.&.<.2.4.<.*.*.%.%.%.%.%.&.@.@.+.+.@.$.&.+.+.@.@.&.@.@.+.+.@.@.+.+.+.+.+.O.+.+.@.+.@.O.O.{ O.[ ( [ l l k l l k k g k k k k k k k k k g k k k g g k k g g g g g g g g g g g g g g g g g g g g g g / ( v ( ( v & o o + u g g g g g g g g g f [ O.%.%.c l l l l l l l l l l l l l l l l l l l l ",
"[ a.kXcXtXq.q.q.q.q.9.q.q.9.q.q.9.9.q.q.9.q.r.%./ / / f f f f f f g f f f f f & . o . 9 ' ( ( v v / g f f g g g g g g g g g k g g k k g k / ( / / [ [ [ [ } @.O.O.O.O.O.@.@.@.@.O.O.+.+.@.@.+.+.+.+.+.+.@.+.+.+.@.+.@.@.+.&.+.@.%.<.<.=.<.<.*.%.=.<.<.<.<.<.<.<.<.<.<.<.<.<.2.2.<.<.2.2.2.2.<.2.2.2.2.2.2.2.4.2.4.4.2.2X4X9X8.& & 3 =.4.2.s.6X7X4Xq.2.2.2.2.2.2.4.4.4.4.4.7.7.7.7.8.7.7.7.7.7.8.7.7.7.8.8.q.q.q.8.q.0.8.8.8.q.0.9.0.0.8.8.8.8.8.0.0.8.8.8.8.0.8.8.0.8.0.8.0.0.q.0.8.0.8.0.q.0.9.q.8.9.8.q.q.9.q.0.q.9.8.8.0.q.q.q.9.0.9.9.9.9.q.q.9.9.9.9.9.9.q.q.9.9.9.q.9.9.8.q.9.9.8.8.9.9.q.=.k c l 3 @ o a.8XrXrX2X4.7.8.9.9.9.9.9.9.9.8.9.9.9.9.8.8.9.8.8.8.8.8.8.q.9.7.8.8.8.9.9.9.9.9.9.9.9.7.7.7.7.7.7.7.7.7.7.8.7.7.8.7.7.7.7.7.7.7.7.7.7.7.7.7.7.8.7.7.7.7.7.7.7.7.7.7.7.8.7.7.7.7.7.7.7.7.7.7.7.3.7.7.7.7.7.7.7.7.4.4.4.4.4.4.2.4.4.4.4.2.4.4.4.4.4.2.4.4.2.4.[ ) v j l f 2 & @ w.8X7X>X2.=.=.*.*.&.&.&.&.%.%.%.%.%.&.&.&.&.&.%.%.&.&.&.&.%.<.=.<.*.&.*.%.%.%.@.@.@.@.+.@.@.+.+.+.@.+.+.@.$.+.@.+.+.@.@.+.+.+.+.O.@.@.O.+.O.O.O.O.O.{ [ ( _ / l l k g k k g k k g k g k k k k g g k k k k g k g g g g g g g g g g g g g g g g g k g g g h / ) v / v v & o o + f g g g g g g g g g f ..%.%.%.c l l l l l l l l l l l l l l l l l l l l ",
"{ s.fXfX9Xq.r.q.q.q.q.q.q.9.9.9.9.9.q.q.q.q.q.#.( ( / f f f f f f g f f f f f & . o . 9 ' / / v v / g f f g g g g g g g g g g g g g k k l / ( / / [ [ [ [ } O.O.O.O.O.O.@.O.@.@.O.@.+.@.+.+.+.+.+.@.+.+.@.+.@.+.+.+.+.+.+.@.+.+.@.+.+.+.&.&.*.*.*.=.<.<.<.<.<.<.<.<.<.<.2.<.=.<.2.2.2.2.2.2.2.2.2.2.2.2.2.2.4.4.2.2.2.2X4X9X9.& & 3 =.6.2.s.8X8X4Xq.2.2.2.4.2.2.4.4.4.4.7.7.7.7.7.7.7.7.7.7.7.7.7.7.7.8.q.q.q.q.q.8.8.8.7.7.q.0.9.8.8.9.8.8.8.8.0.0.8.9.9.8.8.0.0.0.8.0.8.8.0.0.0.0.0.0.0.9.0.8.q.9.9.9.q.9.q.q.0.9.0.9.8.9.8.9.9.8.q.8.q.9.8.9.9.9.q.9.8.q.8.9.9.9.9.9.8.9.q.9.q.9.9.9.8.9.q.q.=.k c l 3 & o a.4XwXrX3X4.8.9.9.9.9.9.9.9.9.9.9.9.9.8.8.8.8.7.9.9.8.8.8.9.8.8.9.8.8.9.9.9.9.9.9.9.9.8.8.8.7.7.8.7.8.8.7.7.7.7.7.7.7.7.7.7.7.7.7.8.8.7.7.7.7.7.7.7.7.7.7.7.7.7.7.7.7.7.7.7.7.7.7.7.7.8.7.7.7.3.7.7.7.7.4.4.4.6.7.4.4.4.4.2.4.4.4.4.4.4.4.4.4.4.2.4.4.2.2.4.' ) v g l f 2 & @ e.8X7X>X2.<.<.*.*.%.%.*.&.&.&.&.%.&.&.%.&.&.&.@.&.%.&.&.&.&.*.%.*.%.*.%.%.%.%.&.@.&.@.&.&.$.&.+.+.&.&.$.$.+.+.+.@.+.+.+.+.+.+.+.@.O.O.O.O.O.O.O.O.O.O...{ O.[ l l l l l k k k g g k k k k g g g g k k k k g g g g k g g g g g g g g g g g g g k g g g g g v ( v v ) v & o o + f g g g g g g g g g g ..O.%.+.v l l l l l l l l l l l l l l l l l l l c ",
"[ >XwXqX0Xr.q.q.q.q.q.9.9.9.q.9.q.q.q.9.9.9.q.%./ ( / f f f f g f f f g f f f & . o . y ' v / / v / j g g g f f f f f f f g g g g g k g k / / / / [ [ { [ } O.O.O.O.O.O.O.O.@.O.O.O.@.@.O.O.@.@.@.@.@.@.+.+.+.$.@.+.+.+.+.@.+.@.+.@.@.+.@.@.*.*.*.<.<.<.<.<.<.<.<.2.2.<.<.<.<.2.2.2.2.<.2.2.2.2.2.2.4.2.4.2.3.<.2.2.2.,X3X9X9.& & 3 =.4.2.s.4X4X4Xq.2.2.2.2.2.4.4.2.4.2.4.7.7.7.4.7.7.7.7.7.7.7.7.7.7.8.q.q.q.q.q.7.7.8.7.8.8.8.q.q.9.8.8.8.0.0.0.q.8.8.8.0.0.0.q.8.8.8.8.8.8.0.8.0.9.0.8.8.9.8.9.q.8.q.8.8.8.8.0.8.8.9.8.8.9.9.9.q.9.9.8.8.0.q.q.9.9.9.9.9.9.9.8.9.9.9.9.9.9.9.q.9.9.8.7.8.9.q.=.k c l 9 & o s.4XrXrX3X4.7.7.9.9.9.9.q.9.9.q.9.9.7.9.9.9.8.9.9.8.8.9.8.8.9.8.8.8.8.8.8.9.9.9.9.8.8.9.7.7.8.7.7.7.8.8.8.7.7.7.7.7.7.7.7.7.7.7.7.7.7.7.7.7.7.7.7.7.7.7.7.7.7.7.7.7.7.7.7.7.7.7.7.7.7.7.7.7.7.7.7.7.7.4.4.4.4.6.4.4.4.4.2.2.4.2.4.4.4.4.4.4.4.2.2.2.2.2.2.2.' ) v g k f * & @ e.8X7X>X2.=.=.*.=.=.*.=.%.&.%.&.%.%.&.&.%.%.&.&.&.&.&.&.&.&.%.*.*.%.*.&.%.%.&.&.%.%.@.@.$.&.&.&.+.+.&.$.$.+.@.@.@.@.+.+.+.+.+.+.+.@.O.+.O.+.O.O.O.O.O.O.O.{ [ ' / ( ) l l k k k k k k k k g g g g g g g g g g g g g g g g g g k g k f g u y u g g g g g g / ( / v ) v $ o o + f g g g g g g g g g g ..*.*.%.v l l l l l l l l l l l l l l l l l l l c ",
"{ >XrX8X0Xq.q.q.q.q.9.9.9.q.9.9.9.9.9.q.q.9.q.@./ ( / f f u f f f f f f f f f & o o . y ' v v / v / k g g g g f 9 9 9 3 9 k k g g g k g l / / / / [ [ [ [ o.O.O.O.O.O.@.O.O.O.O.O.@.@.@.O.O.@.@.@.@.@.@.@.+.+.+.@.+.@.+.+.@.+.+.@.@.@.@.+.+.&.*.*.<.<.<.<.<.<.<.<.<.2.<.2.2.2.2.2.2.<.2.2.2.2.2.4.2.%.( _ ( O.*.2.4.<.,X3X8X9.& & 3 =.4.<.s.4X4X3Xq.<.2.2.<.2.2.4.=.O.O.{ [ [ 2.7.7.7.6.7.7.8.8.7.8.7.8.q.q.q.q.8.8.8.8.8.8.8.8.0.0.q.8.8.8.0.q.0.0.8.8.8.8.8.8.0.0.0.0.8.0.8.0.8.0.0.8.8.8.0.0.8.8.q.0.0.q.8.8.8.8.9.9.8.q.9.9.9.9.q.9.8.0.0.9.8.9.8.q.9.9.q.8.8.9.q.9.*.[ [ { ) +.9.9.9.7.9.r.=.l c l 3 & o a.4XrXtX2X4.7.7.8.8.*.[ { { { @.7.9.9.8.9.7.8.8.7.8.8.8.8.8.9.7.7.8.8.9.9.9.9.9.9.8.8.7.9.q.r.7.7.7.7.8.8.7.7.8.7.7.7.7.7.7.8.7.7.7.7.7.7.7.7.7.7.7.7.7.7.7.7.7.7.7.7.7.7.7.7.7.7.7.7.7.7.7.7.7.7.7.4.7.4.4.4.6.4.4.4.4.4.4.6.1.2.{ [ [ O.O.2.2.4.2.2.2.2.2.[ v v k l f * & @ e.8X7X>X:.2.=.*.( ( ` { *.%.%.%.&.%.&.&.%.%.%.%.&.&.&.&.&.&.&.%.*.%.&.%.%.%.&.&.&.&.+.@.@.&.&.@.+.+.&.@.@.+.@.@.@.@.@.+.+.+.+.+.+.+.@.+.+.+.O.O.O.O.O.O.| O.O.[ ( ' ( l l k k l k k k k g k k k g k k g g g g g g g k g g g g k g g y q q 3 3 f g g g g k / ( v v ) v $ o o o f g g g g g g g g g g X.:.:.%.v l l l l l l l l l l l l l l l l l l l l ",
"{ a.9X0X0Xr.q.q.q.q.9.9.9.9.9.9.9.q.q.q.q.9.q.+./ ( / u f u f f f f f g f f g & o o . y ' v ( / v / k g f f g f 3 3 3 3 9 k g g g g k g l / / / / [ [ [ [ o.O.O.O.O.O.O.O.O.O.O.O.@.+.O.O.O.@.@.@.@.O.O.+.+.+.+.@.+.+.+.+.+.+.@.@.@.@.+.$.+.+.*.<.<.<.<.<.<.<.<.<.<.<.2.<.<.<.2.2.<.2.2.2.2.2.2.:.<.O.f g u c +.2.4.2.,X4X9X9.& & 3 *.4.<.a.3X4X2Xq.<.2.2.<.2.<.2.&.f l k g f *.7.7.7.4.7.7.7.7.7.8.8.7.8.0.q.q.8.7.8.8.8.8.8.8.8.9.8.8.8.8.0.0.8.8.8.8.q.9.8.0.8.8.8.0.0.8.8.8.8.8.0.0.0.7.7.7.8.8.8.9.9.q.q.0.8.0.9.q.8.8.9.8.8.9.9.9.q.0.9.q.8.8.0.0.q.9.q.9.9.9.9.q.[ u k f i [ q.9.9.9.9.r.=.k v l 3 & o a.4XrXrX3X1.7.6.7.7.%.h / l c ( 9.9.9.8.8.9.9.8.7.8.8.7.9.9.9.8.7.8.8.8.8.9.7.8.9.7.7.8.y.y.y.r.8.7.7.7.7.7.8.8.8.7.7.7.7.7.7.7.7.7.7.7.7.7.7.8.7.7.7.7.7.7.7.7.7.7.7.7.7.7.7.7.7.7.7.3.7.3.7.7.7.7.3.4.4.4.4.4.7.4.4.4.4.4.4.4.&.q f f g g %.2.2.2.2.2.2.4.[ v v k k f * * & e.9X8X>X:.2.=.O.g k l l *.*.*.%.%.%.&.%.%.%.%.%.&.&.&.#.@.%.%.%.%.&.#.%.%.%.@.&.%.%.+.@.+.+.+.+.+.@.+.@.+.+.+.+.+.+.+.@.+.+.+.+.+.@.+.O.O.O.O.O.O.O.O.O...O...` ( ( / l l g g k k k l g g g g g k k g g g g k g g g g g g g g g g g 9 2 3 2 * e g f f f g v / v v v v $ o o + u g g g g g g g g g g ..;.;.%.v l l l l l l l l l l l l l l l l l c l l ",
"[ y.8XwX9Xq.q.q.q.9.9.9.9.9.q.9.q.q.9.9.9.9.q.+./ ( / f f f f f f g f f f f f & o o . y ' / ( v ) / k g g f g f y u u u g l l g g g g g l / / / ( [ [ [ [ { O.O.O.O.O.O.O.O.O.O.@.@.O.@.O.O.@.@.+.@.@.@.O.O.+.+.+.+.@.@.@.@.+.+.+.+.+.+.+.+.+.*.<.<.<.<.<.=.<.<.<.<.<.<.<.<.2.<.<.2.<.2.<.2.2.2.2.2.O./ ) [ ) @.2.2.2.>X4X9X9.& * 3 =.4.=.s.3X3X2X9.*.<.<.2.2.2.2.%.c v / c l %.8.7.7.7.7.7.7.7.7.7.7.7.8.7.8.8.8.8.8.8.7.8.0.8.8.8.8.8.8.8.0.9.8.8.8.8.8.8.0.0.8.9.8.8.8.8.8.8.8.0.0.0.0.0.9.8.8.8.8.7.0.0.9.8.8.q.q.q.9.9.9.9.8.9.0.9.0.8.q.9.8.0.8.8.8.8.9.9.9.q.q.q.+./ ..( o.%.q.e.q.9.r.r.=.k c l 3 & o a.4XrXrX2X2.4.4.9.7.=.l / l c ( 9.r.q.9.8.9.9.9.7.7.8.8.9.9.9.9.8.7.9.8.9.8.8.9.7.7.3.8.r.y.y.r.7.8.7.7.7.7.7.7.7.7.7.7.7.8.8.7.7.7.7.7.7.7.7.7.7.7.7.7.7.7.7.7.7.7.7.7.7.7.7.7.7.7.7.7.7.7.7.7.7.7.7.4.3.7.6.7.4.4.4.4.4.6.8.8.%./ ( [ / l =.4.4.2.2.2.2.4.[ v v k l f * * & w.0X7X>X2.7.2.@.( / ] O.2.<.=.%.%.%.%.&.*.*.%.&.&.&.@.*.@.%.&.&.&.@.#.#.%.%.&.%.&.@.@.@.+.+.&.+.@.+.+.+.+.+.+.&.+.+.+.@.+.+.O.+.+.O.+.O.O.+.+.@.O.O.O.O.O...O.{ { { ' ( l l l l k k k h g g g g k g g g g g k k k g g g g g g h k g 9 3 y y 9 q u f g f f v v v v v v $ o o $ u g g g g g g g g g f ..%.;.*.v l l l l l l l l c c l l c l l l l c l c ",
"{ s.eXuXqXq.q.q.9.9.9.9.q.9.q.9.9.8.9.8.9.q.q.@.( ( / u f f f f g f f f g g g & o o . y ' v v v / ( g f g u u k v / / ( / f 9 y g g g k k / / / / [ [ [ [ { O.O.O.O.O.O.@.O.O.O.O.O.O.@.@.O.@.@.@.@.+.+.+.+.@.@.@.@.@.+.+.+.+.+.+.+.@.@.@.+.$.=.<.<.<.<.<.=.<.=.<.<.<.<.<.<.<.2.<.<.2.2.2.2.2.%.{ %.a.s.s.s.a.y.3.7.2.>X3X9X9.& 2 3 =.4.=.a.3X2X2X9.*.<.<.<.<.O.&.2.7.8.8.7.7.2.=.2.2.4.7.7.7.7.7.7.8.7.8.7.7.8.8.8.8.8.8.0.8.8.8.8.8.8.0.8.8.0.8.8.8.q.8.8.8.8.8.8.8.8.8.7.7.7.8.8.0.8.8.9.8.8.8.8.q.0.q.0.8.8.8.9.q.q.q.q.8.8.8.8.0.9.q.q.9.8.9.8.9.0.8.8.9.9.8.%.O.2.q.r.r.r.r.7.O.[ <.8.r.r.=.k v k 3 & o i.3XrXrX2X2.4.<.@.2.8.8.8.7.8.8.1.4.3.7.9.9.8.8.8.8.9.9.8.9.8.9.9.9.9.9.8.8.8.7.7.7.7.q.r.r.y.q.7.7.7.7.7.7.7.7.7.7.7.7.7.7.7.7.7.7.7.7.7.7.7.7.7.7.7.7.7.7.7.7.7.7.7.7.7.7.7.7.7.7.7.7.7.7.7.7.7.7.7.3.6.7.7.7.7.7.4.6.6.*...=.r.y.i.t.r.r.@.( { =.2.2.2.4.[ v / k l f * * & 8.0X7X>X=.+.%.p.a.y.s.s.9.%.@.+.%.%.&.*.*.*.%.%.&.@.@.#.@.&.@.&.@.@.+.%.%.@.@.&.+.+.@.+.@.@.@.+.+.+.+.+.@.+.@.@.+.+.+.+.+.+.+.+.@.@.+.+.+.@.O.O.O.O.O.O.O.O.O...| O.{ { / / / l k l k k k g h g g k g g g k k g g g g g g g g y 9 u l c c c c c f d f f g v v v v ) v $ o o + u g g g g g g g g g f ..*.%.%.v l l l l l l l c c l l l l l l l l l l c ",
"[ ;XsXuXqXq.q.q.9.9.9.9.9.q.q.q.9.8.9.8.9.q.q.+.( ( v u u u f f f f f f f g f & . o . q [ v ) ( v v k u q = 3 l / v v / / u * 3 f g k h k / / / / [ { [ [ { { } { } O.O.@.O.O.O.O.O.O.O.@.O.@.+.@.@.+.+.+.@.+.@.@.@.@.+.+.+.@.@.@.+.@.+.@.@.+.*.=.<.<.=.<.<.<.<.=.<.<.<.<.<.=.<.<.=.2.2.2.2.2.[ y v a.s.s.s.a.a.+.c ..>X3X9X9.& * 3 =.4.<.s.3X2X2X9.%.<.<.,.@.q l 7.8.9.8.0.8.2.g j =.7.7.7.7.7.7.7.7.7.8.7.8.8.8.8.8.8.8.0.8.8.8.8.8.7.8.8.8.0.0.0.8.8.8.8.8.8.8.8.8.8.8.7.7.8.8.0.8.8.9.9.9.9.8.8.9.q.7.8.8.8.8.9.q.9.8.0.8.0.8.8.9.9.9.9.9.9.q.9.9.8.8.8.8.7.7.v y O.y.e.r.r.e.q.c u ) 9.9.r.=.k c l 9 & o t.3XrXrX4X2.2.{ q +.r.9.9.y.t.r.) k / 7.9.9.9.8.9.9.8.7.9.9.9.8.8.8.9.8.9.9.8.9.7.7.7.8.r.y.y.9.8.7.8.8.7.7.7.7.7.7.7.7.7.7.7.7.7.7.7.7.7.7.7.7.7.7.7.7.7.7.7.7.7.7.7.7.7.7.7.7.7.7.7.7.7.7.7.7.7.7.7.7.7.7.7.7.7.3.7.4.7.' 3 ( y.t.r.t.e.r.) y u %.<.:.2.4...) v k c g 2 * & 8.9X8X<XO.f ( :Xs.s.s.i.9.v k v %.*.%.*.*.*.&.&.%.&.%.%.&.%.*.@.@.@.@.$.$.@.&.@.@.@.+.+.+.+.+.@.@.+.+.+.+.+.+.@.+.+.+.@.@.+.@.@.O.@.O.+.@.@.O.O.O.O.O.O.O.O.O.O.{ O.O.[ / / / l g k k k g g g g g g g g g g g g g k k g g g f 3 & y v c c v c c f * 3 u g v v v v ) v $ + o + u g g g g g g g g g f ..*.%.@.v l l l l l l l l c l l l l l c l l l l c ",
"[ ;XdXsXeXq.q.q.8.9.9.9.9.q.9.9.9.9.9.8.8.8.q.@.( ( v u u u f f g f f g f f f & o o . 9 ' v / / / / k u 9 9 3 l v v / / / f = 3 f g k g k v / / / [ [ [ [ [ { { [ } O.O.O.O.@.@.O.O.O.@.O.@.@.+.O.+.@.O.@.@.+.@.@.@.+.+.+.@.@.@.@.@.@.@.@.@.@.*.=.=.<.<.2.<.<.<.<.=.<.<.<.=.=.<.<.<.<.<.=.2.2.[ u c i.a.a.a.s.a.) 3 c >X3X9X9.& 2 3 =.4.<.s.2X2X,Xq.%.<.<.<.O.y l 7.7.8.7.8.8.7.l g %.7.6.7.7.7.7.7.7.8.8.8.8.8.8.7.8.8.8.8.0.8.0.8.8.8.8.8.q.8.0.8.8.8.8.8.8.8.q.0.q.9.8.0.0.0.0.0.9.8.8.8.0.8.8.0.q.9.8.8.8.8.9.9.9.8.8.0.8.9.9.9.9.9.9.8.9.9.9.8.9.8.8.8.9.9.7.' u O.r.r.9.9.r.q.[ g ) 7.w.r.=.k c l 9 & + i.3XrXeX4X2.2...y #.q.9.r.r.r.q.[ l c 3.9.9.9.8.9.8.9.9.9.9.8.8.8.9.9.9.9.8.7.7.7.7.7.7.8.8.8.7.8.7.7.7.7.7.7.7.7.7.7.8.8.7.7.7.7.7.7.7.7.7.7.7.7.7.7.7.7.7.7.7.7.7.7.7.7.7.7.7.7.7.7.7.7.7.7.7.7.7.7.7.6.7.3.4.7.7.4.6.7.[ e [ y.t.e.e.r.r...y f %.*.:.2.2...v v k l f * * & 8.0X8X,X{ k ' a.s.s.p.p.r.[ l l %.*.*.*.%.%.%.%.%.%.&.&.%.&.*.*.@.@.&.@.@.&.@.@.@.@.+.+.$.$.@.@.@.@.+.$.@.+.+.+.+.+.+.@.@.+.@.+.@.@.O.@.@.@.O.O.O.O.O.O.O.O.O.O.O...{ { / l ( l k l k k g k k g g g g g k g g g g g k k g g f 3 = y v c c c v v y * 3 e g v v v v v c + o o + u g g g g g g g g g f [ *.*.*.v l l l l l l l l l l l l l l l l l l l c ",
"[ >XdXsXeXr.q.q.9.9.9.9.q.9.9.9.9.q.9.8.8.9.9.+.( ( v u u u f f g g f g f f f & . o . 9 ) v / / v ( g y q * 3 c v c v v v l 9 9 f k k g k v / / / [ { [ [ { { { { O.@.O.@.@.O.O.O.O.O.@.@.@.@.@.O.@.O.O.@.@.@.@.+.@.+.+.+.@.@.@.@.+.@.@.@.@.@.*.<.<.<.=.<.<.<.=.<.<.<.<.<.=.=.=.=.=.<.<.<.2.2.[ f c a.s.a.a.a.a.O.u ( >X3X9X8.* * 3 <.7.2.s.2X2X2Xe.*.<.=.*.{ e l 7.9.9.7.8.9.2.k g *.7.7.7.7.7.7.7.7.8.8.8.7.7.7.7.8.8.8.0.8.8.7.7.8.8.8.8.8.8.8.8.q.9.8.8.8.0.9.9.8.8.0.0.8.8.9.0.q.9.9.9.8.9.8.8.0.0.8.8.8.7.7.7.9.8.0.8.0.9.q.q.9.9.8.8.8.9.9.8.9.8.8.8.8.8.4.) q +.y.q.9.9.e.q.O.k [ 8.e.r.*.k c l 9 * + a.3XeXeX4X2.2...u =.r.9.9.9.r.r.o.l / 3.9.9.8.8.9.8.9.8.8.9.8.7.8.8.9.9.8.8.7.7.8.7.7.7.7.7.7.7.7.7.7.7.7.7.7.7.7.8.7.7.7.7.7.7.7.7.8.8.7.7.7.7.7.7.8.8.7.7.7.7.7.7.7.7.7.7.7.7.7.7.7.7.7.7.3.7.7.7.7.7.7.4.3.3.7.7.7.7.4.[ q { y.r.9.9.r.r...y g *.=.:.2.2.[ v v k c f * * & 8.0X8X,X{ g ' a.s.f.p.y.y.} l l %.*.*.%.%.%.%.%.#.*.%.&.&.&.*.#.@.@.@.&.&.&.@.+.@.@.@.$.+.+.@.@.+.@.+.$.+.+.+.+.+.+.+.@.@.@.@.+.O.+.O.@.O.@.O.O.O.O.O.{ O.O.O...O...O.O.[ [ [ ) l g l k g g k g g g g g k g g g g g g g g g f 2 * y v c c c c c u 3 e e g v v v v ) c + o o + u g g g g g g g g g f ..*.*.*.v l v v l l l l l l l l l l l l l l l l c ",
"[ ,XgXsXeXr.q.q.q.q.9.9.q.9.9.9.9.9.9.9.8.8.8.@.( ( v u u u f f g g g g f f f & . o . 9 ' v v ( ( ( k y y * 3 l v c v c c / y 9 f k k g k / ( / / [ [ [ [ [ { { { O.O.O.+.O.O.O.O.O.O.O.@.O.@.@.@.@.@.@.@.O.@.@.+.@.@.@.@.@.@.+.@.@.@.@.@.@.@.&.&.+.%.<.<.<.<.<.<.=.<.<.<.=.=.<.<.<.<.<.=.<.2...g l r.a.a.a.a.s.=.f _ >X2X9X7.* * 3 2.7.:.s.2X2X2Xq.*.<.<.<.o.y l 7.8.8.7.8.8.<.u f =.7.7.7.7.7.7.7.7.8.7.7.8.7.7.8.8.8.8.8.8.7.8.8.8.8.8.8.0.q.q.0.8.8.8.8.8.0.0.9.9.q.0.8.8.8.0.0.0.8.8.8.8.q.9.9.9.9.8.7.8.8.8.8.8.0.8.8.8.8.q.9.9.9.9.0.9.9.8.9.8.8.9.8.8.7.7.[ y O.q.r.q.9.q.q.' g [ 7.9.9.%.j l l 3 * o t.2XwXeX4X2.2.{ u %.q.9.9.9.9.q.{ l / 7.9.9.8.8.8.9.8.8.9.9.9.8.9.8.9.8.9.8.9.8.7.7.8.7.7.7.8.7.7.7.7.7.7.7.7.7.7.7.7.7.7.7.7.7.7.7.7.7.7.7.7.7.7.7.7.7.7.7.7.7.7.7.7.7.7.7.7.7.7.7.7.7.7.7.7.7.7.7.7.7.7.7.7.7.3.7.4.4.7...y ' e.r.r.q.9.q./ q f %.=.<.<.2.[ v v k l f 2 * & 8.9X8X,X..g [ s.a.s.i.r.q.( h l %.*.*.*.*.%.%.%.#.%.*.&.&.*.&.&.#.&.&.&.$.&.%.@.@.&.@.+.@.+.+.+.+.+.+.@.+.+.+.+.@.+.+.@.@.O.@.+.O.@.O.O.O.O.O.O.O.O.O.| O.O.O.O.....O.{ { ..{ ) l v c k g k g g g g g g g g g g g g g g g g g 2 * e v c c c v v u = 9 9 g v v v v ) c $ + o + u g g g g g g g g g f ..;.%.*.[ / ' ' v l l l l l l l l l l l l l l l l ",
"[ >XfXsXrXr.q.q.q.9.8.9.9.9.8.8.9.9.8.9.8.8.q.+.( ( v u u u f f g f g g f g g & . o . 9 ) v / / ( ( g y f y y l v v v c c l 9 y f k k k l / ( / / [ { [ [ [ { { { O.@.O.O.O.O.O.O.O.@.@.O.+.O.O.@.@.@.@.@.@.@.@.@.@.@.+.+.+.@.@.@.@.@.+.@.@.@.@.O.O.+.<.=.,.<.=.<.<.<.=.<.<.=.<.<.=.<.<.<.<.<.o.g l r.a.s.s.a.s.2.l [ >X2X9X7.* 2 3 2.4.:.s.2X1X,Xq.=.<.=.<.O.9 k 7.8.9.q.q.q.=.f g =.7.4.4.7.7.7.7.8.7.7.7.7.8.8.8.8.8.8.0.8.8.0.0.8.9.8.q.8.0.q.8.8.8.8.0.0.0.8.8.0.9.8.0.8.0.0.0.0.8.9.q.8.8.9.8.9.8.8.8.7.8.8.9.0.8.0.9.8.8.8.8.9.8.q.q.9.8.8.8.9.9.9.8.7.7.7.[ y O.q.r.r.q.r.9.( u ) 7.7.7.%.j l l 3 * o t.2X0XeX3X2.1.} q O.r.q.q.q.r.q.' g c 7.9.9.8.8.9.9.9.8.8.9.9.8.9.8.9.9.9.8.8.8.8.8.7.7.7.7.8.7.7.7.7.7.7.7.7.7.7.7.7.7.7.7.7.7.7.7.7.7.7.7.7.7.7.7.7.7.7.7.7.7.7.7.7.7.7.7.7.7.7.7.7.7.7.7.7.7.7.7.7.7.7.3.7.3.7.7.7.7.7.o.3 / r.r.r.r.r.q.l 9 f *.=.<.<.2.' / v k c f 2 * & 8.9X7X,X%.O.*.s.s.a.i.p.8.^ j v %.*.*.*.*.*.%.%.%.%.%.*.*.%.%.%.&.&.@.&.&.@.&.&.&.$.+.@.@.@.+.+.+.+.+.@.+.+.+.+.@.@.O.@.O.@.@.@.O.@.O.O.O.O.O.O.O.O.O.O.O.O.O.O.| O.O...{ { ..{ ( ) ) k k k g g g g g g g g g g g g k g k g f 3 * y c v c c v / u 3 3 q k v c v ( / c $ + o + u g g g g g g g g f f ..;.*.%...) c ) ( l l l l l l l l l l l l l l l c ",
"[ >XdXsXrXr.q.9.9.q.8.9.9.9.9.8.7.7.8.9.8.8.9.+.( ( / u u u f g g f g g f g g * . o . 9 ) v / / / / g y f f y f k f f l c u 9 f f g g k l / ( / / [ { [ [ { [ [ [ { O.O.O.O.O.O.O.O.O.@.O.O.O.O.@.@.@.@.+.@.@.@.@.@.+.+.@.+.+.+.@.@.+.+.@.@.@.O.+.O.+.*.*.<.<.<.<.<.<.<.<.<.<.<.=.=.<.=.=.<.<.=.*.<.<.=.2.=.2.3.<._ O.:X2X9X7.* * 3 2.4.:.s.2X2X2Xr.=.2.=.=.%.+.%.| [ [ ..{ [ +.<.%.2.4.4.4.4.7.7.7.7.7.7.7.8.8.8.8.8.8.8.8.8.8.8.0.9.8.8.9.8.8.0.8.8.8.8.8.q.8.8.7.8.8.8.8.7.8.8.8.8.8.7.7.8.8.8.8.8.9.9.8.8.8.8.9.8.0.9.q.9.8.8.8.q.9.q.8.9.9.8.9.9.9.8.8.8.7.8.2.<.4.+.O.+.*.@.%.*...*.7.7.8.%.g k h 3 & o r.<XwXeX3X2.<.<.%.*.<.<.2.2.2.<.*.O.+.7.8.9.8.8.9.8.8.8.9.8.8.9.7.8.8.8.8.9.8.8.7.8.7.8.8.8.7.7.7.7.7.7.7.7.7.7.7.7.7.7.7.7.7.7.7.7.7.7.7.7.7.7.7.7.7.7.7.7.7.7.7.7.7.8.7.7.7.7.7.7.7.7.7.7.7.7.7.7.7.3.7.7.7.7.7.4.4.7.3.=.{ %.@...+.O.` ( | O.O.=.:.2.2.2.[ v v k l f * * & 8.0X7X>X*.<.*.O.+.=.=.{ ] @.&.%.%.%.*.*.*.%.%.&.%.%.&.@.@.&.&.&.@.@.@.+.@.@.+.+.$.$.+.@.+.+.+.+.+.+.+.+.+.+.@.+.+.+.+.+.O.+.O.O.@.@.+.O.O.O.O.O.O.O.O.O.O.O.O...O.O.O.O.O.....[ [ / / l k g k g g g k g g g g g k g g g g g g f f u u y u u u f y y y u k c c v v v l $ + o + u g g g g g g g g g f ..*.*.@.' ' ' [ / l l l l l l l l l l l l l l l l ",
"[ >XfXhXtXq.q.9.9.q.8.9.8.9.9.8.8.8.9.8.8.8.8.+.( ) / u u u f g g f g f g g g & . o . e ) v v ( v / g y u f f 9 & 2 9 3 3 y f g g g g k k / ( / / _ [ [ [ { [ [ [ [ O.O.O.O.O.O.O.O.O.O.O.O.+.@.@.@.@.@.+.@.+.+.+.@.@.@.@.+.+.@.@.$.@.+.+.+.@.@.+.@.$.=.<.<.*.=.<.<.<.<.<.<.<.=.=.=.=.=.=.<.=.=.<.2.( y f g f f O.@.*.;X3X9X7.& * 3 2.4.:.s.2X3X2Xr.=.2.<.2.<.<.<.[ y d f u q ( 2.2.2.4.4.7.7.7.7.7.7.7.7.7.8.8.8.8.8.8.7.7.8.8.0.q.8.0.8.7.0.9.8.8.8.8.7.8.9.9.8.8.7.7.7.7.8.8.8.8.7.8.7.7.8.8.8.8.8.8.8.8.q.9.0.8.8.8.8.7.9.q.8.8.8.q.q.9.9.9.8.9.9.9.8.8.8.9.7.8.7.4.g q y u 9 k 4.7.7.4.7.7.%.g k g 2 & o r.2XeXeX2X*.2.4.7.<.l g l g f f 2.7.7.3.8.9.9.8.8.9.8.8.9.8.8.8.7.9.9.8.9.8.8.8.7.9.7.7.8.8.8.8.7.7.7.7.7.7.7.7.7.7.7.7.7.7.7.7.7.7.7.7.7.7.7.7.7.7.3.3.7.7.7.7.7.7.7.3.8.7.7.7.7.7.7.3.7.7.7.7.7.7.3.3.7.7.7.6.7.4.4.3.4.6.7.2.l y g k q 9 ) 4.<.=.2.2.<.2.[ v c k l u * * & 8.0X7X,X4.4.&.v h v / k f { <.*.%.%.*.*.*.%.%.%.&.@.&.@.@.%.&.%.&.&.&.@.+.+.+.$.$.+.+.+.@.+.$.+.+.+.@.+.@.+.+.+.+.@.+.+.O.+.O.O.@.O.+.O.O.O.O.O.O.O.O.O.O.O.O.{ O.O.O.O.O...{ { [ / / l l l l g g g k g g g g g g g g g f g g g f y * & = 3 * = y u u y g v v v c v k o $ + + u g g g g g g g g g f [ %.%.+.[ [ { ) [ ( l l l l l l l l l l l l l l c ",
"{ s.sXfXeX9.q.q.9.9.8.9.9.8.9.8.8.7.8.8.8.8.9.+.( ( / u u u f g g f f f f g g & o o . e ) v v / v / g u u f f q 2 3 9 3 2 u k g f g g g k / ( / / [ { [ [ { [ { { { O.O.O.O.O.O.O.O.O.O.O.@.@.@.O.@.@.@.+.@.+.+.@.@.@.O.+.+.+.@.+.+.+.+.+.+.+.@.+.@.+.@.+.+.+.*.<.<.=.=.<.<.=.=.=.=.=.<.<.=.=.=.=.2.) y l l g g +.*.=.>X4X9X7.* * 3 2.4.2.a.3X3X2Xr.<.2.<.2.<.<.<.{ y f f d l +.2.4.2.4.4.7.7.7.7.7.7.7.8.7.7.8.8.8.8.8.8.7.8.8.7.8.q.q.0.0.8.7.8.8.8.8.8.8.7.7.8.8.9.8.8.7.8.8.8.8.8.8.0.7.8.8.8.8.8.9.9.9.8.9.9.9.8.9.9.9.0.9.9.9.9.9.9.q.9.8.9.9.9.q.q.8.7.7.7.9.7.7.l e u y y l 4.7.7.2.4.6.%.f k h 2 & . r.2XwXeX3X<.2.2.4.4.l f h f f l 1.7.7.7.8.7.7.7.8.7.8.7.7.7.8.9.9.9.9.9.8.8.8.7.8.9.9.7.8.7.7.7.7.7.7.7.7.7.7.7.7.7.7.7.7.7.7.7.7.7.7.7.7.7.7.7.7.7.7.7.7.7.7.7.7.7.7.7.7.7.7.7.7.7.7.7.7.7.7.7.7.7.7.4.7.6.7.7.7.7.4.4.4.4.4.4.( y g g u u ( 2.<.=.2.2.=.2.' v c k l u * * & 8.9X8X,X6.7.=.( g g c l l ..=.%.%.*.*.*.%.%.&.%.&.&.%.@.%.@.@.&.&.&.@.+.+.+.%.@.+.+.+.+.+.+.+.+.+.+.+.+.+.+.+.+.+.@.+.+.+.+.@.@.@.+.+.O.O.O.@.O.O.O.O.O.O.O.{ O.O.O.O.O.O.o.O.{ [ [ [ / / / l g g h k g g k g g g g g g g g g g g y 3 2 2 3 * 3 u u u u k v v c u f g + o o + u g g g g g g g g g g ..%.%.%.v / ' ( [ ( l l l l l l l l l l l l l c l ",
"[ a.tXuX9Xq.q.9.9.8.8.7.8.8.8.8.8.7.7.7.8.9.9.+.( ( v u u u f g g g f g g g g * o o . e ) v v v ( / g u u f f d d u q y y f g g f g k g k / ( / ( [ { [ [ { [ } } } O.O.O.+.O.O.O.O.O.O.@.@.O.@.+.@.@.O.@.+.@.@.@.+.+.+.+.+.+.+.@.+.@.@.+.+.+.+.+.@.@.O.+.@.@.=.<.=.<.=.<.<.<.=.<.=.<.=.=.=.=.=.=.=.%.[ o.{ / _ *.*.2.>X4X9X8.* * 3 2.4.2.a.3X3X3Xr.<.2.2.2.<.=.<.&.[ ' [ / ( 2.4.2.4.7.7.7.7.7.7.7.7.7.7.7.8.8.7.8.8.7.7.7.7.8.8.8.9.8.0.9.8.8.0.9.9.9.8.8.7.8.9.0.8.8.8.7.8.8.8.8.8.8.8.0.8.8.8.0.8.7.9.8.9.9.9.9.9.8.9.9.9.q.9.9.q.q.q.9.9.9.q.9.9.9.q.9.8.7.7.7.7.4.<.%.+.O.O.%.2.2.4.7.7.4.%.u k k 2 & . r.3XeXrX4X<.4.4.2.4.#.| O.[ ( { 4.7.7.7.7.7.7.8.7.7.8.9.8.9.9.7.9.8.9.9.8.8.8.8.9.8.9.9.9.7.7.7.7.7.7.7.7.7.7.7.7.7.7.7.7.7.7.7.7.7.7.7.7.7.7.7.7.7.7.7.7.7.7.7.7.7.7.7.8.8.7.7.7.7.7.7.7.7.7.7.7.7.7.7.7.7.7.7.4.6.4.4.4.4.2.4.2...) ( O.*.=.2.2.2.2.2.2.2.' c c k l u * * & 6.9X8X1X4.2.<.O./ ( [ [ O.@.%.%.*.%.%.%.*.*.%.*.%.&.%.%.@.@.%.#.@.@.@.+.+.+.+.@.@.+.+.+.+.+.+.+.@.+.+.+.+.+.+.+.+.+.@.@.+.@.+.+.@.@.@.+.@.O.O.O.O.O.O.O.O.O.O.O.O.O.O.o...O...{ { [ [ ( / ) l g l k g g g g g g g g g g g g g g f f y 2 = 3 = 9 f f g g g c v k 3 3 3 + o o + u g g g g f g g g g f ..%.%.+.c l c / ( c l l l l l l l l l l l l l l c ",
"[ a.eXuX9X8.q.8.8.8.8.8.9.9.8.8.8.8.8.8.8.9.9.@./ / / u u u f f g g f g g g g * . o . 9 ( c v v ( / k f f f u u f f f f f f f g g g k g k / ( / ( [ { [ [ [ { o.| | o.O.O.O.O.O.O.O.O.O.@.@.O.@.O.O.@.@.@.+.@.@.@.+.@.@.@.+.+.+.@.+.@.+.+.+.+.+.@.@.O.@.@.@.$.*.=.=.=.=.=.=.<.=.=.=.=.=.=.<.=.=.=.=.<.1.1.4.4.1.1.*.2.2X4X9X8.* * 3 2.4.2.s.3X4X3Xy.<.2.2.2.2.2.2.2.2.4.2.2.2.2.2.<.7.7.7.7.7.7.7.7.8.7.7.7.7.7.7.7.8.8.8.8.8.8.8.8.8.8.9.9.8.8.q.8.q.8.8.8.7.8.9.8.8.8.8.8.8.7.7.7.8.8.8.8.8.8.7.0.8.8.7.8.8.8.9.9.9.8.9.9.9.q.9.9.q.q.9.9.9.9.q.q.9.9.9.8.9.8.7.7.7.7.7.7.3.7.7.7.7.4.7.7.7.7.*.u h g 2 + . r.2XwXeX2X2.2.2.4.7.7.7.7.4.7.3.4.4.6.7.7.7.7.7.7.7.8.9.9.9.7.9.9.9.9.9.9.9.7.8.9.8.8.9.8.7.7.7.7.7.7.7.7.7.7.7.7.7.7.7.7.7.7.7.7.7.7.7.7.7.7.7.7.7.7.7.7.7.7.7.7.7.7.7.7.8.7.7.7.7.7.7.7.7.7.3.7.7.7.7.7.7.4.4.7.6.4.6.4.4.4.2.4.7.1.2.4.7.4.2.2.2.2.2.=.<.' c c g k u * * & 7.9X8X,X2.2.4.2.*.<.<.=.<.=.%.%.%.%.%.*.%.*.%.*.*.%.%.%.%.%.#.&.%.@.@.+.+.@.+.@.+.+.@.+.+.+.@.+.+.+.+.@.+.+.+.+.+.@.@.@.@.+.+.@.@.@.@.@.@.@.O.O.O.O.O.O.O.O.O.O.o.......{ { { ..{ [ [ ( ) ( l k l g g g g g g g g g g g g g g g g g f q 9 u f f f f g g g c c l y y 3 + + + + u g g g k k g g g g f ..%.%.@.c l l c ( c l v l l l l l l l l l l l l l ",
"[ a.eXwX9X7.9.8.7.9.9.8.9.8.8.7.8.8.9.8.8.8.9.@.( ( / u u f f g g g g g f g g * o o . 3 ( c c c c / k f f f f f f f f f f f f g g g l g l / ( ( ( [ { [ [ { { | | | } O.O.O.O.O.O.O.O.O.O.@.@.@.O.O.@.@.@.@.@.@.@.@.@.@.+.@.@.@.@.&.&.@.+.+.+.+.@.@.O.@.@.@.+.*.<.=.=.=.<.<.=.=.=.=.=.<.=.=.=.=.=.=.:.<.1.1.4.2.1.1.3.,X4X9X7.* * 3 2.4.2.a.3X3X3Xy.2.4.2.2.2.2.2.2.2.2.2.2.2.2.2.4.2.4.4.7.7.7.7.7.8.7.7.7.7.8.7.7.8.7.7.8.7.8.0.7.8.8.8.q.8.q.9.8.0.8.8.8.8.8.7.7.8.8.8.8.7.8.7.7.7.7.7.8.8.8.8.7.0.7.7.8.7.8.8.9.8.9.8.9.8.9.q.9.q.9.9.q.9.q.q.q.q.q.9.9.8.7.7.7.7.7.6.7.3.7.7.7.7.7.7.4.7.4.*.u g g 2 o . e.3XtXrX2X:.4.2.7.7.7.7.7.7.7.3.4.3.7.7.7.7.7.7.8.8.7.9.9.9.8.8.9.7.8.8.8.8.8.7.8.8.8.9.8.9.7.7.8.7.7.7.7.7.7.4.7.7.7.7.7.7.4.6.7.3.7.7.4.7.7.3.7.7.7.7.7.7.7.7.7.7.7.7.7.7.7.7.8.7.7.7.7.7.7.3.7.4.7.7.6.7.4.4.7.4.4.6.4.4.4.2.4.4.2.4.4.4.2.2.2.2.2.:.=.2.' c l f k y & & @ 6.9X8X1X:.2.4.=.=.<.2.<.=.=.*.%.*.*.*.*.*.*.%.*.%.*.*.%.%.%.@.&.%.@.@.@.@.@.@.@.O.@.@.@.+.@.@.+.+.@.+.@.+.@.+.+.O.+.+.@.+.@.+.+.O.+.@.@.@.@.O.O.O.O.O.O.O.O.O.o.{ O.O.{ { { { ..[ { { [ [ [ ( l l l g g g g g g g g g g g g g g g g g g f g k k g g g g g c v k e y = + + + + u g g g k g g g g g f [ %.%.+.c l l k l l ' [ ( / l l l l l l l l l l l ",
"[ s.rXeX4X8.9.8.9.9.9.9.9.8.8.7.8.8.8.8.7.8.8.@.( ( v u u u f f g g g g f g g * o o o + * & $ f v c f f f f f g f g g f f g g g g g k k l / ( ( ( [ { [ [ { { { O.} } O.| O.O.@.O.O.@.O.@.@.@.@.+.@.@.+.+.+.+.@.+.+.+.+.+.$.&.@.&.&.&.&.@.&.@.&.+.+.+.O.@.@.O.*.=.=.*.*.=.=.=.=.=.=.=.=.=.=.=.=.=.=.=.2.2.2.4.2.2.2.6.2X3X9X8.* 2 3 2.4.2.s.3X2X3Xp.2.4.4.2.2.2.2.2.<.<.<.5.2.2.2.4.2.4.4.4.7.7.7.7.7.7.7.7.7.8.8.7.7.7.7.7.7.8.q.0.0.q.8.q.q.q.9.9.8.8.8.8.8.8.8.8.8.8.8.7.7.8.8.7.7.7.7.8.8.7.8.7.8.7.8.7.8.8.9.8.8.9.8.q.9.0.q.q.9.9.9.8.8.8.9.9.q.q.9.9.9.9.7.7.8.9.7.7.7.7.7.7.7.7.7.3.4.4.=.u k g * o   9.4XsXsX3X<.4.4.7.7.7.7.7.7.7.7.4.7.7.7.4.7.7.7.7.8.9.9.9.9.9.8.9.8.8.9.8.8.8.8.8.8.8.9.8.7.7.7.7.7.7.7.7.7.7.7.6.7.7.7.7.7.7.6.4.7.7.7.7.4.7.7.7.7.7.7.7.7.7.7.7.7.7.8.7.7.7.7.7.7.7.7.7.7.7.3.7.7.7.7.7.7.7.3.7.4.6.6.4.4.4.4.4.2.2.2.2.2.2.2.2.2.2.=.=.2.' v l f k q & & + 3.9X7X2X2.2.2.2.<.2.2.:.<.=.=.=.=.*.*.*.*.*.*.*.%.*.*.%.*.%.%.*.&.@.@.O.@.@.@.+.@.+.@.+.+.@.+.@.+.+.+.+.+.+.+.+.+.+.+.+.+.+.+.+.@.@.@.@.@.@.@.@.O.@.O.O.O.O.O.O.{ ..O.O.{ { { [ [ { { [ [ [ [ l l l g f g g g g g g k g g g g g g g g g g j k k k k g f k c c u & & & + + + + u g g g k g g g g g f [ %.%.+.l l l l l c [ ( ( [ l l l l l l l l l l c ",
"[ a.rXeX8X9.9.8.8.9.9.9.9.8.8.7.8.7.8.7.7.7.7.@.( ( / u u u f g f f g g f g g * o o o o o o $ f l l k f g g g g k g g g f f g g k k l k l ( ) ( ( [ o.{ { { | { O.O.O.O.O.O.O.O.O.O.O.@.@.@.@.@.+.@.+.+.+.+.@.+.+.+.+.@.&.%.%.%.%.&.&.&.&.@.@.&.$.+.@.+.O.O.@.&.=.=.=.=.=.=.=.=.=.*.=.=.=.=.=.=.*.*.=.:.2.2.4.4.4.2.6.3X8X9X8.* 2 q 7.7.2.s.3X4X3Xi.4.7.4.4.4.2.2.2.<.<.2.2.2.2.4.4.4.2.4.4.7.7.7.7.7.7.7.7.7.8.8.8.8.8.7.7.8.0.q.q.q.q.q.q.q.q.9.9.9.9.9.8.8.8.8.7.8.8.8.8.8.8.8.7.7.7.7.7.8.7.8.8.8.8.8.7.9.8.9.9.9.q.8.9.q.q.q.q.q.q.q.9.q.9.9.9.9.9.9.q.9.9.9.9.8.8.7.7.7.7.7.7.7.7.7.6.6.6.=.u l g * +   8.>X4X9X,X2.7.7.7.8.8.8.7.7.7.7.7.7.6.7.3.7.7.7.7.8.9.9.9.8.9.9.9.9.9.9.9.9.9.9.9.9.9.9.9.8.7.7.7.7.7.7.7.7.7.7.7.7.6.6.7.4.4.4.4.4.4.4.7.7.7.7.7.7.7.7.7.7.7.8.7.8.9.9.9.8.9.8.8.9.8.8.7.7.7.7.7.7.7.7.7.7.7.6.6.7.4.6.4.4.4.4.4.2.2.2.2.2.2.2.2.2.2.:.:.2.` l k f k q & & + 2.8X7X1X:.2.4.2.2.2.2.2.2.<.=.=.=.*.<.<.<.<.=.=.=.=.=.*.*.%.*.%.&.&.+.@.@.@.+.O.@.O.O.O.O.@.+.+.+.+.+.+.+.+.+.+.+.+.+.+.+.+.+.@.+.+.+.+.@.+.+.+.+.+.O.O.+.+.O.O.O...O.O.{ ....[ [ ..{ [ { [ ` ( c c k g k g g g g g k g k g g g g g k k g k k g k k g g g l c y & $ + + + + + u k g g g g g g g g f [ %.%.O.l l l l l l ' / [ [ l c / l l l l c l c c ",
") a.rXwX9X8.9.8.7.7.7.7.8.7.7.7.7.7.7.8.7.8.8.O.( ( / u u u f g f g g g f g g * o o o o + o $ l l l l g g g l l g g g g g g g g l l l l l ( [ [ _ { O.} } O.O.O.O.O.O.O.+.@.@.+.@.@.+.@.+.@.@.@.@.+.@.&.&.&.&.&.*.*.*.*.*.*.*.*.*.*.*.*.*.*.*.*.*.%.%.%.@.@.+.*.<.<.<.<.<.<.<.<.<.=.<.<.2.2.<.<.<.2.2.4.4.7.7.7.7.4.9.9X9XeX9.& 3 q 0.8.7.>X6X9X9Xf.6.9.7.7.7.7.7.4.4.4.7.7.7.4.7.7.7.7.7.7.7.7.0.0.0.0.0.q.q.0.q.q.q.q.q.q.r.r.r.r.r.r.r.r.r.r.r.r.r.r.r.r.q.q.q.q.q.q.q.q.q.q.q.q.q.q.q.0.0.0.0.q.q.q.q.q.q.q.r.r.r.r.q.r.r.r.r.r.r.r.r.r.r.r.r.r.r.r.r.r.r.r.r.e.r.q.q.q.q.q.9.e.q.q.q.9.8.8.3.y l g 2 $   8.p.,X>Xs.q.q.q.r.q.q.r.q.q.q.q.q.9.9.9.9.q.q.q.q.r.r.r.r.r.r.r.r.r.r.r.r.r.r.r.r.r.r.r.r.r.q.q.q.q.9.9.8.8.8.8.8.7.8.8.8.7.7.7.7.7.7.7.8.8.7.7.8.9.9.9.9.9.q.q.q.q.q.r.r.q.q.r.r.r.r.r.q.q.q.9.9.9.9.9.9.9.9.9.9.8.7.7.7.7.7.7.7.4.4.2.4.4.2.4.4.2.2.2.:.=.' l l g g 9 * & o 6.9X8X9X6.<.4.4.4.4.2.4.2.2.2.2.2.2.2.2.2.2.2.<.2.2.<.<.<.=.=.=.*.*.&.&.&.$.&.+.+.+.+.+.+.+.+.+.+.@.@.@.@.@.@.&.&.%.%.%.%.%.&.%.&.%.%.&.&.&.&.&.%.&.%.%.%.%.%.$.+.+.+.O.O.O.O.O.{ O.O.{ O.{ [ [ / / c l l k g g g g k g k k k g g k k k k k k l l k k k l l c y + $ $ + + + & f k g g g g g g g g f [ %.%.O.l l l l l l l c / ( [ { ( l l l l l l l c ",
"_ p.qXwXqX9.7.7.7.7.7.7.8.7.7.7.8.8.8.8.7.7.7.O.( ( v u u u f g g g g g g g g * o + o + + + + y y 9 e q q q y y y y y y q 9 q q q y u d f l l l l c / / / v / / / / / c c c c v c c c / / / / / / / ( ( ( ( ( ( ' ` [ [ [ [ [ [ [ { { { [ [ [ [ [ [ [ [ ) _ ( [ [ [ [ [ [ [ { { o.} } ....o.o...........O.O.O.+.%.+.%.9.r.y.+.& * 3 ,.2.2.8.r.y.y.9.*.*.*.%.%.+.+.O.O.O.O...O.O.O.O.O.O.+.+.+.+.+.@.#.%.%.%.%.=.=.=.=.=.=.=.=.=.=.=.=.*.*.=.=.=.*.*.%.%.%.#.%.#.%.#.@.@.#.#.@.#.#.#.#.%.%.%.%.%.*.=.=.=.=.<.=.=.2.2.2.2.2.2.2.2.2.2.2.2.2.2.2.2.2.2.2.2.2.2.<.<.<.=.*.*.%.%.+.+.@.@.O.+.O.O.O.O.{ y f q 2 o o k g _ [ [ [ [ [ [ [ [ [ [ [ [ [ [ [ [ { { { { o.O.O.+.+.@.#.#.#.#.#.#.%.%.%.#.%.%.#.#.%.%.%.+.+.+.O.O.O.o.....{ { { ..{ [ ....{ { ........O.O.O.O.O.O.+.+.+.+.+.@.@.@.@.@.@.#.#.@.@.@.#.%.%.*.%.%.*.*.*.*.%.*.*.%.@.@.+.+.+.O.+.O.O.O.O.O.O.O.O.@.O.+.O.O.+./ f l f g q & & @ ..6.2.2.[ / ( ( ( ( ( ( ( ( ( ( ( ( ( _ [ [ _ [ [ [ [ [ [ _ _ ) ( ( ( ( ( / / / / / / c v / / / / / / / / / / / ( / ( ( ( ( [ [ [ [ [ ) ` ' ` ( ) ) ) ) ) ) ' ( ( ( ) / c / / v c c / l l l l l k k g f f y y u f y u y y y y y y y y u u u y u u u y u u u g 3 + + $ + $ $ & u g g g g g g g g g f [ %.%.+.l l l l l l l l l l [ X.[ l l l l l l l c ",
") r.9XrXwX9.7.4.7.7.7.7.9.7.8.7.7.7.8.8.7.8.7...) / / u u u g g g g g g g g g * o + o o $ + + + & & & & * * * * * * * * & & & & & & * * * = = 3 = 3 3 3 9 9 3 9 9 3 9 3 3 3 3 3 3 3 3 3 3 3 3 3 3 3 3 3 3 3 9 9 9 9 9 9 e e e e e e y q q q q q e q q 9 3 3 3 3 3 3 2 3 * * * * = = = * * * * = * * 2 3 3 9 9 3 9 9 9 3 3 9 * * & 3 9 y y y y y q q y q 9 9 9 9 9 3 3 = = = * * = * = = = * = = * * * * = 3 3 3 3 9 9 9 q q q q q q q q q q q q q q q 0 q 3 3 2 2 2 2 2 2 * = = * * * 2 * 2 3 2 2 3 3 3 9 3 9 q q q q q q q q y y q q q q 9 9 9 3 3 9 3 9 9 2 2 2 2 = 3 2 2 2 & & * & & & + & & o & + + + o o @ 2 3 3 * * * 3 * * * * * * * * * * & & * * * * * * 3 3 3 3 3 3 9 9 q q q q q q q q q q q q q q q 9 3 2 * * * * * * * * * * * * & * * 3 2 2 2 3 3 3 9 q q q q q y y q q y q q q q q q 0 9 3 3 9 9 9 9 9 9 9 9 9 3 9 9 0 3 3 2 2 2 * * 2 2 2 2 2 2 2 3 2 2 2 = = = * = & + o + * 3 3 * * = * 2 9 9 q 9 q q 9 9 e 9 0 q q 9 9 9 q q q q q q q q 3 3 3 3 3 3 2 2 2 2 * * * * * * * * * * * * * * * * 2 2 3 9 9 9 9 9 9 9 9 9 9 9 9 q q q 9 9 9 9 3 3 3 3 * * 2 * * * * & & & & & & * * & & & & & * & $ % & & & & & % & & & % & & & % & & & % & % + o + + $ $ + u k g g k g g g k g f [ %.%.@.l l l l l l l l k l ....c / / l l l l l l ",
"( r.9XrX9X9.7.4.7.8.7.7.7.7.7.7.7.7.7.7.7.7.7.O.( ( / u u u f g f f g g f f g * o + + + + + + $ & & & & & & & & & * * & & & & & & * * = = = = = 3 3 3 9 9 3 9 3 9 9 9 3 3 3 9 3 3 3 3 2 3 3 3 3 3 3 3 3 3 3 9 9 9 9 9 9 e e e e e y y y y y y y y y e q q q 9 q q 9 9 3 3 2 2 2 3 3 3 3 3 2 2 2 2 2 3 3 3 9 3 3 3 3 9 3 3 9 2 & $ 3 u u y y y y y q q e e e 9 e 9 9 3 3 = = = = * * * = = * = = * * * * 2 = 3 2 3 3 3 9 q q q q q q q q q q q q q q q q q 3 3 3 2 3 2 2 2 * * = * * 2 2 * * = 2 2 3 3 3 0 q 3 q 9 q 9 q q q q q e e y y y q 9 e e 9 q q 9 9 9 9 q 9 9 3 3 3 3 3 2 2 * * & $ & & $ $ @ & @ o   * 3 3 2 2 2 3 3 3 3 3 = 3 2 = 2 * * * * * = 2 2 2 3 3 3 3 3 9 q q q q q q q q q q q q q q q q q q 0 3 3 2 2 2 * * * * * * * * * * * * * * * 3 3 3 q q q q q q q y q y y y y y y y q y q q q 9 9 9 9 9 9 9 9 9 q q q 9 9 9 9 3 3 3 2 2 2 * 2 2 2 2 2 2 2 2 * * = * = * = & . . 2 3 3 = * & = 3 3 9 9 9 9 9 9 9 3 9 9 9 q 9 3 q q q y e q q q q q 3 3 3 3 3 3 3 3 3 2 2 * 2 * * * * * * * * = * 2 2 2 3 3 3 3 3 9 9 9 q 9 9 9 9 9 q 9 9 9 9 9 q 9 9 3 3 3 3 2 2 * * * & & & & & & & & & & & & & & & & & & & & & & & & & & & & & & & & & & & & $ + $ $ o + + & u g g g g g g g g g f [ %.%.+.l l l l l l l l l l v c ( [ [ v l l l l c ",
"( y.9XwX9X8.7.6.7.7.7.7.6.6.7.7.7.7.7.7.7.7.7.O.( ( / u u u f g f f g g f f g = o + + + $ o o $ & @ # @ @ @ @ @ @ @ & @ @ @ @ & & & & & 2 2 = = 3 3 9 e 9 9 9 9 9 9 9 9 9 9 9 9 9 3 3 2 2 2 2 = * * * * * * 3 2 3 3 3 3 9 e e y y y u y y y y y y y y y y y y q q q 9 3 3 2 2 2 * 2 = * * 2 * 2 2 2 2 2 2 2 2 2 3 3 3 = = 9 * & & = y y y y y y e e e e y e 9 9 9 9 3 3 * 2 * * * # # # # # * * # # * * * * 2 2 3 5 9 q q q y y q y q y q y y y y y y y e 3 3 3 2 2 * 2 * * * * * * 2 2 * * * * 3 2 9 3 q q q q q q q q y y y y y y y y y y e 3 3 0 3 3 9 3 3 3 3 3 3 3 3 2 2 2 2 2 2 1 & % O $ $ + $ & o o . o 3 9 9 3 2 3 & * * 2 2 2 2 & # 1 2 1 2 2 2 2 2 2 2 2 3 3 0 0 y y y y y y y q q y y y d y d u y y y q 3 2 2 2 2 & & # # # # # # # # # 2 * 2 2 2 9 q q q y y y y d d y d d d f d d f y y q 0 0 0 9 0 3 3 0 0 3 3 3 0 3 9 0 5 5 5 2 3 = 3 2 2 2 2 2 2 2 2 2 3 2 2 * 2 2 3 & . o = = & * & # 1 2 2 2 3 3 3 3 2 3 3 3 3 9 9 3 3 0 y y y y y y q q q q q q q q q q q q 3 3 2 2 2 * * * * * * * * * * 2 * 2 2 2 2 9 0 9 9 q 9 9 q q q q q q q q q q q 9 9 9 3 3 3 2 2 2 & & @ @ & @ @ @ & @ & @ & & * & & & & % & & & & & & & & & & & & & & & & % & + $ $ o o o $ u g g g g g g g k g d [ %.%.+.l l l l l l l l l l l c ' ' [ / l l l c l ",
"( y.qXrX9X7.7.4.7.7.6.7.4.7.7.7.7.7.7.7.4.7.7.O.( ( v u u u f g f f g g g g g = + $ $ $ + + $ % & : ; ; ; ; ; > > > > > ; ; ; , ; ; ; ; ; ; = & % & & % & & & & & & & % & % & % & $ @ 7 ; : : : : : : : : ; ; , , , , t t r r r e 9 3 3 3 3 3 3 3 3 3 3 2 = * = = = = & 2 - : : : : : : ; ; , , > > > > , , p p p s t 2 9 e 3 & & * = * * = = = = = = * * * = = = * & 2 , , p p p , , , , , , > > , > , , , , p > , # & 2 3 2 2 2 2 3 3 3 2 2 3 2 2 3 * 2 9 p , p t p , , : ; ; ; , , , : : : r ; ; & & = 3 2 2 3 3 3 3 3 3 3 3 3 3 3 3 9 2 9 M b b M b b b b b b M b b b b b b M s p s < @ $ O $ + + + o . . o & & + & & + & * : , < p , , > , > > > > > , , , , , , , p , 3 2 3 3 2 2 2 2 2 3 3 3 2 2 2 * = = * 2 t M s s s < < > > > > > > > > , , , , , : # * 2 * * 2 2 3 3 3 3 3 3 3 3 3 3 * * 3 9 , , < < < > > < < < < < < < < < < s s < 9 * = = * * * * * * * * * * & & & & & $ . o 3 = & * : > < < b b b b b b b b b b < < < < s < 9 3 3 3 2 * * 2 2 * * 2 * * * * * * & & * - - : : : : : : : : : : : : : : : : r : 9 * 2 2 * * * * * * * * * * * * * * * * & 2 p , , , , ; ; ; ; ; : : : : : : : : : : : = $ % & & & & & & & & & & * & & * * & & $ & $ + o o $ u k g g g g g k k g f [ %.%.+.l l l l l l l l l l l l ( ' ( c c c l l c ",
"( i.qXwX0X9.7.7.7.7.7.7.7.7.8.7.7.7.7.7.6.4.2.{ ( ( / u u u f g f f g g g g k = o $ + $ $ + $ & % F A A A A Z Z Z A S A A D A Z A A A A Z G ;   O $ + $ $ $ $ $ $ $ $ $ $ $ $ $ + + X S h.J K K J J K K K K K j.j.h.h.h.j.j.j.l.< o $ $ $ $ + + + $ $ $ $ $ + + + O o o X D g.K K K K h.h.K K h.h.h.h.h.h.h.h.h.g.l.K 2 2 3 = + + & $ @ @ & & & $ $ $ + $ + + + + + @ t v.k.x.g.x.g.h.h.h.h.h.h.h.h.h.h.h.g.h.x.l.H X + o + + + + + + + + + $ $ + + + + X M Z.g.x.x.x.h.h.h.h.h.h.h.h.h.h.h.h.g.l.g.o o $ $ $ $ $ & @ @ & & $ & $ $ & & + @ 9 v.l.v.n.n.l.l.l.l.l.l.l.l.l.g.g.g.g.h.j.g.h.= & = 3 3 = = o o o + & & & * = & & , h.h.g.g.h.h.h.h.h.h.h.h.h.h.h.h.h.j.h.h.l.l.& @ $ & + + + + + + + + + $ + $ $ + + @ I l.j.x.h.h.j.h.h.h.h.h.h.h.h.h.h.h.j.l.V X o . o o + + + o + + + + o + o $ + $ # S g.j.h.j.h.h.h.h.h.h.h.h.g.h.h.k.l.l.l.l.% o $ $ + + o + + + + + o O . . .   . O   . = = = e J g.h.h.h.h.k.k.l.l.l.k.l.l.k.l.l.k.l.l.% & & & $ $ & & & $ $ $ $ $ o + o + .   < h.G G K G G G G G K G K K K K K K K h.g., X $ & & & & & @ & & & $ & $ + & $ + $ & * J g.j.j.j.j.K K K K K K K K K L h.L K K h.< X $ & & & & & % & % % % % & * & % % & + & $ o $ $ & u g g g g g g g k g f ..%.%.+.l l l l l l l l l l l l l c l / / l c l v ",
"] r.qXqX9X9.7.7.7.4.7.7.7.7.7.7.7.7.7.4.6.6.2.{ ( ( / u u f f g f g g g g g g = o $ + $ $ o + & - m A D D D A S S S S S S S S S V V S C C S > o $ O + $ $ $ $ $ $ & $ $ $ $ & $ $ o + m K J J J G J G G G J J K K h.h.h.j.j.c.l.< @ % $ & $ $ $ & $ $ $ $ & + $ $ $ + $ # C h.J K K K K K K K K K j.K j.K K j.k.h.k.x.q 9 3 = + + $ & + @ @ + + + + + + + + $ + $ % & p h.k.x.j.x.j.K j.K K K K K j.j.j.j.j.x.W c.R X o o $ $ & @ & + + & $ $ + & & & $ # I l.x.v.x.x.x.L L x.j.x.x.j.j.j.j.j.x.j.G @ O o $ + & @ & @ & & & $ & & $ & % $ & t g.v.v.v.l.v.l.l.v.l.l.k.l.k.k.k.k.j.j.x.W h.i 3 3 e e 9 9 o o o + & & $ $ $ $ + , g.G K K K K K K K L K K L K K K K K j.x.x.h.* & $ & & @ + @ @ @ + & & $ & & & % $ & I g.x.x.K K K J K J K K K K K K G K W j.C X o o o o + & + $ + + + + + $ + $ $ $ * K h.K x.j.K j.j.j.j.j.j.j.k.k.k.k.k.v.v.k.- & $ + $ o o + + + + + + + . . . . o .     & & 2 p G K K K j.j.j.h.h.h.h.j.h.j.j.j.j.x.W K * & $ & & & & & & & + & $ $ + + o o o X < h.W W K K K K K K K K K K K K K K K L h., X $ $ & & & & & @ & & & & $ @ & & $ $ @ + C K W K K K K K K K K K K K L L L L L W L < X $ $ & & & & % % & & & & & & $ & % % O $ $ o $ $ & f g g g g g g g l g f [ %.%.+.c l l l l l l l l l l l l l l v l l c l c ",
"' i.qXrXwX6.4.4.7.7.2.7.7.4.4.2.4.7.4.4.7.4.7.O.( ( / u u u f f g g g g f g g * o $ + & & & - , : m D D D D A Z Z Z S S C S S S V S S S S D b X $ $ $ + $ $ $ $ + $ $ $ + & & o + o @ b J W F H H J J J G G J J K L h.j.j.l.m.A.M @ % & & & & & & & & & & & & & % o + o X m h.K K K K K K K K K K K K j.K K c.l.F I I 9 3 9 3 + + & & & * * & * * & & $ & & * & & & @ : x.v.x.x.x.x.x.x.K K K K K K K K j.x.v.v.W I X o o $ + + + + & + + @ @ @ & & + & # I Z.v.x.v.x.x.x.x.x.W W W x.x.x.x.x.c.v.D @ o o o + + & + & & & & & & & & * & & # : x.x.x.x.v.v.v.v.v.v.l.k.l.l.l.l.l.v.l.l.S > e = = 3 9 9 9 o o o $ & & $ @ X X X : l.j.j.j.x.x.x.j.j.L K L K K K K K K j.W J H = o & & & & & & & & & @ @ & & * * @ & # I l.x.x.W K K K G J G K K K G K J W W K C   o o o + o o + + + + o + @ & & + + + & G j.K L x.j.h.h.h.j.j.j.j.k.k.k.l.v.M.S.n.= @ % % $ $ + & & $ $ $ & + + $ + o o .     = e 9 p G J K K W j.j.j.j.K j.j.h.h.j.k.l.m.v.W @ & & & $ & & & & & & & + + $ & $ o o X < j.W J W W W K K K W K K K K K K L K K v.,   $ $ $ + & + & & + & @ & & & & * & r I C W W W W K K K K K K K J K K L L L j.j.j.j.< o $ $ & % & $ & & & & & & & & & + & + @ $ . O $ $ & f g g g h g g g k g f [ %.%.+.l l l l l l l l l l l l l l l l l l c l c ",
"( q.4X0X8Xe.r.w.7.7.2.7.7.4.2.2.2.7.4.6.4.7.7.| ( ( v u u u f g g f f g g g g * + + + $ $ o b F Z A D A A A Z Z Z Z Z Z Z V V Z V V S S > > : + % & $ * 3 3 3 3 9 3 3 2 2 2 2 * b W S W v.v.c.c.c.c.k.j.c.j.j.L j.j.h.k.n.L R x.s * 9 9 3 9 9 9 9 9 9 9 e 9 e 3 3 s M < t R v.j.x.x.j.j.j.j.j.j.j.j.k.k.k.v.l.Z.I 1 3 9 9 u = + + @ e y r u u r y e e e y y r 3 e T E R n.m.n.v.n.v.n.v.v.v.c.c.v.v.v.c.v.v.v.m.R M & * 2 = * = * * 2 3 3 2 3 9 2 9 M P M W J.N.m.m.n.v.v.v.v.x.v.v.v.x.v.x.v.h.n.E @ & * * * * * * = = = = 3 9 q 9 3 i N M R b.V.N.m.m.m.m.m.m.m.M.m.m.m.l.m.v.k.m.H.E 3 e e e 9 3 9 9 o o o @ 7 = & 3 T I I E n.m.n.n.n.n.n.n.n.v.v.n.k.v.v.v.c.v.m.Z.R , e = 9 q 9 9 9 9 9 9 9 9 9 y 9 3 a I I I b.F.D.S.S.M.m.m.v.n.v.n.v.v.j.c.x.v.n.S : * * 3 2 = 3 = = = = = * 3 3 2 7 M M M M W n.b.v.v.v.v.v.v.n.l.l.l.l.l.n.n.n.W c.! e 3 9 9 9 3 3 3 3 3 3 = = = = 3 t , : o o   e p i s n.S.N.M.S.D.S.A.A.A.A.A.A.A.M.m.x.x.W I 9 3 9 9 3 3 3 3 3 3 9 3 3 9 3 3 2 p M M R v.x.x.x.x.x.x.x.j.j.x.L j.L K K v.j.b b r * * 3 3 3 = = 3 3 = 3 3 3 3 2 2 & 1 e Z.A.n.b.v.j.v.v.k.j.k.k.k.L j.j.j.j.L m b < b : & $ & & $ & & & & & & % % * & @ : C < : < ; . + . & f g g g k g g k k g f [ %.%.+.l l l l l l l l l l l l l l l l l l c c v ",
"( 7.3X3X>Xa.>Xt.7.4.7.6.7.4.4.4.2.4.4.2.2.6.7.[ ( ( v f u f f f f g g g g g g * o $ + : b ; m A A D A D D S S S S V S S S S V S S C C V $ @ & & & + & = 9 9 9 9 9 9 9 9 9 2 2 9 C l.G.A.F.A.A.D.A.D.D.D.S.S.M.A.A.A.D.D.F.P 1 e e e 9 9 9 9 9 9 e 9 9 9 u e e e p F.G.U.G.G.F.F.P.U.U.P.P.P.P.F.P.F.F.F.A.z.l.z.W 3 9 9 9 y = + + @ 9 r r y y u u e u u y t r q u /.{.'.`.}.^.R.|.R.^.R.R.^.T.R.R.R.U.^.~.D.M M i t r e e y y e y u y u i u i t 5 U OX XOX XXX|. XXX].].'.|.^.R.R.Y.R.R.^.U.Z.I s a y 9 9 e e e e e e e e y u u e e q >. X]. X X+X+X+X+X+X+X+X+XXX+X].].{.].].].G.p N a y r e e 9 9 9 9 o o o & 3 & 1 t  X]. X|.|.|.|.|.|.|.'.|.'.`.'.R.R.R.I.E.R.G.E c.T 9 r e e y y e e e y e e u u u r 3 ! {.[.+X X X X X X'.|.`.R.R.R.^.R.T.Y.U.Z.g.m.T 3 3 9 9 e 9 e 9 9 9 e e e e e 5 N `._.].].].|. X]. X].].].].].'.'.].'.`.^.|.Y.t 0 r u y e e 9 9 9 9 9 9 9 e e = 9 r m R p X .   = p t N U.R.^.^.R.R.R.R.R.R.R.R.T.Y.R.Y.t 3 y y i y y e e e e e e e e y e y e 2 9 N.G.U.F.F.F.F.F.F.F.F.F.D.A.S.A.A.A.D.m.l.W s 3 e e 9 9 e e 9 e e e e e y y e 9 y T I P m.A.F.F.F.A.A.A.S.Z.M.M.m.m.m.n.n.k.x.% # @ @ * & & & % $ $ $ $ & & & * * % 3 M A J R F G C o + O & g g g g k g k k k g f [ %.*.+.l l l l l l l l l l l l l l l l l l c c / ",
"/ 9.4X9X3X9.r.8.4.7.7.2.2.2.4.6.2.2.2.2.2.4.7.{ ( / v u u f f g g f f g g g k = + & + < K D F D D A D A A S S S S S S S S S S S C S V S % + $ $ + & & = 3 9 9 9 3 9 9 3 3 0 T P s b.F.A.A.F.A.D.D.D.D.S.M.D.M.D.D.S.P.D.L.P 4 e 9 e e e 3 9 9 9 9 9 e e 9 9 = 5 q n.U.!.U.U.U.U.F.P.P.P.F.F.P.P.P.F.P.W.P.j.: p M e 3 e 9 e = + + & e e r r e y e r u y e y r 8 q J.].|.'.|.|.}.|.^.^.^.^.^.(.^.^.~.^.).~.J.2 2 9 e e e 9 9 e e e y y u i u t q 4 x |. XOXXX+X X X+X X.X X.X|.|.|.`.'.E.oX`.E 4 3 9 9 9 9 9 9 9 q 9 e e e y y y 3 w 6 ! {.OX#X X#X+XXX XXXOXXX X X X X XXX XXX[.Y.0 5 r e e y e 9 e e 9 o o o + & # 1 e }.|.|.|.|.|.|.|.|.|.|.|.R.R.R.R.R.R.T.(.T.F.2 9 r e r e e e e e e e e y y y u e y w Q {..X.X X X|.|.|.'.|.^.^.R.R.R.T.U./.^.b.= r t r e e 9 9 9 9 9 9 9 9 e 3 e 2 4 4 S.'.|.[.'.'. X].].]. X X'. X'.'. X X.XoXE.R.s e e r u u e e e e e e e 9 e - = q M m C : X     = t f x U.R.^.^.^.^.R.R.R.R.R.R.T.R.T.T.a 9 e 9 y r y e e e e e e e y y y e 3 5 1 x.U.!.U.F.U.U.U.U.U.P.P.F.F.A.A.F.F.F.M.n.: 3 : = 9 9 3 3 9 9 e e e e e e e e 5 y J.Y.H.H.F.G.G.G.A.A.S.Z.M.M.M.m.m.M.n.m.k.W - % O & = & & * & $ % & & & & & & & & = S F R R F H C o O . + f g g g k k g k k g f [ %.*.+.l l l l l l l l l l l l l l l l l l l c / ",
"v 9.3X8X4X4.7.7.4.2.7.2.7.6.4.4.2.2.4.4.7.6.7.| ( / v u u f g f g f g g g g k * + $ + ; F D D D A A A A A S S S S S S S S V S V V m m m % $ % & @ & & = 9 9 3 9 9 3 9 3 3 a F.G.D.F.A.A.A.D.D.D.S.D.S.S.N.D.D.D.D.M.m.m.N.M 3 e e y e e 9 q q 9 9 e e = = i P I P N.U.!.U.U.U.H.F.P.P.F.F.P.P.P.P.F.W.P.I.! 1 3 3 = 3 9 9 e = o + + e y y r r e e u u e q U ~.D.J.|.|.|.|.|.|.|.}.^.^.^.^.^.^.^.^.~.}.|.'.!.0 3 3 9 e e 9 9 e e e y y u r r a V.! ! .X.XXXXX+X X X+X X X|.|.|.|.|.|.|.|.|.'.T 1 = - e 9 q e e 9 e e e e e r e u i a a C. XOXOX XOXXX XOX X.X.X X X+X+XXX X{.$X{.'.u e e y y y y e e e 9 + o o & Q ~ Q B.}.|.|.}.|.|.|.|.|.^.^.}.^.^.(.R.R.R.R.'._.T.4 3 - 9 y u u y u y r y e u u e i q q 4 Q +X.X|. X X}.|.|.}.}.^.^.^.^.R.T.^.~.T.b.1 2 = e e y 9 e 9 e e e 9 e 9 = 9 N I P J.'.}. X|._.|.'. X X|.|.|.|.|. X].'. X X[.|.i e e u u y y r y y e e e 9 : = 3 q E W E < X   X r ! Y Y ~.^.^.!.^.^.U.R.R.R.R.Y.U.Y._.~.i e e y u y y e e e y e e y y e y s N M M m.U.U.U.H.U.F.H.P.F.F.F.F.F.F.F.F.F.F.A.Q.r * = 3 3 9 9 9 e e e e e y e e e 2 1 2 m.U.U.F.H.F.G.G.D.S.S.S.Z.M.M.M.S.M.l.l.n.I * % % & * & * * & % & & & % % & * * # + m F F A F J C + . . $ g k g g k k g k k g f [ %.*.+.l l l l l l l l l l l l l l l l l l l l v ",
"/ 8.4X8X2X6.3.4.2.7.8.8.9.7.4.4.2.2.2.7.7.7.4.{ ( ( / f u f f f g g f g g k k * o $ $ > F A D A A D D D D A D S D S S S S C C V m + @ % & & % * & & & = 9 9 9 9 3 2 3 2 2 q N.P.F.F.F.A.A.A.D.D.D.D.D.S.D.M.M.D.D.n.; 9 r r 9 e q e e e 9 e e e e y e 9 2 p !._.Y.Y.U.U.U.T.U.U.U.P.U.!.!.!.P.F.U.P.D.N.F.! 2 = 3 3 3 3 9 e * o + + e y y u r y y y e e 4 Q $X[..X.X X|.|.|.'.|.|.|.|.^.^.^.^.~.^.(.b.U Q I e 9 9 9 e q y y y y y y y e e 4 x @X$X@XXX X X X X X X X.X X X.X X|.|.|.'.R.!.^.Y 3 9 e y e e e y e e e e e e 9 2 Y |.'. X XOXOXOXOXXXXXXXXXOXXXOXOXXX X XOX+XN.~ ~ T y y y y u y y y y e e + o o @ J.&X%X%X`.|.}.}.}.|.}.'.^.^.|.|.}.|.^.R.^.E.M.~ m.B.r 3 e e y y y u u u u y u u u e k C.G.F.^. X|.'.|.'.}.|.|.}.}.|.|.^.^.^.^.R.^.R.V.= 3 3 e e y 9 y e y e 9 9 e = & e }.[. X`.R.R.`.`._.].'.|.|.|. X|.|.'.`.'.].W N P N t t u u y e y y y y e r e 3 3 2 1 = S W W b X   X p |.T.!.U.~.^.~.^.^.^.R.R.R.^.'.b.y x s i r y y y y y y y y y y y y e 7 9 V._.`.}.Y.U.U.U.U.U.H.U.U.F.U.U.P.F.F.F.U.F.R M P r = 3 9 9 9 9 e e e e e e y e 9 x V.c.b.D.H.H.G.G.F.G.F.F.F.F.F.S.S.S.Z.N.M.J : t e = * * & & * * * * & & % & & & & 2 M S C F J F D H J C o . . & g k k k k k g h l g f ..%.*.O.l l l l l l l l l l l l l l l l l l l c v ",
"( 8.4X8X2X6.7.4.2.7.9.9.9.7.7.2.2.2.4.7.7.6.2.{ ( ( / f u f f g g g f f g g k = o $ $ , F A D A A D A D D D D D D S S S S S C S m & & $ & & & * & * & = 9 9 9 q 9 3 t I I R F.F.F.A.P.F.A.D.D.D.D.D.D.S.D.D.M.W.D.N.r 2 3 9 9 9 e 9 9 9 9 9 9 9 e e 9 k T R F.R.U.U.Y.U.U.U.U.U.U.U.H.F.F.W.F.P.W.P.R 2 e r 3 3 9 9 9 9 9 e * . o + 9 e e e r y y r e 5 1 E  X.X|. X X X X X|.}.|.|.(.^.^.^.^.(.(.|.T 1 2 2 9 3 9 e 9 9 e 9 9 9 y y y y t q P .XXX+X+XXX X X X X X X X|. X X X'.'..X[.I y s r e e e e e e 9 e e e e q 9 9 = 4 x .X.XOXOXOXOXOXXXXX+X+X X+XOXOXOX+X+XXX#X%XT 6 5 e i y y y y y y e y e e + o o @ C.-X-X=X|.|.|.|.|.|.|.`.R.^.}.}.R.`.^.R.|.'.b.1 4 3 e 3 e e 9 e e e e e y y u y e f Y ^.]. X X X|.|. X|.`.|.|.}.}.}.}.R.R.R.'.m.a N s e e e e 3 9 9 9 9 9 9 e 3 = $ # 9 Y.^.}.}.}.`.'.'.`.`.`.`.}.`.|.|.'.'.|.'.].I 1 3 e t r r y r y y r e e y y e y a P b m F E W M   . X s ).~.^.~./.~.~.~.~.^.^.^.^.~.'.b.1 5 3 y e e e y e e e q e e y e r - 7 4 V.^.).^.Y.^.Y.Y.U.H.U.U.U.H.U.U.F.F.P.D.D.G.< 1 3 = = 9 9 9 3 3 9 e e e e e e 3 2 x !.U.!.H.H.H.G.H.H.H.G.A.F.F.D.A.A.A.D.m.M.b X & & = * * * * * * * * & & & & & & * r S J J J J J F H J m o . . & g g k l g k g g k g f ..%.%.+.l l l l l l l l l l l l l l l l l l c c v ",
"( 8.4X8X3X6.2.2.2.7.7.9.9.4.4.4.4.4.2.6.7.7.2.{ ( ( / u u f f g g k g g g g g * o & $ , H A D A A A A D A A A D D S S S S S Z Z m & $ & & & * * & * * = 9 9 3 9 3 2 M I.G.F.F.D.D.A.F.A.D.F.D.D.D.D.D.A.D.D.D.N.M.V.i = = 9 9 q 9 9 e 9 3 9 q 9 e 9 3 s W.H.!.!.U.U.U.U.T.U.U.U.U.U.U.U.P.P.W.!.U.R.R 1 = 3 3 9 9 9 e 9 9 e * o o + 9 e e e y e e e Y V.V.^. X|.`. X X|. X|.|.|.|.|.|.}.^.(.^.(.(.[.~ 1 2 3 9 9 9 9 9 9 9 9 e q e e 3 s !.!.^..X.X X X X X[. X X X X X X X X X X|..X].x 4 e e e 9 e e e e e e e y e 9 q e 9 1 N oX.XOX+X XXX XXXXXXX+XOX XXXXX+X+XXX#XOX$X~ e r e r u y t y y y r y y y + o o + C.-X-X=X|.|.|.|.|.|.|.|.}.}.|.|.'.|.^.|.(.'.N.2 = = 3 e e e e y y y y y u u u e e g C.|..X X|.'.].].].|.'.|.|.|.}.|.|.`.}.(.'.b.1 5 3 9 9 e e e e y e e 9 e 9 3 y s p I /.^.}.R.`.`.'.'.`.'.'.`.}.`.'.].|. XXX|.[.! 3 e r r y y y y y u u y u u e e 9 B.!.J.W E H W b     X s ).).^././.~.~.~.^.U.~.~.^.}.'.C.3 e e y y y r y y y y y y y y q u u 9 9 N.|.^.}.Y.R.Y.R.Y.U.U.U.U.U.U.U.U.P.W.D.M.J.U = = = 3 9 9 9 e 9 e 9 e e e 9 y u 4 s W.U.!.H.H.H.G.F.F.F.F.F.F.F.D.G.F.A.D.M.M.P = % % = = * * * * = * * * & & & & & & M H F F J J H F H J m O O . + l c c v k k k g k g f ..%.%.+.l l l l l l l l l l l l l l l l l l c c v ",
"( 8.4X8X1X2.2.2.2.2.2.6.7.2.6.4.7.7.2.4.2.4.2.{ ( ( v u u f f g g k g g g g k * o & $ , F D D A A A D D A A A A A D D S S V ; - - & & & & * * = & * * = 9 9 2 3 # 1 r S.F.F.D.F.D.F.D.D.A.D.D.S.D.D.D.D.D.D.D.F.N.s 3 = 3 9 e q 9 e e e 9 e e 9 9 5 1 e F.Y.!.U.U.U.U.T.T.U.U.U.U.U.U.U.P.P.F.F.U.T.R 2 = 3 9 9 3 9 e e e e * . o + 3 q e e r 9 e 5 Q @X[. X X|.|.|.|.'.'.|.}.}.|.|.|.}.E.(.R.U.U.R.Q 2 3 9 9 e 9 y y e y e 9 9 9 3 5 u ^. X.X.XOX|. X]. X[. X X X X.X X XXX[. XXXXX{.U 3 e e e e y e e e e e e y 9 9 9 Q Q.Q./.|.|. X XOX X X XXXXXXX XXXXXXX+X X X%X$X&X! q r y u u u u u y y y y y y + o o + C.-X-X=X|.|.|.|.|.|.|.|.}.}.|.|.'.R.^.|.].{.B.9 = 3 9 e e e e y y y y u u u u 9 4 0 W.+X.X|.|.|.'.'.'.'.`.|.|.|.}.|.|.`.|.|.E.C.2 3 = 9 9 e e e y e e e 9 9 3 2 M /.}.}.^.^.R.Y.R.`.`.`.R.'.'.'.|.'.'.].'.`.'.].'.Y 9 r y u y y r y u y r y y u e e 2 B.!.J.W E R H b     X s ).~./././.!.~.^.!.U.T.R.F.~ b.T 9 e y y y y y y y y y y y u y q N C.D.F.R.^.^.R.R.R.Y.Y.U.U.U.U.U.H.U.U.U.P.P.U.W N y : = e 9 e 9 e e e e e e q e 9 a B.C.J.U.U.F.H.H.H.F.G.F.F.F.F.F.F.A.G.A.A.m.c.b.s * = = * = = * * = = * * & * & & + @ $ C J W F F F F F H J m + o . & ' [ ) v k k g k k g f [ *.*.+.l l l l l l l l l l l l l l l l l l c v v ",
"( 8.4X8X2X2.2.:.2.2.<.4.2.7.r.r.9.6.2.2.2.6.2.[ ( ( / u u f f g g g g f g k l * + & $ , F D A D A A A D A A A A A A D S S C % @ & & & * * * * * & & * 2 9 9 2 s I M R S.S.D.D.F.F.D.D.D.D.D.D.D.S.S.D.D.M.n.R I Y u 3 = 3 3 9 9 3 3 3 9 9 e e q a T R c.U.U.U.U.U.T.U.U.U.U.U.U.U.U.U.U.U.U.U.P i t e = 3 9 9 3 3 9 9 3 9 9 & . . o 3 q y e e q 9 9 R |.|.|.|.'.'.'.|.|.|.|.}.}.|.|.|.(.(.|. XT 0 q e 9 9 9 9 9 9 e e q e e y e 0 q 0 9 W.|.|. X X X X|.].]. X|. X X X X X X[.].R.|.W.t e r e e e y e e e e 9 e 9 9 = 1 ~ +XXX X X X X X X X X XOXXXXX X XOXXXOXXX|.~ ~ ~ s t r r u y y y y y y e y y y + o o + J.-X-X-X X|.`.`.`.}.`.}.^.^.^.R.`.'.T.W Q ! p 9 e e e 9 9 3 3 9 e 9 e u u y x ! ! ~ R.|.|.|.|. X'.'.'.|.`.'.|.'.|.`.|.'.R.R.|.B.3 9 9 e e e e e e e 9 9 3 9 2 1 i ^.(.^.^.}.^.`.Y.R.R.R.R.}.`.R.}.`.`.'.].N.s B a u t r u u y r e r r r y u u u q 0 2 ~ ~.D.E E R H b     X s (.~.^.~.!.!.!.!.~.!.!.'.b.1 4 9 e e e y e e e e e e y y y y 9 5 U |.'.|.^.^.R.R.R.R.R.R.Y.U.U.U.U.U.U.F.P.G.A.C.U u e - 9 e e e 9 e e 9 e e 9 3 e 4 y J.Y.U.U.U.H.H.H.H.H.F.U.U.F.F.F.G.A.F.A.M., 9 t e = = = = = = = * = * * * * * & 9 p < b D H F H J F H F H J m + . . & [ ..' v l l g k k g g ..;.;.+.l l l l l l l l l l l l l l l l l l c l v ",
"v 7.3X8X<X<.2.=.2.<.2.4.2.4.9.r.9.2.2.<.2.6.2.{ ( ( ( f u f f g g g g f g k l = o $ + , F D A D F A D D A D A A A A D D D S = & * * * * & * * = * & = = 2 3 2 P F.A.S.S.S.N.S.D.D.D.D.D.D.D.D.D.D.S.D.D.D.c.@ 1 3 e = 3 3 3 9 9 3 3 9 9 9 9 9 0 ! ^.Y.U.U.U.U.U.U.U.U.U.U.U.U.U.U.U.U.P.!.U.T.a 1 = = 3 3 9 3 3 9 3 3 3 3 9 & . . o 3 9 q 9 y U K.P.Y.|.|.`.'.'.|.'.|.}.|.|.|.}.|.|.|.|.|.|.[.Y 4 2 3 9 9 9 9 9 e 9 9 9 9 9 e 3 q V.!.W.}.|.|.|. X X X X X[.]. X X X X X XXX$XV.0 u u y r e e e y e e e e y e e e 2 4 1 ~ #X.X X X X X X XXX X XXXXXXXXXXXOXXX#X%X!.4 4 q i t u r y u y y y y r y r y y + o + * Q.-X-X=X|.|.|.|.|.|.}.^.}.}.^.R.|.|.P.2 1 9 e 9 9 9 e e e e 9 e e e e e 9 9 U +X[. X'.|.|.|.|.|.'.'.'.|.|.|.'.'.|.'.|.[.~ w j y y e e e e 9 e e e 9 y 9 9 e i r T }.^.^.Y.}.}.}.R.^.`.`.Y.`.`.`.|.|.|.|.[.b.1 e e y r e e r y y r r r y u u u N B.B.b.W.^.F.E R R E b     X s ^.~.~.!.!.!.~.!.!.~.T.R.b.1 3 e e q e y e e e e e y y y y 9 5 1 P  X(.^.^.R.Y.R.Y.Y.Y.Y.U.U.U.U.U.U.P.U.P.F s s q 9 3 9 9 9 9 9 9 9 9 9 9 9 9 9 u q r N.U.W.U.U.H.H.H.H.H.F.F.F.F.H.G.F.U.F.G.m.9 2 9 = = = = = = = = * = * * * * & # s c.j.W W W F H J J W F F K m O . . * ....../ k l g l k g g ..;.*.O.c l l l l l l l l l l l l l l l l l c l v ",
"/ 7.3X4X,X2.<.<.2.2.2.<.=.2.<.2.2.2.4.2.2.4.<.{ ( ( ( f u f f g g g f g k k k * + $ + , F D A D A A A A A A A D D D S ; , , * & * * * & * & & = & & * * * 2 1 s N.M.N.D.D.D.D.D.F.D.D.D.D.D.D.D.D.S.S.S.M.b.2 * = = 3 3 3 3 9 3 3 3 3 3 9 3 7 4 ! R.!.!.U.U.U.U.U.U.U.U.U.U.U.U.U.U.U.U.Y.R.`.s 2 = 3 9 9 9 9 9 3 3 3 3 3 3 & . . o = 9 3 9 3 x ~.{.|.|.|.'.'.'.'.|.|.|.'.'.|.|.|.|.|.|. X+X$XQ 2 3 9 9 9 9 9 9 e e e 9 q 9 3 2 q J.+X|.|.|.|.}. X X|. X X X X X X XXX X.XXX{.B.4 e e y e y e e e y e e y e e 9 q U T U J. X X X X X X X XXX X X X XXX XXXOX#XOX.X|.u e e u u t i i u u u y y u u r u y & o o : Q.-X-X#X}.|.|.|.|.|.|.^.|.|.^.(.(.E.~.y 2 = 9 9 e 9 q e e e e e y e e q 9 0 x  X.X.X|.|.'.|.|.'.'.'.'.|.|.|.'. X|.|.|.[.B.1 e q e e e e e 9 9 e e e e 3 2 M ^.Y.R.R.^.Y.R.`.`.R.^.R.R.R.R.`.`.`.}.|.].|.{.C.q r r y u u y y y y y y y u y r 0 T  X|.^.^.).F.W W F R b     X s ^.~.~.~./.!.!.~.!.D.n.F.E 2 e e e e e e y e e e y y y y y U Y P n.R.^.}.R.R.R.R.Y.Y.Y.R.R.U.U.T.U.U.W.P.P.p 1 3 = - 3 9 9 9 e e e 9 9 9 9 3 3 4 Y F.N.F.P.F.H.H.H.H.H.H.H.F.F.H.H.H.H.F.F.A.F.V.t = 3 9 9 3 = = = = = * * * * * & @ X p c.c.W W W F J J F W F H K m O O . & ..O.+.' k l l l k g f ..*.;.+.l l l l l l l l l l l l l l l l l l c l v ",
"v 7.3X7X<X2.2.<.2.5.2.<.2.<.=.2.7.2.7.9.7.7.4.[ ( ( / f u f f k k k k k k g g * o $ + , F D A D A A A D A D A D F D m # 2 & * * * * & * * & & = * * * * # 9 e R D.N.N.D.D.D.D.D.D.D.D.D.D.D.D.D.D.N.F.F.L.~ 2 = = 3 9 9 3 3 9 9 3 9 3 3 3 0 0 3 ~ Y.!.U.U.U.U.U.U.U.U.U.U.U.U.U.U.U.T.A.M s M e 3 9 9 9 3 9 e 9 9 9 9 3 9 e * . . o = 7 3 u P b M.`.}.|.|.'.`.`.'.'.|.^.'.'.|.|.|.|.'.D.Y T Q s 3 9 e 9 9 9 e q 9 9 e y q 9 3 4 2 Q..XoX|.|.|.|.|.|. X|. X[. X X X XXX[.@X$X&XC.0 e y u y y y y y y y y q e 3 3 y /.+X+X|.oX X X X X X X X X X X X X X X X X@X@X%XC.q e y u t i r r t u u t u t u y y y & o @ , J.-X-X#X}.|.}.}.|.}.^.^.(.R.^.|.'.[.Q.w 3 9 q e e 9 q e 9 e 9 e y y y y q 0 Y .X.X|. X|.|.'.'.|.'.|.'.|.|.|.].].'.].@X$XB.5 e e y y y y y q 9 9 e 9 e = 4 N `.^.^.^.^.R.R.`.R.^.^.R.R.R.R.R.R.`.`.`.F.U.J.Y y u u u y u y y u y u y y y r e 4 P `.^.^.^.}.F.W J F H b     X s /.~.~.~.~.!.~.~.~.I 1 y e e e e e e e e e e e e y y e 9 g Q.|.|.R.^.^.R.R.R.R.R.R.Y.R.R.R.Y.Y.R.T.U.U.R.E.U 5 e 9 e 9 9 e e e e e q 9 9 3 3 1 1 P I.P.F.F.F.F.H.F.H.F.G.F.F.F.F.H.U.H.A.A.R x x e 9 9 9 9 9 3 = = - = = = * * 3 3 * $ R n.c.j.W F J J J H J H H J m + O . & ..@.+.[ l l l l k k g ..*.;.+.l l l l l l l l l l l l l l l l l l l l v ",
"v 7.3X3X,X:.2.<.2.2.2.2.2.2.<.2.4.7.p.s.r.r.7.{ ( ( ( f f f g k k k k k l h k = + $ $ , F D D D D A A D D D D F F D C * * * * & & * * = * & * 3 2 * & u P x.v.m.N.M.M.N.D.D.D.D.F.D.F.D.D.D.D.D.D.D.T s M r 3 3 9 9 3 3 3 3 9 9 9 9 3 3 s B.N.M.F.U.U.U.U.U.U.U.U.U.U.U.U.U.U.U.U.~.T.D.1 1 2 3 3 9 9 9 3 9 e 9 9 9 9 3 3 e & . o + 2 9 2 a oX'.U.R.R.R.'.'.`.`.'.'.|.R.|.|.|.|.|..X[.B.1 4 2 9 9 e 9 9 9 q e 9 9 9 e e 9 9 ! J.N.^.|.|.}.|.|.|.|.|. X|. X X X X]. XXX[.C.~ V.N y u u u y y y y y y y y y q = 5 0 )..X.X X X X X X X X X.X X X X X X X X X+XT x U i y r u u y u y t u u i i i i t u u e & + + < J.-X-X#X}.|.|.|.|.|.|.|.|.(.E.b.U T s q 9 e e e e e e y y e y y e 9 9 ! U.!.^.'.|.'.'.|.|.'.|. X'.|.|.|.'.'.'.].].V.~ B.N e y y y y y y e q 9 e e 9 3 2 1 s }.^.^.R.}.R.R.R.^.}.^.^.R.R.`.R.Y.|.`.N.0 q e y i u u u u u y y r u u y u u y y 0 T `.^.^.^.^.P.W J H H b X   X p ~.!.!.~.~.~.~.~.R.T 1 3 3 9 9 e e e e e e e 9 9 q e 3 q w !.|.|.^.}.R.R.R.R.R.R.^.U.R.R.Y.Y.Y.T.T.F.b.~ Q i 9 e e e e e e e e e 9 9 e 9 3 a Q P ! F.F.F.F.F.F.H.F.F.U.F.F.F.F.F.G.F.G.z.W 1 4 r 9 e e 9 9 9 9 3 3 9 3 3 3 = * 3 p ~ L n.N.n.k.c.J W H W H W F H J b + + . & O.%.@.{ / / l l k g g ..*.*.+.c l l l l l l l l l l l l l l l l l l c v ",
"( 8.3X3X,X2.2.<.2.2.2.2.2.2.<.2.4.7.y.a.y.y.8.[ ` ( ( f f g g k k k k k g l l = . $ + ; F D D A D A A A D A A S m m M * * * * * * * * * * & * 3 * & # U b.n.M.N.S.N.N.D.S.D.D.S.D.D.D.D.F.D.D.D.D.A.t 1 2 3 3 3 3 9 3 9 9 3 3 9 3 3 = 2 P U.P.!.P.!.U.U.U.U.U.U.U.U.U.U.U.U.U.T.R.^._.F.5 3 3 9 9 9 9 9 9 9 e 9 9 9 9 = 3 9 & + + & I J H ~ %X%X(.R.^.R.R.`.R.R.'.'.|.}.|.|.|.|.|..X[.B.6 e e e e e e e e 9 9 9 9 9 9 3 3 2 C.XX|.|.|.|.|.|.|.|.|.|.|.|. X X X X[. XXX[.a 6 q q u y y y y y y y y r u y y 0 0 6 w ^.XX.X XXX X XXX X X X X X X X|. X X.XOX+Xk 4 9 r r y u t r t u y u u i u u t i i i e & + + < J.-X-X#X}.|.|.|.|.|.|.|.|.|.[.P 1 5 9 9 9 9 e e e y y e e y y e 9 3 4 C.|.|.|.|.|.`.|.'.|.|.'.|.'.'.].]. X X|.[.].a 6 q e y e y y y y r r e e y e q Y V.~ N.R.^.^.R.}.R.R.`.R.^.R.^.R.R.R.R.R.(.E.V.6 e - e e y y y y y y y r y e y y u ~ Q.J.!.^.^.R.^.}.F.W J H H b X     p ^.!.!.W.!.W.P.!.(.Y 2 e e e e e e e e e e 9 9 y y 9 9 8 a !.(.^.R.R.R.R.R.Y.R.R.Y.U.Y.Y.Y.R.Y.T.R.v.2 0 q 9 9 e e e e e e e 9 9 9 9 9 3 2 U !.F.F.F.F.F.F.F.F.H.H.F.F.F.F.H.H.H.U.F.A.N.>.y 3 e 9 9 9 9 9 9 9 3 3 = 3 = = = = a F l.m.m.S.M.m.m.v.c.W W J W F H J b o o . & O.+.@.../ ( l l l g g ..*.*.@.l l l l l l l l l l l l l l l l l l l l c ",
"( 8.2X3X,X:.2.2.2.2.2.2.<.<.2.5.7.2.4.r.9.8.2.[ ` ( ( f f g g g k k k k k k k = + $ + ; F D D A A D A A F F F , * 3 = = = * * * * * * * & & & * & # X M v.N.m.N.S.D.S.N.S.D.S.D.D.D.D.D.D.D.D.W.D.G.M 2 * = 3 9 3 9 3 3 9 3 9 9 3 = * 1 M !.W.!.U.U.U.U.U.U.U.U.U.U.U.U.U.U.^.R.F.! b.! q 9 9 9 9 9 9 9 9 9 9 9 9 9 9 e 9 t : + + @ F k.h.b.OXOX^.R.^.R.R.R.R.R.E.E.'.|.|.|.|.'.T.F.}.Q 0 y y y y y e e e e e 9 q 9 q 3 2 2 C.|.).|.|.|.|.|.|.|.|.|.|.|.|. X X XXXXXXX+XU q 9 e e y y y u y y y y y u u q T Q.V.D.|.|. X XXX X X X XOX X X X X X X X+X+X.X+Xx 7 e r y u y u t u u y y y u u y y j x T s @ + & p C.-X-X%X'.|.|.|.|.|.|.|.oX|.[.E 2 = 9 q e 9 9 e e e e y y y y y 5 4 2 C.oX).|.|.|.|.'.`.'.|.|.|.|.'.].]. X X X'.[.U q e e e y y y y y y y u y e 7 q C. X|.}.^.^.^.R.^.R.^.}.`.}.^.R.^.R.R.R.R.R._.V.0 e 9 e y y y y y y y e e e e e y w C. X|./.^.}.R.^.^.P.W J J J b X o   p ^.!.W.W.~.~.I w x r e e y y y 9 e e e q e y y e 9 U V.m.U.R.^.^.R.R.R.R.R.R.R.R.R.Y.R.R.Y.R.R.R.R.V.8 3 9 e e e e e e e e 9 9 9 9 3 3 4 1 x J.F.F.F.F.F.F.F.F.F.H.F.F.F.H.H.H.P.U.A.S U s r 9 e e e e 9 9 9 9 3 3 3 3 = = * 2 Y S.D.S.N.N.m.M.m.v.b.W W J H H F W b o o . & O.%.O.[ ( v l c l k g ..*.;.@.l l l l l l l l l l l l l l l l l l l l c ",
"/ 8.2X4X>X=.2.2.<.<.=.=.=.<.5.5.4.4.2.6.=.=.=.{ ` ( ( f f f g g g g g k g g k * $ $ + ; A D A D A D A A F A A : * * = * * * * * * = * * * * & * e = : H n.N.M.m.D.D.N.N.D.D.D.D.S.D.D.D.D.D.D.N.M.n.r = 3 9 3 3 2 9 e 9 9 3 9 9 3 e t q I F.F.F.P.U.U.U.U.U.U.U.U.U.U.!.~.~.^.R.b.1 0 9 q e 9 9 9 9 e e 9 9 9 9 9 e 9 9 t M t + + @ F k.j.l.OXOXR.Y.R.R.R.R.^.R.|.`.'.|.|.|..X[.E 6 f u u y y y q y y y y e e e e e i ~ N.N.^.|.|.|.}.|.|.|.|.}.|.|.|.|.|.|. X X].|. X.Xx q y y e u y y y y y y u u r e 0 B.+X+XXX XOX X X XXX X XXX X X X X X X X'.!.J.~.C.u y r y r y y y u y u u t i g q 0 u i I v.M # + + p C.-X-XXX'.|.|.|.|.'.|.|.^.R.!.N 3 e e e e 9 y y e e e y u u u x Q W ! ~.(.^.R.^.|.}.'.'.`.'.|.|.|.|. X X].'.U.R.|.x 5 r y y y y y y y y y y e - 3 1 C.|.).^.^.^.R.^.^.R.^.^.`.R.R.R.R.R.Y.I.n.b.m.Y q e y y e e r r y r y y y y y 9 0 0 C.|.^.^.^.^.R.^.}.P.W K J H b X o X p ~.Q.W.!.W.R.P 1 9 e e e e e e e r e e e q q e 9 5 Q |.(.^.^.|.R.R.R.R.R.R.U.R.R.R.R.R.Y.R.R.Y.Y.'.C.q y e y y e e e e e e e e e 9 q s Y P B.J.F.F.F.F.F.F.F.F.F.F.F.F.H.H.H.H.A.I.m.: q 3 9 9 9 9 9 e e e e 9 9 3 9 3 3 2 1 @ I A.S.S.N.N.m.N.m.v.v.J W J F H H W b o o + * %.*.@.O...' l c l k g ..=.*.@.l l l l l l l l l l l l l l l l l l l l c ",
"/ 8.2X4X>X2.2.<.<.<.2.:.<.2.6.2.7.8.2.2.=.2.=.[ ( ( ( f u f g g g f g g g g k * o $ + : D A D D D A A D F D D t * = * * * * * * * * * * * * * 3 I H W x.N.N.M.N.S.N.N.N.D.D.D.D.D.D.D.D.F.P.b.q y 9 3 = 9 9 3 3 3 3 3 3 3 3 9 2 2 ~ D.Z.D.F.F.F.P.P.U.U.U.U.U.U.U.U.U.T.^.|.|.'.B.4 9 e y q 9 9 9 e e e 9 9 9 9 9 e 3 * : t : + + @ D j.j.k..X.XR.Y.R.Y.R.R.^.R.|.|.|.|.|.|.oX[.P 4 9 y y y y y e y y e e e e 9 3 5 u ~. X|.|.|.|.|.|.|.|.|.|.|.|.|.|.|.'.'. X[.~.x U N u u u y y y y y y r y u y y e y 6 C.#XOXOX X X X X X X XOXXX X X X X X XXX@XU 1 0 q y y r y y y y y y y u u r r u B.S.F.~ R b.M * + & p C.-X-X#X`.|.|.'.'.|. XT.P i i e e e e e e 9 9 e e 9 y y y e 0 Q +X X|.^.(.^.^.(.|.|.'.'.'.'.|.|.'.|.'. X[.U.w k s u u y y e y r y y y y y y u q 0 3 J.|.^.^.^.`.R.R.R.^.^.}.R.R.R.R.Y.R.R.D.0 8 9 9 r e y y e e r y y r y u y y i B.n.C.Y.}.^.R.R.^.R.^.|.U.W K J J m X o X p ^.~.W.!.R.R.Y 2 e e e e e e e e e e 9 y 9 9 3 5 1 Y (.^.^.R.R.R.R.T.T.R.R.Y.R.R.R.R.Y.Y.R.R.b.x U s y y y y y y e e e e e 9 9 9 3 9 ! U.F.F.F.F.F.F.F.F.F.F.F.F.F.F.F.F.H.H.U.l.v.U f t 3 e 9 9 9 9 e 9 e 9 9 9 9 9 9 q N P b v.S.N.S.M.M.M.M.m.n.m.W W J F E E H b . o o * %.*.*.%...[ l v k k g ..:.:.@.l l l l l l l l l l l l l l l l l l l l l ",
"/ 9.2X3X,X=.2.<.<.2.2.<.2.2.7.7.7.8.2.=.=.2.<.[ ( ( / f u f f g g g f g g j k * o $ + : A S S S D A A m ; < b 9 2 2 2 * * * * * * * = * * * 2 2 I j.L W m.N.M.N.D.D.N.N.D.S.S.D.S.S.D.J.W.D.b.1 5 3 9 3 9 9 3 9 9 3 3 3 9 3 3 2 2 b.P.F.D.F.F.F.P.P.P.U.U.U.U.U.U.U.R.R.Y.S.F.R.! 0 e y y e 9 e e e e 9 9 9 y 9 e 9 3 & e 3 = & + @ D j.j.k.OXOXR.R.R.R.R.^.R.^.|.|.'.'.'. X$X$XU q y y y y e e y e e e e y 9 9 2 1 0 ^.|.|.}.|.|.|.|.|.|.|.|.}.|.|.|.|.|.|..X[.J.6 q q u y y e y y y y y y u u y f a j u !.+X.X XXX X XXXXX X XOXXX X X X X X.X.X+XU 4 3 r r y r y u y u y u u u t e 0 4 C.+X@XV.Q V.P & @ & p C.-X-X%X}.|.|. X.XXX$XE.j 8 y r e y y e e e 9 9 e q q e e 9 6 Y +X(.|.^.(.^.}.}.}.|.|.|.`.'.'.'.|.|..X X[.J.8 q y u y y y y y y y y y y u q x W.U.!.}.|.^.^.}.`.R.^.R.^.R.^.^.R.R.R.R.^.R.N.1 3 = 9 e e y y y y y e y e y y e q i ^.].|.}.}.^.R.^.^.R.^.}.U.W K J J m @ o X p /.~.W.P Y Y t 9 e y y e e e e e e e y y e y N U M V.^.!.U.R.R.R.R.Y.R.R.R.U.R.R.R.R.R.^.R.`.T 1 q e y y y y y y y y e e 9 9 9 3 4 1 ! H.F.F.F.F.F.F.F.F.F.F.F.F.F.F.F.F.U.U.I.n.Q 0 3 e 9 9 9 9 e e e e e 9 9 9 9 3 2 a D.A.D.S.S.S.S.N.M.N.N.M.n.m.c.W J E H E W b . . . & O.%.*.%.' ' / / k k k ..:.;.%.l l l l l l l l l l l l l l l l l l l l c ",
"v 9.2X4X,X=.2.2.<.2.<.=.2.<.4.7.4.7.2.<.<.<.*.[ ( ( / f u f f g g g g g g g g * + $ o : D S D S D A D > # * * 2 = = = * * * = * * * * * * * 2 X C k.c.c.m.N.N.N.S.D.N.N.S.S.S.D.S.S.S.F.F.U.b.2 7 9 9 9 9 9 3 3 3 3 9 9 9 3 3 3 2 ~ P.F.F.F.F.F.F.P.P.!.U.U.U.U.U.U.^.R.U.q q i i u y y y y e e e e 9 9 e 9 e e t a 9 9 q e : + + @ D j.j.l.OXOXR.Y.T.T.T.^.R.R.R.E.|.[.P.T ! B.x y u u y y y y y y y y y y 9 a Y x E ^.(.|.}.|.|.|.|.|.|.|.|.|.|.|.|.|.|. X+X[.^.q y e y y u r y y y y u u u u y N oX|.|. XOXXXXXXXXXXXXXXXXX X X X X X X|. X@X%X@XU 2 e r y y y u u u u y u u u i t u r B..X+XC.Q b.M # @ & p C.=X=XOX|.|.|. X|.P.P.~.s y r e e e e e e e q e y y e q y y 1 E XX(.^.^.}.}.}.^.^.|.|.|.|.'.'.'.|.'.{.@X{.~.u y y u u y y y y r y y y y e w U +X]. X}.}.}.}.}.`.}.R.}.}.^.^.^.^.^.R.`.`.'.C.2 e - 9 e e y y y e r y u y y y 5 1 0 ~.|.}.}.}.R.R.Y.^.R.R.}.U.K K J J m @ o X s ).T.N.6 1 3 9 e e y e e e e e e e y y e 3 a Q.`.R.Y.T.~.U.Y.R.R.R.R.R.R.R.T.R.R.R.R.R.`.'.[.! 4 y y y y y y y y y e e y q e q q 4 2 b.F.F.F.F.F.F.F.F.F.F.F.F.F.F.F.F.F.U.I.l.a l u 9 e 9 e 9 9 e 9 9 9 9 9 q 9 9 2 1 a A.D.J.S.S.S.M.N.N.M.N.M.n.m.v.J W W E E W b . . . & @.*.%.+.) ..) ) k k k ..:.:.%.c l l l l l l l l k l l l l l l l l c l c ",
"( 9.2X8X,X=.2.<.<.=.2.:.<.<.2.2.<.<.<.2.2.<.*.[ ( ( / f u f f g g g g g f g g * + $ + : S S S S S S S : * & * * * * * * * * * * = * = 2 2 : < ; W k.c.W m.D.N.m.N.N.N.N.N.N.D.S.S.F.F.W x Y s 9 9 9 9 9 3 9 9 9 3 3 3 9 3 3 N b.c.S.F.F.D.F.F.F.P.P.P.P.U.U.U.U.U.~.^.R.F.q q 9 y y y y e y y e e e e 9 9 9 = 5 Y P.D.S.A.R.I X @ @ D L L l.OX.XU.T.R.R.T.R.R.(.(.|..X[.b.6 w q y u u y y y y y y y y y y e 5 Y oX|.|.|.|.|.}.|.|.|.|.|.|.|.|.|.|.|.|.|.'.F.V.F.B.q y y u u u y y u u u u u u e d U #X$X%XOX#XOXXXOX X XXXXXXX X X XXX XXX|.^.T ! ! y 9 e e y y y y y u u u u y e f J.}./.}.OX+XV.! b.P # @ & p C.=X%X#X X|..XXX'.I 0 x u r u y y y y y y e e 9 e e 9 u B.W.W.~.|.(.^.^.|.R.|.^.^.^.'.}.|.|.'.'.'.[.b.Q B.Q y y u u y u y y y y u u u q 0 6 x OXXX X X}.`.}.}.}.^.^.}.}.^.^.R.R.Y.T.N.S.N.Y 9 9 e e e e e y y y y u u y u x ! E ! ^.|.^.R.^.}.^.R.^.R.^.`.U.K J J J m @ @ X i ^.E.C.5 3 7 e 9 e e e y e e e e q 9 9 3 4 0 J.^.~.!.~.U.U.Y.R.R.Y.U.R.Y.R.R.R.R.R.R.Y.S.m.S.Y 0 y u y y y y y y y y y y y y i ! n.N.F.F.F.F.F.F.F.F.F.F.F.F.F.F.F.F.P.S.n.v.~ f 9 e 9 9 9 e e 9 e 9 e 9 q y q q q 3 2 P F.F.S.S.S.S.M.S.N.m.N.M.n.M.n.W W W W K J b   . . & @.*.*.O...#.{ ( l l k { :.:.%.c l l l l l l l l k l l l l l l l l v c c ",
"( e.2X8X,X2.<.<.<.2.2.=.<.2.2.2.=.<.2.2.2.<.<.[ ( / / f u f g g g f f f f g g * + $ + : S S C C S V S : * * * * * * * * * * * * * * 3 2 r W j.W c.k.c.c.m.N.N.M.N.D.S.S.N.D.D.N.J.W.A.P 1 5 3 9 9 9 9 9 3 9 9 9 9 9 3 = = 4 Q L.D.D.F.F.F.F.F.F.P.P.U.P.U.U.U.U.T.R.}.'.R.s e e y y e y e y e e e 9 e 9 9 2 2 1 Q I.P.!.W.R.I X o @ A L L l.OXOXR.R.T.R.^.^.R.^.'.|..X[.N.4 e e y y y y y y y y y y y y 9 3 6 Y .X.XoX|.|.|.|.|.|.|.|.|.|.|.|.|.|.(.|.|. XY 1 0 q y y u u u u u u u u u u u q w w x =X%X#X#X+XOXOXXXOXOXOXXXXX X X XXX XOXXXJ.6 4 3 e e e e r r y y y u u y y 9 5 4 !.{.OXOXOX+XV.W b.P * @ * s C.=X%XOX.X.X.X$X$XN 6 u r u u y y y y e e e 9 9 9 = 9 q /.|.|.(.(.(.^.^.}.(.|.}.^.(.(.^.R.|.|.|.|.[.x 6 4 0 u u u u u u u y u u u u g k U Y ~  X|.'.|.|.`.|.|.|.}.}.}.}.^.^.R.^.`.m.1 4 2 0 e e e e e e e y e y y u y e q Y  X X|.`.|.R.R.R.^.^.^.^.Y.R.'.U.K K J W M @ @ o 3 a a s y e e e e e e y y e e e e 9 9 9 0 4 t J.~.!.U.Y.Y.U.U.R.R.^.^.^.R.R.R.R.R.^.^.U.a 8 q u u y u y y y y y y y y y y 9 q N W.U.F.F.F.F.F.F.F.F.F.F.F.F.F.F.F.F.H.P.F.s 1 g t e e y e e e e e e 9 e q q e q q P v.n.S.F.D.S.S.S.S.N.S.N.N.M.M.m.m.n.c.c.L b I R , o . . & @.%.%.O...%.[ ( l l k [ :.:.%.c l l l l l l l l l l l l l l l l l / { ( ",
"( r.1X8X<X:.2.<.<.2.2.<.<.<.<.<.<.<.2.2.2.2.=.[ ( / v f u f f g g f f g g g g * o $ o : S C C C : = : = * * * * * * * * * * * = * = = 2 r L k.x.c.c.c.c.m.N.N.M.N.N.S.N.D.S.D.D.W.P.L.U 4 3 9 9 9 9 9 9 9 9 9 9 9 9 = 3 2 1 E A.D.S.F.F.F.F.F.F.P.P.P.P.U.U.T.U.R.F.Y T Q i e e y e e e y e e 9 e e e 9 q i t t n.P.W.W.W.~.I X X @ A L L v.#X.XT.T.T.T.~.U.R.R.E.D.C.T.B.0 9 e y y e y y y y e y y y y 3 4 6 ! XXoX|.|.|.|.|.|.|.|.|.|.|.|.|.|.'.(..X(.|.Q 1 9 e y e y y u u u u u i i f g N U Y B.#X#X#X#X#X+X#XXXOX XXXXXXX X X X X+XXX'.~.0 7 e e e e e y y y y u u u i f y w q ~..XoX.XOX#XV.W v.I * & * s C.#XXX XXX[.W.V.K.U y u u u u u u u y y y y y 9 3 2 1 q ~.oX(.(.|.^.|.^.R.|.|.|.^.(.(.}.|.E.(.|.E.[.U 4 e y u y y y y u u u u u u r g >.).@X|.|. X|.|.'.}.|.`.}.^.}.}.}.^.R.(.(.I.N.1 3 = 9 9 e e e y y e e e y y y 9 0 6 U  X|.}.}.}.R.R.R.R.R.^.^.R.R.'.U.W K K K M @ + @ 9 q q y e e y e e e e e e e e y e 9 9 Y V.N.F.U.!.U.U.U.R.R.U.T.R.R.!.R.R.R.R.R.R.|.'.R.x q e y y y y y y y y y y y u y y 5 1 N U.!.!.F.H.H.F.H.F.F.F.F.F.F.F.F.F.F.H.I.Y.P 0 e e e e e e e e e e e 9 q q 9 9 3 4 ! I.F.F.F.F.S.S.S.S.N.S.N.N.N.m.m.M.n.c.k.E 1 3 3 2 o . . & +.*.%.+...O.{ O.' l l %.6.2.*.v l l l l l l l l l l l l l l l l l c ' ) ",
"( r.2X8X,X:.2.<.<.2.<.2.<.<.<.<.<.<.2.2.2.<.=.[ ( / / f u f f f g g g g g g g & o + o - S C C m @ & @ & & * * * * * * * * * * * * 2 2 # ; L W W j.c.c.c.m.N.N.N.N.N.S.N.S.S.D.D.~ ~ B.i q 9 9 q 9 9 9 9 9 9 9 9 9 9 9 U ! R M.D.D.D.F.F.F.F.F.F.P.P.P.P.P.U.U.U.I.S.8 8 q y e y e y e e e y e 9 q e e 9 t C.T.G.U.P.P.P.W.R.I X X @ A L L l.OX.XT.T.T.~.~.!.~.(.E.T 6 u y e e e e y y y y y y y y y q x B.B.V.^..X|.|.|.|.|.|.|.|.|.|.|.|.|.|.|.E.R.^. XXXY 3 9 e y y y y y u u u u i i f U =X+X%X+XOX#XOX#X+XOX#X+XOXOXXXXXXXXX X.X X^.^.XXV.3 e e r e e y y y y y u y y g U C.P.S.'.|.oXoX.X+XV.W b.I * & & s C.%XXX.XOX[.Q 8 u u u t i u u u y y y y y y e 9 Y B.~ N.(.(.(.^.|.|.|.R.}.|.R.^.^.R.R.R.R.R.R.U.`.R.s 9 y y u y y y y u u f f u i y q m.+X.X|. X X|.].'.}.|.|.|.}.^.}.^.^.R.`.'._.N.2 3 9 9 e e e y y e e e e y y u x U a W |.^.}.R.`.R.R.R.R.R.R.R.R.R.'.U.W K K j.M # @ @ 9 y e e e y e y e e e e e 9 9 e e 3 2 ! R.~.!.!.~.U.U.U.T.T.U.^.R.R.R.R.R.R.R.R.T.D.P.W.s e r u y y y y y y y y u u u d k l y c.U.P.U.H.U.H.H.F.H.H.F.F.F.F.F.F.F.U.W Y E s = 9 e e e e e e e e 9 9 9 q 9 9 9 5 1 R F.F.F.F.F.F.D.S.S.S.S.S.N.N.N.M.M.m.n.l.W 3 3 = * + o . & O.*.%.%.+.%.%.%.../ ( 8.p.q.7./ l c l l l l l l l l l l l l l l l v ( ' ",
"( r.2X3X>X=.2.2.2.<.<.<.<.=.<.<.<.=.<.=.=.=.<.{ ( ( / f u f f f g g g g g f g & . + + : S C C m & & & & * & * * * * * * * * * * 9 p M m D j.x.L j.c.c.c.m.D.N.N.D.D.D.N.D.D.D.n.2 8 q q e 9 e e 9 9 e 9 9 3 9 3 3 3 1 T U.G.D.F.F.D.D.F.F.F.P.F.P.P.P.P.P.U.U.T.I.J.t q y y e 9 9 y e y y e y q y e e 5 y F.R.U.!.P.P.F.P.Y.R     @ A K L l.OX.XR.~.T.U.~.!.^.E._.Q 6 9 y e e e e y y y y e y y e 9 5 U +X$X%X X.X|.|.|.|.|.|.|.|.|.|.|.|.|.|.'.[.P.u x P y q e y y y y y y u u u u t r d U OX%X=XOX=X#X+X#X#XXX+XXXXXXXXXXXXXXXXX|.'.s w x y 9 e r e r y y y y y y y e r g B.|.#XoXoX.XoX X.X#XV.W b.I * & & p C.%XOX=X.X$XQ w u u u u u y i i u y y y q e 9 4 Q +X[.|.|.|.R.^.|.|.`.}.R.^.(.^.R.R.R.R.R._.W 4 g i u u y y u y y y y u u u u y h >.B.U..X.X|.|.].`. X|.}.|.|.}.}.}.^.^.R.`.b.U U s 9 9 e e e e y e y e e y y e 7 q V.`.}.}.^.^.R.R.`.R.R.R.R.R.R.R.R.R.`.U.E h.G R p # & + 9 u y y y y y y y y y e e q e e 2 4 1 I ^.~.!.U.U.U.U.U.U.!.U.U.T.^.R.R.R.R.R.R.D.y w a u y u y y r y y u y y u u u y g B.J.F.U.U.!.H.H.H.H.F.F.F.F.F.F.F.F.F.F.P.U.T 1 q 9 3 9 q e e e e e e e e e 9 e y 5 x Q E M.F.F.F.F.F.F.D.S.S.S.S.N.N.N.M.M.m.c.I W R 3 3 3 = o o o & O.*.%.*.%.%.%.%.( v / 4.y.i.4./ l l l l l l l l l l l l l l l l v { { ' ",
"( r.2X4X>X=.<.2.2.<.<.<.<.<.:.:.<.<.<.<.<.2.<.{ ( ( / f u f f f f f g g f f f * . $ o - V m m b & & & & & & * * * * * * 2 * * * 2 m J F H x.j.j.c.c.c.c.m.D.N.M.N.D.D.N.N.F.A.b.0 9 9 q e e e 9 9 9 9 9 9 q q 9 q u = S D.D.D.F.F.F.D.F.F.F.P.F.F.F.F.F.P.!.U.! x a r e y y y 9 9 e e 9 y y y y y y 9 4 9 D.U.~.U.U.U.P.H.Y.R X . @ A K L l..X.X~.U.T.U.U.!.U.T.R.Q 9 e y y y e y y y y y y y e q 3 4 a .XOXOX X X X|.|.|.|.|.|.|.|.|.|.|.|.|..X'.N.6 2 2 9 9 9 9 e e u y u u u u i y w 8 x .XOX=XOX+X+X#X#XOXOX#XOXOXXXXX XXX XOX.X'.x 1 9 9 e e e y y y y y y y y y e 3 y !. X.XoX|. X|..X.X+Xm.W v.I & & & p C.&X+X+X%X&XY d i i u u i u u u u u u y e 9 1 1 I .X|.(.|.|.|.}.^.R.'.R.R.^.^.^.R.^.R.^.(._.P 1 3 3 y y y e u u y y u u u y i 4 1 V.{.|.|.|.|.|.].'.|.|.}.|.|.|.}.}.^.^.'.Y.q 1 2 9 9 q e e e y y e e e y e e 3 q 6 B.^.^.^.^.R.R.R.`.R.R.R.R.R.R.R.R.R.`.T.P s r e q & + + 9 y y y y y y y y y y y y e 9 e Y E T N.U.!.U.U.U.U.U.U.U.U.U.!.T.~.Y.R.U.R.^.R.S.q 5 e y y y y e y y y y y y u u y y q N.`.^.Y.Y.U.U.U.H.H.F.H.P.H.F.F.F.F.F.F.Y.I.B.0 e 9 9 e 9 e e e e e e 9 e e 9 9 u 2 R R.U.F.F.F.F.F.F.F.D.S.S.S.S.M.N.N.N.M.M.E 1 q e 3 3 9 3 o o o & O.=.%.%.%.%.%.%.' l l %.t.t.8.' l l l v l l l l l l l l l l l l ( ..[ ..",
"v r.3X8X,X=.2.<.<.<.2.<.2.<.=.2.2.=.<.<.<.=.=.{ / ( / f u f f g g f g f f g g * . O + % % * & * * & & & & & * * * * * * 2 * * 3 - n A F F j.k.j.x.c.c.c.m.D.D.N.N.N.N.N.D.F.P.! q e 9 e e e e y e 9 9 9 q y e 5 a V.m.M.D.S.D.A.F.F.F.F.F.F.P.F.F.F.F.W.W.U.U.U 6 q 9 q q y e e e e e e y y y y y g ! ! W U.U.U.U.U.U.U.U.Y.R   o + D K K l..X.X^.W.U.U.T.T.b.a l u y e y y y y y y y e y y y e i U x Q OXOX.X X X X|.|.|.|.|.|.|.|.|.|.|.|..XXX[.Q.3 3 9 e 9 9 e y y y y y u u i f N Q T C.#XOXOXOX+X+X#X#XOXOX#XXXXX+XXXXXXXOX+X X!.x 3 r r e y y r y y y r y u y y 0 1 s `..X.X|.|.|.oX|. XXXm.W v.I # & & p B.!.B.Q ! T k i t i u y y u y y u u u y i U Q I C.|.(.(.`.|.|.|.R.}.(.R.^.^.R.R.R.R.^.(.E.[.Y 2 = 9 y e y y u u u u u u u f N T P U. X.X X|. X|.].|.'.'.`.|.|.|.|.^.|.oX'.R.j 5 = 9 9 q e e y y y y y y y e y 9 0 2 m.R.Y.Y.R.R.R.R.R.R.R.R.R.R.R.R.R.^.|.R.s q 9 q 9 & + + 9 u y y y r y y e e y q e 9 3 y C.R.^.U.!.!.U.U.R.Y.U.!.!.!.U.~.!.U.R.R.~.^.`.[.C.y e e y y y e y y y y y u u u u q 4 4 m.^.Y.U.T.U.U.U.H.H.F.F.F.F.F.F.F.F.F.Z.W c.P 3 e e 9 9 e e e e e e 9 y q e 9 q Y ! v.F.F.F.F.F.F.F.F.D.D.D.S.S.S.S.S.S.N.n.M.W 9 3 3 = 3 3 3 + o . & +.=.%.%.%.%.*.%.[ v / :.a.a.9.[ l ( ' v l k c / l l l l l l l l c { { O.",
"v r.2X8X>X=.2.<.=.<.<.2.<.<.=.2.<.=.<.=.<.<.=.{ ( / / f u f f g g g g f f g g & o . + % & & & & & & & & & & & * * * * & * 2 * * m G A F F j.k.L L c.c.c.m.D.D.S.D.N.N.M.E s Y s q e y e 9 e e q e e e y q e e 4 s G.F.D.F.F.F.D.F.F.F.F.F.F.F.F.F.F.F.F.U.I.'.M 5 9 9 e e e e e e e e q y y y e q x R._.R.Y.T.U.U.U.U.U.U.Y.R X o @ D G K l.|.|.^.P.^.!.T.E.W 1 q y q e y y y y y y y e y y e 5 ! $X X X X.X X.XXX X|.|.|.|.|.|.|.|.|.|.|.|.Q.B.Q.! 9 9 e e 9 e y e y y y u u u y q J.&X%X+XOXOXOX#X#XXX#X#X#XOX#X#X#X+XXXXXXX X X).>.i e e r y y y y y y r y y y 5 N V.~ J.|.|.|.|.|.|.oX|.|.XXC.W c.I @ & & p x a k y f u i i i u u i u u u u u u y e w B.$X{.'.|.|.`.|.|.|.|.^.|.^.^.^.^.^.R.R.R.Y.U.R.T.s 9 9 e y y y y u y u u i i y f K.+X]. X|.|.].|.|.|.|.'.'.|.|.|.|.|.|.|.|.|.].R.a 3 9 9 q e e y y y e y y e e 3 p N.M.S.U.Y.Y.Y.R.R.R.R.R.R.R.R.R.R.R.R.^.}.|._.P q 9 e 9 & + $ 9 y y y y y y y y y y q e 9 4 4 C.^.~.!.Y.U.U.U.U.U.U.~.!.!.U.U.U.U.U.T.!.N.! ~ Y y e y u y e y y e y y u u u y f Q ! W U.U.Y.U.Y.Y.U.U.U.U.F.H.H.F.F.F.F.F.F.W 1 0 9 9 9 e e 9 9 e e e e 9 9 q 9 9 5 5 ~ U.F.W.F.F.F.F.F.F.D.F.D.D.D.D.S.S.N.S.N.L M U e 3 9 3 9 9 3 + o o & +.:.%.@.%.%.%.%.[ ( ) 2.a.t.t.*.[ ( [ l l c v ( l l l l l l l l l ( ) ( ",
"/ r.1X4X<X2.2.<.<.<.=.<.<.<.<.=.=.<.=.=.=.<.<.{ / / / f f f f f g f g f f f g * . o o $ & & & & & & & & * & * & * * * * * 9 : ; n D D A D x.j.L W c.c.c.m.N.N.S.J.J.Q.D.s 1 q q q 9 e e 9 9 e 9 9 9 y y y q q 8 M F.D.F.F.F.F.F.D.F.F.F.F.F.F.F.F.W.W.P.E x P r 9 9 q e e e q 9 9 e e y y y y 0 4 i Y.R.R.Y.Y.T.U.U.U.U.U.R.E X o @ D K J v.|.|.~.P.T.U.I.E.b.9 y e y y y y y y y e y y y y q 6 Q %XOXOX.XXX X X X X|.|..X.X X|.|.|.|.|.|.'.Y 1 w 9 q 9 e e e e e y y y u u u y u w J.%XOXOXOXOXOX#X#XXXXXXXOXOX#X#X#X+X+XXX X~ U x f y e e y y y y y y y u y e e 5 T {.|.oXoXoX|.oX|.|.oX|.|.XXV.W c.I @ & & p l k k y y u u u u u u u y u u u u y u g 4 W  X.X|. X|.`.|.'.|.^.^.^.^.}.^.^.^.R.R.R.b.0 u i q e e e e e y y y y u u u y d w C.{.XX X|.].].|.|.|.'.|.'.|.|.|.|.|.'.|.R.n.W ! u 9 q 9 9 e e y y e y y y e 3 5 k U.Y.^.!.^.Y.R.R.R.R.R.R.R.R.R.R.R.R.R.Y.F.S.I.M q y e q & + $ 9 i y y y y y y y y u r u s x M Q.~.!.U.Y.U.U.U.U.!.!.!.U.U.!.!.U.U.U.T.U.I 1 8 e y e y y e e y y y y y u u y e d J._.^.Y.R.Y.Y.Y.U.H.U.U.U.H.F.F.F.F.F.F.U.G.b.1 3 = 3 9 9 e 9 9 9 e 9 e e q e q 0 1 2 c.G.F.F.F.F.F.F.F.D.D.D.D.D.S.S.S.S.M.S.A.c.0 q 3 3 9 9 3 3 3 + o o & +.=.*.%.%.*.%.%.[ ( / 8.d.i.i.*.O.$...l l v c c l l l k l l l l l l k l ",
"/ r.1X4X<X2.2.<.<.<.<.=.<.<.=.=.=.=.=.=.=.<.=.{ ( ( / f f f f f g g g g f f g & o o o $ & * & & & & & & & & & & & & * * = I A Z Z D D A D L k.x.x.c.c.c.m.N.N.N.J.N.M.J.Y 2 9 q q e 9 9 e e e 9 q e y y q U m.m.S.F.F.D.F.F.F.F.F.F.F.F.F.F.F.F.F.W.P.L.i 1 3 3 9 9 e e e e e e 9 e y y y y i N M R T.R.Y.Y.Y.T.U.U.U.T.T.`.E X @ # A K J v.|.E.~.W.P.n.t x i e y y u y y y y y y y y y y f k j ~ #XOXOX XXX X X X X X|..X.X X|.|.}.|.oX X+X! 1 3 e 9 9 e e e e e y e y y y y q w 4 Q.%XOXOXXXXXOX#X#XOX#X%X#X#X+XXX+XOX%X%X|.u 6 y e e y y y y y y y y y y y e 5 1 Y  XoXoX|. X|..X|.|.oX|.|.XXN.! c.P @ $ + p g g i u u u u u u u u u u u u u u y 4 Q J.!.|..X X X X|.|.|.|.|.}.}.}.^.^.R.R.^.^._.P 1 2 3 q q q e e y y y y y u u u q w i J. X X|. X].|.|.|.|.|. X X|.|.|.'. X X'.P.e 1 0 y e e q e e y y y y y y y 0 2 1 q J.^.~./.Y.Y.R.R.R.R.R.R.R.R.R.R.R.R.R._.I 8 u y y e e e & + $ 9 u y y y y y y y y r q u J.R.^.U.~.U.U.Y.U.Y.U.U.~.!.U.T.U.U.U.U.U.^.R.R.T 4 9 e e y y y y y y y y y y u u y w 6 N.`.^.Y.Y.Y.Y.Y.U.U.U.T.U.H.F.F.F.F.F.A.M.A.v.3 9 9 9 9 e 9 e 9 9 9 q e 9 e e u Y E W S.D.F.F.F.F.F.F.F.D.D.D.D.D.S.S.S.S.n.M N N e 9 3 9 9 9 9 3 3 + o o & O.=.%.%.%.%.%.@.[ ( ( a.uXrX2XO.O.$.[ ( v c l l l l l l l l l l l c l c ",
"/ r.2X4X,X<.<.<.<.2.<.<.<.<.=.=.=.<.=.=.=.=.<.{ ( ( / f f f f g g f g g g f f & o o o + * * & & & & & & & & & & & & & # = C D D D F D D A L k.L W c.c.c.m.S.S.N.S.M.C x k 9 9 e y y e e 9 9 9 9 q e 9 e 4 Q Y.P.P.F.F.F.F.F.D.F.F.F.D.F.F.F.D.F.F.D.A.I.M 2 3 9 9 9 e e e e e e 9 q y e e q T Y.Y.Y.Y.R.T.Y.Y.Y.T.T.Y.Y.Y.`.E X @ & D K W v.|.(.~.W.T.b.1 5 9 9 y y y y y y y y y y y y q Q OX X|..X.X X XXX X X X X X|..X X X X|.|.|.~.b.B.Y = e e e e e y y y y e e u y u k ! b.m. X#XOXXXXX+X#XOXOXXXXX+X#XXXOX#XXX%X%X$X$XU y r y r y y y u y y y y y y y x Q Y V.oXoX|.|. X X X|.oXoX|. XXXN.! c.m @ $ + e f g g i f g i u i u u u u u i i g g q v.].OX.X.X'. X.X X|..X|.'.R.}.}.^.^.R.^.^.^.'.U 2 = 9 e e e e y y y y y y u y h B.W.!.|.|.|.|. X X|. X|.|.|.|.|.].].].|. X|.].*Xx u r e e e e y y y e e e y y q s ! W b.U.~.!.Y.Y.Y.R.R.^.R.R.R.R.R.R.R.^.^.(.`.P w q e e y y y & + $ 9 u r y y r y u u u 9 5 0 F.R.~./.^.^.U.Y.U.!.~.~.U.U.U.U.!.U.U.U.U.S.S.C.U 9 e y y e e y y y y e e y y u f x N I P.^.Y.Y.Y.Y.Y.U.T.U.U.T.U.H.U.H.F.P.U.W 1 u t e 9 9 9 9 e e e e e 9 q 9 9 3 3 g D.L.P.F.F.F.F.F.F.F.F.F.F.D.D.D.D.D.D.D.A.v.2 4 9 3 3 3 9 9 9 9 9 3 + o o & O.=.%.%.%.%.%.+.[ ' ] a.fXhX0X[ ) ' / [ / v l l l l l l l l l l l l l c ",
"/ r.2X4X>X=.<.=.=.=.=.=.<.<.=.=.=.=.=.=.=.=.=.{ ( ( / f u f f g g f g g g f g * o . o $ & & & & & * * & & & & & & * * @ : C S A A A D A A L k.W W c.v.c.m.S.J.S.M.W.P q 9 e q e e y e e e 9 9 q q y q q 1 T U.P.F.P.F.F.F.F.F.D.F.F.F.F.F.D.F.W.P.c.i s t 3 9 9 9 q q e e e e 9 q q e 9 e w T '.T.R.R.Y.Y.Y.T.T.T.T.R.Y.Y._.E X + * D K F v..X(.!.D.W.Q e e e y y y y y y y y y y y y y w ! %XXX.XOXXX X XXX X X X X X X.XXX.X.X.X|..XW.9 6 q = e r e e e y y e y e y e e q Q &X$X#X+X#XOX+X#X#X#XOXOXOXOX+X#X#X%X%X#X|.R.~.K.x y u i y y u y u y y y e e e 5 ~ {.].|.|.|.|. X X|.oX|.oX|.|. X+XN.! c.b @ + + & f u u u u u u u u u u u f f i u U Q.^. X XOXXXXX X X.X|.|. X|.|.}.^.R.^.^.R.`.'._.Y.x q 3 e y y e e y y e y e e e e x |.[..X|. X|.|. X X|. X'.|.|.|.|.].].|.|. XU.P Y k r y u u u y e y y e e e e e 3 B.].}.^.!.^.Y.^.^.Y.^.^.^.^.T.R.Y.R.R.R.}.|.`._.Y q e y y y q q & + + 9 u y y y r y u y u U Y I W.^.^.^.^.!.U.^.U.U.~.^.~.U.!.U.U.U.U.~.U.s w u e e e u y y y y y y y y y y y e x !.`.Y.Y.Y.Y.R.Y.Y.Y.U.U.U.U.U.U.U.U.P.F.!.F.! 1 3 9 9 9 e 9 e e e e e e 9 q 9 3 3 5 0 m.P.W.F.F.F.F.F.F.F.F.F.F.F.F.F.D.D.D.S.G.A.p 3 9 9 3 9 9 9 9 3 9 3 + o o & O.=.%.%.%.%.%.+.[ [ ' a.dXfX9X' ) ' [ O.{ ..( l l l l l l l l l l l l l ",
"/ r.2X4X>X=.=.=.<.<.=.=.=.<.=.=.*.*.=.=.<.=.=.{ ( ( / u u u f f f g g g g f g * o o o + & & * * * & * & & & & & & : m m m S S A D D A D A L c.j.x.c.v.c.n.N.S.n.W T x y 9 9 e 9 9 e e 9 9 9 q e e d x T I m.P.P.F.F.F.F.F.F.F.F.F.F.F.F.F.F.F.P.I.c.1 5 9 3 9 e 9 e e e e 9 q e q y y q u q E R.T.U.Y.Y.T.Y.T.T.T.T.Y.R.R.'.! X + * A K R b.oXT.W p x i e e e y y y y y y y y y u u y 0 4 ~ %XXX XXX X X.X.X|.|. X.X.X.X.X.XXX X|. X[..Xx 4 e 9 9 e e e e y e e y e e e 7 4 Q +XOXOXOX+XXX#X+XOXXXXX#XOXOXXX#X#XOXOX%XXX! 0 l u u u u u y u y u y y y e 9 5 6 Y XXoXoXoX X|.|.|.|.oX|.oXoX|.|.XXC.E c.b X $ o & f u u u u u u u u u u u u u u w N  X$X%XOXXX X X.X X X|.|.|.|.|.}.|.|.^.R.R.D.E ! Q u 9 e e 9 e y y y e y y e e 7 w 0 /.|.oX|. X|.|.|.|.'.]. X|.|.|. X X]. X].{.^.q w u y y y u u y y y y y y e 9 e 1 Q }.~././.^.Y.Y.Y.Y.R.R.U.Y.Y.R.Y.R.R.Y.Y.S.S.V.k q y y y y y y & + $ 9 u y y y y y r u g C.].^.^.^.^.U.^.^.T.!.!.U.!.U.U.!.!.!.U.U.!.T.Y.x 6 y e e e y e e e y y y y y y y e d x Y.^.^./.^.Y.Y.Y.Y.T.U.U.U.U.T.U.T.U.U.Y.R.Y.V.3 9 9 q 9 9 9 e e e e e e y 9 9 9 q 3 s S.F.F.F.F.F.F.F.F.F.F.F.F.F.D.F.D.D.S.W E E r 9 9 e 9 9 9 9 9 9 9 3 + o o & +.=.%.%.%.%.%.&.{ ` ( s.kXhX0X..' ) ..O.$.$.( l l l l l l l l l l l l c ",
"v r.2X3X<X=.2.2.<.<.=.*.*.*.=.<.=.*.=.=.=.=.=.{ ( ( / f u f f g g g f f f g g & o o . + & & & * & & * & & & + @ # ; S V V S S Z S S S S A L k.c.x.c.v.c.m.N.n.b d q 9 e e e 9 e e e 9 9 9 9 9 9 9 q B.R.U.P.P.P.F.F.F.F.F.F.F.D.F.F.F.F.F.F.D.M.M.! e e 9 9 9 9 e e 9 9 9 9 q y e 9 e b.G.A.U.T.T.T.T.T.T.T.T.U.T.T.T.Y.Y.`.W @ & = A K R b..XP.U 1 q r e y y y y y y y y y y y y y Y J.N.^.XX|.|. X X|.|.|..X X.X.X.X X X X X X|.Q Y T a e e e e e e e e e e e q e q 5 5 1 E  X|. X X XXXXXOXOXXXOXOXOXXXXX+XOX#XXXW.K.>.k i i u u u u u y y y y y r y y u q ~ .X|.|. X X|.|.|.|.oX|.oX|.|.|. XC.E c.b o + . & f u u u u u u u u u i u f f w 8 a (..X XXX X X X X X X X|.|.|.}.}.}.^.^.|._.I 6 4 2 e e y e e y y y y y y y y 0 q y N /.^.(.}.|.}.|.|.|.|. X].|.|.|.]. X X].F.S.V.x i t t u y u u y y y y y y u 0 q 4 ! ^.~.Y.Y.Y.Y.Y.Y.Y.^.^.~.!.Y.Y.Y.R.R.`.E 0 w y u y y u y y y y & + $ e u y y y y y y q 1 V.|.R.^.^.R.R.^.^.T.U.~.!.U.U.!.!.U.U.U.U.U.E.T.U q r e y y e e e e e y y u y y y q w x !.^.^.Y.Y.Y.Y.Y.Y.Y.U.U.U.U.U.U.T.U.U.b.Q W I 9 e q q 9 e 9 e e e 9 e e e 3 3 E M.n.M.D.D.F.F.F.F.F.F.F.D.S.F.D.F.F.D.D.A.n.9 8 q 9 9 9 y 9 9 9 9 3 3 9 9 + o o & O.=.%.%.$.%.%.&.{ ' ( a.kXkXqX[ ' ( ' [ $.{ / ' ) l z l l l l l l l l c ",
"v e.4X4X>X<.2.=.<.<.=.=.*.=.=.=.=.=.=.*.*.=.=.{ ( ( / f f f f f g g f f f g g * o . . + & * & & & & * & & + & * @ ; C V C V S S S S S S S L k.x.c.c.b.b.M.D.b.3 4 y 9 9 e e 9 e e e e 9 q q 9 3 5 4 ~ U.W.P.P.F.F.F.F.F.F.F.F.F.F.F.F.F.P.P.N.9 0 9 9 3 e 9 9 9 9 e e e 9 y y 9 3 q 0 N.I.T.U.U.U.T.T.T.T.T.T.U.T.T.T.Y.R.'.! @ & - A K R v.(.J.Q 3 9 9 e e e r y y y y y u y e 9 w ~ $XXX.XOX.X|. X X|.|. X X|. X XXXXX.X.X.X.X}.0 6 0 e e e e y y y y y e e y e y q Q n.b.!. X|.|..XXXOXXX.X.X.XOXOXOXOXOX#X%X%XOXR 6 g i i i i i u u u y y y y e e g V.Y.R.|.oX|.|.|.|.|.|.|.|.|.|.|.|.|.|. XC.Q c.< X . . & u u u u u u u u u u f u u x B.C.Q..XOX X|.XX+X X.X XXX X|.|.}.|.|.|.|.|.(.'.Y 4 e 9 9 e e e y y y y y y y e q Q T.Y.}.^.(.^.}.|.|. X|.|.'.|.|. X X X|. X[.R.q w f u u u u u u u u y y y y y e y V.F.F.!.!.!.U.^.^./.^.Y.Y.^.!.!.Y.Y.!.^.~.~.R.P 4 e e y q y y y y y y & + $ e u u u y y r i T T Q.(.^.^.(.^.^.^.~.^.~.!.U.!.U.U.U.U.U.U.F.E P P u e y y y e e y y e e y y y y y U V.m.F.Y.^.U.Y.Y.Y.Y.Y.U.U.U.U.U.U.Y.Y.Y.^.Y.P 1 0 0 e 9 9 9 e e e e e q q e e 9 3 4 b.A.D.D.F.F.F.F.F.F.F.D.F.D.F.F.F.F.F.F.F.U.M.e 5 e e 9 9 e 9 9 9 9 3 3 3 3 + . o & O.*.%.%.%.%.%.@.{ ' ( a.kXhX9X[ ' ' ' ' ' ( ' ..' l l l l l l l l l l c ",
"v r.4X3X>X2.2.2.=.=.=.=.*.=.=.=.=.=.*.*.*.*.*.{ ( ( / f f f f g g g g f f f g & . . . + & * & & * & & & & & * M n n V V V S S S S S S S S L c.c.c.c.v.v.m.F.~ t 9 e e q e q e e e e 9 y y y y i s t b.U.F.P.P.F.F.P.F.D.F.P.F.F.P.F.F.P.P.L.A.0 4 3 3 3 9 e q e e e e 9 e q e e 3 4 1 N.T.T.U.Y.T.T.T.U.T.T.T.T.T.T.Y.Y.Y.'.E @ @ : D W R W P u a e 9 e e y y y y y y y y y e e d 1 ~ +X.X X.X.X X.X X|..X.X X X|..X X.XXX+X+XXX].s 5 9 e e e e y e y y y e e 9 e 3 a '.[. X|.|.|.|. X.XXXXXOX.XOXOXOXOXOXOX#X%X%X%X! w u u u u u u u u u y y y y 9 4 i R.].oX|.oX.X|.oXoX|.|.|.|.|.|.|.oXoXoX.XC.R c.s @ o . & u y y u u u u u u u u y f U %X$X#XOX%X.X XXXXX X|. X X|.}.|.|.|.|.'.].].].'.U q e y y r e y y y y y y e e 7 5 V.'.).^.^.}.^.}.|.|.|.|.|.|.|.|. X X.X X X].R.w q y y u u u u u u u y y y e 9 5 q P.R.^.^./.^.^.^./.^.^./.Y.^.U.!.Y.Y.U.Y.}.R.`.Y 5 e y y y y u y y y y & + $ e u y u y e y U XXE.|.|.|.^.^.^.^.^.!.^.U.U.U.U.U.U.U.U.!.U.S.2 1 9 e 9 e y y y y y y e e y y q 9 4 ! _.Y.^.Y.Y.^.Y.Y.Y.Y.U.U.U.T.U.U.Y.U.Y.`.R.Y.Y 2 9 9 9 9 9 9 9 q 9 9 9 9 q e 9 2 1 1 c.D.D.D.D.F.D.F.F.D.D.F.F.F.F.F.F.F.D.S.W E T u 9 y e q y y q 9 e 9 3 3 3 3 o . . & O.%.%.%.%.%.%.%.{ [ _ d.kXfX9X[ ( [ ' ( ` ( ' [ / ( / l c l l l l l l c ",
"/ e.4X4X,X2.2.=.=.<.=.=.=.*.*.*.*.*.*.*.=.=.*.{ / / / f f f f g g g g g f f g & . o . + & & * & & & & & & X + m V V V V V V V S V Z S S S L k.L c.v.v.H P T x u e 9 9 9 9 e y 9 9 9 e e e q q ! U.S.F.W.F.F.P.F.F.F.F.F.F.F.F.P.F.P.F.A.A.G.S.r 3 3 9 9 9 9 9 q 9 9 9 9 y e y g Y I I F.U.U.U.U.T.U.U.T.T.U.U.U.I.T.I.I.Y.R.E X @ r W K W b.a 4 e e e e y y y y y y y y u y 5 1 N Y F. X|.|.|..X|.|.|.|. X X|..X.X.X.X X X}.J.J.W.s e y e y y y y y y e y e e 9 3 4 w ^.|.oX}.|.|.|.|.|. X.X.X X.X XOXOXOXOX XW.~.~.Y d i g i i i i i u u y u y y 0 6 q !.|.oX|.|.|.|.oXoXoX|.|.|.|.|.oX^.).oX^.n.K j.p @ o . & u y y y y y y u u f u q w u oXOX.X.XXX X X X X|.|..X|.|.}.|.|.|.'.].~ U Y I t y e e e y y y y y y y y q 3 5 1 B.|.).^.^.}.^.}.|.}.|.|.|.|.|.|.|. X].].{.{.|.k y u u u u u u u u u u u u y 2 4 6 N.|./.Y.^.Y.^.^.^.^.^.!.!.^.~.^.U.!.U.U.b.b.b.s q y y u y u y e y e y & $ $ e i u u 9 q 4 s '.(.^.|.|.R.^.^.R.!.!.U.U.U.!.!.!.U.!.~.~.Y.F.q 5 e e q e e y y y y e y y y y 9 5 6 Y }.^.!.Y.Y.Y.Y.Y.Y.R.Y.U.U.U.Y.Y.Y.Y.U.D.F.F.N 3 e e 9 9 9 e 9 q 9 9 9 9 9 q u I I R M.S.S.S.D.D.D.D.D.D.D.D.D.D.D.F.F.D.F.n.* 6 y e q y y 9 q e e 9 9 9 3 3 3 3 + o o & O.%.%.%.%.%.%.%.{ [ _ f.kXkXeX[ ) ' ' ' ' ' ` ( [ O...l l l l l l l l l ",
"c 9.3X4X>X=.=.=.=.=.*.=.*.*.*.=.*.*.*.=.=.=.*.{ ( ( / f f f f f g g g g g g g * o o . + * * * * & & & & = = : n C V V V V V V V V V V V C L c.L c.b.b.p 4 q 9 e e 9 9 9 9 9 9 9 9 y e 9 q w r ! P.P.F.W.F.F.F.F.F.F.F.F.F.F.F.P.P.W.P.~ 9 i t e 3 9 3 9 3 3 9 9 3 9 9 e e 9 5 U !.I.F.P.U.U.U.U.T.T.U.U.U.T.T.U.I.U.U.U.U.R.R X + - M R W b.s 9 e e e y y y y y y y y y 9 f T ~ C.|.|.|. X|.|..X|.|. X|. X.X|..X.X|..XXX@XQ 6 w u u y y y y y y y y e e y e q y a j s ^.|.|.R.|.|.oX|.|.|. X|..X X X.XoX=X=XoXk w f g i u g f i u i u u u u y y i B.B.B.^.|.}.^.|.|.|.^.|.oX|.|.|.^.^.^.!./.).W.3 2 - * + o . & u y u y y y u u u u x T Y ! oX.X.XXXXXXXXX XXX#X.XOXXX|.|.|.}.|..X].s 6 3 0 y y y e e y e y y y y y y q N P P J.|.^.^.|.|.}.|.|.}.|.|.|. X|.|.|. XXX! x U M i u u u u u u u u u u u u y k ! T E !.^.^.Y.^.^.^.^.~.^.^./.^.R.U.!.!./.^.D.1 6 0 y y y y y y y y q y y q & $ $ y u u g Y ! T B.^.(.^.|.|.^.|.^.^.(.~.!.^.!.!.U.P.!.!.F.m.m.b.r 9 e y q e e y e 9 9 9 q 9 e y a s s ~ R.!.!.Y.Y.Y.Y.Y.R.R.Y.Y.Y.U.Y.U.Y.^.F.q w y y e e e e 9 9 9 9 q 9 9 9 3 = 2 N I.A.D.S.D.D.D.D.D.D.D.D.D.D.D.D.D.D.D.J.S.v.~ q 2 e e e e y q e e q 9 9 e 9 3 3 3 + . o & O.%.%.%.&.%.%.%.{ [ [ f.lXkXrX[ ) [ ` [ ' ' ' ' O.O.' ( ( l l l l l l l ",
"c 9.3X3X>X=.=.*.=.=.=.=.*.*.*.=.*.*.*.*.*.*.*.{ ( ( ( f f g f g g g g f g g g * o o . $ * & * & & & $ * s C n C V m V V V V C V V V V V C W c.c.b.v.v.s 4 9 3 9 e e 9 9 9 9 9 9 q e e 9 5 Q N.m.W.D.F.F.F.F.D.D.F.F.F.F.F.F.F.P.W.P.U.E 1 3 3 e 9 9 9 9 9 3 9 9 9 9 9 9 9 3 4 E A.P.F.F.P.U.U.U.U.U.U.U.U.T.T.T.I.T.Y.I.I._.R @ & * # u u u y e e e y y y y y y y y e 9 5 f C.R.~./.).oX|.|.|.|.|.|.|.|.|.|. X.X.X.X.XOX+XQ 0 y y y e y y y y y e e 9 e e 3 4 Y `.R.`.`.}.^.}.|.|.|.|.|..X.X.X XXXOXOXOX#XOX.XB d i i u u u i i i u u u u u y q a R.]. X|.|.^.}.|.(.R.R.^.Y.^.|.^.^.^.^./.~.Q.J.4 2 * * & o . & u y y y y y y y e q ~ @X+X#XoXOX.X|. X|.|.|.|.|.}.|.|.|.|.|.|.|.|. XT q e y y y y e y y y y e e e e 3 s }.'.|.^.(.^.^.|.|.|.|.|.}.|.|.|.|.|.|.|. X+XU 8 q q u y y y y y y u y y u y y q U ].'.|.^.^.^.^.^.^.^.^.U.^.^.^.Y.^.^.Y.^.^.R.J.0 3 e y y e y y y u y 9 e y 9 & $ $ y u y f K.XX|.|.(.^.^.^.^.^.R.^.R.^.!.~.U.U.!.!.W.W.!.b.1 0 q q 9 e e e e e e e 9 9 q e 9 3 i N.G.U.U.U.U.U.Y.U.Y.U.U.R.Y.Y.U.Y.Y.U.!.~.T.F.q 5 9 e q 9 e 9 9 9 9 9 9 9 9 9 3 = 6 i A.S.J.S.D.S.S.S.S.S.S.S.S.S.D.D.D.D.F.F.F.b x q e 9 y y e e y e y y e 9 9 3 3 9 3 o . . $ X.%.%.%.&.%.%.%.{ ] ( s.kXkXtX[ ( [ ' [ [ ' ' ' [ ..{ O.' l l l c l l c ",
"v 9.4X3X;X=.<.*.*.,.=.=.=.=.*.=.=.=.=.*.*.*.%.{ ( ( ( f f g f f f g g f g g g * o o . o & + & & & & X X b D V C V V V V V C V C V V V V C W j.W R W W t e e 9 9 9 e 9 q 9 3 9 9 3 9 3 4 1 Q U.W.W.P.F.F.F.F.F.D.F.F.F.F.F.F.P.A.P.U.R.E 3 e e e e e e e e 9 e 3 3 9 9 0 0 4 1 b.F.P.U.P.U.U.U.U.U.U.U.U.U.T.U.I.T.I.F.n.n.N.M & * & 3 u y y y e y r y y y y y y y r q 2 1 4 C.|.).^.(.oX|.|.|.|.|.|.|.|..X.X.X.X|. X+X@X@XQ q y y u u y y y y y y e 9 e 3 4 6 Y |.|.|.}.}.|.|.|.}.|.|.|.|.|. X X X.X X^.^.|.).x u i g f u f i f g f u f f u 0 6 w !.|.|.|.|.|.}.|.|.|.|.^.^.|.|.^.^.^.).|.}.E.F.2 = 2 3 & o o & u y y y y y y q w 8 ! %XOXOX.XOXOX XXX X|. X|.}.^.|.|.|.|.'.|. X{.].U y y u u u u u y y y y e e e 3 4 a ^.(.(.^.}.}.|.}.|.|.|.|.|.|.|.|.|.|.|. X{.{.T q y y u u u u u u u u u y u y y w U  X|.}.}.}.}.^.^.^.^.^.Y.^.^.^.^.!.~.U.U.U.R.N.9 e y y y y y u y u y 9 y y 9 & + & y u g y B.OX.XoX|.|.|.}.|.}.^.^.^.R./.!.^.^.!.!.R.U.Y.V.1 3 9 q e y e e y y e e e 9 9 9 3 4 q N.U.!.U.U.U.U.U.U.U.U.U.^.R.Y.Y.U.U.U.U.Y.Y.P.t 9 e e e 9 q 9 9 9 9 9 9 9 3 9 0 0 1 M D.S.D.S.S.D.D.D.S.S.S.S.S.S.D.D.D.S.N.S.S.s u y e y e y e q e e e e 9 9 9 3 & & $ o . . + O.%.%.&.$.%.%.%.{ [ ` f.kXhXuX[ ( [ [ ' ' ' ' ' ( ( [ [ / c c l v l l l ",
"v 9.3X3X;X=.=.*.*.*.*.=.=.*.*.*.*.=.=.*.*.%.%.{ ( ( / f f f g f f g g g g f g * o + o + + o $ & = p : > V V V V S V V V S V V S V V V C V L k.P 1 9 r 9 9 q q 9 9 y e q y 9 9 9 9 g T Q T B.W.J.D.F.F.F.F.F.D.F.A.F.F.F.F.P.P.D.s x P p e e e e e e e e 9 e 9 3 3 3 2 Y N.~ W S.F.D.P.P.P.F.F.G.G.G.U.G.U.U.U.I.I._.E 4 q q 9 * & & 3 u u y y y y y y y y y y y y e k ! ! ! !.^.^.^.^.^.}.|.|.|.|.|.|.|.|.|.|. X].~ N Y Q k u u u u u y y y y y y y e e q a u T  X|.}.`.`.`.R.`.^.}.R.R.}.|. X X XXX XU c x x g f u f f u u u u f g f i f x Q Y T ^.|.}.}.}.}.`.R.^.}.R.R.`.|.|.|.^.(.).B.Y Q Q 3 * 3 3 & o o & u y y y y y d k U x B.%XOX|. X X X X X'.|.|.}.|.}.}.|.|.|.].~ U Y Y i y y y y u u y y y y y e y y 2 6 y /.(.^.^.}.}.}.}.}.`.}.}.^.}.|.|.|.].`.T Y Q s u u u u u y y y u u u u u f w w 4 T  X|.|.`.`.R.R.Y.Y.Y.Y.U.Y.U.Y.!.!.^.Y.N k x a y y y y u y y y y y u y y 9 9 & + $ y N Q B.W.oX|.|.|.}.R.}.^.R.R.T.U.^.F.F.U.!.U.D.b.b.M.E 3 9 y y y y y y y y y e e 9 e q q q a D.U.!.H.U.U.U.U.U.H.U.H.U.U.U.U.U.U.Y.Q a P N y e y e e 9 e e 9 9 9 9 9 9 3 u ! n.l.m.S.D.S.S.S.D.S.S.S.S.S.Z.Z.S.S.S.D.M.t i a u u e e y e e q e e e e e e 9 9 3 o o o . . . $ ..%.$.$.%.%.%.%.{ [ [ f.lXkXrX[ ( [ [ [ [ ' ' ' ) ' ) ( ( / ' / l l l l ",
"c 8.3X3X>X=.=.*.*.=.*.*.=.*.*.*.*.*.*.%.*.%.%.{ ( ( / f f f g g g g g g g g g * o o . o + + & @ = I C C S C V C V V V V V V V V V C V V C L j.b 2 = 3 9 9 9 q 9 9 e e e e 9 3 3 3 U W.Q.Q.J.J.W.F.F.F.F.F.F.F.F.A.F.F.F.F.P.P.M.q e 9 y y e e e e e e e e e 3 9 3 3 2 I I.P.F.F.F.F.F.F.F.F.G.G.G.A.G.G.U.I.I.T.T._.Q 5 r y 9 & & & * u u y u u y y y y y y y y e 3 U XXoX)./.~.^.^.^.^.^.^.^.^.^.^.}.|.|.|.|.|.].U w 5 q u u y y y y y y y y y y e e 5 s ].}./.}.^.^.`.}.`.`.`.`.`.`.`.R.}.|.}..X.X XU f e y f u u f f u u u u u f i f w Y %XOX.X|.|.}.}.}.^.`.`.}.R.R.R.R.R.}.^.^.^.oXl 6 1 2 2 2 9 9 * + o * u y u u y e q C. XoXoXoX|.|.|.|.|.|.|.'.|.}.R.}.`.R.^.}.|.'.U w 5 q y y y u y y y y y y e y y q a N.V.C./.).(.}.}.}.`.R.R.R.R.R.^.^.^.R.|.|.R.d w q y u y u y y u y y y y y y y d C.P.Q.^.|.|.|.|.}.`.R.Y.Y.U.U.U.H.U.U.U.!.!.U.k 5 3 q y y y u u u u u u u u e e e 9 & o & e U T C.!.oX|.^.|.|.}.^.^.^.R.U.U.~.U.!.U.!.U.N.8 0 9 q q q y y y y y y y y y e 9 9 0 u N.F.D.P.P.U.U.H.H.F.F.F.F.H.F.F.F.U.H.U.!.Y.Y 6 3 3 q 9 q 9 9 9 9 9 9 9 9 9 9 3 2 s A.D.F.S.S.S.S.S.S.S.S.S.S.S.N.S.S.S.S.S.D.N.y 3 e e y y y y e y y e e e e e e 9 9 3 o o . . . . $ O.*.%.%.%.%.%.%.{ [ _ f.lXkXtX[ ) [ [ [ ' ' ' ' [ [ [ ` ( ' ..[ l l l l ",
"v 9.2X2X>X=.=.*.*.*.*.*.*.*.*.*.*.%.%.&.*.*.*.{ ( ( / f f f f g g g g g g g g * . o . . . + & @ : V C C S C V V S V V V V V S S S S S S D L k.M * = 3 9 9 9 e e e e e e 9 9 9 9 4 s N.C.Q.N.J.W.F.F.P.F.F.F.P.P.F.P.P.F.P.W.P.m.y r y y y e e r e e y e e e 9 9 9 3 1 I P.Q.J.J.F.P.P.F.F.F.P.P.P.P.P.U.T.T.T.Y.R.E.~ 5 y u 9 & & & * y u u u u u y y y y y y y e 4 x ~.*X*X).).^.(.(.^.^.^.^.(.(.(.|.|.|.|.oX(.[.U y e y y y y y y y y y y e y q y e 4 x ]..X).^.^.R.R.^.^.^.`.^.^.}.}.|.|.|.|.oX|.XXU d y u i u u u u u u u u u u u i w U XX.XoXoXoX|.}.^.^.^.^.^.}.}.}.^.|.|.(.).^.oXx 2 3 3 3 3 9 9 * + o * u y u u y y w Q.(.).).).oX|.|.|.|.|.|.|.|.|.|.|.|.|.|.).R._.U d y u y y y y y y y y e y y e e q s  X|.oX).).(.^.^.^.^.^.^.^.R.R.^.^.^.^.|.E.R.k u u u u u u u u y y y y u y y d w U.{.#X.XoX|.|.'.`.^.R.R.Y.Y.U.Y.Y.U.U.!.!.U.U.a 5 e y y y y y y u u u u u u 9 9 9 9 & . $ 9 U P V.~.oX(.(.(.(.^.^.^.(.^.^.^.^.^.^.~.~.U.D.w e 3 9 q q y y y y y y y y e 9 9 3 5 q G.T.W.W.W.P.P.F.F.F.P.F.F.F.P.H.U.U.U.!.!.U.Q 2 3 9 9 9 9 9 9 9 9 9 9 9 9 9 9 3 4 M A.C.J.S.D.D.D.D.D.S.N.N.N.S.S.S.S.S.S.J.D.S.i e e y y e e e e y e e e e e e 9 9 9 2 o o . . . o & O.=.*.%.@.%.*.%.{ [ [ f.lXkXtX[ ) ' ' [ [ ' ' ' ' ' ' ' ) ' ' ' l c l l ",
"c 9.2X1X;X=.=.*.*.=.*.*.*.*.*.*.*.*.*.*.*.*.*.{ ( / / f f f g g g g g f g f g * o . . . . + $ @ : C C m V C C C C m m m m m m m m m m m b S F , * 3 3 3 9 9 9 9 9 e e 3 e 9 e e 2 N N.m.M.M.N.N.m.M.M.M.M.M.N.N.M.M.S.S.S.D.L.N.9 y u y u y y y y y y y y y y y e 9 2 R L.S.S.D.A.A.D.D.S.D.D.D.D.D.D.F.F.F.P.G.U.Y.~ 3 u g 9 & & & * y u y u u u u u y y y y y e 2 U ).Q.W.W.~.!.!.!.!.U.U.!.!.~.~.^.^.^.^.^.(.|.P 3 y y u u u u y y y y y y y u u y 4 U  X^.U.U.U.U.U.U.U.U.U.U.U.U.U.T.T.U.U.U.^.Q.a y u f f f f u u u u u f f f g f w U |.^.Y.R.R.R.T.U.U.U.U.U.U.R.^.^.^.~.~.~.~.).x 2 3 e 9 9 9 q 3 + + * u y u y y y 5 C.T.!.!.!.!.U.!.~.~.^.^.^.^.~.~.!.U.U.U.!.U.U.s 9 y u u u u u u u u y y y y y e 4 x |.^./.R.Y.T.U.U.T.T.T.T.T.T.T.T.Y.Y.Y.R._.T.u e u u f f u u u u y y y u u y y q N.~.!.Y.U.U.U.U.U.P.P.F.F.D.D.A.A.S.S.M.N.S.b.9 9 e e y y q y y y u u u u u 9 3 9 9 $ . $ - U M b.!.W.P.W.W.P.W.F.P.P.P.F.F.F.F.F.F.F.G.V.9 9 9 9 y y y y y y y y y y y q q 3 5 r D.N.S.S.S.M.M.M.M.S.S.S.S.S.A.D.A.F.F.F.F.U.I 2 9 9 q q q 9 9 9 9 q 9 9 9 9 9 9 2 M S.n.n.n.n.m.n.n.n.M.m.M.m.m.m.m.m.M.m.M.M.m.r 9 e y y y y e e y e e e e 9 e e 9 9 = . . . . o o & +.=.*.%.&.%.*.%.{ [ [ f.lXkXrX[ ) [ ' [ [ [ ' ' ' [ ' ' ' ' ( ` v v ( ( ",
"v 8.2X2X>X=.*.%.*.*.*.*.*.*.*.*.*.*.*.%.*.*.*.{ / ( / f f f g f f f g f f f g & o . . . O + + + $ % $ $ % % % % % % % $ $ $ $ & & & + $ + # + & & & & & & & & * * * & & * * * = 2 9 t t , , , , , , t t t t , t t r t t t i t p 3 3 3 3 3 3 3 3 3 3 3 3 3 = = = = 3 3 e t t t t t t r t : : : : : r t r t t t t t r - 9 9 9 3 & & & + * * = = 3 3 3 3 3 2 * * * * 2 9 t t t t t t t t t t : r r : : t t t i i i t q 3 = 3 3 3 3 3 3 3 3 3 3 3 3 3 9 9 0 q s a r t r r r r r r : : : : : r e e y q q 9 0 e 9 9 9 9 9 9 3 3 3 3 3 9 9 9 q q u a a a a t p t t t t t t t p p p p p i i u r 9 3 = 3 * * * 2 & + + & * * & * * = 3 9 r t r t t t t t t t t t t t t t t i i u u q q 9 3 3 9 9 9 9 9 9 9 3 3 3 3 3 3 3 q s s s p p p t t t t : : : : , , t t t t t r 3 9 9 9 9 9 9 9 9 9 3 3 3 3 3 9 9 9 y u i t t t t r r r : : - - = = = = 2 3 2 2 # 2 = * * * * * * * = = = * * * * & % % $ . + & 9 2 q t u t t t t t t r r r t t t t t i i u 9 9 3 9 3 2 3 3 3 3 3 3 3 3 3 3 2 * * 3 2 t t t t r r : : : : : : : : : t r t i t i r 9 3 3 3 3 3 2 3 3 3 2 2 2 2 2 * 2 3 3 - t r r : : : : : : : : : : : : : : t t r r e 9 3 3 3 9 9 3 3 3 3 3 3 9 = = = * = & $ . . o . o o & +.=.%.%.%.%.*.%.{ [ [ f.lXhXrX' ( ' [ [ [ [ [ ' ' ' ' ' ' ' ' ' ( [ ....",
"v 9.2X2X>X*.*.*.*.*.*.*.*.*.*.%.%.=.%.&.%.*.*.{ / / / f f f f f f f f f f f g & o . . . + + + & + + + o + + + + + o + O + O + + $ $ $ + $ & + & + + + + + & & & & & & & & & & & & & & & % % = = = % = = = * = = = = = = = = 3 = 9 * * * & * * * * * * * & & & * & * = * & & & & & & & & & & & & & & % % % = = = = = * * 2 2 * & + & + + & & & & & & & + + + @ + + & @ @ @ & & * * * * & & & & & & & * * * = * 3 2 * & & & & & & & & & & & & * * * * * * 2 2 2 * * & & & & & & & & & & & & & & * * 2 2 2 2 2 3 3 3 2 3 2 3 2 3 3 2 3 3 2 3 9 2 3 3 2 2 = * * * * * * * * = = = = = = * & * & & & + @ & & + + + + + & $ & & & * * * & & * * * * = * = = = = 3 3 3 3 9 3 9 9 3 3 & & * * * * * * * * * * 2 2 2 * * 2 2 2 2 * & & & & & & & & @ & & & & & & * * * 2 2 2 2 2 2 2 2 2 2 2 2 2 2 3 3 2 9 3 3 9 9 9 3 9 3 3 = * * & & & $ & $ & % $ & + & $ $ $ & $ $ & & & & $ + + + o + $ $ . . o + $ & & * 2 = = = = = = = = = = = = = = = = 3 2 2 & & & * * * * * * & * * * * & @ @ & * & & & & & & & & & & & & & & & & & * = = = 2 2 2 2 * 2 * * 2 = * * * * 2 2 * * * = * * * * * * & & & & & & & & & % % & * * * = = = * * * = = = * * * * * * * & & & & $ $ o o . . o o & O.=.%.%.%.%.%.%.O.[ ` >XlXkXeX[ ) [ [ [ [ [ [ ' ' ' ' ' ' ' ' ' ` ' [ { ",
"v 9.4X3X>X*.*.*.%.*.*.*.*.*.*.*.%.%.%.&.*.*.*.{ ( ( / f u u f f g g f f f f f & . o . o + o + + $ $ $ $ $ $ $ $ $ $ $ $ $ $ $ $ $ $ $ + $ $ $ + + $ + + & * * * * & & & & & & & @ & & % % % % % % & & & & % % $ & & & * * = = = 2 2 3 3 3 3 3 3 2 3 3 3 = * * * * * * & & & & $ + + $ + + + + + + + + $ & & & * % = * * * * * & + & + & * & & & * & & & + + + + + + + o o + + $ $ & & + + + + + + + + & & & & * * & & & & & & & & & & & & & & & * * * * * & & & @ @ + + @ @ @ @ @ + + @ @ @ + + & * * 2 2 2 2 2 2 2 3 2 = 2 2 2 2 3 3 2 2 2 2 * * * * * * * * & * * * * * * * * * * * * & & * & & + + & + o + + $ & $ & & + & & & & $ & % & & & & * * * * = 3 3 3 3 3 3 3 3 2 2 * * * * * * * * * * 2 * & * * * * & & & @ + + @ @ + @ @ @ + + + @ @ + + & & & * 2 2 2 2 2 2 3 3 3 5 5 3 3 3 3 3 3 3 3 3 3 3 3 3 2 * * * & & & + + + + + + + o o + $ $ $ $ $ $ $ $ $ $ $ $ $ $ + o o . . . $ O + $ & & & & % & * * * * * * * * * * * * * 2 2 * * * * * * * * * * * * * * * & & + + & $ + + + + + + + + + $ + + @ @ @ & & & & * 2 2 2 2 3 3 3 3 3 3 3 3 3 3 3 3 3 2 * * * % % & & & & & $ $ $ $ $ & & & & & & & & & * * * = = * = = * * * = * * * & & & & $ $ o o o . + o & O.%.%.%.%.%.%.%.O.[ ( y.jXgX9X' ) [ ' [ ' ' [ ' ' ' ' ' ' ' ' ' ' [ [ [ ",
"v 9.3X2X;X*.*.*.*.=.*.*.%.%.*.*.*.%.%.*.*.%.%.{ ( ( / f f f g g f f f g f f f * . o . + + o + & % & = * * = = = = 3 3 = 3 9 9 9 3 3 3 3 3 9 9 3 9 3 3 3 y u y y y y y y y y y y y y f g g g k k k k k k k k k g g k k k l l k k h l k l l l l l l l l l l l l k k g f f u u u u u u u u u u u u u u u i i g k k j j i i g g q * * & & = y g c / ) v v c l l l l l l c c c v v / v v v v v c c c c c c c c c c c c l c c c v v v v v v v v v / / ( / / v c c c v c v v v v c c c c c c c c c c v v c c v v / / / / v / / ( ( ) ( ( ( / / v l c k k k k k k k g j k k k k l c c l k k k g f f u u q 9 = * & $ + 9 g k k k k k g h g g k k k c c l c c v v v v v v v v v v c c c l l c c l l l c c l l l l l l l l l l l l c c l c l l c l l l l l l l l k k k g l l l l l l l l l c l l l l l l l k k k k c c l l c c c l l k k k k k k k k g g g g g g g g f f i u u u u u u y 9 9 9 = . . O y k l c c v v v v v v v ( v v ( v ( ( / v v c c l l l l l l k k k g g g g g g g f f u f u u f u f f f u u u u y u u u f f f g g g g g g k g k k k k k k g k g g g f f f u u u i i i f u u u u u u u u u u u u u u u u u u u u u u u i g f f f f f u u u u y y y o o . o + o & O.=.%.&.*.%.%.%.O.{ [ i.hXtX4X' ( [ ' ' ' ' [ ' ' [ ) ) ' ' ' ' ) ' ' [ ",
"c 9.3X2X;X=.*.*.*.*.*.*.%.%.*.%.*.*.*.*.%.%.*.{ ( ( / f f f g f g g f g f g g * o . . + + + + f g g g g g f f g g k k k k k l l l k k k v [ [ [ [ ..O.O.2.2.2.2.2.2.2.2.2.2.2.1.1.4.3.7.3.3.7.8.8.8.9.q.w.8.8.3.3.8.8.e.r.t.i.i.i.t.i.i.i.i.i.i.i.a.a.a.a.i.i.t.y.t.r.r.r.e.r.e.r.r.r.r.r.r.r.r.r.r.r.r.r.y.y.t.t.t.t.r.r.d.O.& & 3 +.%.+.3.rXyXyXrXrXwXqX0X0X0X0XqXqXeXwXeXrXrXrXyXyXrXwXwXwXwXwXwXwXrXyXyXuXuXuXyXtXyXuXuXuXuXuXuXuXuXuXuXsXsXsXsXsXsXuXuXuXuXyXyXyXyXyXyXyXyXyXyXyXyXyXyXyXtXyXyXyXuXyXuXuXuXuXuXuXuXuXuXsXsXsXsXsXuXtXtXrXrXrXrXrXrXeXeXeXeXeXrXrXrXrXrXrXrXeX0XwX9X9X7X1X1X+.c ) l & & o 3.9XrXrXrXrXwXwXwXrXrXrXyXrXrXyXyXyXyXyXyXyXyXyXuXuXuXuXuXyXyXyXyXrXrXrXrXwXrXrXrXrXrXrXrXrXrXrXrXrXeXwXwXwXwXwXwXwX0X0X9X9X9X9X9X9X9X0X0X0X0X0X0X0X0X0X9X0XwXwXwXwXwX9X0XwXqX9X9X0X9X9X9X0X0X0X0X0X9X0X9X9X8X7X3X3X,X>X>X>X>X,X>X>X>X>X>X>X>Xf.s.s.s.a.a.a.a.f.+.k v u + . . *.f.a.d.s.f.>X>X>X>X>X>X>X>X>X>X>X>X>X,X,X>X>X>Xf.f.f.f.d.s.d.d.a.a.a.a.a.i.i.i.t.r.r.r.r.r.e.r.e.r.r.e.w.w.w.w.w.w.w.w.w.e.e.e.r.r.e.r.e.e.t.t.t.t.e.e.9.9.9.9.9.9.9.9.9.9.8.9.9.9.8.8.8.8.8.8.8.8.8.8.8.9.w.w.9.w.w.w.e.e.e.r.e.e.e.e.r.w.e.w.9.9.7.2.2.2.2.O.. o . o $ o & ..%.%.%.&.%.%.*.O.{ [ r.sXrX4X' ) ' ' ' ) [ ' [ ' [ ' ' ) ) ' ) ' ' [ [ ",
"v 9.3X2X;X*.*.*.%.%.%.%.%.%.%.*.*.*.%.%.%.%.%.{ ( ( / f f f f f f g f g g g g & o o . o o o + l c c l k l h h g k k k k l l l l l l c l v o.O.O.O.%.*.@.4.7.7.7.3.4.4.4.4.4.3.7.3.7.7.8.8.7.7.8.8.8.w.9.8.8.8.6.3.8.8.r.t.i.i.a.d.a.d.d.f.f.f.d.d.f.f.d.a.a.a.a.a.a.i.i.i.t.i.t.i.t.t.t.t.t.y.t.t.t.t.t.t.i.i.i.i.i.i.d.i.t.[ & * 9 *.%.*.8.rXuXdXsXsXuXuXyXtXrXrXrXrXrXrXrXrXrXrXyXyXyXwXrXrXyXyXuXuXuXuXiXsXfXfXfXhXhXhXhXhXhXhXhXhXhXhXhXfXfXhXfXfXfXdXdXdXdXsXsXsXuXuXuXuXuXuXuXuXuXuXsXuXsXsXsXsXdXdXdXfXfXfXfXfXfXfXdXfXfXdXdXfXdXdXsXdXsXdXsXsXsXsXsXuXuXuXuXuXuXuXuXuXsXsXuXuXuXuXrX8X1X%.) / l & & + 8.0XyXsXuXsXuXsXuXuXsXsXuXuXuXuXuXuXuXiXiXiXiXdXdXdXfXfXfXfXkXfXfXfXfXfXfXfXfXfXfXfXfXdXdXdXsXsXsXsXsXuXyXyXyXyXyXrXwXrXrXwXwXwXrXrXrXrXrXyXyXuXuXuXuXuXuXsXsXsXsXuXuXuXuXuXuXuXuXuXuXuXuXuXuXuXuXuXyXyXyXyXwX0X9X9X7X2X,X3X2X2X3X2X2X2X1X1X1X,X,X>X>X>Xs.s.d.d.%.k k y + o . *.d.f.f.f.f.>X>X>X>X>X,X,X,X,X1X1X1X,X1X1X1X1X1X3X1X1X1X1X,X,X>X>X>Xd.d.s.s.a.a.a.a.a.a.i.i.t.i.t.t.t.r.r.e.e.r.r.e.e.t.r.r.t.t.i.i.i.i.a.i.a.i.i.i.i.y.y.r.r.t.r.t.r.r.r.r.r.r.r.r.e.e.w.e.w.w.w.w.w.w.w.w.e.r.r.r.r.t.t.r.r.r.r.t.e.e.e.e.w.9.9.9.8.:.:.6.:.X.o o . o + o & ..%.%.$.+.%.*.%.O.{ [ a.dXuX8X[ ' ' ' ' ' [ [ ' ' ' ' [ ' ' ' ) ' ' [ [ ",
"v 9.3X1Xs.%.*.*.*.*.*.%.*.%.%.%.*.%.%.%.%.%.&.[ ( ( / f u f f g f f f f g g f & o o . o o o & l v v k k k k k k k k k k l k l c l c c k v ..{ [ } @.#.+.4.7.6.3.4.4.4.4.4.4.7.7.7.7.7.8.8.8.7.7.8.9.9.8.8.7.8.8.6.8.9.w.t.i.a.a.a.i.i.a.a.a.a.a.s.s.s.a.a.a.a.a.a.s.a.a.a.i.i.i.t.t.y.t.t.t.y.y.y.y.t.t.t.t.a.a.a.i.i.a.d.f...& * 9 %.%.*.e.tXdXfXdXsXdXsXsXsXuXuXuXuXyXrXrXrXrXrXrXrXrXrXyXtXrXuXuXsXsXgXfXfXhXhXhXkXhXkXkXkXkXkXkXkXkXhXhXhXhXhXhXhXhXgXfXfXdXdXdXdXdXsXsXsXsXsXsXsXsXdXdXdXfXfXfXfXfXfXfXfXfXhXhXhXgXgXgXgXfXfXgXfXfXdXgXdXdXdXdXdXsXsXsXsXuXuXuXsXsXsXsXdXdXdXdXsXsXsXuXrX3X-.) ( c * & o 3.8XyXuXuXsXsXsXsXsXsXuXsXsXsXsXuXuXuXuXuXdXdXdXfXfXhXkXkXkXkXkXkXkXkXkXkXkXkXhXhXhXhXfXfXfXfXdXfXdXsXsXsXuXuXuXyXyXyXyXrXrXyXyXuXyXuXuXuXsXuXuXuXuXuXuXuXsXdXsXsXsXsXsXsXsXsXuXuXdXsXsXuXuXsXuXuXuXuXyXyXyXrXrXwX9X8X4X2X4X4X7X8X4X9X4X2X2X2X2X,X,X>X>X;Xs.a.a.%.g k u $ . . *.d.d.f.>X>X>X,X,X>X>X>X,X,X<X1X1X1X3X3X3X3X3X3X3X3X3X3X3X2X1X1X<X>X>X>Xf.s.s.a.s.s.a.a.a.a.t.t.i.y.t.t.t.r.r.r.r.t.r.t.y.y.y.i.i.a.a.a.a.a.a.a.a.a.i.y.y.t.y.r.t.r.r.r.r.r.r.r.r.r.r.e.w.w.w.w.9.9.w.9.9.9.e.r.r.r.r.t.y.t.y.y.y.y.t.t.r.r.r.r.r.q.8.7.:.2.2.X.O O o o o + & ..%.$.$.$.$.%.%.O.[ [ >XvXxXuX[ ' [ ' ' ' ' [ ' ' ' ' ' ' ' ' ' [ [ [ [ ",
"c 8.3X1Xs.%.*.%.*.*.%.%.*.%.%.%.%.%.%.&.%.%.%.{ ( ( / f f u f g g g f f f g g & o o o o o . + z v l g f f g g g g g g g g g k k g k k g c ( / / _ [ { { O.O.O.+.+.+.O.O.O.+.@.@.#.@.&.%.%.%.%.%.%.%.*.*.*.%.*.*.*.*.*.%.:.:.:.:.:.=.=.:.2.2.2.2.2.2.2.2.2.2.2.2.2.4.4.4.4.4.4.6.3.3.3.3.3.3.3.3.4.4.4.1.2.2.2.2.2.2.2.3.3.w.' * * 9 %.*.*.8.9X0X7X9X4X3X3X3X2X1X,X,X,X,X,X,X1X1X1X2X3X1X1X1X3X1X1X1X1X1X1X1X1X1X1X1X1X1X3X3X3X3X1X1X3X3X3X3X3X3X3X3X3X3X3X3X3X2X,X,X,X,X,X1X1X1X1X2X2X1X1X2X2X2X2X2X1X1X1X1X1X1X3X3X2X3X2X3X4X4X4X4X4X4X4X4X4X8X9X9X9X9X9X9X9X9X8X8X8X0X8X8X9X9X9X9X9X0X8X9X0X,X%.) ) l * & + 3.7XrXrX0X1X1X3X3X1X,X1X1X1X,X1X,X,X1X,X1X1X1X1X1X1X1X1X1X1X1X1X1X1X1X1X1X1X1X1X1X1X1X1X1X1X1X1X1X1X,X1X,X>X>X>X>X>X>X>X>X>X>X>X>Xf.f.>X>X>X>X>Xf.f.f.f.>X>X>X>X>X>X>X>X>X>X,X>X>X,X1X1X1X1X1X,X1X1X2X1X3X2X1X1X,X1X>Xd.a.a.a.a.a.a.a.i.a.a.y.i.t.y.y.y.r.r.r.a...f l u & o o *.s.a.i.e.e.r.r.r.r.r.e.r.r.r.t.r.9.9.9.9.9.8.8.8.8.8.7.7.8.8.7.7.6.3.6.6.6.6.6.3.3.3.3.4.3.3.3.3.4.3.3.4.3.3.3.4.2.2.2.2.2.2.2.4.2.4.2.2.2.2.2.3.2.2.2.2.2.2.2.2.2.2.2.2.4.4.2.2.2.2.2.2.2.2.2.4.4.4.2.2.2.4.4.4.4.3.3.3.3.2.2.2.2.2.2.<.2.:.<.2.2.2.=.*.*.*.O.+ $ o o o o $ [ $.+.+.$.$.+.%.O.{ [ 3XcXbXhX..) [ ) ) ' ' ' ' ' ' ' ' ' ' ) ' [ [ [ [ ",
"c 8.2X2Xf.%.*.%.%.%.*.%.*.*.*.%.%.&.%.%.*.%.&.{ ( ( / f f f f g g g g g g g g & o o . 2 f y y v z c f d f d f f f f f u u f g g g g g f k c v c / ( ( ( ( ( ) _ ( ( ( ( ( ( ( _ _ ( ) _ _ ( ( ` ( ( ( ( ( ) ' ' ` ' ( ( [ [ [ { o.O.O.O.O.O.O.O.O.O.O.O.O.O.| | O.O.O.O.| | } | { { { { ..{ { { { { { { { { { } O.O.O.O.O.%.) * * 9 %.2.*.8.a.i.i.4.2.2.2.<.<.<.<.*.*.*.*.=.%.*.*.*.*.*.*.=.=.=.=.=.=.=.=.2.2.2.2.2.2.2.4.2.2.2.4.2.4.2.2.2.2.4.2.2.2.2.2.2.2.2.2.2.2.2.2.2.2.2.2.2.2.2.2.2.2.2.2.2.2.2.2.2.2.2.2.1.4.2.2.2.4.4.4.4.4.4.4.4.4.4.4.4.4.2.2.2.2.2.2.2.4.2.2.4.3.6.6.6.6.6.6.6.6.w.%.v ) l * & o 2.3X0XwXf.$.<.<.:.=.=.=.=.=.=.=.<.=.=.=.=.=.=.:.2.2.2.2.2.4.4.4.4.4.4.4.4.1.2.1.2.2.2.2.2.2.2.2.2.2.2.2.=.=.=.=.=.=.=.=.=.=.=.*.=.=.=.=.=.=.=.=.=.=.=.=.=.:.2.2.2.2.2.2.2.2.2.2.2.2.2.2.2.<.2.2.2.2.2.2.2.2.2.:.:.:.*.%.%.%.%.+.%.%.%.&.&.&.&.+.+.+.+.+.+.[ ' ) v f k u & o o *.a.i.w.{ ..@.@.+.+.$.$.$.$.+.+.+.+.@.@.+.+.+.+.+.+.$.+.+.+.@.@.+.O.O.O.O.O.O.{ { { { { } } { { [ [ [ [ [ ..{ { O.[ ' ' ' [ [ [ [ [ [ [ [ [ [ { [ [ [ [ [ [ [ [ [ [ [ ) ' [ [ ' ` _ ' [ ' ' ' [ ) [ ) ' ) ) ' ( ' ( ( ) ) ) ) ) ) ) ( ( ( ) ( ( / / v k ' :.%.@.) ' [ & + + $ ..&.+.@.+.$.$.%.O.{ { 4XvXcXhX..) [ ' ' ) ` [ ' ' ' ' [ [ ' ' ' ) [ [ [ ",
"l 8.2X3X>X*.*.%.%.*.*.*.*.%.%.%.%.%.%.*.%.%.&.{ ( ( / f f f f g g g g g f g f & . .   q / l v c / / f f f u u f f f f f f f g k f g g f k / / c / _ ( ( ( _ ( _ ( ( ( ( _ _ _ [ _ _ _ [ [ [ [ _ _ [ [ [ [ [ [ [ [ [ _ [ [ { { [ O.O.O.O.O.O.O.O.+.O.O.O.O.O.O.O.@.O.+.O.O.O.O.O.O.O.O.O.O.O.O.O.o.o.O.O.O...O.} } O.O.@.#.=.) * * 9 %.2.*.9.>X>X>X4.2.2.4.4.2.2.<.<.<.,.*.*.*.*.*.=.=.=.=.=.=.=.<.:.2.2.2.2.2.4.4.4.4.4.6.4.4.4.4.4.4.4.4.4.4.4.4.4.2.4.4.4.4.4.4.4.4.4.1.2.2.1.2.2.4.4.1.1.2.4.4.4.4.4.4.4.4.4.4.4.4.4.4.4.4.4.4.4.4.4.4.4.4.4.4.2.4.2.2.2.2.2.2.2.2.2.4.4.4.4.4.4.4.4.4.7.8.9.@.v ( l = * + 6.2X9X9Xf.*.1.<.2.2.2.2.2.2.2.2.2.2.2.2.2.2.2.2.2.2.4.2.2.4.4.4.4.4.3.4.3.4.4.4.4.4.4.4.4.4.2.2.2.2.2.2.2.2.2.2.2.2.<.:.<.2.2.2.2.<.2.<.2.2.<.<.<.<.<.:.2.2.2.2.2.2.2.2.2.2.2.2.2.2.2.2.2.2.2.2.2.2.2.2.2.2.2.2.<.<.:.=.=.*.%.#.%.*.%.%.#.@.@.@.+.+.+.+.%.' c / c f k u * o + *.a.i.w.O.O.O.+.&.+.+.&.@.@.+.@.%.@.+.+.+.@.+.+.+.+.+.+.+.@.+.+.+.+.+.@.O.O.O.O.O.O.O.{ O.O.O.O.} { { { [ O.O.O.O.[ [ [ [ [ [ [ [ [ [ [ [ [ [ [ [ [ [ [ [ [ [ [ [ [ [ _ ) ) [ _ _ _ [ _ ) _ _ ( ] ) ( ) ) ( ) ( ( ) ( ( ) ) ( ( ( ) ( ) ( ( ( ( ( / / c ..:.:.O.@.O.%.* o o $ ..$.+.+.&.$.$.$.O.{ { 8XnXvXgX..' [ [ [ [ ' [ ' ' ' ' [ [ ' ' ' ) ' [ [ ",
"l 8.2X3X>X%.*.%.%.*.%.%.%.%.%.*.%.%.&.&.%.%.%.{ ( ( v f f f f f g g g g g f f * . o . 9 c l v c v c f d y u u u u u f f u y f g f g g u k / / c / _ _ ( _ _ ] _ ( ( ( ) _ [ [ [ [ _ _ _ [ [ [ [ [ [ [ [ [ [ [ [ [ [ [ [ { { { [ O.O.O.O.O.O.O.O.O.O.O.O.O.O.O.@.O.O.@.O.@.@.@.O.O.O.O.O.O.O.| O.O.O.+.O.+.O.| | | | o.+.%.*.( * * 9 @.:.*.8.>X>Xs.2.=.=.:.2.<.2.<.<.<.*.=.*.*.=.=.=.=.=.=.<.<.<.2.2.2.2.2.2.4.2.4.4.4.4.4.6.4.4.4.4.4.4.4.4.4.4.4.4.4.4.4.4.4.2.4.4.2.4.4.4.4.4.4.4.4.4.4.4.4.4.4.4.4.4.4.4.4.4.4.4.4.4.4.4.4.4.6.4.4.4.4.7.7.7.4.7.6.4.4.4.2.2.2.2.2.4.4.4.6.4.4.7.7.4.4.7.9.q.%.v ( l 3 * + 6.1X0X0Xf.<.2.2.2.4.4.2.4.2.2.2.2.2.2.2.2.2.2.2.2.2.1.4.4.4.4.4.4.4.4.4.4.4.4.4.4.4.4.4.4.4.4.4.2.4.2.2.2.2.2.2.2.2.2.2.2.2.<.2.2.<.2.2.2.<.<.2.<.2.2.2.2.2.2.2.2.2.2.2.2.2.2.2.2.2.2.2.2.2.2.2.2.2.2.2.2.2.2.2.2.<.:.<.=.=.%.*.=.%.*.%.&.&.+.+.+.+.+.@.@.` l / c g k u * $ $ *.y.y.9.O.+.+.+.&.+.+.%.O.#.+.@.%.%.+.@.+.$.+.+.+.+.+.+.@.&.@.+.@.+.+.+.+.+.@.O.O.O.O.O.@.O.+.O.o.{ { { { O.+.O.O.{ [ [ [ [ [ [ [ [ [ [ [ [ [ { { [ [ [ [ [ [ [ [ [ [ [ [ [ [ [ ( ( [ [ [ [ [ [ [ _ [ _ _ [ ) ( ) ) ( ) ) ) ) ( ( ) ( ) / / ( ( / / / / ..:.:.;.*.%.O.* o + $ ..$.+.+.%.$.$.%.O.{ [ 3XnXvXhX..[ [ [ [ ' ' [ ' ' ' ' ' [ ' ' ) ' [ [ [ ",
"l 9.2X1Xs.%.*.%.*.*.%.%.%.%.%.%.%.%.&.&.*.%.%.{ ( ( / f u f f f g g f g g f g & . o . 9 / v c c c c u u u u u y y u f u u u f f f g g f g / / c / ( ( ( _ [ [ _ ) ) _ ] _ [ _ [ [ _ _ [ [ [ [ _ [ [ [ [ [ [ [ [ [ [ [ [ [ { { [ O.@.+.+.O.@.O.O.O.O.O.O.| O.O.@.O.@.@.O.@.@.O.@.@.O.O.O.O.O.O.O.O.O.O.| O.O.O.} | | { O.@.*.( * * 9 @.2.*.w.f.f.a.2.=.=.=.=.=.=.<.*.<.*.=.=.=.*.<.=.=.=.<.<.2.2.<.2.2.2.2.2.2.2.2.1.4.4.4.4.2.4.4.4.4.4.4.4.4.4.4.4.4.4.4.4.4.4.4.4.4.4.2.4.4.2.4.4.4.4.4.4.4.4.4.4.4.4.4.4.4.4.4.4.4.4.4.4.2.4.4.4.4.4.4.2.6.4.4.4.7.6.4.4.2.2.2.2.4.2.2.4.7.4.4.4.7.6.4.7.9.q.%.v ( l = * $ 3.1X0X9Xf.=.<.2.2.4.2.2.4.4.2.2.2.2.2.2.2.4.2.2.2.2.4.4.4.4.4.2.4.4.4.4.4.4.4.1.1.4.4.4.4.2.2.2.2.2.2.2.2.2.2.2.2.2.2.2.2.2.2.2.<.2.2.2.2.2.2.2.2.2.2.2.2.2.2.2.2.2.2.2.2.2.2.2.2.2.2.2.2.2.2.2.2.2.2.2.2.2.2.2.2.:.2.2.=.=.=.=.%.%.*.&.*.&.&.$.+.@.+.+.@.( l / v g g u * $ $ :.t.y.9.+.@.+.@.O.@.+.+.@.%.O.@.%.&.+.+.+.+.+.@.@.&.@.&.&.+.@.@.+.&.+.+.+.+.@.+.O.O.O.@.O.@.O.+.O.{ ..{ { +.O.O.+.{ [ { [ [ [ [ [ [ [ [ [ [ [ [ [ [ [ [ [ { [ [ [ [ [ [ [ [ _ _ [ ' [ ( _ ) ] [ [ [ [ ) ( _ ) ) ) ( ( ) ) ) [ ) ) ( ) ' ( ) ' / v / / v ..:.;.*.*.:.*.* + + $ [ +.O.+.+.+.+.@.{ [ _ 1XvXvXgX{ ' [ [ [ [ ' [ [ [ [ [ [ [ [ [ ' ' ' [ [ ",
"c 9.4X1Xs.%.*.*.*.*.*.%.*.%.%.*.*.*.%.*.%.%.#.{ ( ( / f f f g g g g g g g g g * o o . 9 / l c c v c f u u y u y f f f u u f g f g g g f k v c c c ( ( ( ) [ _ [ _ [ _ _ _ _ [ [ [ [ ] [ [ [ [ [ [ [ [ [ [ [ [ [ [ [ [ [ [ [ { [ O.O.O.O.O.O.O.O.O.O.O.| O.O.O.O.@.+.O.@.@.@.+.@.+.+.+.@.O.O.O.O.O.+.} _ [ ( [ [ { { O.O.+.*.( * * 3 @.2.*.w.d.f.a.2.*.=.<.<.<.<.<.#.@.O.{ [ [ *.=.=.<.2.<.2.2.2.2.2.2.2.2.2.4.4.4.4.2.4.4.4.4.4.2.6.4.4.4.4.4.4.4.4.4.4.4.4.6.4.4.4.4.2.4.4.4.4.4.4.4.4.4.4.4.4.4.6.4.4.4.4.4.4.4.4.4.4.4.4.4.4.6.4.4.4.4.4.6.4.4.4.7.7.4.4.2.2.2.2.2.2.=.+.@.%.=.2.7.7.4.7.9.q.%.v v l = * + 3.1X9X0X>X2.4.2.4.4.=.*.*.%.%.*.:.2.2.2.2.2.2.2.2.2.1.1.4.1.4.4.4.4.4.4.4.4.4.4.4.4.4.4.4.2.2.4.2.2.2.2.2.2.2.2.2.2.2.2.2.2.2.2.2.2.2.2.2.2.2.2.2.2.2.2.2.2.2.2.2.2.2.2.2.2.2.2.2.2.2.2.2.2.2.2.2.2.2.2.2.2.2.2.2.2.2.2.2.2.<.=.#.O.O.o.%.@.@.@.+.+.@.@.@.` l ( v g f u * $ + :.i.y.9.+.*.@.O.l k k k O.:.@.@.%.#.+.+.+.+.+.@.+.+.@.@.@.@.@.&.&.&.+.@.@.+.+.@.+.+.O.O.+.O.+.O.O.} ..} { @.O.O.O.[ [ { { [ [ [ [ { [ [ [ [ { { [ [ [ { [ [ [ [ [ [ [ [ [ ' [ [ [ [ [ [ ( ) [ [ [ [ ) _ [ _ ) _ ) _ _ ) ) ) ) ( ) ) ) c g / / ( ( / ( / ..:.*.*.;.*.*.= $ o $ [ +.O.+.+.+.%.@.O.[ [ 1XvXcXsX..[ [ [ [ [ ' [ [ [ ' [ ' ' ' ' ) ' ' [ [ ",
"c 9.3X2Xs.*.%.*.%.%.%.%.*.*.%.%.%.%.&.%.%.%.&.{ ( ( / f u u f g g g g g g g g & o o . 9 v l c c c c f f u g g y 2 3 9 = 2 9 f g f g g f k / / c / ( _ ( ) ) _ _ _ [ _ ) _ _ [ [ [ _ _ _ _ ( [ [ _ [ [ [ [ [ [ [ [ [ [ [ [ [ [ [ { { { O.O.O.O.O.O.O.O.O.O.O.O.O.@.O.O.@.O.@.+.@.+.@.O.O.O.O.O.O.O.+.( q y q 3 l O.} O.O.+.*./ * * 3 @.2.*.w.s.s.a.2.*.=.<.<.=.2.*.@.l y g u q @.<.=.:.=.<.2.2.2.2.2.2.2.2.2.2.2.4.4.2.2.4.4.4.4.4.4.4.4.4.4.4.4.4.2.4.4.4.4.4.4.4.4.4.4.4.4.4.4.4.4.4.4.4.4.4.4.4.4.4.4.4.4.6.4.6.6.4.4.4.4.6.4.6.4.4.4.4.4.4.4.4.4.4.2.2.2.4.4.2.4.4.7.v y u u j 4.7.6.7.8.9.q.$.v ( k = & + 7.1X9XwX>X2.4.1.4.7.O.k c l l k :.2.2.4.2.2.1.2.2.2.4.1.4.4.4.4.4.4.4.4.4.4.4.4.4.4.4.1.4.2.2.2.2.2.2.2.2.2.2.2.2.2.2.2.2.2.2.2.2.2.2.2.2.2.2.2.2.2.2.2.2.2.2.2.2.2.2.2.2.2.2.2.2.2.2.2.2.2.2.2.2.2.2.2.2.2.2.2.2.2.2.2.2.<.2.4.[ u g g y { *.+.%.+.+.+.@.' l ( l k f g * + + :.t.r.8.%.<.*.[ g f g u [ 7.:.%.%.O.+.+.+.+.+.+.@.O.+.+.+.@.@.+.+.O.{ { ..+.+.+.+.+.O.O.O.O.+.o.O.} { } [ [ [ [ [ [ { [ [ [ [ [ [ { [ [ [ { { { [ [ [ { { [ [ [ [ [ [ _ [ ( [ [ _ _ ' ) ( _ _ [ ' ' _ [ [ ) ( ) ( ( _ ) ( ( ) ) _ ( ( y 9 u g ) / ( ' ( ..:.*.%.;.*.*.= $ $ $ [ %.+.+.+.%.@.%.O.{ [ 3XvXcXuX[ [ [ [ ' [ [ [ [ [ [ [ [ ' [ ' ' ' ' [ [ ",
"c 9.3X1Xs.%.*.%.%.%.*.*.%.%.%.&.&.&.%.%.&.&.&.[ ( ( / f f f f f g f g g g f g * . o . 9 / l l l c c f f u g f q u u u y q y f f f f g f k / / / / _ _ ] _ ( ( _ _ _ _ _ ) _ _ _ _ _ _ [ [ [ [ [ _ [ [ [ [ [ [ [ [ [ [ [ [ [ [ [ { } { O.{ O.O.O.@.@.O.@.O.O.O.O.@.+.@.@.@.@.@.@.@.@.O.O.O.O.O.O.@.&.( l / c f ( O.o.{ { +.%./ * * 9 +.2.*.w.s.s.a.2.=.<.<.=.#.=.2.%.l g k f f +.<.<.<.2.2.2.2.2.2.2.2.2.2.2.2.4.4.2.2.2.4.4.4.4.4.4.4.4.4.4.4.4.4.4.4.4.4.4.4.4.4.4.2.2.4.4.4.4.4.4.4.4.4.4.4.4.4.2.2.4.4.4.4.4.4.4.4.4.4.4.4.4.4.4.4.4.4.4.4.4.4.4.4.4.4.4.4.2.2.4.4.7.( g g k ' 7.7.7.7.7.9.q.$.v v k * & + 7.1X9XwX>X2.4.4.4.8.+.u j g k g :.4.1.4.1.4.1.2.2.2.4.1.2.2.2.2.4.4.4.4.2.2.4.2.4.4.4.4.4.2.2.2.2.2.4.2.2.2.2.2.2.2.2.2.2.2.2.2.2.2.2.2.2.2.<.2.2.2.2.2.2.2.2.2.2.2.2.2.2.2.2.2.2.2.2.2.2.2.2.2.2.2.2.2.2.2.2.2.2.2.2.2.2.2.2.2.{ k k l g [ *.%.#.+.+.+.@.[ l ( c h u g * + + :.t.e.w.O.{ [ / f g g y ..4.%.%.*.+.+.@.@.+.+.+.@.@.O.+.+.+.@.+.+.} { { [ O.+.+.+.+.O.O.O.O.O.O.O.+.+.O.[ [ [ [ [ [ [ [ [ [ [ [ [ [ { [ { { [ [ [ [ [ [ [ [ [ [ [ [ _ [ [ [ _ [ _ _ _ _ _ ( ) ' ' ) ) ' _ ( ) ( ( ( ) ) ( ( _ _ _ / l h l f l v l ( ( / O.:.;.*.*.*.*.= $ $ $ [ $.O.+.+.@.@.&.O.[ ' 1XbXcXaX[ ' ' ' [ [ [ ' [ [ [ [ [ ' ' ' ) ) ' [ [ ",
"c 9.3X3X>X*.*.%.%.*.%.%.%.%.&.&.%.&.%.%.%.&.&.{ ) ( / f f f f f f f g g f f g & . o . y / l l l c l u u u 9 9 g c l k k l f 9 q u f g g k / v / / _ _ [ ( ) _ ' _ ) ( _ _ [ ( _ _ [ [ [ _ [ [ [ _ ] [ [ [ [ [ [ [ [ [ [ [ [ [ [ { { ..} | @.O.O.O.O.@.O.O.O.O.O.@.@.@.@.@.@.+.@.@.@.@.+.O.O.O.[ l z <.4.7.4.4.<.[ ( [ { O.%.v & * 9 +.2.*.w.s.s.a.2.*.<.<.=.=.O.+.2.4.4.2.2.2.=.%.%.%.:.2.2.2.<.2.2.2.2.2.2.2.2.4.2.2.2.2.4.4.4.4.4.4.2.4.4.4.4.4.2.4.2.4.4.4.4.4.4.4.4.4.4.4.4.4.4.4.4.4.4.4.4.4.4.4.2.4.4.4.4.4.4.4.2.4.4.6.6.4.4.4.2.4.4.6.6.4.4.4.4.4.4.4.4.4.*.%.2.7.7.4.8.8.2.O.O.2.7.9.r.O.v v l * & $ 8.,X0XrX,X2.4.=.[ ..7.4.2.2.4.2.%.*.*.2.1.1.1.4.2.2.2.2.2.2.2.4.4.2.4.4.4.4.4.4.4.2.2.2.4.4.4.4.2.2.2.2.2.4.4.2.2.2.2.2.2.2.2.2.2.2.2.2.2.2.2.2.2.2.2.2.2.2.2.2.2.2.2.2.2.2.2.2.2.2.2.2.2.2.2.2.2.2.2.2.2.2.2.2.2.2.2.2.2.<.<.2.7.9.7.8.8.<.' ' [ O.O.+.@.[ l / l g f f * + + :.t.e.r.( q ( 8.4.2.2.2.O.( l +.2.O.O.+.+.@.@.@.@.+.+.+.@.+.@.+.+.} [ { { +.+.@.@.+.O.O.O.O.O.O.@.@.%.%.{ [ [ [ { [ [ [ [ [ [ [ [ [ [ { { { [ [ [ [ { [ [ [ { [ [ [ ` [ [ ] [ ( _ _ _ [ [ ` ] [ [ ) ( _ ( _ ( ) _ ) ( ( ( ) ( l g [ %.#.%.@.%./ / ) ' [ O.:.*.*.*.*.%.= $ $ & [ %.%.%.$.+.%.@.{ [ [ >XcXcXsX[ ' ' ' [ [ [ [ [ [ [ [ ' [ ' ' ) ' ' [ [ ",
"l 8.1X1X>X*.*.&.%.%.%.%.%.&.&.&.%.%.%.&.%.%.%.{ ) ( / f u f f f g g g g g f g & . o . y / c c l v l u y e 9 9 k l l l l l f 3 9 u f g f k / c / / ) ( [ ] [ [ _ _ _ [ [ [ [ _ _ _ _ ] [ _ _ [ [ [ [ [ [ [ [ [ [ [ [ [ [ [ [ [ [ [ [ [ [ { O.O.O.O.O.O.O.O.@.@.@.O.O.@.@.+.@.@.+.@.@.O.O.@.@.@.l 3 y <.4.7.7.4.<.l q g { O.%.c & * 3 +.2.*.w.s.s.a.2.%.<.<.=.@.l g =.7.8.7.7.4.2.l u { 2.:.2.<.2.2.2.2.2.2.2.4.2.2.4.2.2.4.4.4.4.4.4.4.2.4.4.4.4.1.4.2.4.4.4.4.4.4.4.4.4.4.2.4.4.4.4.4.4.4.4.4.4.4.4.4.4.4.4.4.4.4.4.4.4.4.4.4.4.4.6.4.4.4.2.4.4.4.4.4.6.4.4.4.2.4.k r X.r.q.q.r.8.<.k k %.8.9.9.O.v / k 3 * & w.1XwXrX>X2.4.@.g k q.r.y.y.y.y.[ k k :.4.4.1.2.2.2.2.2.2.4.1.1.4.2.4.4.4.4.4.4.4.2.2.2.2.2.4.4.2.2.2.4.4.4.4.2.2.2.2.2.2.2.2.2.2.2.2.2.2.2.2.2.2.2.2.2.2.2.2.2.2.2.2.2.2.2.2.2.2.2.2.2.2.2.2.2.2.2.2.2.2.2.2.2.2.2.2.2.2.' g +.p.i.p.i.0.<.v u k O.@.+.@.[ c / l g d f * o + :.r.r.e./ q ( q.9.q.q.y.O.g y [ =.O.O.O.@.+.@.@.@.+.+.+.@.@.#.&.%.+.O.O.O.@.@.#.#.+.@.O.O.O.O.O.%.+.+.%.{ } { [ [ [ [ [ [ [ [ [ [ [ [ { { { { { { [ { [ [ [ [ [ [ ` [ ` [ [ _ ` _ [ [ [ [ _ [ [ _ [ ` ' _ _ [ _ ( ( ( ( ( ) ( g u O.=.=.=.=.%.*.) l v c ..;.*.*.*.%.%.= $ $ & ..%.$.$.$.$.%.@.[ ..[ s.lXlXsX{ [ ' ' [ [ [ ' ' [ [ ' ' ' ' ' ' ' ' [ [ ",
"c 8.1X,Xs.%.*.%.%.%.%.%.%.&.&.%.%.%.%.&.&.%.&.[ ( ( / f f f f g g g g f g g g * o + . q ( v v l c l u y 9 3 9 k g l l l g u 3 9 u f f u g v c c / ( ( ' ( ( _ [ _ _ [ [ [ [ [ [ _ [ [ [ [ [ [ [ [ [ [ [ [ [ [ [ [ [ [ [ [ [ { { [ [ [ { [ | O.O.O.O.O.@.@.@.@.O.O.+.@.@.+.+.+.+.+.@.+.+.+.+.@.v q f <.7.7.7.4.4.) q g } +.@.c & & 3 O.2.*.w.s.s.i.2.%.<.<.<.O.g k =.8.7.7.7.4.4.l y { 2.2.2.2.2.2.2.2.2.2.2.4.1.4.2.2.4.2.4.4.4.2.2.4.2.4.6.4.4.4.4.4.4.4.4.2.4.4.4.4.4.4.4.4.4.4.1.4.4.4.4.4.4.4.4.4.4.6.6.4.4.4.4.7.4.4.6.4.4.4.4.4.6.4.6.4.4.4.4.7.4.6.4.4.4.2.v u +.q.9.q.r.8.2.l l %.8.8.9.O.c v k 2 * & e.,XwXwX1X4.4.%.g c r.r.y.y.y.y.[ g g <.4.4.1.2.2.2.4.2.2.2.4.1.4.4.2.4.4.4.4.4.4.4.2.2.2.4.4.1.4.2.2.2.2.2.4.4.4.2.2.2.2.2.2.2.2.2.2.2.2.2.2.2.2.2.2.2.2.2.2.2.2.2.2.2.2.2.2.2.2.2.2.2.2.2.2.2.2.2.2.2.2.2.2.2.2.2.2.2.2.' f O.p.p.a.a.r.q.) f k +.+.%.+.[ c ( l g u f * o + 2.r.e.9./ q ( q.q.r.9.r.2.c k ..<.@.+.@.+.@.@.@.O.+.@.@.@.@.@.+.&.+.O.O.o.@.#.@.+.O.O.O.O.+.O.O.@.@.%.+.{ { { [ { [ { [ [ [ { { [ { [ { { { { { { { { { [ [ [ [ [ [ [ [ [ [ [ [ _ [ [ _ _ [ [ _ _ _ ` ( _ _ _ _ ) ( ( ) ) ( / g u [ %.*.=.=.=.=./ f g k ..*.*.*.*.*.%.= $ $ & [ O.O.O.+.+.+.+.' [ ( a.lXcXsX{ [ [ [ [ [ [ [ ' ' [ [ ' ' ' ' ' ' ' [ [ ",
"c 8.1X<Xs.%.%.%.%.%.%.%.&.&.%.%.%.%.%.&.&.&.&.[ ( ( / f f f f g g f g g g f g * o o . y ( v / l v c u u q 3 9 k k l c l k f 3 q f g g f g c c c / ( ( ( ( ( _ [ [ [ _ [ _ _ [ _ [ [ _ [ [ _ ) [ [ [ [ [ [ [ [ [ [ [ [ [ [ [ [ [ [ [ [ { [ O.O.O.O.O.O.O.O.O.@.@.O.O.@.@.@.@.+.@.O.O.+.+.+.+.@./ q g 2.4.7.2.4.7.[ q f | +.#.c $ & 3 O.2.*.e.s.s.a.2.*.<.<.<.+.l l <.8.7.7.7.6.4.c y { 2.2.2.2.2.2.2.2.2.2.2.2.2.2.4.4.4.2.4.4.4.4.4.4.4.4.4.4.4.4.4.2.4.4.4.4.4.4.4.4.4.4.4.4.4.4.4.6.4.4.4.4.4.4.4.4.4.4.4.4.4.4.6.4.4.4.4.4.4.4.4.4.4.4.4.4.4.4.4.4.4.4.4.4.7.2./ u %.q.9.8.8.9.7.v l +.4.7.7...c v h 2 * & e.1XwXwX,X4.4.%.l ) r.y.y.r.y.y.[ u k 2.3.4.4.4.2.2.2.2.2.2.4.4.2.4.4.4.4.4.4.4.2.2.2.2.4.4.4.1.4.2.2.2.4.2.4.2.2.2.2.2.2.2.4.2.2.2.2.2.2.2.2.2.2.2.2.2.2.2.2.2.2.2.2.2.2.2.2.2.2.2.2.2.2.2.2.2.2.2.2.2.2.2.2.2.2.2.2.2.2.[ f o.a.a.y.r.r.r.) f l $.$.%.$.{ v ( l k f f * o $ 2.t.e.9./ q ' q.e.t.w.8.2.l u ( *.&.@.+.+.+.+.+.O.+.@.+.@.+.+.@.+.O.O.O.+.+.+.+.+.O.} O.O.O.O.O.o.O.O.O.{ { [ [ { [ [ [ [ [ [ [ [ { { { { { { [ { { [ { [ [ { [ [ [ [ [ [ [ [ [ ) ) ) [ _ [ ' ) _ [ ( ( ) ( ( _ ) ' ) ) ) ) ( g u { *.=.%.=.%.+.l f g g ..;.*.*.*.*.%.= $ $ & [ +.O.+.+.O.O.+.[ ( / y.lXlXpX[ [ [ [ [ [ ' [ ' [ [ [ ' [ [ ' ' ' ' [ [ ",
"c 8.1X1Xs.%.%.%.%.%.%.%.%.%.%.&.%.&.&.&.%.&.$.{ ( ( / f f f f f g f g g g f g * o o . q ( v / l v c y y q 9 3 g l l l k l f 3 9 y f g f k / c c c ( ( ( ( ) _ _ _ [ [ [ _ [ [ [ [ [ [ [ _ [ _ [ [ [ [ ] [ [ [ [ [ [ [ [ [ [ [ [ [ [ [ { [ | O.O.@.O.O.O.O.O.@.@.O.@.@.+.@.@.O.+.@.O.@.@.+.+.@.( q g 2.4.4.4.6.7.[ 9 u [ O.+.l $ & 3 O.2.*.w.a.a.a.2.*.=.*.=.O.k l <.7.7.3.7.3.4.c y ..2.2.2.2.2.2.2.2.2.2.2.2.2.2.4.4.4.2.4.2.2.2.2.4.4.4.4.4.4.2.2.4.4.4.4.4.4.4.4.4.4.4.4.4.4.4.4.4.4.4.4.4.4.4.4.4.4.4.4.6.4.6.4.4.6.4.4.4.6.6.4.4.4.4.4.4.4.4.4.4.4.6.4.4.6.2.( u *.8.9.8.9.8.2.k u / 2.4.4.{ k c k = * & e.1XwXrX1X6.7.%.l ( r.r.y.t.y.r.[ f g 2.4.4.4.4.2.2.4.4.2.2.2.4.4.4.4.4.4.4.4.4.4.2.2.4.4.4.2.4.2.4.4.2.2.2.2.2.2.4.2.4.2.2.2.2.2.2.2.4.2.2.2.2.2.2.2.2.2.2.2.2.2.2.2.2.2.2.2.2.2.2.2.2.2.2.2.2.2.2.2.2.2.2.2.2.2.4.2.2.2.{ k O.p.r.r.r.q.7./ f g +.$.$.&.{ v ( l g f f * o & 2.t.e.9./ q ( q.9.r.9.8.2.f y v =.+.+.@.@.+.+.+.@.@.#.@.+.$.&.#.O.+.%.#.O.+.@.&.+.O.O.O.O.O.@.{ } { { { { { [ [ [ [ [ { { { [ [ [ [ [ { [ [ { { [ { [ [ [ [ [ [ [ [ [ [ [ [ [ _ ( ( ' [ _ [ ( ' [ _ ) ' ' [ _ [ [ ` ) ) ) ) ( k g O.*.=.%.*.=.*.l f f g ..;.*.%.*.*.%.= $ $ & [ +.O.@.@.O.O.+.O.[ ( >XvXlXpX{ [ [ [ [ [ [ [ [ ' [ [ [ [ [ ' ' ' ' [ [ ",
"c 8.1X1Xf.%.%.%.%.%.%.%.%.&.&.@.$.&.%.%.%.%.&.{ ( ( / f f f f f f f g g g g g * o + . y ( / / l c v y y 9 9 3 g c l k l l u 3 9 q u g f k c c v c ( ( ( ( ( [ [ ` [ [ ' ] [ [ ] [ [ [ _ [ [ [ [ [ [ [ [ [ [ [ [ [ [ [ [ [ [ [ [ [ [ [ [ [ | O.O.O.O.@.O.O.O.O.@.@.@.@.+.+.@.@.+.+.+.+.+.&.&.%.( y u =.4.7.4.2.7.[ 9 f { | @.l $ & 3 O.2.%.w.a.a.i.2.%.=.*.=.+.g f &.8.7.8.7.8.4.v u O.2.2.<.2.2.2.2.2.2.2.2.2.2.2.2.4.4.4.4.2.2.2.2.4.4.1.4.4.2.4.4.4.2.4.4.4.4.4.4.4.4.4.4.4.4.4.6.4.4.4.4.4.4.4.4.4.4.4.4.4.4.4.4.4.4.4.4.4.2.4.4.4.4.4.4.4.4.4.4.4.4.4.4.4.4.4.( u =.q.q.q.q.q.4.k y / 2.4.4.{ k c k 3 = & r.,XwXrX1X2.4.=.k v q.r.y.y.y.a...u g 2.4.4.2.2.2.4.4.2.2.2.2.2.4.2.2.1.4.4.4.4.4.2.2.2.2.2.2.2.2.2.4.2.2.2.2.2.2.2.2.2.2.2.2.2.2.2.2.2.2.2.2.2.2.2.2.2.2.2.2.2.2.2.2.2.2.2.2.2.2.2.2.2.2.2.2.2.2.2.2.2.2.2.2.2.2.4.2.4.1.O.g ..y.y.y.y.y.r.( f k +.$.#.&...v ) l g f g * o & 3.t.e.8.v 9 ` q.9.7.7.9.2.g y / #.+.+.+.+.+.+.@.+.&.%.&.+.%.&.%.@.$.$.%.%.%.%.%.@.O.{ O.@.$.+.} { { ..{ [ { { [ [ { { { { [ [ { [ [ [ { [ [ [ { [ [ [ _ ( [ _ ( _ [ [ [ ' _ _ _ ( ( [ _ [ [ ` ' ( ) ) [ ' [ _ ' [ ) ) ( ) ) ( l y [ *.*.%.%.=.*.l g k l ..*.*.*.*.*.%.= $ + & [ +.O.O.O.O.O.+.{ ` ( ,XbXcXdX..' [ [ [ [ ' [ [ [ [ [ [ ' ) ' ) ) ' ' [ ",
"v 8.<X1X>X%.%.%.%.%.&.&.&.&.&.&.@.&.%.%.%.&.&.[ ( ( / f f f f f f f g g f g g * o + . e ' / / l v v u y q u f u g g k g y y u u y f g f g c c c l ( ( _ ( ( [ [ [ [ [ _ [ _ [ [ [ [ [ _ [ [ [ [ [ [ [ [ [ [ [ [ [ [ [ [ [ [ [ [ [ [ { [ [ { O.} } O.O.@.@.O.@.@.@.+.+.@.@.+.@.+.@.@.@.+.@.@.@.[ z z ( _ _ [ ( ( ( l ( O.O.+.c $ & 2 ..:.%.w.a.a.i.:.%.*.*.*.@.O.+.%.O.O.%.+.} +.=.*.=.=.=.2.2.2.2.2.2.2.2.2.2.2.2.2.2.2.1.4.4.2.2.4.2.4.4.4.4.4.4.2.2.4.4.4.4.4.4.4.4.4.4.4.6.4.4.4.4.4.4.4.4.7.4.4.4.4.4.6.4.4.4.4.4.4.4.4.4.7.4.6.4.4.4.4.4.4.4.4.4.2.4.4.4.2.2.O.v [ O.O.O...{ O.[ ) O.2.2.4.[ g c h 3 = * t.1XwXwX>X2.7.4.+...4.<.<.=.=.=.%...@.4.4.4.2.2.2.4.2.2.2.2.2.4.2.2.2.2.4.4.4.4.2.2.2.2.4.2.2.2.2.2.2.2.4.4.2.2.2.2.1.2.2.2.2.2.2.2.2.2.4.2.2.2.2.2.2.2.2.2.2.2.2.2.2.2.2.2.2.2.2.2.2.2.2.2.2.2.2.2.2.2.2.2.2.2.2.2.<.2.=.+.{ O.*.+.%.%.O.O...[ { %.%.%.&.{ v ( l g f g * + & 3.r.e.6.( l / ( ( ( ` c v v l { %.+.@.+.+.@.@.+.@.@.@.$.%.%.$.%.@.*.*.*.*.%.&.&.%.| ..{ { O.O.{ { { { { { { { { [ [ { [ [ [ [ [ { { [ { [ [ [ [ [ [ _ _ _ _ _ ) _ _ _ ` ` ' ( [ ( ' [ _ [ _ ` ' ' [ _ [ ) ) ( ) [ ) ) ' ) ) ) v k c / l c / v c c c ( / ..;.*.%.*.*.%.= $ $ & [ +.O.O.O.O.O.+.{ ` ( :XlXzXdX..' [ [ [ [ [ [ ' [ [ [ [ [ ( ' ' ) [ [ [ ",
"c 8.<X<X;X*.*.*.%.%.%.&.$.%.@.%.@.@.+.+.%.&.&.[ ( ( / f f f f g f f f g g g g * o + . q ( / / v c c u u u u f u 3 3 3 3 3 u f u f f f f g c c c c ( _ ( ( ( ` _ ( ( [ [ [ [ [ [ [ [ [ [ [ [ [ [ [ [ [ [ [ [ [ [ [ [ [ [ [ [ [ [ [ [ [ [ [ [ [ { [ { O.@.O.O.O.O.O.@.+.+.@.+.+.@.+.@.@.+.@.+.+.@.@.*.[ y u f y k ( O.O.O.O.@.c $ & * ..=.%.8.a.i.i.=.%.*.*.*.*.<.<.%.f g g g f [ =.<.2.<.=.2.2.2.2.2.2.4.2.2.2.2.2.2.2.2.4.2.2.2.2.2.4.4.4.2.2.4.2.4.4.4.4.2.2.2.4.4.4.4.2.4.4.4.2.4.4.4.4.4.4.4.4.4.4.4.6.4.6.5.4.4.4.4.6.4.4.4.4.4.4.2.4.4.4.4.4.4.4.4.4.4.4.4.4.7.7.9.v y u y y ..%.2.<.<.2.2.[ g c g 3 = * t.>XwXwX>X4.7.4.6.=.' i k g g g <.7.7.4.4.2.2.2.2.2.2.2.2.2.2.2.4.2.2.2.2.2.2.2.2.2.4.4.2.2.2.2.2.2.4.2.2.2.2.2.4.4.4.4.2.2.2.2.2.2.4.2.2.2.2.2.2.2.2.2.2.2.2.2.2.2.2.2.2.2.2.2.2.2.2.2.2.2.2.2.2.2.2.2.2.2.:.2.2.<.*.=.*.=.2.2.[ g l k g c { +.%.%.%.%.%.{ v ( l g u g = o & 3.t.r.8.O.@.| ( k y f g ) O.%.+.$.+.@.+.+.+.+.+.+.+.&.&.+.@.O.@.O.%.*.*.%.%.#.%.+.O.{ { { { { { { { { { { { { { { [ { [ [ [ [ [ { { [ { [ [ [ [ [ { [ [ [ ( ) _ [ [ _ ( ( ( [ _ _ _ ' ) [ [ ( ( ) _ _ ) ' _ ) _ ( _ [ [ [ _ ) ( ( ) g y g k u k v / ( / [ =.*.%.*.*.%.= $ $ & [ +.+.O.O.O.O.+...' ( :XlXlXuX..[ [ [ [ [ ' [ [ [ [ [ [ [ ' ( ( ) [ [ [ ",
"c 9.<X,Xs.%.*.%.%.%.&.$.&.&.%.%.&.@.$.&.&.&.+.[ ( ( v f f u f f f f g g g g g * o o . q ( v ( v c c y u f u u u y 3 3 9 y u u u g f f f g c c c / ( ( ( ( ( ) ) ( ( [ ) _ _ ( [ [ _ _ _ [ [ [ _ ] [ [ [ [ [ [ [ [ [ [ [ [ [ [ [ [ [ [ [ [ [ [ { [ { O.O.O.O.O.O.O.O.O.O.O.O.O.O.O.O.O.+.@.+.O.@.@.@.{ y y y f ) ( O.O.O.@.+.c + & * ..=.%.6.a.a.i.:.#.%.*.*.*.=.=.%.f g f g g +.=.%.*.:.%.<.4.2.4.2.2.2.2.2.2.2.2.2.2.2.2.2.1.2.2.2.4.2.2.2.2.2.2.2.4.2.2.2.2.2.4.2.4.4.2.4.4.4.2.2.2.4.4.2.4.4.2.2.4.2.4.2.2.2.2.4.4.4.6.4.4.2.4.4.4.4.4.4.4.2.4.4.4.4.2.4.4.4.4.4.2.7.[ y u y j %.%.=.<.2.2.2.[ g l g 3 = * i.,X0XrX>X2.3.3.4.2...f g u i c 2.2.4.2.4.2.2.2.2.2.2.2.2.4.2.2.2.2.2.2.2.2.2.2.2.2.2.2.4.4.4.4.4.2.2.2.2.4.4.2.2.4.2.2.2.2.2.2.2.2.2.2.2.4.2.2.2.2.2.2.2.2.2.2.2.2.<.2.2.2.2.2.2.2.2.<.<.2.<.2.2.2.2.2.2.2.2.2.2.=.*.=.%.=.$.%...g k k g ' @.$.%.@.%.$.&.{ v ( l f u g = . & 6.t.t.9.O.O.[ [ g 9 y u { O.+.+.@.+.@.+.+.+.+.@.@.+.+.O.O.+.+.O.o.O.+.*.%.@.%.%.+.} { [ { { { { { { { { { { { { [ [ [ [ [ [ { [ [ [ [ [ [ [ [ { [ [ [ [ [ ( _ _ [ [ _ _ [ [ ' _ _ _ ( ( ( _ ) ] _ _ ( ( ) ' ) ) ( ) ( ' ) ) ) ` ( ( f y l h y g v / ( ( { =.*.*.%.*.%.= $ $ $ [ +.O.O.O.O.O.+.{ [ ( >XbXlXtXO.{ [ [ [ [ [ ' ' [ [ [ [ [ ' ( ( ) [ [ [ ",
"c 8.<X,Xs.%.*.%.&.&.&.+.%.&.%.%.%.%.&.&.+.+.@.[ / ( v f f f f f f f g g g g g * o + . q / v / v c v u u u u u u u q 3 y f u u u f f f u g c c c c ( ( ( ( ( ( ( ( _ [ ( [ _ _ [ [ [ _ [ _ _ [ _ [ [ [ [ [ [ [ [ [ [ [ [ [ [ [ [ [ [ [ [ { [ [ { [ [ O.O.O.O.@.+.O.O.O.O.O.@.+.@.@.O.@.@.@.@.@.+.@.@.O.k g u h O.} | o.O.@.&.c + & * ..*.%.6.a.a.t.:.%.%.%.*.%.=.=.*.[ ' ' ) [ #.*.%.=.=.=.2.2.2.2.4.4.2.2.2.2.2.2.2.2.2.2.2.2.2.2.2.2.2.2.2.2.2.2.2.4.2.2.4.4.4.2.2.4.2.4.4.4.4.2.2.2.2.2.4.2.4.4.2.4.4.2.2.2.2.2.2.2.2.4.6.4.4.4.2.2.4.4.4.4.4.4.4.4.4.4.4.4.4.4.4.4.2.O.( ' ) [ *.=.2.2.<.<.2.[ f l g 2 * * t.>X0XwX,X4.7.4.4.4.2.{ ..[ v ..4.2.4.4.1.2.2.2.2.2.2.2.2.2.2.2.2.2.2.2.2.2.4.2.4.4.2.4.4.4.4.2.4.2.2.4.2.2.4.4.2.2.2.2.2.2.2.2.2.2.2.2.2.2.1.2.2.2.2.2.2.2.2.2.2.2.2.2.2.2.<.2.2.2.2.<.<.2.2.2.2.2.2.2.2.=.2.*.*.%.%.%.%.%.%.%.O.v k k v O.%.%.%.%.&.$.&.{ v ) c f u f 3 . * 6.r.r.9.+.O.{ O.l 9 u g { @.O.+.+.+.+.+.+.+.@.@.@.+.@.O.} @.@.@.$.%.%.%.#.%.+.$.+.{ ..{ [ { { { { { { { [ { [ [ [ [ [ [ [ [ [ [ [ [ [ [ [ [ ] [ [ [ _ ) ( _ [ [ ` _ _ _ [ [ [ [ _ _ ( ( ( _ _ _ _ ] _ ) [ [ _ _ _ _ _ _ _ ) ) [ ( ( l u k l k v ( ( ) ( { *.*.%.%.*.%.= $ + & [ +.O.O.+.O.@.+.{ [ ) >XcXlXrX..[ { { { ..{ [ [ [ [ [ [ [ [ ( ( ) ' [ [ ",
"c 8.,X,Xs.*.*.%.&.&.&.%.%.&.&.$.&.%.%.$.+.&.@.[ ( ( / f f f f f f g g g g g g * . o . q / v / v c c u u u u u u u u u u f u f f f f f f g c c c c ( ( ( [ ( ( ` ( ( [ [ [ [ ] [ [ [ [ [ [ [ [ [ [ [ [ [ [ [ [ [ [ [ [ [ [ [ [ [ [ [ [ [ { { [ [ [ { O.O.@.O.@.@.@.@.@.O.O.@.@.@.@.@.@.+.+.@.@.+.+.+.+.+.O.O.O.O.+.| @.O.@.&.l & & * ..*.%.3.a.i.i.=.+.%.%.%.%.=.%.*.<.=.=.<.=.*.*.*.%.%.*.=.=.<.4.2.2.2.2.2.2.2.2.2.2.2.2.2.2.2.2.2.2.2.2.2.2.2.2.2.4.4.4.4.2.4.2.2.4.4.4.2.2.2.2.2.4.4.4.4.4.4.4.4.4.4.4.4.4.4.4.4.4.4.4.4.4.6.6.4.4.4.4.4.2.2.4.4.4.4.4.4.2.4.2.4.1.2.2.1.1.2.2.<.2.2.2.2.2.2.[ f l g 3 = & t.>X0XwX>X4.7.7.7.4.4.3.7.3.1.4.4.2.2.2.2.2.2.2.2.2.2.2.2.2.2.2.2.2.2.2.4.2.4.4.2.2.2.4.2.2.2.2.4.4.4.4.2.2.2.2.4.4.2.2.2.4.2.2.2.2.2.2.2.1.1.2.2.2.2.2.2.2.2.2.2.2.2.2.2.2.2.<.2.2.2.<.<.2.2.2.2.2.2.2.*.%.*.%.%.%.%.%.%.%.*.%.%.%.+.@.%.#.%.$.%.@.%.%.%.{ v ( c g f g 3 . = 6.t.t.6.O.O.+.O.@.} o.O.O.O.O.O.@.O.+.+.@.+.+.+.O.+.+.O.O.@.@.O.+.+.+.#.O.%.%.%.O.{ { { { { { { { { { { [ [ [ [ [ [ [ [ { [ [ { [ [ [ [ [ [ _ [ ] _ ' ( [ _ [ ' ( ' [ _ [ ` ' ) _ _ ( ) [ _ _ [ ( ( ) ( ( ' [ [ [ _ _ ( _ ) ( ( _ ( ' ( ( ) [ [ ( ( ( ( [ *.*.%.%.*.%.* + $ & ..O.O.O.+.O.@.+.{ ' ( :XcXlXgX+.[ [ { { { [ [ [ [ [ ' [ [ [ ( ) ) [ [ [ ",
"c 8.,X,Xf.%.%.&.&.&.@.&.&.&.@.&.&.&.$.$.$.#.@.[ ( ( / f f f f f g f g g g g g * + + . q ( c v c v v u f u u u u u u u u u u f f f f f f k c c c c / ( ( ' ( ] ` ( _ ( ( [ [ [ [ ] ] [ [ [ [ [ [ [ [ [ [ [ [ [ [ [ [ [ [ [ [ [ [ [ [ [ [ [ [ [ { { { { { O.{ | O.O.O.@.@.O.O.O.@.@.O.O.O.O.@.@.@.+.+.+.@.+.@.+.+.+.@.+.O.O.@.l & & = ..*.%.6.a.a.y.=.@.&.%.%.%.%.%.*.*.=.=.=.=.*.*.*.%.*.*.*.*.=.4.2.2.2.2.2.2.2.2.2.2.2.2.2.2.2.2.2.2.4.2.2.2.2.2.2.2.2.4.4.4.4.2.4.4.4.4.4.4.4.4.2.4.4.2.2.2.2.4.4.4.4.4.4.4.4.4.4.4.4.4.4.4.4.4.4.2.2.4.4.4.4.4.4.2.4.2.4.4.2.2.2.2.2.2.4.2.4.2.2.2.2.2.2.2.2.[ f l g = * * t.>X0X0X>X4.7.7.7.4.4.3.7.7.4.4.4.4.4.2.2.2.2.2.2.2.2.2.2.4.4.2.2.2.2.2.2.2.4.2.4.2.4.4.4.4.2.4.4.4.2.4.2.4.4.4.2.2.2.4.2.4.4.2.2.2.2.2.4.4.2.2.2.2.2.2.2.2.2.2.2.2.2.2.2.2.2.2.2.2.2.2.2.2.2.<.2.2.2.2.=.*.%.%.%.%.%.%.%.%.%.&.%.%.&.%.%.%.%.&.%.%.%.%.%.{ v ) c g f g 3 o * 6.t.r.8.O.O.+.+.+.@.O.+.O.O.@.@.@.@.+.+.@.@.@.@.+.+.+.O.| | } o.O.O.%.=.@.+.+.O.O...{ { { { { { { { { { { { { { [ [ [ [ [ [ [ [ [ [ _ [ [ [ ] [ ] ( [ [ [ _ _ ( ( ( [ [ ` ( ( ) _ _ ( ( _ [ [ _ ( _ ) _ ( ) ) _ ) [ ( ) ( ( ( _ [ ) ' _ ) ) ' [ ( ( ( / [ *.%.%.%.%.%.= + $ & ..O.O.O.O.+.O.@.{ ' ( >XlXcXlX@.[ [ [ { { [ [ [ { [ [ [ [ [ ' [ { O.{ ( ",
"l 8.>X,Xs.%.%.%.&.%.@.@.$.$.@.@.$.$.$.+.+.+.+.[ / ( v f f f f f g f g g g g g * + + . 9 / v v c c c u f u u u u u u u u f f f f u f f f g c c c c ( ( ( ( ( ( ( ( ( ` ( [ ] [ [ ] [ [ ] [ [ [ [ [ [ ] [ [ [ [ [ [ [ [ [ [ [ [ [ [ [ [ [ [ [ [ { [ { [ [ { [ O.+.O.O.O.@.O.O.O.@.@.O.@.O.O.+.@.+.+.+.@.+.+.+.@.O.O.@.+.@.@.&.z & & * O.=.%.4.a.i.y.=.@.&.%.%.*.%.%.*.*.*.*.*.*.*.*.*.*.*.*.*.*.<.2.2.4.4.4.4.2.2.2.2.2.2.2.2.2.1.2.4.2.4.4.2.2.2.2.2.2.4.4.4.4.4.4.4.4.4.2.4.4.2.2.4.2.4.4.4.4.2.4.2.4.4.4.4.4.4.4.4.4.4.4.4.4.4.4.4.2.2.4.4.4.4.4.2.2.2.4.4.4.2.2.2.2.2.2.2.2.2.4.2.2.2.2.2.2.2.[ f k g 3 * & t.>X9X0X>X4.7.7.7.6.7.4.7.7.4.4.4.4.2.1.2.2.2.2.2.2.4.4.2.2.2.2.2.2.2.2.2.2.2.2.2.2.2.4.2.2.2.4.4.4.4.4.4.2.4.4.4.4.4.4.4.2.2.4.4.2.2.2.4.2.2.2.2.2.2.2.2.2.2.2.2.2.2.2.<.2.2.2.2.2.2.2.2.2.2.2.2.2.2.=.%.*.%.%.%.%.%.%.%.%.%.&.%.%.%.%.%.&.&.&.@.+.&.&.%.{ v ( v f g g 3 o = 6.t.r.8.O.O.+.+.+.@.@.@.O.O.+.@.@.@.+.@.+.@.+.@.+.+.+.@.O.O.{ } O.O.$.*.@.O.o.} { { { { { { { { { { { { { { { { [ [ { [ [ [ [ [ { _ ] [ [ ` ] ( ] _ _ [ [ _ [ [ [ [ _ ) ` ( ' _ _ _ ( ( _ _ [ ] _ _ _ [ _ ) ) ' ' _ _ ) ) ) _ [ ( ) ` ` ( ( ( ) ( ( ( / [ *.%.%.%.*.@.* $ + & ..O.O.O.O.O.O.@.[ ` ( >XcXlXhX%.[ { { { { { [ [ { [ [ [ [ [ [ ' [ +.O...",
"l 7.>X>Xs.%.%.%.&.%.&.&.$.+.&.+.+.$.$.&.&.%.+.[ ( ( / f f u f g g g g g g g g * + + . 9 / l v l k k u u u y u u u u u u u f u f u u f f h c c c c ( ( / / / ( ( ( ( ( ( [ [ [ ' ` ` ` _ ( ( [ [ [ [ [ [ [ [ [ [ [ [ [ [ [ [ [ [ [ [ [ [ { { [ [ [ [ [ { [ [ { O.O.O.O.O.O.O.@.@.+.+.+.@.O.+.+.+.+.+.+.+.+.@.O.O.+.O.O.+.@.&.v & & 2 O.*.%.4.a.i.y.=.&.*.%.*.&.%.*.*.*.*.*.*.*.*.*.*.*.*.*.*.*.*.2.2.4.2.2.4.2.2.2.2.2.2.2.4.2.2.2.2.2.4.4.4.2.2.2.4.2.2.2.2.4.4.4.4.4.2.2.4.4.4.2.4.4.4.4.2.4.2.2.2.4.4.4.4.2.4.4.4.4.4.4.4.4.4.4.4.4.4.4.4.4.4.4.2.4.4.2.4.2.2.2.2.2.1.2.2.2.2.4.1.2.2.2.2.2.2.[ f k g 3 * & t.>X9X0X>X4.7.7.3.7.7.7.6.6.6.6.4.4.4.1.4.4.2.2.4.2.2.2.2.2.2.2.2.2.2.2.2.2.2.2.2.2.2.2.2.2.2.2.2.2.2.4.4.2.4.2.4.4.2.4.4.2.2.4.2.2.2.4.2.2.2.2.2.2.4.2.2.2.2.2.2.2.2.2.2.2.2.<.2.2.2.2.2.2.2.2.2.2.2.=.+.%.%.%.%.%.&.&.%.&.&.&.%.&.&.%.%.%.%.&.&.&.&.%.&.[ v ( v f g g 3 o * 6.r.t.8.O.+.+.+.+.@.@.+.O.+.+.+.@.@.@.@.@.+.+.+.+.&.@.@.@.} { { | O.O.+.O.O.O.{ { { { { { { { { { { { { { { { { { { { { { [ [ { { ] [ [ ' ` ] [ _ _ [ _ _ [ ] _ [ [ ] ` [ [ _ [ [ [ ( _ [ [ [ _ _ _ [ [ [ [ _ ) ( ) [ ' ) ) ` ( ( ( ) ) ) ` ( ' ( ( / / [ *.%.%.%.%.@.* $ $ & [ O.O.O.O.O.O.O.{ ' ` ,XvXlXgX@.[ { { { { { { [ { [ ' [ [ ' ' ( [ %.O.*.",
"l 7.,X<Xs.%.%.$.$.&.@.&.$.+.&.+.$.&.&.+.+.$.&.[ ( ( / u u f f g g f f g g g g * o + . 9 / c c l k k u u u u u u u u u y y u f u u u f u k c l c c ( ( ( / ( ( ( ( ( ( ( ] [ [ ' _ ( ( _ ( ( [ [ [ [ [ [ [ [ [ [ [ [ [ [ [ [ [ [ [ [ [ [ [ [ [ [ [ [ { [ [ [ { O.O.@.O.+.@.@.@.O.O.@.@.+.@.+.+.+.+.+.+.@.+.@.O.+.+.O.O.@.@.@.c & & = O.%.%.4.a.i.y.=.&.%.%.%.&.%.%.%.*.%.*.*.*.*.%.*.*.*.%.%.*.*.2.2.2.2.2.2.2.2.2.2.2.2.2.2.2.2.2.2.2.2.2.2.2.2.2.2.2.2.2.2.2.4.4.4.2.2.2.2.4.4.2.2.2.4.4.4.4.4.2.2.4.2.2.2.4.4.2.4.2.4.4.4.4.4.4.4.4.4.4.4.4.4.4.4.4.4.4.2.4.2.2.2.4.2.4.2.2.4.2.4.4.2.2.2.2.2.[ g g g = & & e.>X0X9X>X4.6.6.6.7.3.6.7.6.4.4.4.4.4.4.4.4.4.4.2.2.4.2.2.4.4.2.2.2.2.2.2.2.2.2.4.2.2.2.2.2.2.2.2.2.2.2.2.2.2.2.2.4.2.2.4.2.2.2.2.2.2.2.2.2.2.2.2.2.2.2.2.2.2.2.2.<.2.2.2.2.2.2.2.2.2.2.2.<.<.2.2.2.<.=.%.%.%.%.%.%.%.&.%.&.&.&.&.&.&.$.%.%.%.&.&.&.$.$.$.[ v ( v f g f = . * 6.t.t.9.O.+.+.+.+.+.+.+.+.+.+.+.@.@.O.+.@.+.+.+.+.&.+.O.O.o.} { | O.@.+.O.O...{ { } { { { { { { { { { { { [ [ { [ [ [ { { [ [ [ [ [ [ [ ] [ [ ] ( ] _ ( _ ` [ _ _ ] ` ` _ [ _ [ ' ' ( _ [ [ ` [ _ _ _ [ ` [ [ [ ( ) [ ) ( ' ( ( ( ) ) ) ) ' ' [ ` ( / / ' *.%.%.%.*.%.* $ $ & [ +.O.@.@.O.O.+.{ ' ( ,XbXcXdX+.[ { { ..{ { ..{ [ [ ' ' ) ) ' ) ..=.%.*.",
"c 7.,X,Xs.%.%.%.&.$.$.$.$.+.+.+.+.$.+.$.+.+.$.[ ( ( / f f f f f f f f g g f g * o + o 9 / c c l l l u u u u u u u u y y y u f f u u u u k l l c c ( ( ( ( ( ( ( ( ( ( ] [ ] ' ( ) ( ( _ ( ( ] [ _ [ [ [ [ [ [ [ [ [ [ [ [ [ [ [ [ [ [ [ [ [ [ [ [ [ [ [ { { { O.O.| } O.O.O.@.O.O.O.@.O.O.O.O.@.@.+.+.+.+.+.O.O.@.O.O.O.@.&.v & & * O.%.%.1.a.i.y.*.+.%.&.*.&.&.%.%.%.*.*.*.%.%.%.*.*.*.%.%.*.*.%.%.*.*.%.%.*.*.%.%.*.*.*.%.*.*.%.%.%.=.4.2.2.2.2.2.2.2.2.2.2.2.4.4.4.2.4.4.2.2.2.2.4.4.4.4.2.4.2.2.4.4.4.4.2.2.2.4.4.4.4.4.4.4.4.4.4.4.4.4.4.4.4.4.4.4.4.4.2.4.2.2.2.4.4.2.2.2.4.4.4.2.2.2.2.4.[ g k k * & & r.>X8X0X>X2.3.4.3.7.3.4.7.6.4.3.4.4.4.4.4.4.4.4.4.2.2.4.2.2.4.4.4.4.2.2.2.4.2.2.2.2.2.2.2.2.2.2.2.2.2.4.2.2.2.2.2.2.4.2.2.4.2.2.2.2.4.2.2.2.2.2.2.2.2.2.2.2.2.2.2.2.2.2.2.2.<.%.%.%.%.%.%.%.%.%.%.*.%.%.%.%.&.%.%.&.&.&.&.%.%.&.%.%.%.%.&.%.%.%.%.@.&.%.%.{ v ( v f f g = . * 6.t.y.8.O.+.+.@.+.+.+.+.+.+.+.+.+.@.+.+.+.+.@.+.+.@.+.+.@.O.} | | } O.O.O.O.{ { } ..{ { { { [ { [ [ { { [ { [ { [ [ { { [ [ [ [ { [ [ [ ] ] [ [ [ _ _ ( ` ( [ _ _ [ _ _ _ [ ) ` ` ` ( _ _ ( ' _ ) ' ( ` ` ( _ [ ' [ [ ' ( _ ) ) ) [ [ [ [ ) ) ) ( / v / [ %.%.@.%.*.%.* $ $ & ..$.O.O.O.O.O.+.{ ( ( >XvXcXgX+.{ { { ..{ { ..{ { [ [ [ ' ) ' ' O.:.:.=.",
"c 7.>X,Xa.%.&.&.$.+.+.$.+.+.+.+.$.+.+.+.+.$.+.[ ( ( / f f f f g g f f g g g g * o + . 9 / l c l l k u u u u u y u u y y y u f u f u f u g c l c c ( ( ( ( ( ( ( ( ( ( ' ' ( ' ( [ ) ( ` ( ( ) [ [ [ [ [ [ [ [ [ [ [ [ [ [ [ [ [ [ [ [ [ [ [ { { [ [ [ [ { [ { { [ [ { [ { { O.O.O.@.@.O.O.O.O.O.@.@.@.+.+.O.O.@.+.+.+.+.+.%.v & & * O.%.%.2.t.t.y.*.+.%.&.%.&.%.%.%.%.%.*.%.%.&.%.%.%.%.%.%.%.%.%.%.%.%.%.%.*.&.%.%.%.%.%.&.%.%.%.%.%.=.4.4.4.2.2.2.2.2.4.4.4.2.4.2.4.2.4.4.2.2.4.2.4.4.4.4.2.2.4.2.4.4.4.4.2.4.2.2.4.2.2.2.2.4.4.2.4.2.2.4.4.4.4.4.4.4.2.4.4.4.4.4.4.2.2.2.2.2.4.2.2.4.2.2.2.4.[ g k g 2 & & r.f.8X0Xf.2.4.4.4.6.4.4.7.6.4.4.4.4.4.4.4.4.4.2.4.4.4.4.4.4.2.2.2.4.2.2.2.2.2.2.2.2.2.4.2.4.4.2.4.2.4.4.4.2.2.4.4.4.4.2.4.4.4.4.4.2.4.4.2.2.2.2.2.4.2.2.2.2.2.2.2.2.2.2.2.2.<.@.%.$.+.@.@.%.%.&.%.@.%.%.&.%.&.%.%.&.&.%.&.%.&.&.&.%.%.%.%.%.%.%.%.$.&.%.&.[ v ( v f f f = . * 6.r.y.7.O.+.+.+.@.+.@.+.+.@.+.+.+.@.+.+.+.+.+.+.+.+.+.+.+.| ..} | } } { { { { { { { { { { { { [ { { [ { [ [ { [ [ [ [ { [ [ [ [ { [ [ [ ( ) [ [ ] _ ] ] ] ` ] [ ( ( _ _ ( ` [ [ _ _ _ [ [ ( [ [ ) ' _ ] [ [ ' ( ) [ ' [ _ ' [ [ [ [ [ [ [ ' ' ( ( ( v v [ *.%.@.%.*.%.* + + & [ +.O.O.O.O.O.+.[ ` ( s.cXlXdX+.[ ..{ { ..........O.O.{ [ ) ' ( ' +.*.*.",
"c 7.>X>Xs.%.&.$.$.+.+.+.+.$.$.$.$.+.$.+.+.+.+.[ / ( v f f f f f f f f g g g g * o + o 9 ( l l l l k y u u u u y u y y y y u u f f u u u k l l l c ( ( ( ( ( ( ( ( ( ( ( ' ) [ ( [ ] ( ( ' ( ` [ ' ` [ [ [ [ [ [ [ [ [ [ [ [ [ [ [ [ [ [ [ [ [ [ [ { [ [ { [ { [ [ { [ { { [ | O.O.O.@.+.O.O.@.@.O.O.@.@.@.O.O.@.@.@.+.+.@.&.v & & * ..%.%.1.a.t.y.*.+.%.%.%.&.%.%.%.&.&.&.%.%.%.%.%.%.%.%.%.*.%.%.%.%.%.%.*.&.&.&.%.%.&.%.&.%.%.&.%.%.=.2.2.4.2.2.2.2.2.2.4.4.4.2.2.2.4.4.2.2.2.4.4.4.2.4.2.2.2.2.2.4.2.2.2.2.4.4.5.4.4.4.4.2.2.2.2.4.2.2.4.4.2.2.2.2.2.2.4.4.4.1.4.4.2.2.2.4.2.4.2.2.2.2.2.2.4.[ g k k 3 & & r.f.8X8Xf.2.4.4.4.4.4.4.6.6.6.4.4.4.4.4.4.2.2.2.2.2.4.4.4.4.2.4.2.2.2.2.2.2.2.2.2.2.2.2.4.2.4.4.4.4.4.4.4.2.2.2.4.4.4.4.4.4.4.4.4.4.4.4.2.4.2.2.4.2.2.2.2.2.2.<.2.2.2.2.2.2.<.%.%.$.&.&.&.&.%.&.%.&.%.$.&.&.%.%.%.%.$.&.&.%.$.@.&.$.%.%.%.%.%.%.$.$.&.%.%.{ v / v f f f = . * 6.t.y.7.O.+.+.+.@.@.@.+.@.+.+.+.+.+.+.+.+.+.@.@.@.+.+.+.+.O.o.{ { } { { { { { { { { { ..{ { { { { [ [ [ _ _ [ [ [ { { { [ [ { { { [ [ [ _ [ [ _ [ [ ] _ [ [ [ [ ( [ _ _ ` ) [ [ [ _ [ _ [ [ [ [ [ ' ' _ _ [ ` ` ' _ [ ) [ ' [ [ ` ' ( ' ' ` ( _ ' ) ( / [ %.%.$.%.%.%.* + + & { O.O.O.O.@.+.+.{ ` ( s.cXlXgXO.[ { { { | ........O.O.O.' ( ) ' ) +.*.*.",
"c 7.>X>Xs.%.&.&.@.&.$.+.$.$.@.+.+.+.$.+.+.+.+.[ / / v f f f f g g f g g g g g * + + . 9 v l l l c l u f u u u u u u u u u u u u f u f u k c c l l ( ( ( ( ( ( ( ( ( ( ( ) ' ) ( ` ( ( ( ( ( ' [ ` ] ] [ [ [ [ [ [ [ [ [ [ [ [ [ [ [ [ [ [ [ [ [ [ [ [ [ { [ [ [ [ [ [ [ { { O.O.O.O.O.O.O.| @.@.@.O.@.@.@.O.O.@.@.O.@.@.O.&.v & * * O.%.%.2.a.t.t.%.+.&.&.%.%.%.%.%.%.%.%.&.%.%.%.%.*.%.*.%.%.*.%.%.%.%.%.%.%.*.%.%.%.&.%.&.%.%.%.%.%.=.4.2.4.4.2.2.2.4.4.4.4.4.4.2.4.2.4.4.4.2.2.2.4.4.4.4.2.4.2.4.4.2.2.2.2.4.2.2.2.4.4.2.2.4.2.2.4.4.4.4.2.2.2.2.2.2.2.4.2.4.1.2.2.4.2.4.2.2.4.2.4.4.2.2.4.4.[ g l k 3 & & r.f.7X0Xf.2.4.4.4.4.6.6.6.4.4.4.4.4.4.4.4.4.2.2.4.4.4.4.2.4.2.2.2.2.2.2.2.2.2.2.2.2.2.4.2.4.4.4.4.4.4.4.4.2.2.4.4.4.2.4.2.2.2.2.2.4.4.2.2.2.2.4.4.4.4.2.2.2.2.2.<.2.2.2.2.2.*.@.%.&.&.&.&.%.%.%.%.&.%.&.&.%.%.%.&.%.%.%.%.%.%.&.&.&.%.%.%.%.%.%.%.$.$.%.&.{ v / v f f g 3 o * 6.e.y.8.O.+.+.+.+.@.@.+.+.+.+.@.+.+.@.+.+.+.@.@.@.+.+.+.+.| { { { { { { { { { { { { { { { { { { { [ [ [ _ [ [ _ ] { { { [ { [ { { [ [ { [ _ [ _ ] ` [ _ [ _ _ ] ` [ _ [ ' ] [ [ [ ' ( ' ` _ [ _ ) ' ' _ _ [ ` ` ) _ _ ) ' ' [ [ ' ' ) ( ] ' ( ` [ ) ( / ' %.$.%.%.%.%.* $ $ & ..+.+.+.O.O.O.+.{ ' ( a.jXlXgX+.[ { { O.O.............O.{ [ ' ( [ =.=.=.",
"v 7.>X>Xs.%.%.$.&.$.+.+.+.@.@.+.+.+.+.+.+.+.+.[ ( / v f f u f g g f f g g g g * + + . 9 c l c c c l y u u u u f f f f u u u u f f f f u g l l l c ( ( ( ( ( ( ( ( ( ( ( ( ( ` ( _ ] ( ` ( ( ( [ [ [ [ [ [ [ [ [ [ [ [ [ [ [ [ [ [ [ [ [ [ [ [ [ [ [ [ [ [ [ [ [ [ { { [ [ { { O.O.O.| O.O.O.O.O.O.@.@.O.+.O.O.O.O.O.+.+.+.&.v & & * ..%.%.2.i.i.r.*.+.$.&.&.%.&.%.&.%.*.%.%.%.%.%.%.%.%.*.*.*.*.%.%.%.%.%.*.*.%.*.%.%.&.%.%.*.*.%.%.%.*.*.=.*.*.*.*.*.=.<.<.=.=.=.=.=.=.=.=.=.2.2.4.2.2.2.2.4.4.4.4.2.2.2.2.4.2.4.4.4.2.4.4.4.4.2.2.2.2.4.4.4.4.4.2.2.2.2.2.2.4.1.2.1.4.4.2.2.2.2.2.4.4.4.4.4.7.[ k l k 3 & & 9.f.7X0Xf.2.4.4.4.7.4.4.4.4.4.4.4.4.4.4.4.2.4.4.4.4.4.4.4.4.2.4.4.4.2.2.4.2.4.2.4.4.2.2.<.<.<.<.2.2.2.2.2.2.2.2.2.2.2.2.2.2.2.2.2.2.2.2.2.2.2.2.2.2.2.2.2.=.*.=.*.*.%.*.*.%.%.%.%.%.&.&.&.&.*.&.%.%.%.%.%.%.%.%.%.%.%.&.&.&.%.&.&.$.%.%.%.%.%.&.&.%.$.%.%.{ v / / f f f 3 . * 6.r.y.8.O.+.+.+.+.O.+.+.+.+.+.@.@.+.@.+.@.+.@.@.+.+.+.+.+.| { { { { { { { { { { { { { { { { { { { { { [ [ [ [ [ [ [ { { { [ [ { { [ [ { [ [ [ [ [ ] [ [ ] _ ] ` ` ( _ _ ( ( [ _ _ ' ( ` ( ( [ _ ' ( ` ( _ [ ( ( ) ( ( ) ` ' [ ' ' ) ) ( ` ( ( ` ` / / / [ %.+.+.%.%.@.* $ + & { +.+.O.O.O.O.+.{ ' ( i.gXhXsXO.[ ..} ..{ { ....{ O.{ ....[ ..[ ..O.O.O.",
"l 7.>X>Xs.%.%.%.+.+.+.+.@.@.+.+.+.+.+.+.+.+.+.[ ( ( v u f u f g g g g f g g g * o o . 9 / l c c c l y u u u u u f f f u u f f f f f f u g l l l l / ( ( / ( ( ( ( ( ( ( ( ( ( ( ( ] ' ( ( ( ) [ ' [ [ [ [ [ [ [ [ [ [ [ [ [ [ [ [ [ [ { [ [ [ [ [ [ [ [ [ [ [ [ [ [ [ [ { [ [ O.O.} } | O.O.+.O.O.@.O.@.+.O.O.O.+.O.+.+.+.%.v & * * ..$.%.2.i.y.r.%.+.%.$.%.%.%.%.&.%.&.%.%.%.*.*.*.*.%.*.*.*.*.*.%.%.%.*.*.*.%.%.&.&.%.*.%.*.*.%.%.%.%.&.%.*.&.%.%.%.%.*.*.%.%.*.*.%.*.*.=.*.=.4.2.4.4.2.2.4.2.2.2.2.2.2.2.2.2.2.2.2.2.4.4.4.4.4.4.4.4.4.4.4.4.4.2.4.2.4.4.4.2.2.4.4.2.1.4.4.2.2.4.2.4.4.4.4.7.[ g c k 3 & @ 8.d.7X9Xf.2.1.4.4.4.4.4.4.4.4.4.4.4.4.2.2.2.4.4.4.4.4.4.4.2.4.4.4.4.4.2.4.4.2.4.4.4.4.*.*.%.&.%.%.%.%.%.%.*.*.*.*.%.%.%.*.*.*.*.*.=.<.2.2.2.2.2.2.2.2.2.2.*.%.%.%.%.%.%.%.%.%.&.%.%.%.%.%.&.&.&.&.&.%.%.%.%.%.%.%.%.%.&.&.&.&.%.&.$.%.%.%.%.%.&.&.&.&.%.&.[ v / / f f f 3 . * 6.t.y.7.O.+.+.+.+.+.+.+.+.+.@.@.@.@.@.@.@.+.+.+.+.+.+.+.@.} [ { [ { { { { { { { { { { { { { [ { { [ { [ [ [ [ [ { [ { { { [ [ { } { [ { [ _ [ [ [ [ _ _ ` ( _ _ ` ` [ _ ` ` _ [ _ [ ( ( [ _ ) ) _ ` ` ) ' ' ) _ _ ' ( ) ` ' ' ' ' [ ' ' ` ( _ ] [ / v v ' %.@.%.%.%.@.* $ $ & { O.O.@.O.O.O.+.{ ( ` s.hXhXsX+.{ O.O...O.{ ....{ ......{ ] %.*.$.@.{ [ ",
"l 6.>X>Xs.%.&.+.+.+.+.+.@.@.+.@.+.+.+.+.+.+.+.[ ( ( v f u u f g g g g g g g g * o + . 9 / c c l c l y u u y y f f f f u u f u u u f f u g l l l c / ( / ( ( ( ( ( ( ( ( ( ( ( ( ( ( ] ( ` ( ( [ ( ( ' [ [ [ ' [ [ [ [ [ [ [ [ [ [ [ [ [ [ [ [ [ [ [ [ [ [ [ [ [ [ [ [ [ { { { { { } { } O.O.O.O.O.O.O.O.O.@.@.O.O.O.@.@.@.@.v & & * ..$.%.2.y.t.r.%.+.$.$.&.%.%.&.&.&.&.%.&.%.%.%.%.&.&.%.%.%.%.%.%.&.%.%.*.%.%.&.&.&.%.%.%.%.%.&.%.%.%.*.*.%.%.*.*.*.*.%.%.*.%.*.*.*.*.*.*.*.<.2.2.2.2.2.2.2.2.2.2.2.2.2.2.2.2.2.*.=.2.2.2.4.4.4.4.2.4.2.4.4.4.4.2.2.2.4.4.4.2.2.2.2.4.4.1.4.4.2.4.4.4.4.4.4.7.[ g l k 3 $ + 8.d.7X8Xf.2.2.4.4.6.6.4.4.4.4.4.4.2.4.4.4.2.2.4.4.4.4.4.4.4.2.4.4.2.4.2.2.2.2.4.2.2.4.*.*.%.*.*.*.%.*.%.%.*.*.*.*.%.%.%.*.*.*.*.*.*.*.*.%.%.%.%.*.=.*.=.=.%.%.%.%.%.%.&.&.&.&.&.&.%.%.%.&.%.%.&.&.&.%.%.%.&.&.$.&.%.%.$.&.$.&.&.%.%.$.%.%.&.%.&.&.%.%.%.$.[ v / v f g f = . * 6.r.r.7.O.+.+.@.+.+.+.+.+.+.+.+.+.@.+.+.+.+.+.@.+.@.+.+.+.} { [ [ [ { { { { { { { { { { { { [ { [ { [ { [ [ [ [ [ [ { { { [ { [ { { [ [ [ _ [ [ _ ( _ _ ( ( [ [ _ ] _ ] [ ` ' _ [ ' _ _ [ [ _ ` [ _ ( [ ' ' ' [ [ ' [ [ ' ' [ [ ) ] ( ( ] [ ] [ [ ( l c ' %.@.@.%.%.@.* + $ & { O.O.O.O.O.O.@.{ ` ( a.hXgXtX+.{ O.| O.O.O.....o.O.O.O.{ [ O.+.o.*...' ",
"l 6.>X>Xa.$.$.$.+.+.$.@.+.@.+.+.+.+.+.+.+.+.O.[ ( ( / u u u f g g g f g g g g * o + . q / c c l l k y u u u y u g f f u u u u u u u u u g l l l c ( ( ( ( ( ( ( ( ( ( ( ( ( ( ( ( ( ' ( ( ( ( _ ( ( ' [ ] ' ' [ [ [ [ [ [ [ [ [ [ [ [ [ [ [ [ [ [ [ [ [ [ [ { [ [ [ [ { { { [ [ [ { { } O.O.O.| | O.@.@.@.@.O.O.O.O.| } { O.v & & * ..%.%.2.y.y.r.%.+.$.$.@.&.%.%.%.&.&.%.*.*.*.%.%.&.&.%.%.%.*.*.%.*.%.*.*.*.%.%.%.*.*.%.%.%.&.&.%.&.&.*.*.%.%.*.*.*.%.%.%.*.%.*.*.*.*.*.*.*.=.<.2.2.2.2.2.2.<.<.<.2.2.2.2.<.<.<.=.<.2.2.2.2.2.2.4.2.4.2.2.2.2.2.4.2.2.2.4.4.2.4.2.4.4.4.2.4.4.4.4.4.4.4.4.4.7.[ h l k 3 $ $ 9.d.7X8Xd.2.4.4.4.4.4.4.4.2.4.2.4.4.2.2.2.2.2.2.2.4.4.4.2.2.2.2.2.2.2.2.2.2.2.2.2.2.2.*.*.*.*.%.%.*.*.*.*.*.%.%.*.%.%.%.%.%.%.*.*.*.*.*.*.*.*.%.*.*.*.*.%.%.%.%.%.%.%.%.%.&.&.&.%.%.%.%.%.%.%.&.&.%.%.%.%.&.&.&.&.%.%.$.$.$.$.%.%.+.$.@.%.%.%.&.&.%.%.%.&.[ v / v f g f = . * 6.r.y.7.O.+.+.+.+.+.+.+.@.@.+.+.$.+.@.@.@.@.$.+.O.+.+.+.@.{ { [ [ [ { [ [ { { { { { { { { { { [ [ { { [ { [ [ [ [ { { { { { [ { [ [ [ [ [ [ [ [ ( ( _ _ _ _ _ _ _ ` ) _ [ [ [ [ [ _ [ _ [ [ ' ' [ [ _ [ [ ' ' [ [ ( [ [ ' ' ' ' _ [ ( _ ( [ ( ` ' v v c ' %.@.+.%.%.+.* + + & { O.O.O.@.O.O.+.{ ` ( a.hXdXrXO.{ ..| O.O.O...{ o.O.o.....{ { { [ :.2.3.",
"l 6.>Xf.s.%.&.+.$.$.+.+.+.+.+.+.+.+.@.@.@.+.O.[ ( ( v f u f f g g g g g f g g * o + . 9 / c c l c k u u u u y u u f u u u u f u u u f f g l l l c ( ( ( ( ( ( ( ( ( ( ( ( ( ( ( ( ( ( ( ( ( ( ( ( ( ( [ [ ' [ [ [ [ [ [ [ [ [ [ [ [ [ [ [ [ [ [ [ [ { [ [ [ [ { [ [ [ [ { { { { [ { { { { { { } { O.O.O.O.O.O.O.O.} O.O.{ +.v & & * ..%.%.2.y.t.r.%.+.&.$.&.$.%.%.%.%.&.%.%.&.&.%.%.*.&.&.%.&.&.%.&.&.%.*.*.*.*.%.%.*.%.&.&.%.%.&.*.%.%.%.&.%.*.*.*.*.*.%.*.%.%.*.*.*.*.*.*.*.*.%.*.*.*.*.*.*.=.*.*.*.%.*.*.*.*.%.*.%.%.*.=.=.*.*.*.*.*.=.=.*.*.=.=.*.*.*.*.*.*.=.=.=.*.=.4.4.4.4.4.4.2.4.1.4.7.[ k l k 2 $ + 9.a.3X8Xa.2.2.2.=.=.*.%.*.*.*.*.*.*.=.*.*.%.%.%.%.*.*.*.%.%.*.*.%.%.%.%.*.*.%.*.*.%.%.*.%.%.*.*.*.*.*.%.%.%.*.*.*.*.*.*.*.*.*.*.*.*.%.%.*.%.%.*.%.&.%.*.%.%.%.%.%.%.%.%.&.%.%.%.&.%.%.&.&.%.%.&.%.&.&.%.&.&.$.$.%.&.%.$.$.$.%.%.$.$.$.+.%.%.+.$.&.&.&.%.%.[ v / / f g f = . * 3.e.t.7.O.O.+.+.+.+.@.@.@.@.+.+.+.+.+.@.| O.O.{ O.O.+.+.O.} { { { { { [ [ [ { { { { { { { { { [ [ [ [ [ [ [ [ [ [ ] [ [ [ { [ [ [ [ [ [ [ [ [ [ ( _ [ _ [ ' [ [ ( ( _ [ [ ( ' [ ) ` ` ) _ _ ( ` ' ) [ [ _ ` ` ) ) ( ) [ ( ) [ _ [ [ _ ) _ [ ` ( ( / v l ) %.O.O.@.@.+.& + + & ..+.O.O.O.+.O.+.{ ] ( y.gXdXtXO.{ o.O.{ O...O.O...{ O...O.O.{ O.{ :.6.e.",
"l 6.f.>Xs.%.$.+.$.&.+.+.+.+.+.@.@.+.@.@.@.+.O.' ( ( / u u f f g g g f g g g g * o + . 9 / l l l c k y u u u u u u u u u u f f u u u f f g c l l c ( ( ( ( ( ( / ( ( ( ( ( ( ( ( ( ( ( ( ( ( ( ( ( ) ' [ [ [ [ [ [ ' [ [ [ [ [ [ [ [ [ [ [ [ [ [ [ [ [ [ [ [ [ [ [ [ { [ [ { { { { { { { { { { o.{ } o.O.O.O.O.O.| O.O.O.O.+.v & & * ..%.@.2.t.r.r.%.@.+.+.$.&.$.&.%.&.&.&.%.%.&.&.*.*.&.%.%.&.&.%.%.&.&.%.%.%.%.*.*.*.&.&.&.%.*.%.%.%.&.&.*.*.*.%.%.*.*.*.*.%.%.%.%.*.*.*.*.*.*.%.*.%.%.*.*.*.*.*.%.%.%.*.*.*.*.%.%.%.*.*.*.%.%.%.%.%.*.*.*.%.*.*.*.*.*.*.*.%.%.%.*.=.=.=.4.2.4.4.4.4.4.4.4.3.7.[ k l g 3 $ $ 9.s.3X8Xf.<.2.2.=.*.%.*.*.%.*.*.*.%.*.%.%.%.%.%.%.*.*.%.%.%.%.%.%.%.%.%.%.%.&.%.%.%.%.%.%.%.%.*.*.*.%.%.*.*.*.*.*.%.%.*.%.*.%.*.*.*.%.%.%.%.%.%.%.&.%.%.&.%.&.%.%.%.%.&.&.%.%.&.&.%.%.%.%.%.%.%.%.&.%.%.%.%.$.%.%.$.$.%.%.@.$.+.$.$.&.$.@.+.+.$.+.&.&.%.&.[ v v / f g f 3 . * 3.e.t.7.O.+.+.+.O.+.+.+.+.@.+.+.+.%.+.O.[ { { _ O.$.@.O.+.{ { { { { [ { [ [ { { { { [ [ [ [ [ [ [ [ [ [ [ _ ] [ [ _ [ { [ [ [ [ [ _ _ _ [ [ [ [ ( ( _ ( ` ] _ [ ( ( [ _ ( ( ( [ ) ( ( ) ) ) ( ( ' ( ) ) ' ( ` _ ) ( ( ( ( ( ( ( ] _ ) ) ` ( ] ( ( / l l ) %.O.O.@.%.@.* + + & ..O.O.+.O.+.+.$.{ ' ( i.dXhXpXO.{ O.{ | { O.O.O.O.| O.......{ ....=.6.e.",
"l 6.f.>Xf.&.+.+.+.$.+.+.+.+.+.@.@.@.@.+.@.+.O.[ ( / v f f f f g g g g g g g g * o o . 9 / l c l l k y u u u u u u u u u u u u f u u f f g c l l c ( ( ( ( ( ( ( ( ( ( ( ( ( ( ( ` ` ( ( ( ( ( ( ( ( ( ( ( ) [ [ [ [ [ [ [ [ [ [ [ [ [ [ [ [ [ [ [ [ [ [ [ [ [ [ [ [ { [ [ [ { [ [ { [ [ { [ { { | O.| | | O.O.O.O.O.O.O.O.@.l & & * ..+.@.:.y.t.r.%.@.$.$.&.&.&.&.%.%.&.&.&.%.&.&.&.%.%.*.%.%.%.%.%.&.&.&.&.&.&.%.*.%.%.&.&.%.%.%.%.&.%.&.%.%.%.%.%.&.%.*.*.*.%.%.%.*.*.*.*.%.%.%.%.%.%.*.*.*.*.*.*.*.%.*.*.*.*.*.*.%.%.*.*.*.*.%.%.*.*.*.*.%.%.*.*.%.*.%.*.*.*.*.*.*.:.*.2.4.4.4.4.4.4.2.4.4.7.[ k l g 2 + + 8.a.1X8Xd.=.2.2.2.*.%.*.*.*.*.*.*.%.*.*.*.%.%.%.%.*.*.*.%.%.%.%.%.%.*.%.%.%.%.%.%.*.%.&.%.*.*.*.*.%.%.%.%.%.%.%.%.%.*.%.%.*.%.*.%.%.&.%.%.%.%.%.%.%.%.&.&.%.%.%.%.%.&.&.&.%.%.&.&.&.%.&.&.&.&.%.%.$.$.&.&.%.%.%.&.$.$.%.%.%.$.$.$.+.$.&.&.&.&.+.$.&.&.%.&.[ / / v f g f 3 . * 3.e.t.7.O.O.O.+.O.@.+.+.@.+.+.+.+.+.+.O.} { { { | +.@.+.+.{ [ { { { { { [ [ { { [ [ [ [ [ { { { { [ { { [ _ [ [ [ _ [ [ [ { [ [ { [ _ [ ( ] [ ] [ ( _ ( ' _ [ [ [ [ [ [ ` ( ( _ _ [ ' ( ) [ ) ) [ ' ( ) ) ( ) [ ) ' ) _ ) ( ( ( ( ) ( ( ( / / / / v l l ( %.+.O.@.%.+.* + + & [ O.O.O.O.O.O.+.{ ' [ a.gXgXyX+...O.O.| ..{ O.O.{ O.{ ......{ ..[ :.e.t.",
"l 6.f.f.s.*.%.$.+.$.@.$.@.@.+.+.+.+.@.+.+.+.O.[ ( ( / f f u f k g g g g g g g * o o o 3 c l c l l g y u u u y u u u y y u u u u f f f f k c l l c ( ( ( ( ( ( ( ( ( ( ( ` ( ( ( ( ` ( ( ( ( ` ( ( ( ` ( ` ' [ [ [ [ [ [ [ [ [ [ [ [ [ [ [ [ [ [ [ [ [ [ [ [ [ [ [ [ [ [ [ [ [ [ [ [ [ [ [ { { { O.O.| | | O.| { O.{ O.O.{ @.l & & * ..@.@.2.t.t.r.%.+.$.%.%.&.&.%.%.%.%.%.&.&.&.&.&.&.%.%.%.&.%.&.&.&.&.&.%.%.&.&.%.&.&.&.&.%.%.*.%.&.%.&.&.%.%.%.%.%.*.*.*.%.*.*.%.*.*.*.*.%.*.*.*.*.%.*.*.*.*.*.*.*.*.*.*.*.*.*.*.*.%.*.*.*.*.%.%.*.*.*.*.*.*.*.*.%.%.%.*.*.%.*.=.*.=.<.2.4.6.4.4.4.4.4.4.4.7.[ k l g * $ $ 8.i.1X7Xa.%.%.%.*.*.%.*.*.*.*.*.*.*.*.*.*.%.*.%.*.*.*.*.*.*.*.*.*.*.*.%.%.%.%.*.*.%.*.*.*.*.*.*.%.%.%.%.*.*.*.%.%.%.%.%.*.%.%.%.%.%.*.%.%.%.&.&.%.%.%.*.%.%.%.%.%.%.*.%.%.%.%.%.%.%.%.&.&.&.$.%.%.%.&.$.%.%.%.%.$.$.&.%.%.$.%.$.%.%.%.&.&.&.$.+.%.%.$.%.&.[ v / v g g f = . * 3.r.t.7.O.+.O.O.+.@.+.+.+.+.+.+.O.O.+.@.@.| { { { { { | | [ { { { { { { { { { { [ [ { [ [ [ [ [ [ [ { [ [ [ [ [ [ [ [ [ _ [ [ ] [ [ _ ] _ ] [ [ _ ) _ _ [ [ [ _ ) _ [ ` ( [ _ [ _ [ [ ' _ [ _ _ [ [ ' [ ` ' [ [ ' ` ' [ [ [ ( ( ' ( ' ` ( l c / / v c l ) %.O.O.O.%.+.& $ $ & [ O.O.O.O.O.O.+.{ ) ( s.lXkXuXO...O.O.O.{ ..{ ..| | | ......O.| ..2.w.t.",
"l 4.f.f.f.:.2.<.%.+.O.O.O.O.+.O.O.+.O.+.+.O.O.` ( ( / f f u f k g g g g g g g * o o o * g k c g l g y y y u u y u u y y u y u u f g f f k c l l v ( ( ( ( ( ( ( ( ( ( ( ( ( ( ( ( ` ( ( ( ( ( ( ( ) ' ' ' [ ( ( ( [ [ [ [ [ [ [ [ [ [ [ [ [ [ [ [ [ [ [ [ [ [ [ [ [ [ [ [ [ [ [ { { { { { { [ | O.{ O.{ { { { { { { O.} { O.c & * * ..%.%.2.y.r.q.%.+.$.+.@.&.&.%.&.%.%.%.%.%.&.&.&.%.&.&.&.%.%.%.%.%.&.&.%.%.%.&.&.*.%.%.&.%.&.&.&.&.*.%.%.%.%.%.%.&.*.*.*.*.*.&.%.%.%.*.*.*.*.*.*.*.*.*.*.%.*.*.*.*.*.*.*.*.*.*.*.*.%.*.*.*.*.*.%.&.%.*.*.*.*.*.%.*.*.*.*.*.*.*.*.=.=.<.2.4.4.4.4.4.4.4.4.4.7.[ k l k 2 + + 8.i.,X3Xa.%.*.%.%.*.*.*.*.*.=.=.=.*.=.*.*.*.*.*.*.*.*.*.*.*.*.*.*.*.%.*.*.*.*.*.*.%.*.*.*.*.%.%.%.%.*.%.%.*.%.%.%.&.&.%.%.%.%.*.%.*.*.*.%.%.%.&.*.%.*.%.%.%.%.%.&.%.%.%.%.&.&.&.&.%.%.%.&.$.$.%.%.%.%.$.$.$.%.%.&.&.%.%.%.&.$.$.$.%.%.%.&.&.&.$.$.+.&.&.&.[ / / v f g f 2 o * 3.r.r.7.O.+.@.O.@.+.+.+.O.O...O.+.+.$.+.$...[ { { { { { { { { { { { { { { { { { { [ [ { [ [ { [ { [ { [ [ [ [ [ [ [ ` [ ] _ [ _ [ [ _ _ [ [ [ _ _ ( ( ( ) ) _ ) ( ( ) ( ( ( _ ) ( ) ) ) ) ( _ [ _ ) _ [ ` ` [ [ ' ` ' [ [ ' ( ` ) ' ( ` ( ^ c l z / / l ' %.$.+.+.@.O.& + $ & [ O.O.O.@.O.O.+.{ ( ( >XvXcXsXO.{ O.O.O...| ..{ O.{ | ..........O.2.8.e.",
"l 4.s.f.f.2.:.=.%.&.O.O.O.O.@.+.O.O.O.O.O.O.O.) ( ( / f u u f g g g g g g g g * o + o * k g k g l k y y u u u y y u u u u u u u u f f f g l l l c ( ( ( ( ( ( ( ( ( ( ( ( ( ( ( ( ( ) ( ( ( ( ` ( ( ' [ _ ] ' ( ( [ [ [ [ [ [ [ [ [ [ [ [ [ [ [ [ [ [ [ [ [ [ [ [ [ [ [ [ { [ { [ { [ { { { [ { O.| O.{ { { { { { { O.O.O.+.l & & * ..%.%.2.t.r.q.%.@.&.&.%.&.&.&.&.&.&.&.%.&.%.%.%.%.&.&.&.%.&.%.%.*.%.&.%.&.&.%.&.&.%.&.&.%.%.%.*.&.%.%.&.%.&.*.%.&.*.%.%.&.%.&.*.*.*.*.*.*.*.%.*.*.*.*.*.*.*.*.*.*.*.*.*.*.%.*.*.*.*.*.*.*.*.*.*.%.%.*.*.*.%.%.%.%.%.*.*.&.*.%.%.*.=.%.2.4.4.4.4.3.4.4.4.4.7.[ k l k = + + 8.i.,X1Xa.%.%.%.%.*.*.*.*.*.*.*.*.*.=.*.*.*.*.*.*.*.*.*.*.*.*.*.*.*.*.*.*.*.%.&.%.*.*.*.*.%.*.*.*.%.%.*.*.*.%.%.%.&.*.*.%.%.&.*.*.%.*.%.%.%.%.*.*.%.%.%.%.%.%.&.&.%.*.%.%.&.%.&.%.%.%.&.%.&.&.%.%.%.$.&.$.&.&.$.$.&.%.&.&.$.&.$.$.$.$.%.%.+.&.+.+.&.&.&.+.{ / / v f g f 3 o = 3.e.r.7.O.+.+.+.%.$.&.%.O.O.[ [ O.+.O.O.+.} [ { [ { { { [ [ [ { { { { { { [ { { [ [ [ [ [ { { [ [ [ [ [ [ [ [ [ [ ] ] [ [ ( ] [ ] ' ` ) [ [ [ ` ] _ _ [ [ [ ( ` ' ( ) ) ( ( ) ( ( [ [ ) ( ` ' ' ) ( ( ' ( ( ) _ ` ' ` ] ` ' ( ( ( ) [ ( / l l l z / c l ` %.$.+.+.@.O.& $ $ % { O.O.O.O.O.O.+.{ ` [ >XvXcXdXO.{ O.O.O.O...O...O.| O.O.O.........2.8.e.",
"l 2.f.f.a.:.:.%.*.*.+.+.+.@.+.@.| O.O.O.O.O.O.' ( / v u u u f g g g g g g g g * o + . = c g g k l g y u u u u u u f f u u y u f u u f f k c l l v ( ( ( ( ( ( ( ( ( ( ( ( ( ( ( ( ( ) ( ( ( ( ` ( ( ( ( ` ( ' _ _ [ [ [ [ [ [ [ [ [ [ [ [ [ [ [ [ [ [ [ [ [ [ [ [ [ [ [ [ [ { [ [ [ { [ [ { [ { { { { [ [ [ { O.{ { { O.O.+.l & & * ..%.@.2.t.r.r.%.+.@.+.+.&.@.&.&.&.@.&.&.%.%.%.%.&.%.&.%.&.&.&.%.%.%.&.%.%.%.%.&.%.%.%.%.%.%.&.%.*.&.%.%.%.%.&.&.&.*.%.%.%.%.*.*.*.*.*.*.*.*.*.*.*.*.%.*.*.%.%.%.*.%.*.*.*.*.%.*.*.*.*.%.%.%.&.&.&.%.&.%.%.%.%.%.%.%.%.%.&.%.%.%.*.=.*.2.4.4.4.4.3.4.2.4.4.4.[ k l k 3 + + 8.i.,X1Xa.%.%.%.%.*.*.%.*.*.*.*.*.*.%.*.*.*.*.*.*.*.*.%.%.*.%.%.*.%.%.%.*.*.*.*.&.*.*.%.%.*.%.*.*.%.*.*.%.*.%.*.%.*.*.*.*.*.%.%.*.*.%.%.%.*.%.%.%.%.%.%.%.%.%.&.%.&.%.%.%.%.%.%.%.&.&.&.%.&.&.&.&.$.&.$.&.&.%.%.&.$.$.$.$.&.&.&.$.$.+.+.+.+.+.$.$.+.+.%.%.[ v / v f g f 2 o * 2.e.r.6.O.O.O.+.+.+.+.+.O.O.{ [ O.+.+.@.$.O.{ [ [ [ { [ [ [ { { { { [ { [ [ [ [ [ [ [ [ [ [ { { [ [ [ [ [ [ [ [ [ [ [ [ ` ` ( ] ) ' ] [ _ _ [ ` ] ] ' _ [ [ [ ` [ ) _ _ ) [ [ ( ( [ [ [ ) ) ( ) ) ) ) ) ' _ ' _ [ ' ' ` ` ) ` ( _ ) [ ] ( l l l z / c l ' %.O.+.+.+.X.& o + % [ O.O.O.O.O.O.+.{ ' [ >XcXcXsXO.{ O.O.O.O.O.........O.O.O.........2.8.t.",
"l 2.a.a.t.*.2.2.=.*.O.+.@.+.@.O.O.O.O.O.+.O...' ( ( v u f u g k g g g g g g g * o + o * k g k g k g u u u u u u u u u u y y f g f u f f k c l l c ( ( ( ( ( ( ( ( ( ( ( ( ( ( ( ( ( ( ( ( ` ( ( ( ( ( ( ( ( ( ( ( [ [ [ [ [ [ [ [ [ [ [ [ [ [ [ [ [ [ [ [ [ [ [ [ [ [ [ [ [ { [ [ [ [ [ [ [ [ { { { { { [ [ { { { { { { { O.l & & * ..$.@.:.r.r.q.%.+.+.@.&.&.&.%.&.&.&.&.&.%.%.%.%.@.%.&.&.%.%.&.%.&.&.&.&.&.%.%.%.%.%.%.%.%.%.&.%.&.&.&.&.&.%.%.&.&.&.%.%.%.*.*.&.%.*.%.*.*.*.*.%.%.%.*.*.*.*.*.*.*.*.*.*.*.*.*.*.*.*.*.%.%.%.&.%.%.%.%.%.&.%.%.$.%.%.%.&.%.%.%.%.%.%.*.2.6.4.4.4.3.4.4.2.4.4.[ k k k = + + 8.i.>X1Xi.$.%.%.%.%.%.%.*.*.*.=.=.=.%.*.=.*.*.*.*.*.*.*.*.*.%.%.*.*.%.*.*.*.*.*.%.%.*.*.*.*.%.%.%.%.%.*.%.%.*.*.*.*.%.*.*.*.%.%.%.%.%.%.%.%.%.%.%.%.%.&.%.*.*.%.%.&.%.%.%.%.%.%.%.&.$.%.%.&.&.&.&.$.&.%.&.&.$.%.%.%.%.$.$.&.$.$.+.+.+.+.+.+.$.$.+.+.+.$.+.[ v / v f f f 3 o * 2.e.e.6.O.+.O.+.+...{ { [ { [ [ ..O.$.@.O.} { { { { { [ { [ { { { { [ [ { [ [ { [ ] [ [ [ { { [ [ [ [ [ ] [ [ [ ] [ [ [ ` [ ] [ [ [ ' _ [ [ _ ` _ ` ( ( _ _ ] ` ` _ ) ' ) [ [ ` [ [ [ [ ) ` ' [ [ ' ) ( _ _ ' ' ' [ [ ` ' ` ` ` ) ` ( ` ( l l l z ^ c l ` %.O.O.O.+.X.& o + % [ O.O.O.O.O.O.+.{ ` ' >XcXvXdXO.{ O.O.O.........O...O.O.O...O...O.4.9.t.",
"k 2.s.f.i.*.=.=.*.%.@.+.+.O.O.O.+.O.O.@.@.O.O.' ( ( v f f f f g g g g g g f g * o + o 3 l l k g k g y y u u y y u u u u u y f f u u u f g c c l v ( ( ( ( ( ( ( ( ( ( ( ( ( _ ( ( ( ( ( ( ` ( ( ( ` ( ( ) ( ( ( [ [ [ [ [ [ [ [ [ [ [ [ [ [ [ [ [ [ [ [ _ _ [ [ [ [ [ [ [ [ [ [ [ [ [ { [ [ [ { [ [ [ { { { { { { { { { { O.l & & * { %.@.2.y.e.r.%.@.@.@.+.+.@.&.@.&.&.&.&.&.&.%.&.&.%.%.@.@.&.%.%.%.&.&.&.&.%.%.%.&.&.%.%.%.&.%.%.%.%.&.&.&.&.&.%.*.*.*.&.*.%.*.*.*.%.%.%.%.%.%.%.*.%.*.*.*.*.*.*.%.%.*.*.*.*.%.*.%.*.*.%.%.*.%.%.%.%.&.%.&.&.%.%.*.=.*.*.=.*.=.=.=.:.=.2.2.2.4.4.4.4.4.4.4.6.[ k l k 2 + + 8.i.>X,Xi.%.%.%.%.*.*.%.*.*.*.*.*.*.%.*.*.*.*.=.*.*.*.%.*.*.*.*.*.%.%.%.%.*.%.%.&.*.%.%.%.*.%.*.%.%.%.%.*.%.*.%.%.%.%.%.%.&.%.%.%.%.%.%.%.%.%.%.%.*.%.&.&.%.%.%.&.&.&.&.%.%.%.%.%.&.$.$.$.%.%.$.&.$.%.&.$.$.$.%.%.%.&.$.$.$.$.+.@.$.$.+.+.+.+.+.$.$.+.+.+.[ v / v f f f 2 o * 2.e.r.7.O.O.O.+.+...[ [ [ [ { { O.O.O.O.O.| } { { { { { { { { { [ [ [ { { [ [ [ [ [ [ [ [ { { { [ [ ' [ [ ] [ ] [ ] [ [ [ [ [ [ [ [ ) ( ' _ [ ` ) [ ( _ _ _ ( ( ( ( ) ) ) ) ) ( ` ( ) ) ( ( [ [ [ ' ' _ [ ' ` ( ` ) ' ( ' ` ] ` ` [ ` ] ( v z l z z c l ) %.O.O.O.@.O.& + o & [ O.O.O.O.O.O.+.{ ) ( >XcXbXdX+.{ O.O.{ O.............| O.{ | { O.4.9.t.",
"l 2.a.f.i.*.$.*.*.&.+.+.+.O.O.O.O.O.O.O.O.O.O.' ( ( / u f f f g g g g g g g g & o o . 9 v l l g k g y y u u u u u u u u u u u u u u u f k c c l c ( / ( ( ( ( ( ( ( ( ( ( ( ( ( ( ( ( ( ( ( ( ( ( _ ( ( ( ( ( ( ] [ [ [ [ [ [ [ [ [ [ [ [ [ [ [ [ [ [ { [ _ [ [ [ [ [ [ [ [ [ [ [ [ { [ [ { [ [ [ { [ [ { { { { [ [ [ { { O.l & & * O.%.@.2.r.e.9.%.@.@.&.@.+.+.+.@.+.$.@.&.&.%.&.&.&.&.&.&.&.&.%.%.%.#.%.&.@.%.@.@.%.&.%.%.%.&.%.%.%.%.%.&.&.%.%.%.%.%.&.&.&.*.%.%.*.&.%.%.%.*.%.%.*.%.%.%.*.%.%.%.%.*.*.*.*.*.%.*.*.*.*.*.*.*.%.%.%.%.&.&.&.%.%.=.2.2.2.2.2.2.2.2.2.4.2.2.2.4.4.4.4.4.4.4.4.4.[ k l k = + + 7.i.>X1Xi.#.%.%.*.*.*.*.%.%.%.*.*.*.*.%.=.=.=.=.*.*.*.*.*.*.*.*.*.%.%.*.%.%.%.&.*.*.%.*.%.%.%.*.*.*.%.%.%.%.%.*.*.%.%.%.*.%.%.%.%.%.%.%.%.%.%.%.%.*.%.%.&.%.%.&.&.&.&.%.&.&.%.%.%.&.&.$.%.%.$.$.$.&.%.%.$.$.$.$.%.@.@.$.$.$.$.&.+.+.+.@.+.+.+.@.+.@.@.+.+.[ v / v g f f 3 o * 2.e.e.4.O.+.O...+.o.[ { { [ { O.O.o.[ { | { { { { { { { { { [ { [ [ { { [ [ ] [ [ ( [ [ [ [ [ [ [ [ [ [ [ ` [ [ [ [ _ [ _ [ [ [ _ ( _ [ [ [ ' [ [ [ ( ( _ ) _ ( ) ( ( ) ) ) ) ( ( ( ( ' ( ( ( ) [ ` ( ) ` ' ' ) ` ( ( ( ( ` [ [ ` ( ( v z c z l z z c c ( $.O.O.+.O.O.& + o & [ O.O.O.O.O.O.+.[ ( ( >XlXvXdX+...O.O.O.O.O.O.O...O.O...O.{ { { ..2.8.t.",
"l 2.a.a.a.=.%.%.O.+.+.O.%.@.O.O.O.O.O.| O.O.O.' ( ( / u f f f g g g g g g g g * o + o 9 ( c l l l g y u y u u u u u u y u u u u f f f f k l c l c ( ( ( ( ( ( ( ( ( ( ( ( ( ( ( ( ( ( ( ( ( ( ( ( ( _ ( ( ( ( ( ) [ [ [ [ [ [ [ [ [ [ [ [ [ [ [ [ [ { [ [ [ [ [ [ [ [ [ [ [ [ [ [ [ [ [ [ [ [ [ { { [ [ [ { [ [ [ [ { { [ | l & & = ..%.%.2.y.e.9.%.+.+.+.&.@.+.&.$.&.&.%.&.%.&.&.&.@.%.%.%.&.&.&.&.%.%.%.%.&.%.&.%.%.&.&.%.%.&.&.&.%.%.%.%.&.&.&.&.%.%.%.%.&.%.%.*.%.&.%.&.*.*.*.*.%.*.*.%.*.%.*.*.*.=.*.*.*.%.*.*.*.*.*.*.%.%.%.%.%.%.&.&.%.%.%.2.2.=.4.4.2.2.2.2.2.2.2.2.4.2.4.4.4.4.4.4.4.4.[ l l k 2 + + 6.i.>X<Xi.+.@.%.%.*.*.*.%.%.%.%.%.*.*.*.2.4.4.4.*.*.*.*.*.*.*.*.*.*.%.*.%.%.*.%.%.*.*.*.*.%.%.%.*.*.%.%.%.*.*.*.*.%.%.%.%.%.%.%.%.%.%.*.%.%.%.%.*.*.*.%.&.&.&.%.&.%.%.%.&.&.%.%.%.%.%.%.%.%.%.$.%.$.%.%.$.$.$.$.$.+.+.$.+.@.+.+.+.+.@.+.+.@.+.+.+.@.@.+.@.[ v v v f g f 3 . * 2.e.r.7.O.+.O.O.+.{ [ [ [ { [ { { { [ [ { { { { { { { { { { { { [ [ { { [ [ [ { ] ( [ [ [ [ [ [ [ [ [ ] [ [ _ [ [ ( ( _ [ [ [ ] ( ( [ _ ( ' [ [ [ [ ( ( [ [ ) _ _ ` ' _ ' ) ) ) _ ' ) ' [ ) ) ) ) ( ` ( ( ) ( ( ( ( ( ` ( ) _ [ ( l / l l l l l l l l l ( @.O.O.O.+.O.& + o & [ O.O.O.O.O.O.@.{ ` ) >XlXvXdXO.....O.O.O.O.O.{ ............O...O.2.8.t.",
"l 2.a.f.a.2.=.%.O.%.*.*.*.O.O.X.O.O.O.| O.O.O.' ( ( v f f f f g g g g g f g g * o o o 9 / c l k l g y u u y u u u u u u u u u f u u f g k l l l v ( ( ( ( ( ( ( ( ( ( ( ( ( ( ( ( ( ( ( ( ( ( ( ( ( ( ( ( ( ( ( [ [ [ [ [ [ [ [ [ [ [ [ [ [ [ [ [ [ [ [ ] [ [ [ [ [ [ [ [ [ [ [ [ [ [ [ [ [ [ [ { [ [ [ [ [ [ [ [ [ { { { O.l & & = O.%.%.2.r.e.9.%.O.+.+.+.+.$.&.$.&.$.&.%.%.%.%.$.&.&.%.%.&.&.&.&.%.%.%.&.&.&.@.%.%.&.$.&.&.&.&.&.&.%.%.%.&.&.&.&.%.&.%.*.%.%.%.*.*.*.*.%.*.&.*.*.*.*.*.%.%.%.%.*.*.*.=.*.*.*.*.%.*.*.%.*.*.*.%.%.%.%.%.%.*.%.&.:.2.4.7.7.4.4.4.2.2.4.4.2.2.4.4.2.4.4.4.4.2.4.' l l k = + + 4.i.>X,Xy.+.&.%.%.*.%.*.%.*.%.%.%.*.=.*.4.6.5.6.*.%.*.*.*.*.*.*.*.*.*.*.*.%.*.*.%.*.%.*.%.&.&.*.%.%.*.*.%.*.*.*.*.&.%.%.%.*.*.*.%.%.%.%.&.*.*.&.*.%.%.%.%.%.&.&.%.%.%.%.&.&.&.$.&.&.&.&.&.%.%.%.%.$.%.%.$.$.&.%.+.$.$.$.&.+.+.+.+.@.@.@.@.O.O.O.O.O.@.O.@.[ v v c f f f 2 . * 2.e.r.3.O.O.+.@.O.{ { [ [ { { { { { { [ [ [ { { [ [ { { { { { [ [ [ [ [ [ [ [ [ [ ] [ [ [ { { [ [ [ [ ] ` [ [ [ [ _ ' [ _ [ [ [ [ ] [ ) ( ' [ _ _ _ ( ` ` ' ) _ _ ' [ [ [ ' ) ) [ ' ( [ [ _ ( ) ' ` ( ( ( ) ) ' ) ` ( ( ' [ ` ' ( l / l l l l l l c c l ) @.O.O.O.+.O.& + o & [ O...O.O.O.O.@.{ ' ) >XcXvXsX+.....O.O.O.O...{ { ..O.........O.O.2.w.t.",
"l 2.f.f.a.<.2.*.$.+.*.<.%.O.O.O.O.O.O.O.O.O.O.` ( ( v u f f f g g g f g g f g & o o . 3 / k l l l g y y y y u u u u u u u u u f u u g f k l l l v ( ( ( ( ( ( ( ( ( ( ( ( ( ( ( ( ( ( ( ( ( ( ( ( ( ( ( ( ( ( ( ' [ [ [ [ [ [ [ [ [ [ [ [ [ [ [ [ [ [ [ [ [ [ [ [ [ [ [ [ [ [ [ [ [ [ [ [ [ { [ [ [ { [ { { { [ [ { { { [ | l & & = ..%.%.2.t.e.8.#.O.+.+.+.$.+.$.+.&.@.+.&.&.&.&.@.&.&.&.&.&.&.&.&.&.@.&.%.&.&.&.&.%.%.%.&.&.&.&.$.%.%.%.&.&.%.&.%.&.&.&.%.%.%.*.*.*.%.%.%.*.*.*.%.%.%.%.*.*.*.*.*.*.=.*.*.=.%.*.%.%.%.*.%.%.*.*.*.%.%.%.%.&.&.*.2.=.4.7.7.7.4.2.2.2.4.2.2.2.2.2.4.4.2.4.4.4.4.' l l k = $ + 6.i.>X>Xy.&.&.%.%.%.*.&.*.*.*.*.*.*.=.=.2.4.4.6.*.%.%.*.*.%.%.*.%.*.*.*.*.%.*.%.%.%.%.*.%.&.&.*.*.&.*.%.%.%.*.%.%.&.%.%.%.*.*.%.*.%.%.%.%.%.*.%.&.%.&.%.&.%.%.%.%.&.&.&.%.%.%.&.&.&.$.&.%.&.&.&.&.$.$.$.$.$.&.%.$.+.$.$.@.+.+.+.O.O.O...O.O.O.{ { { } { ..' v v v f f f 3 . = 3.e.w.4.{ { { [ { { { { { { { { { { { { { { { { [ { { { { { { { [ [ [ [ [ [ [ [ [ [ [ [ [ [ [ [ [ [ [ [ [ [ [ [ [ [ [ [ ] [ [ [ [ _ ( _ [ [ [ ` ( ) ( ( ( ( ) _ ) ( ) _ ) ) ) _ [ ( ` ` _ ) ` ) [ ) ( ` ` ` ] ] ' [ ( ( ( ( ( ` ( l l z v z z z v v v l ( @.O.O.O.+.O.& + + & [ O.O.O.O.O.O.+.{ ` ( >XcXvXsXO.{ O.O.O.O.....| | ....{ ......{ O.4.8.r.",
"l 2.f.>Xs.<.<.*.&.+.{ O.O.@.O.O.O.O.O.O.O.O...' ( ( v u f f f g g g g g g f g & o o . 3 / l c l l g y y u u u u u u u u u u u f u u f f g l k l v ( ( ( ( ( ( ( ( ( ( ( ( ( ( ( ( ( ` ( ( ( ( ( ( ( ) ( ( ( ( ( [ [ [ [ [ [ [ [ [ [ [ [ [ [ [ [ [ [ [ { [ [ [ [ [ [ [ [ [ [ [ [ [ [ [ [ [ [ [ [ { { { [ [ { { [ { [ { { { O.l & & * ..%.@.2.r.e.8.+.O.@.+.O.@.O.+.@.$.@.+.+.&.@.@.&.@.%.@.&.&.&.&.&.&.&.@.%.%.&.&.&.%.%.&.%.&.&.%.%.%.$.%.&.%.%.&.&.&.&.%.&.%.&.*.*.*.&.%.*.*.*.*.*.%.&.*.*.*.*.*.*.*.=.*.*.*.*.*.*.*.*.*.*.*.*.*.*.%.*.*.%.%.&.%.<.=.2.7.7.7.4.2.2.2.2.4.2.2.2.2.2.4.4.4.4.4.4.' l l k * & + 6.i.f.,Xi.&.%.&.%.%.%.%.*.*.%.*.%.%.*.=.=.2.6.4.=.%.*.*.%.*.*.*.*.*.*.*.&.*.*.*.&.%.%.*.*.%.*.*.%.%.%.%.%.&.*.%.%.*.%.*.*.&.&.*.%.%.%.&.&.%.%.&.&.%.&.%.&.%.%.%.%.&.&.%.$.$.&.%.&.%.&.&.&.$.$.&.$.$.&.$.$.$.$.&.$.$.+.+.+.+.@.+.O.O...{ | { { O.{ ..o.{ { [ v v c f f f = . * 3.r.r.4.[ { [ [ [ { { { { { [ { { { { [ { { { { { { { { { { [ [ [ { [ [ [ [ [ [ [ ] [ [ [ [ [ [ [ [ [ [ [ [ [ [ [ [ [ [ ] ] [ [ _ [ ( ( [ ] [ ` ( ) _ _ _ _ ) ( ( ( ( _ ) ( ' ( ' ) ( ` ' ( ` ' ) ' ( ` ( ( ( ] ` [ ( ` ( ( ` ` ( v l z v v l z z v v l ( %.O.O.O.+.O.& + + & [ O.O.O.O.O.O.+.{ ( ( >XlXvXsXO.O.O.O.O.O...{ | O.O.O.{ { ......O.2.8.t.",
"l 2.f.f.a.*.%.$.*.+.{ ....O.O.{ ..O.O.O.O.O.{ ' ( ( / u f f f g g g g g g g g & . o o 3 v l l k k g y y y y u u u u u u u u u u f u u u g l l l / ( ( ( ( ( ( ( ( ( ( ( ( ( ( ( ( ( ( ( ( ( ( ( ( ( ( ( _ [ [ _ [ [ [ [ [ [ [ [ [ [ [ [ [ [ [ [ [ [ [ [ [ _ [ [ [ [ [ [ [ [ [ [ ] [ [ [ [ [ [ [ [ [ [ [ [ [ [ [ { [ [ { { | l & & * ..%.@.2.r.9.9.+.[ [ [ [ { { { O.+.O.+.+.+.+.@.&.&.&.&.%.&.%.#.&.%.&.$.&.&.&.&.&.&.&.%.&.&.%.%.&.$.$.&.&.%.%.&.%.&.%.%.%.&.&.&.%.*.&.&.%.&.%.%.%.%.%.%.&.*.*.%.*.*.*.=.=.*.*.*.*.*.*.%.*.*.*.*.%.%.*.*.*.*.*.%.<.<.4.7.4.4.4.<.<.<.<.2.2.2.2.2.2.2.2.2.2.2.7.[ l l j * & + 6.t.f.,Xi.%.%.%.%.*.%.*.*.*.*.*.%.*.=.*.<.4.4.6.2.2.2.4.*.*.%.%.*.%.%.*.%.*.*.*.&.&.%.%.*.%.%.%.%.%.*.*.%.&.%.%.%.%.%.%.%.*.%.%.%.&.%.&.&.%.%.*.%.%.&.&.%.&.&.&.&.&.$.$.$.$.%.&.$.%.&.&.&.$.$.$.$.$.&.$.+.$.+.+.&.+.+.+.+.+.+.%.O.O...O.{ { { { [ ..O...{ [ c v c u f u 2 . = 2.e.e.4.[ [ { [ [ [ { { { { { { { { { { [ { { { { { [ [ [ { [ _ ] [ [ [ [ [ [ [ [ [ [ [ [ [ [ [ [ [ [ [ [ [ [ [ [ [ _ _ ( ` [ [ _ ( ( ( ( _ ) ' ] _ _ _ [ _ [ ) ) ( ) ) ' ` ( ' ' ) ) ` ) ( ` ` ` ' ` ' ( ( ( ( ' ' ( ( ' ' / / / v z l v / l z l c z l ( @.O.O.O.+.X.& o + & [ O.O.O.O.O.O.+.{ ` ( >XlXcXtXO...O.O.O...{ { { O.O.O.O.......{ O.4.9.r.",
"l :.s.f.a.$.%.&.*.@.{ O.{ { O.O.O.+.O.O.O.O.{ ` ( ( / u f u f g g g g k g g g & o + o 3 v k k k k f y y y y u u u u u u u u u u u u u u f l k l c ( ( ( ( ( ( ( ( ( ( ( ( ( ( ( ( ( ( ( ( ( ` ( ( ) ( ' ] ] [ ) ( [ [ _ [ [ [ [ [ [ [ [ [ [ [ [ [ [ [ [ [ ` ' [ ] [ [ [ [ [ [ [ _ [ { [ [ [ [ [ [ [ [ [ [ [ [ [ { [ { [ [ | l & & * ..%.%.2.r.w.9.+.[ { [ [ { { [ o.+.O.+.+.+.+.@.@.&.&.&.%.&.%.@.@.&.$.&.&.&.%.&.@.&.$.%.&.%.&.%.%.%.&.&.&.%.%.*.&.%.%.*.%.*.*.&.&.%.&.&.&.%.%.*.%.&.&.%.*.*.%.%.%.=.=.=.=.%.*.*.%.%.*.*.*.*.*.*.%.*.*.*.*.*.=.*.<.*.<.7.6.4.4.2.=.=.=.=.2.4.2.2.2.2.=.*.=.:.6.[ l l k = & $ 3.t.f.,Xy.&.%.%.%.*.%.%.*.%.*.*.*.*.=.=.=.2.4.4.4.6.2.2.2.*.*.*.*.%.%.%.*.*.*.%.%.%.%.%.*.%.%.%.*.%.*.*.*.%.%.%.%.*.%.%.%.&.&.%.%.*.*.%.*.%.%.%.%.&.&.%.%.&.&.&.+.$.$.$.$.$.+.+.$.%.&.&.$.$.$.&.&.&.&.+.+.+.+.$.+.+.+.+.+.@.O.+.O.O.{ ..{ { { { { { [ { { ' c v c f f u = o = :.6.8.2.[ [ { { [ [ { { { { [ [ [ [ { { { { { { { { [ [ [ [ [ [ [ [ [ [ [ [ [ ] [ [ [ [ [ [ [ [ [ [ [ [ [ [ [ [ [ [ [ ( ( [ [ _ ( ) [ ( ( [ [ [ ) ) ) _ _ ) _ ' ) ) _ ) ' [ ( ' ' ) _ ' ) ( ( ` ( ( ( ( ( ( ( ( ( ` ( ( ) ( / c / l z l l v l l l ^ z l ( @.O.O.+.+.X.& o + & [ O.O.O.O.O.O.+.{ ( ) >XlXvXrXO.{ O.| { ..{ ..{ ..O.O.....{ ....O.4.9.r.",
"l 2.f.f.a.%.%.*.*.+.{ ..{ { O.O.O.O.O.O.O.O.O.[ ( ( v u f u f g g g g g g g g & o o . 3 v k k k l g y u u u u u u y u u u u u u u u u u f l l l v ( / ( ( ( ( ( ( ( ( ( ( ( ( ( ( ( ( ( ( ( ( ( ( ( ( ` ( ( ( ( ( ] [ [ [ _ _ _ [ [ [ [ [ [ [ [ [ [ [ [ [ [ [ ] [ [ [ [ [ [ [ [ ] [ [ [ [ [ [ [ { { [ [ [ [ [ [ [ [ [ [ [ { l & & * ..%.@.2.r.w.7.O.{ { { [ [ { [ o.+.+.+.+.+.+.+.&.&.+.+.&.+.$.&.&.&.&.&.$.&.&.&.@.&.$.&.$.$.&.%.%.%.&.&.%.&.&.%.*.*.%.%.%.%.%.&.%.%.&.&.*.%.%.%.&.%.%.%.&.%.%.%.%.*.*.*.*.*.*.%.%.%.*.*.*.%.*.*.%.*.%.*.*.=.=.*.<.=.=.2.2.2.<.<.2.=.*.%.=.2.2.6.4.4.<.%.:.2.4.[ l v j = & & 4.i.f.>Xy.%.%.%.%.&.*.%.*.*.*.*.*.=.=.*.%.2.6.4.6.6.2.4.2.*.*.*.*.*.*.%.*.*.*.*.*.*.%.%.&.%.%.%.&.%.%.*.%.%.*.*.*.*.*.*.%.%.&.&.&.%.%.%.%.*.*.%.%.&.&.&.&.&.&.&.+.+.+.+.+.$.+.$.$.$.$.&.+.$.$.$.&.&.&.&.+.$.+.$.$.+.+.@.+.@.+.O.O.O.{ { { ..{ [ [ [ [ [ [ ) v v v f f f = . * *.6.7.2.[ [ [ { { { { { [ [ [ [ [ [ { { { { { { [ [ [ { [ [ [ [ [ [ [ [ [ [ [ ] [ [ [ [ [ [ [ [ [ [ [ [ [ [ [ [ [ [ [ [ [ [ [ ] _ _ [ ( [ _ _ ( ( ) ) ) ) _ ( ( ) ) ' [ [ [ ' ' ' ' ) _ ( ( ) ` ( ( ( ( ( ( ( ( ( ` ( ) ' ( v v v z c c v z c l l l l l ( @.O.O.+.+.X.& o + & [ O.O.O...O.O.+.{ ( ( >XxXvXrXO.....O.O.O.{ { ....O.O.O.{ ......O.4.w.e.",
"k =.f.f.a.*.%.%.$.@.{ { { { ..{ ....O.O.O.O.O.' ( ( v f f u f g g f g g g g g & o o o 3 v l l k l k y y u u u u u u u u u u u u u u u u f l l k v ( / / ( ( ( ( ( ( ( ( ( ( ( ( ( ( ( ( ( ( ( ( ( ( ( ( ( ( ( ( ( ` [ [ [ _ [ [ [ [ [ [ [ [ [ [ [ [ [ [ [ [ [ ] [ [ [ [ [ [ [ [ [ [ [ [ [ [ [ [ [ [ [ [ [ [ [ [ [ [ [ [ [ | l & & * ..%.@.2.w.8.8.O.[ { [ [ [ [ { { { { { { { O.+.+.%.%.+.+.+.&.&.&.+.&.&.@.$.+.%.&.&.&.&.&.$.$.&.&.&.$.&.&.@.&.&.&.%.&.&.%.%.%.%.%.%.%.&.*.&.&.&.%.%.*.&.&.&.&.*.%.%.*.%.*.*.%.%.*.*.*.%.%.%.*.*.*.*.%.*.*.=.<.=.2.2.2.2.<.<.2.7.7.4.<.*.=.=.4.7.7.8.6.=.2.=.4.[ l v k = & $ 2.i.f.>Xt.$.%.%.%.%.%.*.*.%.=.=.*.*.*.%.%.*.*.*.*.=.<.<.=.*.%.%.*.*.*.*.&.&.%.%.*.*.%.%.%.*.%.%.*.%.%.*.%.%.&.*.*.%.%.%.%.%.&.&.&.%.%.%.&.&.&.&.%.%.&.&.%.&.&.$.$.$.+.@.+.+.+.+.+.+.$.$.+.$.+.&.+.$.&.+.+.+.+.+.+.+.+.@.+.O.O.O...{ [ { { { [ [ [ [ { [ [ ) v v c f f f = o * ;.6.8.2.[ [ { [ [ [ [ [ [ [ [ [ { { [ [ [ [ [ [ { [ _ [ _ [ [ [ [ [ [ [ [ [ [ [ [ [ [ [ [ [ [ [ [ [ [ [ [ [ [ [ [ [ [ [ [ _ ` ] [ [ ' _ [ ( ) _ ( ( ) ) ) ) _ _ ) ) ) ) [ ] ) ' ) ) ' ( ` ) [ ] ' ( ( ) [ ' ( ` ` ' ( ( ) ( z v v c v v c v v c l l l l ( O.O.O.O.O.O.& o + & [ O.O.O.O.O.O.+.{ ( ( s.lXvXeXO.....O.O.O.{ { ........O.O.O...{ ..4.9.e.",
"k =.f.f.a.+.%.%.@.O.{ { { O.{ { { { { O.O.O...' ( ( v f f u f g g g g g f g g & . o o 3 c l k k l g y y u y y u u u u u u u f u u u u u g l k k v ( / / ( ( ( ( / ( ( ( ( ( ( ( ( ( ( ( ( ( ( ( ( ( ( ( ( ( ( ( ( [ [ [ [ [ [ [ [ [ [ [ [ [ [ [ [ [ [ [ [ ( ] ] [ [ [ [ [ { [ [ ] [ [ { [ { [ [ [ [ [ { [ [ [ [ [ [ [ [ [ { k & & * [ %.@.2.e.8.7.O.[ { { { [ [ [ [ [ [ [ [ [ o.+.@.%.$.+.&.&.+.$.$.$.%.&.&.$.&.&.&.&.&.&.&.$.$.&.&.&.%.&.&.&.&.&.&.%.&.&.&.%.%.%.%.&.%.&.&.&.&.&.&.&.&.&.%.&.&.&.%.%.*.*.*.%.%.%.%.%.%.%.*.%.%.*.*.*.%.*.*.*.*.*.%.*.*.*.=.*.2.8.7.4.4.=.=.2.7.7.7.8.7.=.=.2.2.' l v k 3 & & 2.t.f.f.t.$.%.$.%.%.%.%.%.#.*.%.%.=.*.%.%.*.&.%.*.*.%.%.%.%.%.%.%.%.%.%.%.&.%.%.%.%.%.%.%.*.*.*.%.&.%.*.%.*.%.*.*.%.%.%.%.*.*.&.%.%.%.%.%.&.&.&.&.%.%.&.&.%.&.+.+.$.$.@.+.+.+.+.+.+.+.+.+.+.$.+.+.+.+.+.+.+.+.+.+.+.@.+.} [ { [ { [ [ [ [ [ [ { [ [ [ [ [ ' c v v f f u 2 o * ;.w.6.:.[ [ [ [ { [ [ [ [ [ ' ) [ [ [ [ { { { { { [ [ _ ] [ [ [ [ [ [ [ [ [ [ [ [ [ [ [ [ [ [ [ [ [ [ [ [ [ [ [ [ [ [ [ ] ] [ ] ] [ ) ' ' _ _ ( ( ( ( ' ) [ _ _ ) ' ( ( ( ( ) ) ' ( ( ( ( ) [ ` ) v l / ( ( / ( / ( ( ( ( / z v l v l l l l v c l c l l ( +.O.O.O.O.O.& o + & ' O.O.O.O.O.O.O.{ ' ) s.fXkXqXO.{ O.......{ { ........{ O.{ ....O.6.8.e.",
"k :.f.f.a.+.%.*.O.{ { ..{ ..{ { { { { O.O.O...' ( ( v u f f f g g g f g f f g & . o o 3 c l l k l g y u u u u u u u u u u u u u u u u u g l k l c / / / / / ( / / / ( ( ( ( ( ( ( ( ( ( ( ( ( ( ( ( ( ( ( ( ( ( ( ' [ [ [ [ ] [ [ [ [ [ [ [ [ [ [ [ [ [ [ _ [ [ [ [ [ [ [ { [ [ [ ] [ { [ [ [ [ [ [ { [ [ [ [ [ [ [ [ [ [ { l & & * [ O.O.2.w.8.7.O.[ [ [ [ [ [ [ [ { [ [ { [ { @.@.@.@.$.&.+.@.@.+.&.&.&.&.@.@.@.+.&.&.@.$.@.+.$.&.$.$.$.&.&.@.@.&.&.&.&.&.%.%.%.&.%.%.&.%.&.*.*.*.%.%.*.%.%.&.%.%.%.%.%.%.%.%.%.%.*.*.%.%.*.%.*.*.*.*.*.*.*.*.=.*.*.*.*.=.*.2.7.7.7.6.<.=.=.7.7.4.6.7.=.=.=.<.[ l c k 3 & $ 4.t.d.f.t.%.%.+.%.%.%.&.%.%.%.%.%.*.%.%.%.&.%.%.%.%.%.%.*.%.%.%.%.*.*.%.*.%.%.*.%.%.*.%.%.%.*.%.*.*.%.%.&.&.%.*.*.%.%.%.%.*.*.%.%.%.%.%.%.%.&.&.&.&.&.%.&.&.$.+.+.+.+.$.+.$.+.+.+.+.+.@.@.$.$.+.+.+.+.+.@.+.+.+.&.+.+.+.{ [ { [ [ [ [ [ [ [ [ [ [ [ [ [ [ ' c v c f f f 2 o * ;.6.8.2.[ [ [ { { [ [ [ [ [ ) ) [ [ [ [ [ [ [ [ [ [ [ [ [ [ [ [ [ [ [ [ [ [ [ [ [ [ [ [ [ [ [ [ [ [ [ [ [ [ [ [ [ [ [ [ ` ] [ ] _ ) ' ` ' [ [ ' [ [ [ ' ' ' ) ) ( ( ( ( ( ( _ ( ( ( ( ( ( ( ( ` ( / / v l l l l l v ( ( ( ( / c c / l c v v v c c c l l ( +.O.O.O.+.X.& o + & [ O...O.O.O.O.O.O.( ( a.dXhX9XO.{ ....{ O...{ { { { { | { { ......4.w.e.",
"l :.>Xf.a.O...O.{ ..{ { { { { { { { { { ....{ [ ( ( / u f f f g g g g g f f f & . o o 3 c l l k l g y y y y y y u u u u u u u u u u u u f l l l v / v / / ( ( ( / ( ( / ( ( ( ( ( ( ( ( ( ( ( ( ( ( ( ( ( ( ( ( ( ( ' ) _ [ _ [ ` ( ) [ [ [ [ [ ] _ [ [ [ _ ] [ _ [ [ [ [ [ [ [ [ [ [ [ [ [ [ [ [ [ [ [ [ [ [ [ [ [ [ [ [ { l & & * ..+.O.*.7.2.2...[ [ [ { [ [ [ [ { [ [ [ [ O.@.O.+.$.$.$.$.%.&.$.$.+.@.&.&.&.&.&.&.$.+.$.+.%.&.&.$.$.&.&.&.&.&.&.&.&.&.&.%.&.&.&.&.&.%.%.%.%.&.%.*.%.%.%.*.&.%.&.&.%.%.%.*.*.*.%.%.%.%.&.&.*.*.*.*.*.%.%.%.*.=.=.*.*.=.=.=.<.7.7.7.6.<.*.=.4.7.7.7.6.=.=.=.<.[ k c j 3 & $ 4.t.f.f.t.+.&.&.&.*.%.%.*.*.%.%.%.*.&.*.%.%.%.%.%.%.%.%.%.%.%.%.%.*.*.%.*.%.%.%.&.%.%.%.&.%.%.%.%.%.%.%.*.*.&.%.*.&.&.&.%.%.%.%.%.%.%.%.%.%.%.%.&.%.%.%.%.&.&.&.$.&.&.&.$.+.$.+.$.$.+.@.+.+.+.+.+.+.O.O.+.+.+.+.+.+.O.+.{ { [ [ [ [ [ [ [ [ [ [ [ [ [ [ [ ) c c c u f u = o * *.8.8.2.[ { [ [ { [ [ [ [ [ [ [ [ [ [ [ [ [ [ [ { [ [ [ [ [ [ [ [ [ [ [ [ [ [ [ [ [ [ [ [ [ [ [ [ [ [ [ [ [ [ [ [ [ _ ( ( ( [ _ [ _ ( ( _ [ ' ) ) ) ) ' ` ( ( [ _ ) ( ` ` [ ( _ ) ( ( ( ) ( ( ( ( v l l l l l l l v ( ( ( ` ( / c / c z c l v z c c c l ( $.O.O.O.O.O.& o + & ' O...O.O.O.O.O.O.' ` >XhXhXrXO.{ ..O.O.O.{ { ..{ | { { { { ..O.{ 2.w.w.",
"l :.>Xf.a.O.{ { { { { { { { { { { { ..{ { { { [ / / / u u u f g g g g k f f f & . o o 3 c l l k k g y u y y y y u u u u u u u u u f u u f l l l c ( / / ( ( ( ( ( ( / ( ( ( ( ( ( ( ( ( ( ( ( ( ( ( ( ( ( ( ( ( ( ( ( ( ( ( _ ( ( ' ( ( _ ( _ ) [ _ [ [ [ ` ] [ _ [ [ { [ [ [ [ [ [ [ [ [ [ [ [ [ [ [ [ { [ [ [ [ [ { { [ { l & & * ..%.O.*.8.:.2...[ [ [ [ [ [ [ [ [ { [ [ [ o.O.O.O.O.O.+.+.+.@.+.+.@.@.@.@.@.@.+.+.+.O.O.+.+.+.+.+.+.+.+.$.&.%.&.&.&.&.&.&.&.%.&.&.&.%.%.%.%.&.&.&.&.%.%.%.%.%.%.&.%.%.%.%.*.%.%.%.%.&.%.&.%.%.%.*.%.%.%.%.%.*.*.*.*.*.*.=.=.2.7.7.<.*.=.=.=.2.2.2.=.%.=.=.:.[ k l k 3 & & 6.t.f.>Xt.&.&.&.%.%.*.*.*.*.*.*.*.*.*.*.%.%.%.%.%.%.%.%.%.%.%.%.%.*.%.&.&.&.&.%.%.%.&.&.&.%.%.*.%.&.%.*.*.*.&.%.&.&.&.&.%.%.*.%.%.%.%.%.%.&.&.&.&.%.&.&.&.$.+.+.+.&.$.$.$.$.$.%.%.$.+.+.+.$.$.$.$.O.+.%.+.+.&.$.$.$.$.$.{ [ [ [ [ [ [ [ [ [ [ [ [ [ [ [ [ ) c v c f f u = o & ;.8.8.2.[ [ [ [ { [ [ [ [ [ [ [ [ [ [ [ [ [ [ [ [ [ [ [ [ [ { { { [ [ [ [ [ [ [ [ [ [ [ [ [ [ [ [ [ [ [ [ [ [ [ [ [ ( ( _ ] _ _ [ [ ) _ [ _ ( ( ( ) ( ( ` ( ( [ ' ) ) ( ] ` ) ' ' ( ( ) ( ) ) ( / l l v z l l v v z ( ` ( [ ( ( / / v c v c / c c c l l ( $.O.O.O.O.O.& o o $ ' O...O.O.O.O.{ { ' [ >XgXtX9XO.{ { ..O.O.....{ { ..| { O.{ { { &.6.8.w.",
"k 2.>Xf.a.....{ { { { { { { { { { { { { { { { ' ( / / u u u f g f g g g g f g & . o . 3 v l l k l g y y y y y y u y u u u u u f u u u u f l l l l v l / ( v v / ( ( ( ( ( ( ( ( ( ( ( ( ( ( ( ( ( ( ( ( ( ( ( ( ( ( ( ( ( ( ( ( _ _ _ [ _ ) _ ( _ [ [ [ [ [ [ ' [ [ [ [ { { [ [ [ _ [ [ [ [ [ [ [ [ [ [ [ [ [ [ [ [ [ { [ { k & & * ..%.+.*.8.3.2.{ [ [ [ [ [ [ [ [ [ [ [ [ [ [ [ { [ { { [ { { { { { { { [ { { { { { { { [ { { { { { { { | $.@.&.&.&.&.&.&.&.&.&.%.&.&.*.%.%.&.&.%.&.&.&.&.%.%.%.%.&.%.&.&.%.%.%.&.%.%.%.*.&.&.%.%.%.%.%.%.%.*.*.*.*.*.%.%.*.=.*.=.=.*.*.*.*.=.*.*.=.%.*.%.=.=.[ k l j 3 & & 6.t.f.f.r.$.&.%.%.&.*.%.*.%.%.%.%.%.%.%.&.&.%.*.*.&.*.%.*.%.%.%.*.%.%.&.&.%.%.*.%.*.&.%.%.%.%.*.%.%.%.*.%.%.%.%.%.%.%.%.*.%.%.%.%.&.%.%.%.&.&.$.@.&.&.+.+.+.+.+.+.$.+.$.$.+.O.O.O.O.O.O.| O.O.{ O...O...o.{ { } } } { | { { [ [ [ [ [ [ [ [ [ [ [ [ [ [ [ ) c c c f f f = o & ;.8.8.2.[ [ [ [ [ [ [ [ { [ [ [ [ [ [ [ [ [ [ [ [ [ [ [ [ [ [ [ [ [ [ [ [ [ [ [ [ [ [ [ [ [ [ [ [ [ [ [ ] [ [ [ ] [ [ _ [ [ _ ( ) _ _ ) [ [ _ ( ( ) ( ( ) ) ( ( ( ) ) ) ( ( ( c v ( ( ( ( ' ( / ( v c l l l l c l / ( ( _ ( ( ( v / c l v v v l c / c l ( +.O.O.O.O.O.& o o $ ' O...O.O.O.O.{ / ( ( a.gXgX4X{ { ........O...{ { { { O.O.} { { 4.9.9.e.",
"k 2.f.>Xa...{ { { [ { { { { { { { { { { { ..{ ' ( ( c u u u f g g g g g g f g & . o . 3 v l k g l g y u u y u y y y u u u u u u u u u d f l l l l l l l l l / / ( ( ( ( ( ( ( ( ( ( ( ( ( ( ( ( ( ( ) ( ( ( ( ( ( ( ( ( ( ( ( ( ( ( ( ) ) ) _ ( [ [ [ [ [ [ [ ` [ [ [ [ [ { [ [ [ [ [ [ [ [ [ [ [ { [ [ [ [ [ [ { [ [ [ [ { k & & * ..%.+.;.8.3.3...[ [ [ [ [ [ [ [ [ [ [ [ [ [ [ [ [ [ { { { [ { { { { [ [ { { { { { { [ [ { { { { { { { O.&.%.%.%.&.&.%.&.&.&.&.%.&.&.%.%.%.%.&.&.&.&.&.&.%.&.&.%.%.%.&.&.%.%.*.*.%.%.%.%.*.%.%.*.%.%.%.%.*.*.*.*.*.*.*.%.%.*.*.*.*.*.*.%.%.=.=.=.=.*.*.%.=.=.' k l j = & & 3.t.d.f.r.+.&.%.%.&.&.&.%.%.*.%.%.&.@.&.&.%.%.%.%.&.%.%.&.&.%.*.%.%.%.%.%.&.%.%.%.&.&.%.%.%.%.*.%.%.%.&.%.%.%.%.%.*.*.*.%.%.*.*.*.&.&.%.%.&.&.&.+.@.@.@.+.$.+.+.$.+.$.$.| [ { { ..{ } O.O.| } { { { { { { { { { { { { { { { [ [ [ [ [ [ [ [ [ [ [ [ [ [ [ ) v v c f u f = o & ;.8.8.2.[ [ [ [ [ [ [ [ [ [ [ [ [ [ [ [ [ [ [ [ { [ [ [ [ [ [ [ [ [ [ [ [ [ [ [ [ [ [ [ [ [ [ [ [ ] [ [ ] [ [ ' ] [ [ ( _ _ _ ( ` ) _ ) ( ( ) ' ' [ ` ( _ _ ( ( ( ( ( ( ( ( / l c / / ( ( ( ( ( ( v v l l v l l l / ( ( ( ( ( ( / c c c c v c / / c c l ( +.O.O.O.O.X.& o + $ ' O...O.O.O.O.{ / ( ( a.hXhX6XO...........O.{ { O.{ { { ..{ { { *.9.w.r.",
"k 2.>Xf.a.O.{ { { { { { { { { { { { { { { ....[ ( ( / u f f f g g g g g g g g & . o . 3 c l l k l g y u y y y y u u u u u u u u u u u u f l l l k l l l l l ( ( / ( ( ( ( ( ( ( ( ( ( ( ( ( ( ( ( ( ( ( ( ( ( ( ( ( ( ( ( ( ( ( _ ( _ _ ) ) ) ( [ [ [ [ [ _ ) ` [ [ [ [ [ [ [ [ [ [ [ [ [ [ [ [ [ [ [ [ [ [ [ [ [ [ [ [ [ { k @ & * ..%.@.=.8.3.8.O.[ { [ [ [ [ [ [ [ { { { { [ [ [ [ { { { [ [ [ { { { { { [ { [ { { { { { { { { { { [ { o.@.+.%.@.&.$.&.&.&.&.&.&.&.%.@.%.&.%.&.&.&.%.&.&.&.@.&.%.%.%.&.&.&.%.%.*.*.%.%.%.*.%.*.*.%.*.*.%.%.*.%.%.%.*.*.*.%.%.%.%.*.*.*.*.=.*.=.*.*.*.%.=.=.*.' k l g = & & :.e.d.f.e.+.$.%.%.&.&.%.%.%.%.&.&.&.+.&.&.%.&.&.$.&.&.$.&.&.%.%.%.%.%.%.&.&.&.&.%.*.%.%.&.&.&.&.&.%.%.%.%.*.%.&.%.%.%.%.*.&.&.*.*.%.%.%.%.+.+.$.&.+.+.$.$.$.$.$.+.$.$.$.| [ { { { O.O.O.O.O.{ { { [ [ { { { [ [ [ { { { [ { [ [ [ { [ [ [ [ [ [ [ [ [ [ [ ) v v c f u u = o & ;.8.8.2.' [ [ [ [ [ [ [ [ [ [ [ [ [ [ [ [ [ [ [ [ [ [ [ [ [ [ [ [ [ [ [ [ [ [ [ [ ] [ [ [ [ [ [ [ [ [ ] ] ] ' ` ) [ ( _ ) _ ) ( ( ( _ ) ( ( _ _ ` ( ) _ _ ) ) ( ` ( [ _ ( ( / l c l / ' ` ( ( ( ( l l ( ( ( / / ( ( ( ( ] ( ( / / / l c c / / c l c c c ( +.....O.O...& o + $ ' O.{ O.O.O.O.[ / ( / r.tXtX6X%.O.....O.......{ { { | { ..{ ..[ O.9.e.r.",
"k :.f.f.a...{ [ [ { { { { { { { { { { { { { { [ [ ' ( g f f f g f f g g f f g & . o o 3 c l k k l g y u y y y y u y u u u u u u u u u u f k k l l l l l l l / / / / / ( ( ( ( ( ( ( ( ( ( ( ( ( ( ( ( ( ( ( ( ( ( _ ( _ ( ( ( ( ( ( _ _ ) ( ( _ _ [ [ [ [ ) [ [ [ [ [ [ [ [ [ [ [ [ [ [ [ [ [ [ [ [ [ [ [ [ [ [ [ [ [ [ [ { k + & * ..%.@.=.9.6.3.o.[ [ [ [ [ [ { { { { { { { { [ { [ [ [ [ [ { { { { [ [ { { { { { { [ { { { { { { [ [ { { $.+.+.$.&.&.+.$.@.+.&.&.&.%.$.&.%.$.%.%.&.&.&.&.@.&.&.&.%.&.&.&.&.%.%.&.&.&.&.%.%.%.%.*.%.%.*.%.&.*.%.%.&.*.*.%.%.%.%.%.*.%.*.=.*.*.*.*.=.*.*.=.=.%.[ g k f = * & :.e.d.f.e.+.+.&.%.%.%.%.%.%.%.&.&.&.&.&.%.&.%.&.&.&.%.&.%.%.%.&.%.%.%.%.*.&.&.%.%.%.*.%.%.&.&.&.&.&.%.%.*.%.%.&.%.&.%.%.%.&.&.&.%.&.&.&.*.&.+.$.$.&.&.+.+.@.+.@.+.+.O.@.| { [ [ { O.O.O.O.O.{ { { [ [ { { [ [ [ [ { { [ { { { { [ [ [ [ [ [ [ [ [ [ [ [ [ ) v c c g u u = o & *.6.8.2.[ [ [ [ [ [ [ [ [ [ [ [ [ [ { [ [ [ [ [ [ [ [ { [ [ [ [ [ [ [ [ [ [ [ [ [ [ [ [ [ [ _ _ [ [ ] ] [ _ [ [ [ ] ( ( ) _ _ ( ( ( _ ) ) ( ) ) _ ( ( ) ( ( ( ( ] ( ( ) ( ( / l v l / ( ( ( / c v l v ( ( ` ( / ( ( ( ( [ [ ( / c c ^ c c c l c c l c c / O.O...X.O...& o o $ ' O.O.O.O.O.O.{ ( ' ( q.aXaX>X..O.O.......{ { { { { | { { { ..{ *.9.r.r.",
"k :.f.f.a.O.[ { [ [ { [ { { { { { { { { { { { [ [ ' ) f f f f g f f g g f f f & . o o 3 c l k k l g y y y y y y u u u u u u u u u u u u g k l l l l l l l l l l c / / / / / ( / ( ( ( ( / ( ( ( ( ( ( ( ( ( ( ( ( ( ( ( ( ( ' ( ( ( ( ( ( ( ( ) _ [ [ [ [ [ _ [ ` ] ] [ [ [ [ [ [ [ [ [ [ [ [ [ [ [ [ [ [ [ [ [ [ [ [ [ [ { k & & * [ %.@.:.8.6.9.O.[ [ [ [ [ [ [ [ { [ [ [ [ { [ [ { { { { { { [ [ { { [ [ [ { { { [ [ [ [ [ [ { [ [ [ { { O.+.O.O.O.O.+.+.+.@.&.&.%.%.%.%.&.$.&.&.&.&.&.&.&.@.@.#.%.&.&.&.%.%.%.%.%.%.&.%.%.&.%.*.%.%.*.%.%.%.%.*.%.&.%.%.*.*.%.*.%.*.=.=.=.=.=.=.=.=.*.*.*.%.[ g l g = * & :.e.d.f.e.O.&.@.%.%.%.%.%.%.*.&.&.%.%.$.&.&.%.%.%.%.%.&.%.%.&.&.%.%.*.%.*.%.%.%.%.%.%.&.%.%.%.*.%.&.%.&.%.*.*.*.&.%.&.%.%.&.%.%.&.%.%.%.%.&.&.@.+.&.$.+.@.} { { { } O.O.O.O.{ { { O.O.O.{ { { { { { { { { { { [ [ { { { { [ [ [ [ [ [ [ [ [ [ [ [ [ [ [ [ ' c c c f u i = + & *.8.8.2.[ [ [ [ [ [ [ [ [ [ [ [ [ [ [ [ [ [ [ [ [ [ [ { { [ [ [ [ [ [ [ { [ [ [ [ [ [ [ ] [ _ ( [ [ ] [ ] [ [ [ _ _ [ ' ` [ _ [ _ _ ) ( ( ) ) [ ) ` ( ( ) ( ` [ [ [ ) ) [ ) ( l l c v v l v l l l l v v v ( ( ( ( ( ( ( ( ( ( / l l c c c l c c l v v c / O.X...X.O...& o o + ) O.O.O.O.O.O.O.' ' ( 9.rXeX;X{ [ ......{ { { { { { { { { [ ..{ *.e.9.r.",
"k 2.f.f.a.O.{ { { [ { { { { { { { { { { { { { [ [ ) / f f f f g f g g f f f g & o + o 3 c l l k k g y y y y y u f f u u u u u u y u u f g k k l l l l l l l l l l v l c l l ( ( / ( / / / ( ( ( ( ( ( ( ( ( ( ( ( ( ( ( _ ( ( ( ( ( ( _ _ ( ( ( ( ] [ ] ] ( ( ( _ _ [ _ _ _ [ [ [ [ [ [ [ [ [ [ [ [ [ [ [ [ [ [ [ [ [ [ [ { g & & * [ %.O.=.8.6.w.O.[ { [ [ [ [ [ [ { { [ [ { [ [ [ { { { { [ { [ [ [ { { [ [ { { [ [ [ [ [ [ [ [ [ [ [ [ { { { { { { { O.+.@.@.&.&.%.%.#.%.%.&.&.@.&.%.&.%.@.&.#.%.%.%.&.&.%.%.%.%.%.%.&.*.*.&.%.%.%.%.%.%.*.%.%.*.%.%.%.*.%.%.%.%.%.*.*.*.*.*.=.=.=.=.=.%.*.%.[ g k g = * & *.e.a.d.8.+.@.@.%.%.%.%.%.&.%.&.&.&.%.&.%.%.%.$.%.%.&.%.%.&.%.&.%.%.*.%.*.%.*.*.*.&.%.%.%.*.*.%.%.%.%.&.%.%.%.%.&.%.%.%.%.%.&.%.%.%.%.*.%.%.&.&.#.+.+.+.O.{ { [ { { | O.O.{ { { { { { { { { { { [ { { { { { { [ { { { [ [ { [ [ [ [ [ [ [ [ [ [ [ [ [ { [ ) v c c i i i = + & *.8.8.2.[ [ [ [ [ [ [ [ [ [ [ [ [ [ [ [ [ [ [ [ [ [ [ [ [ [ [ [ [ [ [ [ [ [ [ [ [ [ [ ] ] [ [ [ ) _ _ _ ( _ [ _ _ _ [ ] ( ( _ _ _ ) ( ( ( ( ' _ ( ( ( ( ( ( ' ] [ ' ) [ ( ( ) c c v / l l l l l c l v c l ( ( ( ( ( ( ( ( ( ( / / / c / c ^ c c c v c c / O.X...O.X.O.& o o + ) O...O.O.O.O.O.' ( / 7.9X2Xp.O.{ { O...{ { { ....O.} } { { O.{ *.r.e.e.",
"k 2.f.f.a.O.{ [ [ { { { [ { { { { [ [ { { { { { [ ( ( f f u f f f g g g f f g & o o o 3 v k l k k g y y y y y u f f u u u u u u u u u u f k k l l l l l l l l l l v c c l c / / / / / / / / ( ( ( ( ( ( ( ( ( ( ( ( ( _ _ _ ( ( ( ( ( ( ( ( ( ( ( ( ( ( ` [ [ ( ] ( ` [ _ _ _ [ [ [ [ [ { [ [ [ [ [ [ [ [ [ [ [ [ [ [ [ [ [ g & & & [ +.O.:.w.6.8.O.{ O.[ [ [ [ [ [ [ [ [ [ [ { [ [ [ [ [ [ [ [ { { { [ { { [ { [ [ { [ [ [ [ [ { { { [ { [ { { { { { [ O.$.@.+.&.&.%.&.&.&.%.&.&.@.+.$.&.&.@.&.&.@.$.&.%.%.&.%.%.&.&.%.*.*.*.&.%.%.&.&.%.&.%.%.%.*.*.*.%.%.%.%.%.%.%.*.*.*.%.*.*.*.*.*.*.%.=.*.[ g l k = * & =.e.d.d.w.+.+.&.@.%.%.&.&.&.%.%.%.%.%.%.%.%.%.$.&.&.%.&.%.&.&.&.&.%.%.%.&.&.%.%.%.%.&.&.&.%.%.%.%.%.%.%.%.%.%.%.%.%.%.%.%.&.%.%.%.%.%.%.%.%.%.%.%.&.+.+.} [ { { [ [ O.O.O.{ { { { { { { { { { { { { [ [ [ [ { { [ [ [ { { [ [ [ [ [ [ [ [ [ [ [ [ [ [ [ [ ( c c c u f f = + & *.8.6.:.' [ [ [ [ [ [ [ [ [ [ [ [ [ [ [ [ [ [ [ [ [ [ [ [ [ [ [ [ [ [ { [ [ [ [ [ [ [ [ ' [ [ ( [ [ [ _ _ ( _ _ ] ( ( ( ( ( ) _ ( ( ) [ ` ( ) ( ( ( ) ) _ _ ( ' ( ( ( ( ) ( ) v c c l l l l c l l v ( ( / ( / ( ( ) [ ( ( ( ( / l c c v c c / v v v l l / O.....O.O...& . + & ' O.O.O.O.O.O.O.[ ( ( 9.rXsX9X+.{ ......{ { ..{ { { | } O.{ O.O.=.r.e.e.",
"k 2.>Xf.i...[ { [ { { [ { { { { { { [ { { { { [ ) ( ( f f f f f f g g g g f g & o o o = v l l k k g y y y y u u f f f u u u u u u u u u g l k l l l l l l l l l l c c l l c v / ( / / ( / / ( ( ( ( ( ( ( ( ( ( ( ( ( ( ( ) ( ( ) ) ) ( ) ( _ ( ( ( ( ( ] [ [ ( ( ( ( ` ] [ [ [ [ _ [ [ [ [ [ [ [ [ [ [ [ [ [ [ [ [ [ [ ] [ g & & & ' @.+.<.8.6.9.O.{ O.[ { { [ [ [ [ [ [ { [ [ [ { [ [ [ [ [ [ [ [ { { [ [ [ [ [ { { { { [ { [ { { { [ [ [ { { { { [ { O.+.+.+.+.&.+.+.$.&.&.+.+.+.+.+.+.+.+.@.@.@.&.%.&.&.%.&.&.&.%.&.%.%.%.%.%.%.%.*.&.%.%.%.%.*.%.*.%.%.%.%.%.%.%.%.%.%.%.*.%.%.*.%.%.%.=.*.[ g l g 3 * * *.e.i.d.8.O.+.+.+.+.$.%.&.&.%.%.%.%.%.%.%.%.%.%.$.+.@.&.&.%.&.&.@.%.*.%.*.%.%.%.%.%.&.&.&.&.&.@.@.@.@.+.@.+.+.@.@.+.+.+.+.+.+.@.@.&.$.&.&.+.+.+.O.@.@.O.| [ [ [ [ { O.O.O.O.{ [ { { [ { [ [ { { [ { { [ [ [ { { [ [ [ [ { [ [ [ [ [ [ [ [ [ [ [ [ [ [ [ [ ` c v c u g u = + & *.8.6.:._ [ [ [ [ [ [ [ [ [ [ [ { { [ [ [ [ [ [ [ [ [ [ [ [ [ [ [ [ [ [ [ [ [ [ [ [ [ [ ) ' [ ( [ _ [ ] ' [ [ ] ] [ _ ) ( ( [ _ ( ) _ [ ( ( ) ( ) ( ( ) _ _ ( ` ( ( ( ( ( ( ( v v l l l l l l l l l ) ( ( ( ( ( / ( ( ( / / / c c l c v c ^ l v c v c l v { { { ....[ & o $ & ' O.O.O.O.O.O.O.[ ` [ a.kXlXhX=.{ { ..{ ....{ { { { | } { { { *.5.e.r.e.",
"k 2.>Xf.a...{ { { { { { { [ { [ [ { [ { [ { { [ l k l g f f f f f g g g g f g % o o o 3 c k k k k g y u y y y u f f f u u u u u u u f f g l l l l l l l l l l l l l l l l k v v / l / ( / ( ( / ( ( ( ( ( ( ( ( ( ( ( ( ( ( ( ) _ ) ) ( _ _ ( ( ( ( _ ] ] [ [ _ ( ( ` ` ] _ [ [ [ [ [ { [ { [ [ [ [ [ [ [ ] [ [ [ [ [ [ [ [ g & & * [ %.+.:.9.6.3.o.[ [ [ [ [ [ { { [ { [ [ [ { { { { { { { [ [ [ [ [ [ { { { [ [ [ { { { { { { { { [ [ { { [ { [ [ [ { { { { { } { { { { { { { { { { { { { { { { { { | O.@.%.&.&.%.#.@.%.*.%.%.%.%.%.&.%.&.%.%.*.%.%.*.%.%.%.%.*.%.%.%.&.%.%.%.*.*.*.%.&.%.%.*.[ g l k = * * *.e.d.d.w.O.#.+.%.%.%.%.&.&.&.%.%.%.%.%.%.&.%.%.%.$.$.&.&.&.&.&.%.&.&.%.O.O.O.O.O.| } | } } { { { } } { { { { { { } { { { } } } { } } } } { { { { { { { { { { [ [ { } { | } { { { { { [ [ { { { { { { [ [ { { { { [ [ [ { [ [ [ [ [ [ [ [ [ [ [ [ ' [ [ [ ( c c c u g u = + & *.8.6.:.[ [ [ [ [ [ [ [ [ [ [ [ [ [ [ [ { [ [ [ [ { { [ [ [ [ [ [ [ [ [ [ [ [ [ [ [ [ [ [ _ _ _ [ [ [ [ ` [ [ ( ( _ _ [ ( _ _ ) _ ( ) ' [ [ ( ( ) [ ( ( ( ( ( ( / v c l c c c c c c l l l l l l l / ( ( ) ( l l c l l c l l l c c l l l l l l c / / l l / ..[ { { [ [ & o $ $ ' O...O.O.O.O.O.[ ( [ a.vXvXhX%.{ { ....{ { { { ..{ { ....O.} =.5.8.e.e.",
"k 2.>Xf.a.O.[ { { [ [ { [ [ { { { { { { { { { ( k g k u u u f g g g g g g f f & o o o 2 c k k k k g y y y y u y f f u y y u u u u u u u f l l l l l l l l l l l l l l l l l l l / c / v / / ( ( ( ( ( ( ( ( ( ( ( ( ( ( ( ( ( ( _ ( ( ( ( ( _ ) ( ) ` ] [ [ ` _ ( ` ( ` ` ` [ ] ` [ [ [ [ [ [ [ [ _ ` ( ( ( ( _ _ _ [ [ ] [ g @ & * [ *.@.:.8.6.3...[ [ [ { { [ [ { { { { { [ [ { { { { { [ { { { { [ [ [ [ [ [ [ [ { { [ [ { { { { [ [ [ [ { { { [ [ [ [ [ [ [ [ { [ { { [ [ [ { { { { [ [ { { [ [ ..[ O.$.@.%.%.%.#.#.%.%.%.&.%.%.&.&.&.%.%.%.%.*.%.%.*.%.%.%.&.%.%.*.*.&.&.%.%.%.%.@.@.+.%.*.' g l k = * * %.e.i.d.w.O.$.$.+.%.%.@.&.&.&.%.%.%.%.%.&.#.&.%.%.%.%.&.$.&.%.%.#.%.%.%.} } } { { { [ [ { { { { { { { { { { { { { { { { { { } { { { } { { { { { [ { { { { { [ [ { [ { | { O.} { { { [ [ [ { { { { { [ [ [ { { { [ [ [ [ [ [ [ [ [ [ [ [ [ { [ [ [ [ [ [ [ ( c v c u g u * + & *.8.8.:.[ [ [ [ [ [ [ [ [ [ [ { [ [ [ [ [ [ [ [ [ [ { [ [ [ [ [ [ [ [ [ [ [ [ [ [ [ [ [ [ _ _ _ [ [ _ [ ( _ [ ) _ [ _ _ ) _ _ ) [ ( ( ( [ ] ) ( [ _ ( ( ( ( ( ( c v v c c c c c c c l l l l l l l / ( ( ) / l l c l l c l c l c l l l l l l l c c c l c v ....[ { [ [ & o $ + ) O.O.O.O.O.O.O.[ ( ( p.bXMXlX=.[ { ..{ { { { { { { { { $.+.} 2.6.8.9.e.",
"k 2.f.f.a...{ { { { { [ [ [ { { { { { { { { { / g k f y u u g g g g g g g f g % . o o 2 c k k k k g y y y u u u u y u y y y u u u u u u f l l l l k l l l l l l l l l l l l l l / c c c v ( ( ( ( ( ( ( ( ( ( ( ( ( ( ( ( ( ( ( ) _ ( ( ( ( _ ` ` ` ` ] ] ] [ _ ( _ [ [ ' ] ' ` ( [ [ [ [ [ [ [ [ _ _ _ ( ( ] ( ) ( _ [ ] [ g & & & [ %.@.=.3.6.4.{ _ [ [ [ { [ [ { [ { { [ [ [ [ [ [ [ { { [ [ [ { { { { [ [ [ [ { { [ { [ { { { [ [ [ [ { [ { { { { { { [ [ [ { { { { { [ [ { { { [ { { [ { { { { } } +.&.+.&.%.%.%.%.&.&.%.%.%.%.&.%.&.&.%.%.%.%.&.%.&.&.%.&.@.@.+.$.+.+.@.O.@.@.@.O.@.+.%.*.' g k j 3 & & %.e.d.a.8.O.%.$.$.%.$.%.%.%.%.%.%.&.%.&.&.#.&.%.&.#.%.$.&.+.&.&.&.%.$.&.O.o.{ { { { { [ { { { [ [ { { [ { { { { { { { { { { { { { { { [ { { { { [ [ [ [ { { { { { [ { { { | { { { { { { [ [ { [ [ { { [ [ [ [ [ [ [ [ [ [ [ [ [ [ [ [ [ [ [ [ [ [ [ [ [ [ ) c v c u f u = $ & *.8.7.:.[ [ [ [ [ [ [ [ [ [ [ [ [ [ [ [ [ [ [ [ [ [ [ [ [ [ [ [ [ [ [ [ [ [ [ [ [ [ [ [ [ [ [ [ _ _ [ _ ] [ _ [ [ [ _ _ _ ) [ [ [ ' ( ( ` [ ] ( ( ( ( / ( ( ( ( / v v v v v v v / c c l c l l l l / ( ( / ( v l l l l c l l l l c l l l l l l c c v v c / O...{ ..[ [ & o o + ) O...O.O.O.O.O.[ ( ( r.rXgXeX%.{ { ..{ { { { { { ..O.{ 2.8.:.=.+.6.9.w.",
"k 2.f.f.a.{ [ { [ { [ [ { { { { { { { { [ { { / l l f y u f f k g g g g f f g & . o o 2 c k k k k g y y y u u u u u u u u u u u u u u u g l l l l l l l l l l l l l l l l l l c / l / v c ( / ( ( ( ( ( ( ( ( ( ( ( ( ( ( ( ( ( ( ( ( ( ) [ ( ( ( ` ` ( ( ] ] ( ( ( ( ( ( ] ` ] ( [ [ [ [ [ [ [ [ [ [ _ ] ] [ _ [ _ [ [ _ [ g & & * ' @.O.=.7.3.1.o._ [ _ [ ..[ [ [ [ [ [ { { { { { [ { { [ { { { [ [ [ [ [ { { [ [ { { [ [ [ [ [ { { [ [ { [ { { { [ [ { { [ [ { { { { { [ [ [ { [ [ [ [ { { { { { { { O.@.+.+.@.+.@.@.+.&.+.+.%.#.%.%.&.&.%.%.%.%.%.&.@.&.%.+.+.+.@.@.+.+.O.O.O.@.@.@.@.+.&.%.' g l k 3 & & %.w.a.d.w.O.+.$.$.%.&.+.@.@.%.%.%.&.%.&.@.%.%.$.%.%.&.$.+.+.+.+.+.| O.+.| [ { { { { { { { [ { { { { { { { { { { { { { { { { { { [ { { { { { { { { [ { { [ { { { [ { [ [ [ [ [ [ { [ [ { [ [ [ [ [ { { { [ [ [ [ [ [ [ [ [ [ [ [ [ [ [ [ [ [ [ [ [ ' [ [ [ ( c v c u g u = $ & %.6.6.:.[ [ [ [ [ [ [ [ [ [ [ [ [ [ [ [ [ [ [ [ [ [ [ [ [ [ [ [ [ [ [ [ [ [ [ [ [ [ [ ) _ [ _ _ ) ( [ ( ( ( ( ( ` ` _ ( ) ) ) ( ` ' ) ) ( ' ( ( ( ( ( ( ( ( ( ( v v v v v v v c v c c c l l l l l / ' ( ( ( l l l l l v c l l l l l l l c c c v v l l c / ..{ { { [ [ & o $ + ' O.o.O.O.O.O.+.[ ( ( r.3X9X,X+.{ ..{ { { { ..{ { [ +.$.:.6.e.=.O.2.9.e.",
"k :.f.a.i...[ [ { [ [ [ [ [ { [ [ [ { [ [ { { ( l k g u u f f g g g g g f f g & . o o * c l k g k k y y y y y y u u u u u u u u u u u u f k l l l k l l l l l l l l l l l l l v / / / v c / ( ( ( ( ( ( ( ( ( ( ( ( ( ( ( _ ( ( ( _ ( ( ( ( ( ( ( ( ( ( ( ( ( ( _ ] ( ( ( ] ] ( ( ( ( ( ] [ ] ( _ ( ] ( ( ( ( ( _ ( _ _ ( _ g & & & ' @.O.*.3.3.3.O.[ { { { { _ [ [ [ [ [ { [ [ { { [ [ [ [ { { { { [ [ [ [ { { [ [ [ { { { [ [ [ [ [ [ [ [ [ [ { [ [ [ { { { { [ [ { [ [ [ [ [ [ [ [ [ { { { [ { [ { { { { { { [ { { { } [ o.+.&.@.%.%.%.%.%.%.%.%.%.%.&.&.&.+.+.+.@.@.+.O.O.O.O.O.+.+.@.O.@.&.' g l k 3 & & %.w.a.d.w.O.%.%.%.%.&.+.+.$.$.@.@.@.&.&.%.&.$.&.%.%.%.+.[ ..{ { { { { { { { { { { { { { { [ { { { { { { { { { { { { { { { { { { { { { { { [ [ { { { { [ { { { { { [ [ { [ [ [ [ [ [ [ [ [ [ [ [ [ { [ [ [ [ [ [ [ [ [ [ [ [ [ [ [ [ [ [ [ [ [ [ [ ' [ [ [ ( c c c u g u = + & %.6.6.:.[ [ [ [ [ [ [ [ [ [ [ [ [ { [ [ [ [ [ [ [ [ [ [ [ [ [ [ [ [ [ [ [ [ [ [ [ [ [ _ _ [ ' [ [ ( ( ( ( ( ( ( ( ( ( ( ) ) ) ( ( ( ) ( ( ( ( ( ( ) ( ( ( ( ( ( v v v v v v c c c c c l l l l l z v / / / c l l l ( ( / / l l l l l l l c c c c l g f g l ....{ [ ....& o + $ ' O.O.O.| O.O.O.[ ( ( 9.6XeX2XO.[ ..{ { { { { { { O.%.7.%.O.%...{ 6.9.e.",
"k :.s.s.a.O.{ [ [ [ [ [ [ [ { { [ { { { { [ o.) l l l u f f f g g g g g g f g & . + + = c l k g k k y y y y y u u u y u u u u u u u u u f l k l l k l l l l l l l l l l l l l l v / c l c ( / ( ( / ( ( ( ( ( ( ( ( ( ( ( _ ( ( ( ) ( ( ( ( ( ( ( ( ( ( ( ( ( ) _ ] ( ( _ ] _ ( ( _ ( [ ) ) [ ] ( ( ( _ _ ( ( ( ( ( ( _ ( _ g & & & [ @.O.*.3.6.3.O.[ { { { { [ [ [ [ [ [ { [ { { [ [ [ [ [ [ [ { { { [ [ { { [ [ [ [ { { { [ [ [ [ [ [ [ [ { { { { [ { { { { [ [ [ { [ [ [ [ [ [ [ [ [ { { [ [ [ { { { { { { [ [ { { { { [ o.+.@.@.&.&.%.%.#.%.%.%.%.%.@.@.@.+.+.$.@.@.+.@.@.@.O.O.@.O.@.@.+.+.( g l g 3 & & %.8.i.d.e.O.*.%.%.%.&.&.&.$.$.$.+.&.@.&.%.@.+.@.&.+.+.+.[ o.{ { { { { [ } { { { [ { { { [ { [ { { { { { [ [ { [ { { { { { { { { { { { { { [ [ { { { { [ [ { { { { [ [ [ [ [ [ [ [ { [ { { [ [ [ [ [ [ [ [ [ [ [ [ [ [ [ [ [ [ [ [ [ [ [ [ [ [ [ ' ' ' [ [ ( l c l u g y * + & %.6.6.:.[ [ [ [ [ [ [ [ [ [ [ [ [ [ [ [ [ [ [ [ [ [ [ [ [ [ [ [ [ [ [ [ [ [ [ [ [ [ [ [ [ [ [ ' [ ) ( ( ( ( ( ( ( ( ( ( ( ( ( ( ( ) ( ( ( ( ) ( ( ( ( ( ( ( ( / v v v c v c c c c c l l l l l l v c l l l l l l l ( ( / / l l l l l l l c c c l c g g g l { [ { ......& o $ $ [ O...O.O.O.O.+.{ ' ' 9.9XqX2XO.[ ....{ { { { [ [ +.=.:.=.} { { ..6.e.e.",
"l 2.f.s.a.O.{ [ { { [ [ { { { { [ { { { { { { ) c c c u f f f g g g g g f f g & . o o = c k k g k g y y y y u y u u u u u u u u u u u u f l k l l l l l l l l l l l l c l c / l / / / c v ( ( / / / / ( ( ( ( ( ( ( ( _ ( ( _ ( _ ( ( ( ( ( ( _ _ _ ( ( ) ( ( ( ( ( [ _ ] ] ] ( ( ( ( ( _ ] [ ] ( [ _ _ ( ( ( ( _ _ [ _ ( [ f & & * ..*.O.=.3.2.2.O.} o.{ { { [ { [ [ [ [ [ [ { { { [ [ [ { { [ { [ [ { { { [ [ [ { { [ { { { { { { [ [ [ [ { [ { { [ [ { { { { [ [ [ [ [ [ [ { [ { [ [ [ [ [ [ { { { [ { [ [ [ [ { { { { { { $.$.&.%.&.%.@.%.%.%.%.&.&.@.&.+.+.O.O.O.O.@.+.O.O.O.O.O.O.@.+.+.+.( g l k = & & %.8.i.a.w.O.%.%.#.&.+.&.$.$.$.@.+.+.$.&.&.&.&.&.%.$.$.O.{ { { { { { { { [ { { { { [ { { [ [ { [ { [ [ { { { { [ [ [ { { { { { [ [ { { { { [ { { { { { [ [ [ [ { { [ [ [ [ [ [ [ [ { [ { [ [ [ [ { [ [ [ [ [ [ [ [ [ [ [ [ [ [ [ [ [ [ [ [ [ [ [ ' [ [ [ ' ( l c c u g y * + & %.6.6.;.[ [ [ [ [ [ [ [ [ [ [ [ [ [ [ [ [ [ [ [ [ [ [ [ [ [ [ [ [ [ [ [ [ [ [ [ [ [ ) ' ' [ [ [ [ _ ) ( _ ( ` _ ( ( ( ( ( ( _ ) ( ( ( ) ( ( ( ( ( ( ( ( ( ( ( ( v v v v c c c c c c l l l l l c l l v c l l l l l v / c / l l l l l l l c c v l c l g g l { ........[ * o o + [ O.O.O.O.O.O.+.{ [ ' e.9XqX2XO.......{ { [ { ..o.:.6.:.O.O.| | O.7.e.e.",
"l :.f.a.a...[ { [ { [ [ [ [ { { { [ { [ { ..{ ) c c c u f f f g g g g g g f g & . + o = c l l k k j y y u y u u y u u u u u u u u u f u g l l l l l l l l l l l l l l v / / / / / c v c c v v / c c / c / / / / / ( ( ( ( ( ( ( ( ( ( ( ( _ ( ( ) ( ( ( ( ( ( ] _ _ [ _ _ ( ( _ ( ] _ ( ( ( ] ] ( ( ) ( ( ( _ ( _ ( ] [ ( [ g & & * ..*.@.=.3.2.2.{ [ { [ [ o.o.o.[ [ { [ [ [ { [ { [ [ [ [ { [ [ [ [ [ [ [ [ { { { [ [ [ [ [ { { { [ { [ [ { { { { { { { { [ [ [ [ [ [ [ { [ [ [ [ [ [ [ { [ [ [ [ [ [ { { { { [ [ { { { { { O.O.O.O.O.O.O.O.O.O.| } O.O.O.O...{ { } @.O.O.O.O.O.O.} +.+.+.+.@.( g l k = & & %.8.i.a.8.O.%.%.+.+.%.%.&.$.+.+.+.%.@.+.+.+.+.+.$.+.O.{ [ { { { { { { { { [ { { { { { { { { { { { { { { { { [ { { [ [ { { { { [ [ [ { { { [ [ { { { { [ [ [ [ { { [ [ [ [ [ [ [ [ [ { [ [ [ [ [ [ [ [ [ [ [ [ [ [ [ [ [ [ [ [ [ [ [ [ [ [ [ [ [ [ [ [ [ [ ( c c l u g y * + & %.7.6.:.' [ [ [ [ [ [ [ [ [ [ [ [ [ [ [ [ [ [ [ [ [ [ [ [ [ [ [ [ [ [ [ [ [ [ [ [ [ ) ' ' ' _ ( ) _ ) ( ( ( _ _ ( ( ( ) ) ) ) ( ( ( ) ( ) ( ( ) ) ( ( ( ( / ( ( v / c c c c c c l c l l c v l c l v v v l l l l l c ( ( c l l l l l c c l l l l c c c c c { ..{ [ ..[ & o $ $ [ } O.+.@.O.O.O.{ ' ) r.eXeX3XO...{ { { ..{ { 2.2.*.6.:...O.O.| { 4.q.r.",
"k :.s.a.a...[ { { { { [ [ [ [ { { [ { { #.=.%.) v v c u f u f g g g g f g f g % . o o = c l l g k g y y y y y y y y u u u u u u u u u u g l l l l l l l l l l l l l l c ( / / ( c l l l l c l c c v l l l l c c l c c l / ( ( ( ( ( ( ) ) ( ( ( ( ( ( ( ( ( ( ( ( ( ] ) [ ( ( ] [ ] _ ( ( ( ( ( [ ] ( ( ( ( ( ( ( ( _ _ ( [ g & % * ..*.@.*.3.4.2.{ ( [ [ [ O.....o.[ [ [ [ [ [ [ [ [ [ [ [ [ [ [ [ [ [ [ [ [ [ [ [ [ [ [ [ { [ [ [ { { { [ [ [ [ [ [ [ [ [ [ [ { { [ [ [ [ { [ [ [ [ { [ [ { { { { [ [ { { { { [ [ [ [ [ { { [ [ { [ [ [ [ { { [ [ [ { { { { { { { { O.O.+.O.O.} { { O.+.+.+.@.( f k g = & & +.8.a.a.9.+.@.$.+.+.$.&.%.%.$.%.O.O.O.+.O.o.O.O.O.o._ { [ [ { { { { { [ [ [ [ [ [ [ { [ { [ { { [ { [ { { { { { { { [ { [ { { { [ { [ [ { [ { [ { { [ [ [ { [ { [ [ { [ [ [ [ [ [ [ [ [ [ [ [ [ [ [ [ [ [ [ [ [ [ [ [ [ [ [ [ [ [ [ [ [ [ [ [ ' [ [ [ [ [ ( c c l u g y * + & %.6.3.*.[ [ [ [ [ [ [ [ [ [ [ [ [ [ [ [ [ [ [ [ [ [ [ [ [ [ [ [ [ [ [ [ [ [ [ [ [ [ ) ( ( ' ) ( ( ( ) ) ( ( ( ( ( ( ( ( ( ( ( ( ( ( ( ( ( ( ( ( ( ( ( / ( ( ( ( / c c c c c c l c c l l l l l l l l v c l l l l l c / v l l l l l l l l c l c c v / l l / ........[ [ % o $ & O.*.+.O.O.O.O.O.[ ( _ r.rXrX4XO.{ { { ..{ { 6.8.8.#.O.{ { | { } O.7.r.r.",
"l :.s.s.a.{ [ [ [ [ [ [ [ [ [ [ [ [ { ..<.2.=.[ / c c u f u f g g g g g g f g & . + o * c l k k k g y y y y y y u y u u u u u u u u u u g l l l l l l l l l l l l l l / ) ( ( ( c l l l l c l c v c l c l l l l l c / / / ( ( ( ( ( ( ( ( ( ( ( ( ( ( ( _ _ ) ( ( _ _ [ [ ) ( ) _ ( _ [ _ ( _ ( [ _ ( ( ( ( _ ( ( ( ( _ ( _ g & & * ..%.+.;.3.2.2..._ [ _ _ O.{ { } [ [ [ [ { [ [ [ [ [ [ [ [ [ [ [ [ [ [ [ { [ { { [ [ [ [ { { { [ { [ { [ [ [ [ { [ { [ [ [ [ { { [ [ [ [ { [ [ { [ [ [ { { [ [ [ [ [ [ { { { [ [ { [ [ { { [ [ { { [ { [ { { { { { { { { { { [ { { | @.@.O.O.O.{ { O.@.+.@.@.( f k g 3 & & +.w.d.d.9.@.%.+.&.+.+.#.%.+.$.+.@.+.O.O.O.o.O.O.O.{ [ [ [ [ [ { { { { { { { [ [ [ [ [ { [ { [ [ { { [ { { { [ { { { { [ [ { { { { { [ { { { { [ [ { { [ { { { { [ [ [ [ [ [ [ [ [ [ [ [ [ { [ [ [ [ [ [ [ [ [ [ [ [ [ [ [ [ [ [ [ [ _ [ [ [ [ ) ' ' _ [ ' ( l v l u g u * + & %.6.6.=.[ [ [ [ [ [ [ [ [ [ [ [ [ [ [ [ [ [ [ [ [ [ [ [ [ [ [ [ [ [ [ [ [ [ [ [ [ ' ) ( ( ) ) ( ( ( ( ( ( ( ( ( ( ( ( ( ( ( ( ( ( ( ( ( ( ( / / / ( ( / ( ( ( ( / / c v c c v v / v l c l l l l l l l l l l l l l l l l l l l l l l l l c c l l c / l c c ........[ [ & + $ $ %.7.2.2.O.{ ..O.{ ( ] r.rXtX4XO.{ { { ....[ 2.6.e.%.{ | O.| { { ..7.r.r.",
"k ;.f.s.i.{ [ [ { [ [ [ [ [ [ [ [ [ [ { =.2.2.[ v v c u f f f g g g g g f f g & . + o * c l k k k g y y y y y y u u u u u u u f d u u d g l k l l l l l l l l l l l l l c / / v c l l l l l l c / v l c l l l l l c / / / ( / ( ( ( ( ( ( ( ( ( ( ` ( ( _ _ ( ( ( ( ( ] [ _ ( ` ) _ _ [ _ ( ( ( _ _ _ ( ( ( _ _ ) ( _ _ ( _ f & & & { %.@.=.3.3.2.{ ( [ [ [ { { { [ [ [ _ [ [ [ [ [ [ [ [ [ [ [ [ [ [ [ [ [ [ [ [ [ [ [ [ { { { [ [ [ [ { { { { { { [ { [ [ [ { [ { [ [ [ [ [ [ [ [ [ [ [ [ [ [ [ [ [ [ [ { [ [ [ [ { { { { [ [ [ [ [ [ [ { [ [ [ { { { { { { { { } } { +.O.O.@.| o.{ { @.+.@.@.( f k f * & & O.8.d.d.8.O.@.O.+.#.@.#.@.+.$.O.O.+.O.{ O.....{ ..{ { [ [ [ [ [ [ [ [ [ [ [ [ [ [ [ { [ [ [ { [ { { { { { [ [ { { { { { [ [ [ { { [ [ [ [ { { { { { { { { [ [ [ [ [ [ [ [ [ [ [ [ [ [ [ [ [ [ [ [ [ [ [ [ [ [ [ [ [ [ [ [ [ [ [ [ _ [ [ _ [ _ [ ( ( ' ' ' ( c v l u g y * + & %.6.6.=.' [ [ [ [ [ [ [ [ [ [ [ [ [ [ [ [ [ [ [ [ [ [ [ [ [ [ [ [ [ [ [ [ _ [ _ [ [ ( ( ( ( ) ( ( ( ( ( ( ( ( ( ( ) ( ( ( ( ( ( ( ( ( ( ( ( / / / ( ( ( ( / ( ( / c v c / v / / / c l l l l l l l l l l l l l l l l l l l l c l l l l l l l c l l c l l / ....{ { [ [ & o $ & O.2.=.<.$.} O.O.[ ' ( q.qXrX6X+.{ { ..{ *.=.#.#.%.O.O.O.O.O.| ....4.r.r.",
"k :.s.a.y.{ [ [ [ { [ [ [ [ [ [ [ [ { ..*.2.*.( c v v u f f f g g g g g f f f & . + + = c l k g k g y y y y y y y u u u u u f u u u u u f l l l l l l l l l l l l l l c l l l l l l l l l c l c v v l l l l l l l v v / ( ( / ( ( ( ( ( ( ( ( ( ( ( ( ( ( ( ( ( ( ( _ _ _ ( [ [ _ ) ( ( _ _ ( ( ( _ ( ( _ _ _ _ ( ( _ _ ( [ f $ & * { %.@.*.3.3.2.{ ( _ _ _ ] [ _ _ _ [ ( _ _ _ [ [ _ ' ' _ ] ] _ ) [ _ ] [ ( [ { [ [ { { [ [ [ [ [ [ [ [ { { [ [ { [ [ [ [ [ [ { [ [ [ [ [ [ [ { [ { [ [ [ { [ [ [ [ [ [ [ { [ [ [ { [ [ [ [ [ { [ { { [ [ [ [ { { { { { { { { { { { { { { { { [ { { } @.O.+.+.( f g g * & & O.6.i.i.6.{ { { O.@.#.+.O.{ { { [ [ { [ [ [ [ [ [ [ [ [ [ [ { [ [ [ { [ [ { { [ [ [ { { [ { [ { { [ [ { { { { [ [ { { { [ [ [ [ { [ [ [ [ [ { { [ [ [ { [ [ [ [ [ [ [ [ [ [ [ [ [ [ [ [ [ [ [ [ [ [ [ [ [ [ [ [ [ [ [ [ [ [ [ [ [ ' [ [ [ [ [ [ ) [ [ [ ) ( c c l u g y * + & %.6.3.*.' [ [ [ [ [ [ [ [ [ [ [ [ [ [ [ [ [ [ [ [ [ [ [ [ [ [ [ [ [ [ [ [ [ _ _ [ ) ( ( ( ( ) ( ( ( ( ( ( ( ( ( ( ( ( ( ( ( ( ( ( ( ( ( ( ( ( ( ( ( ( ( ( / ( / c l l c c c c v c c l l v ( l l l l l l l l c l l c l l / c c l l c l l l l l l l c c c / ....{ ..[ [ & o o $ ..:.%.%.%.*.*.@.[ [ ( r.eXeX6X+.[ { O.O.=.8.6.+...O.O.O.| O.......4.r.r.",
"l ;.s.a.i.{ [ [ [ [ [ [ [ [ [ [ [ O.@...{ O.{ ( / v c u u u u f g f g g g f f & . + o * c l k k k g y y y y y y y y u u f f u f u u u u g l l l l l l l l l l l l l l l l l l l l l l l l c c c / v l l l l l l / ( ( ( ( ( ( ( ( ( ( ( ( ( ( ( ( ( ( ( ( ( _ ( ( ( ( [ [ ( [ ) ) ( ( ( _ ] _ _ ( _ _ ) ) _ ) _ ) _ ) _ ( [ g $ & * [ %.+.=.3.3.2.{ ( ) ' _ _ [ _ [ _ _ ] ] _ [ [ [ [ ` ( ] ] ] ( ( [ _ ] _ _ [ [ [ [ [ [ [ [ [ { { [ [ [ [ { [ { [ [ [ [ [ [ { [ [ { [ { [ { [ [ [ [ [ [ [ { { { [ [ { [ [ [ [ [ [ { { [ [ [ [ { { { [ [ [ [ { [ [ [ [ [ [ { { { [ [ [ { [ [ [ { O...{ O.+.+.@.( f k g * & & X.6.t.t.3.[ ..O.+.O.O.+.O.[ [ { [ [ { [ [ [ [ [ { [ { { { { { [ [ { [ [ [ [ { [ [ { { { { [ { [ [ { [ [ { [ [ { { { { { { [ [ [ { { { [ { [ [ { { [ [ { [ [ [ [ [ [ [ [ [ [ [ [ [ [ [ [ [ [ [ [ [ [ [ [ [ [ [ [ [ [ [ [ [ [ [ [ [ [ ' ' [ [ [ [ _ [ _ ' ' ( c c l u g y * + & %.3.3.*.' [ [ [ [ [ [ [ [ [ [ [ [ [ [ [ [ [ [ [ [ [ [ [ [ [ [ [ [ [ [ [ [ [ _ _ [ ( ( ( ( ( ( ( ( ) ( ( ( ( ( ( ( ( ( ( ( ( ( ( ( ( ( ( ( ( ( ( ( ( ( ( ( / / l c c l c l c l l c c c v ( ( c l c l l l l c l l l c / / ( l c l l l l l l l l l l l c c / O...[ ..[ [ & + o & ( ) l ' &.*.%.O.( ' ( y.tXrX6X+.[ [ %.*.O.*.2.%.O.O.O.O.O.O...{ { 4.w.r.",
"k *.f.a.a...[ [ [ [ [ [ [ [ [ [ [ =.2.@.[ [ ' ( / v c u f u f f g g g g g f f & . o o * c l k g k g y y y y y y y y u u f y u u u u u u g l l l l l l l l l l l l l l l l l l l l l l l l c c c / / l l l l l / / / ( ( / ( ( ( ( ( / ( ( ( ( ( ) _ ( ( ( _ ( ( ( ( ( [ ` ( ' ) ) ( ( ( _ ] _ _ ( _ _ ( _ ( ) _ ( _ ( _ ( [ g $ & * ..*.@.*.3.3.2.{ ( _ _ _ [ [ ' ' ' ' ( ] ] _ ` [ [ ` ] ] [ ( ( ( ` _ _ [ [ [ [ [ [ { [ [ [ [ [ { { [ [ { [ [ { [ [ [ [ [ [ [ [ { [ [ [ [ [ [ [ [ [ [ [ [ [ [ [ { { { { { [ [ [ [ [ { [ [ [ [ [ [ { [ [ { [ { [ [ [ [ [ [ { [ { [ [ [ { { { [ [ O.{ { O.+.+.@.( g k g * % & O.6.t.t.3.[ ..{ +.&.+.+.O.{ { [ [ [ [ [ [ [ [ [ [ [ [ { { { { { [ { { { [ [ { [ { { { [ [ [ [ { [ [ [ [ { { [ [ [ { [ [ { [ [ [ { { { { { [ [ { [ [ [ { { [ [ [ [ [ { [ [ [ [ [ [ [ [ [ [ [ [ [ [ [ [ [ [ [ [ [ [ [ [ [ [ [ [ [ [ [ [ [ [ [ [ ' [ ) ' [ ' ( c c l u g y * + & %.3.3.*.' [ [ [ [ { [ [ [ [ [ [ [ [ [ [ [ [ [ [ [ [ [ [ [ [ [ _ [ [ [ [ [ [ [ ) _ ( ( ( ( ( ( ( ( ( ( ( ( ( ( ( ( ( ( ( ( ( ( ( ( ( ( ( ( ( ( ( ( ( / / / ( ( c c l l l l l l l c c c v v v v c c l l l l l l l l c ( ( / / l c l l l l l l l c l l c l c { [ [ { ..[ % o o + v v k [ +.O.O.{ ( ( ( r.rXtX9X@.[ O.8.8.+.{ O.O.O.O.O.| O.O.O.| { 4.w.r.",
"k *.s.a.i.{ [ [ [ { [ [ [ [ [ [ { @.%.O.[ [ ( ( v v v u u u u f g g f f f f g & . + + = c k k g k f y y y y u u u y u u u u u u u u u u g l k l l l l l l l l l l l l l l l l l l l c l l l l / / / l l l l v ( ( / ( ( ( ( ( ( ( ( ( ( ( ( ( ( ( ( _ ( ( ( ( ( _ ( ( ( ( _ [ [ ' _ ) ( ( _ _ _ ( _ _ _ ) ( ( ( ( ( ( ( ( [ g & & * ..%.@.=.6.3.2.{ _ [ [ [ [ _ [ ' ' _ _ ) [ [ _ [ _ ] ] ] [ [ ] ] ] ' ] [ ] [ [ [ [ [ [ _ [ [ [ [ { [ [ [ [ [ [ [ [ [ [ [ [ [ [ [ [ [ [ [ [ [ [ [ [ [ [ [ [ [ { { { [ [ [ { [ [ [ [ [ [ [ [ [ [ [ [ [ [ [ [ [ [ { { { { { { { { { { [ { [ [ { [ { [ { +.@.+.+.( f g f * & & O.2.t.t.2.[ ..[ [ ....{ { [ [ [ [ [ [ [ [ [ { { { [ [ { { [ [ [ [ { { [ [ { [ [ { { [ [ { [ { [ [ [ [ [ [ { [ { [ [ [ [ [ [ [ [ [ [ [ [ [ [ [ [ [ [ [ [ [ [ [ [ [ [ [ [ [ [ [ [ [ [ [ [ [ [ [ [ [ [ [ [ [ [ [ [ _ [ [ [ [ [ [ [ _ _ ' ' [ ' [ ' ' ) ) [ ' ( c c l u g q * o & %.3.3.*.' [ [ [ [ [ [ [ [ [ [ [ [ [ [ [ [ [ [ [ [ [ [ [ [ [ [ [ [ _ [ [ _ _ ) ( ) ) ) ( ( ( ) ( ( ( ( ( ) ( ( ( ( ( ( ( ( ( ( ( ( ( ( ( ( ( ( ( / ( / ( / ( / c c l l c l l l l v c l c / / l l l l l l l c c l l l / / / / l l l l l l l l c c c l l l l { { [ ....[ & o o + v ' c { %.@.O.+.[ [ ( r.tXtX9X=.=.4.2.7.&.{ O.| } O...O.O.| | | ..4.e.r.",
"l *.a.a.t.[ [ [ [ [ [ [ [ [ [ { [ [ [ [ [ ' ( ( / v v u f u u g g g g g f f f & . + + * c k k g k g y y y y u u u u u u y y u u u u u u f l k l l l l l l l l l l l l l l l l l l c v l l c l / / c l l l l l / ( ( ( ( ( ( ( ( ( ( ( ( ( ( ( ( ( ( ( ( ( ( ( ( ( ( _ ( ( _ ( _ ( ( ( ) ( _ _ ] ( ( ( _ ) _ ( ( ) ( _ ( ( [ g & & * ..%.@.=.6.3.4.{ ( [ _ [ [ [ [ ' [ _ [ _ _ [ ] [ ] ( ] [ [ [ ' ] [ [ [ ] [ _ ] [ [ [ [ ( ) ( [ [ [ [ [ [ [ [ [ [ [ [ [ [ [ _ _ [ [ [ [ [ [ [ _ [ _ _ [ [ [ [ [ [ [ [ [ { { [ [ { { [ { [ [ [ [ [ [ [ [ [ [ [ [ { { [ [ { [ [ [ [ [ [ { [ { { { [ [ { O.+.%.+.( g g f * & & X.2.t.t.2.' [ [ [ { [ [ [ [ [ [ { { [ [ [ [ { { { { [ [ [ { { { [ [ [ [ [ { { { [ [ [ { { [ { [ [ [ [ [ [ [ [ { [ [ { [ [ [ [ [ [ [ [ [ { [ [ [ [ [ [ [ [ [ [ [ [ [ [ [ [ [ [ [ [ [ [ [ [ [ [ [ [ [ [ [ [ [ [ [ [ [ [ [ ' [ [ [ [ ' ' [ [ [ [ [ [ [ _ _ ' ( c v l u g y * + & %.3.2.*.' [ [ [ [ [ [ [ [ [ [ [ [ [ [ [ [ [ [ [ [ [ [ [ [ [ [ [ [ _ _ ( ( ( ( ( ' ) ) ) ( ) ( ( ( ( ( ( ( ( ( ( ( ( ( ( ( ( ( ( ( ( ( ( ( ( ( ( ( ( / l l l l l l l l l l l l l c l c c c c l l l l l l l c v v l c ( / / c c l c l c l l l c c l l l l v { ..{ { ..' & + . + v ..) { O.O.+.O.[ ` ( r.uXrX4X4.6.8.2.2.O.O.O.| O.O.{ { | O.{ o.{ 4.r.r.",
"l *.s.s.y.[ [ [ [ [ [ [ [ [ [ [ [ [ [ [ ' ' ) ( / v c u f u u g g g f f f f f & . + + * c l l g k g y y y y y u f u u y q y y u u u u u g k k l l l l l l l l l l l l l l l l c c v v l l c l v / / l l l v l / ( ( ( ( ( ( ( ( ( ( ( ( ( ( ( ( ( ( ( ( ( ( ( ( ( ( ( ( ( ( ( _ _ _ ( ) ( ( [ _ ) ( ( _ ( _ _ _ _ ) _ _ ( [ f & & * ..%.%.=.6.6.4.{ ( [ ( _ _ ) [ ( [ ] [ [ ` _ _ _ ' ( ( ( [ _ ] ] ( _ _ ( ' [ [ [ [ [ ( ) [ ( [ [ [ [ [ [ [ [ [ { [ [ _ _ [ _ _ [ [ [ [ [ [ [ _ _ [ _ ] _ [ [ [ [ [ { { { { [ [ [ [ { [ { { [ { [ { { [ [ { [ [ [ [ [ { [ [ [ [ [ { { { [ [ [ [ [ [ { O.+.@.+.( f f f * & & ..2.t.t.2.[ [ [ { [ [ [ [ [ [ [ { { { [ [ { { [ [ [ [ [ [ { { { [ [ { [ [ [ { { { [ [ [ [ { { [ [ [ { { { { [ { [ [ [ [ [ { { { { [ { { { { { { { [ [ [ [ [ [ [ [ [ [ [ [ [ [ [ [ [ [ [ [ [ [ [ [ [ [ [ [ [ [ [ [ [ [ [ [ [ [ [ [ [ [ ' [ [ [ [ [ ' ' ' ) ( l v l u g y * + & %.3.2.*.' [ [ [ [ [ [ [ [ [ [ [ [ [ [ [ [ [ [ [ [ [ [ _ [ [ [ [ [ [ [ ( ( ) ( ( [ ( ( [ ) ) ) ( ( ( ( ( ) ( ( ( ( ( ( ( ( ( ( ( ( ( ( ( ( ( ( ( ( / l c l l l l l l l l l l l c l l l l l c l l l l c l l l l / / c / / c c c c c l c l l l l l l c l l v { [ ..{ { ' $ o o + c ( ( ..{ { O...( ( ( e.rXrX9X*.%.*.%.O.O.O.O.O.| O.O.O.| | { | { 4.9.r.",
"k *.s.s.t.[ [ [ [ [ [ [ [ [ [ [ [ [ [ [ ' [ [ ( ( v c u u u f g g g f f f f f & o + + = c l l g k g y y q y y u u y y y y y y u u f u u g l l k l l l l l l l l l l l l l l l c c c l l l l l c / / l l z ( / / ( ( ( ( ( ( ( ( ( ( ( ( ( ( ( ( ( ( ( ( ( ( ( ( ( ( ( ( ( ( _ _ _ _ _ ) ( ( _ _ _ ( _ ( ( _ _ _ _ ( ( ) ( [ f & & * ..%.%.=.6.6.4.{ ( [ ( ( _ ' [ ( _ _ ' ' ' [ _ ( ( ) ( ( ) [ [ ] ] _ [ ( _ _ _ [ [ [ ( ( ) _ [ [ [ [ { [ { { [ [ [ [ ) _ [ [ ( [ [ [ [ [ ] [ _ _ [ ] _ _ [ [ [ [ [ [ [ [ [ [ [ [ [ { [ [ [ { { [ [ [ [ [ [ [ [ [ { { [ [ [ [ [ [ [ [ [ [ [ [ [ [ [ [ O.@.+.@./ f g f * $ & ..2.e.t.2.[ [ [ [ [ [ [ { [ [ { [ [ [ [ { [ [ [ [ [ [ [ [ { { { [ [ [ [ { [ [ [ { [ [ [ { { { [ [ { { { { { { [ [ { [ [ [ [ { { { [ [ [ [ { [ { [ [ [ [ [ { [ [ [ [ [ [ [ [ [ [ [ [ [ [ [ [ [ [ [ [ [ [ [ [ [ [ [ [ [ [ [ [ [ [ _ ) ) ' [ [ [ ' ) ' ) ) ) ( l c l u g y * + & %.3.2.*.' [ [ [ [ [ [ [ [ [ [ [ [ [ [ [ [ [ [ [ [ [ [ [ [ [ [ [ [ [ ' ( ( ( ( ( ( [ [ [ ' ) _ ( ( ( ( ) ( ( ( ( ( ( ( ( ( ( ( ( ( ( ( ( ( ( ( ( ( / l c c c l l c v z l l l l c l l c c l c c c / / / c l l l c l l c l c c v v c c l l l l l l l l c c l { ..[ [ [ ' $ o o + c ..[ [ { { O.{ ( ( ( r.tXuX9X%.} } +.O.{ | ..O.o.O.O.O.O.O.| O.{ 4.q.r.",
"k *.a.i.r.[ [ [ [ [ [ [ [ [ [ [ [ [ [ [ [ [ [ ' ( ( / u y u f g g f f f f f f & . + + * c l l g k g q y y y y y y y y y y y y u u u u u g l k k l l l l l l l l l l l l c l l l c c l l l l l / ( ( ( / ( ( ( ( ( ( ( ( ( ( ( ( ( ( ( ( ( ( ( ( ( ( ( ( ( ( ( ( ( ( ( ( ( ( _ ( ( ( ) ( ( ( ( ] ( ( ( ( ) _ _ ( ( ( _ _ ( [ f & & * ..%.*.*.6.3.3.{ ( _ ] _ ) [ ] [ [ [ ` ( _ _ [ [ [ _ ( ( ( ` ( ` _ _ ( ( ` ( _ [ [ [ [ [ _ [ [ [ [ { [ [ [ [ [ [ [ [ _ [ ] _ _ [ [ [ [ [ [ ] _ _ [ ( ( _ [ [ [ [ [ { { [ [ [ [ [ [ [ [ [ [ [ [ [ [ [ [ [ { [ [ { [ { [ { [ [ [ [ { { { [ [ [ [ [ [ [ [ { [ { c f g f * $ & X.2.r.t.4.[ [ [ { { { [ [ [ [ [ [ { [ [ { [ { [ [ [ [ [ [ [ [ { { [ { { [ [ [ [ [ [ { [ [ [ [ [ [ { { [ [ [ [ [ [ [ [ [ [ [ [ [ [ [ [ [ [ [ [ [ [ [ [ [ [ [ [ [ [ [ [ [ [ [ [ [ [ [ [ [ [ [ [ [ [ [ [ [ [ [ [ [ _ [ [ [ [ [ [ [ ' ' ( _ _ _ ' ) ' ' ) [ ' ( c v l u g y * + & %.3.2.*.[ [ [ [ [ [ [ [ [ [ [ [ [ [ [ [ [ [ [ [ [ [ _ ] [ _ [ [ _ ( ( ( ( ( ( ( ) ( ) [ ( ) ( ( ( ( ( ( ( ( ( ( ( ( ( ( ( ( ( ( ( ( ( ( ( ( ( ( ( / / / / l l c c c l l l l l c l c l c l c / ( ( / / / l l l l l l l l l c c c l l l l l l l l l c l l c ....{ [ ..[ $ o o + ) *.+.O.{ | O.{ ( ` ( r.yXuX9X%.{ { O.| | O.| { O.O.{ O.O.o.o.{ { 7.9.e.",
"k *.a.a.t.{ [ [ [ [ [ [ [ [ [ [ [ [ [ [ [ [ _ ) ( ' ( f f u u f f f f g f f g & . + + * c l l g g g y y y y y y y y y y y y y u f u f u f l g k l l l l l l l l l l c l c c l l l l l l l l l / ( ( / ( ( / ( ( ( ( ( ( ( ( ( ( ( ( ( ( ( ( ( ( ( ( ( ( ( ( ( ( ( ( ( ( ( ( ( ( ( ( ( ( ( ( ( _ ( ( ( ( ( _ _ ( ( ( ( ( ( [ f & & * ..%.#.*.6.3.2.{ ( _ _ _ ( ( ( ( ( [ [ [ _ ( ' ) ' [ _ ] [ ` ] [ [ [ ` ] ` ` ] [ [ [ [ [ [ [ [ [ [ [ [ [ [ [ [ [ [ [ _ _ _ [ [ _ [ [ [ [ _ [ _ _ [ ( ( ] _ _ [ [ [ [ [ [ [ [ [ [ [ [ [ [ [ { [ [ [ [ [ [ { [ [ { { [ [ [ [ { { { { [ [ [ [ [ [ [ [ [ [ [ ' [ v u g f * $ & ..2.e.t.2.[ [ [ [ [ { [ { [ { [ [ [ [ [ [ { [ [ [ [ { [ [ [ [ [ { [ [ [ [ [ [ [ [ [ [ [ [ [ [ [ [ [ { [ [ [ [ [ { [ [ [ [ [ [ [ [ [ [ [ [ [ [ [ [ [ [ [ [ [ [ [ [ [ [ [ [ [ [ [ [ [ [ [ [ [ _ [ [ [ [ [ [ [ _ _ _ ( _ _ _ ' [ _ [ [ [ [ [ ' ) ) ' _ ] ' ' / l c l u g y * + & %.3.2.*.[ [ [ [ [ [ [ [ [ [ [ [ [ [ [ [ [ [ [ [ [ ( ( ( ( ) ( ( ( ( ( ( ( ( ( ( ( ( ) _ ( ( ( ( ( ( ( ( ( ( ( ( ( ( ( ( ( ( ( ( ( ( ( ( ( ( ( ( ( ( ( ( / ( ( l l c l l c c l l l c c c l c / / ( ( ( ( l l l l l l l l l c c l l l l l l l c l l l l / ) ....O.[ ..[ $ . o $ ' %.O.O.O.O.@...( [ ( e.sXtX9XO.O.{ { O.O.| | ....{ { O.O.o...{ { 4.9.w.",
"k %.i.i.r.[ [ [ [ [ [ [ [ [ [ [ ' ' [ ` ] [ ( [ ' ( ( g f u f g f f g g g f f & . + o * c l k g k g y y y y y y y y y y y y y u u u f u f l g k l l l l l l l l l l l l c c l l l l l l l l c ( / ( ( ( / ( ( ( ( / ( ( ( ( ( ( ( ( ( ( ( ( ( ( ( ( ( ( ( ( ( ( ( ( ( ( ( ( ( ( ( ( ( ( ( ( ( _ _ [ ( ( ( ( _ ( ( ( ( _ ( [ f & & & ..%.%.=.6.3.2.{ ( ) ` ] _ ( ( ( [ [ [ _ ( _ ] ] [ [ [ [ ] ] ] [ [ [ ] ` ] [ [ ] [ [ [ [ [ [ [ [ [ [ [ { [ [ [ [ [ [ _ _ ] ] [ [ [ [ [ [ _ [ ] _ [ ( ( _ _ [ [ [ [ [ [ [ [ [ [ [ [ [ [ [ [ [ [ [ [ [ [ [ { [ [ [ [ [ [ [ [ [ [ [ [ [ [ [ [ [ [ [ [ [ [ [ [ [ c u g f * & & ..2.e.e.2.[ [ [ [ { [ [ [ [ [ [ [ [ [ [ [ [ [ [ [ { { { [ [ [ [ [ { { { [ [ [ [ [ [ [ [ [ [ [ [ [ [ [ [ [ [ [ { { [ [ [ [ [ [ { [ [ [ [ [ [ [ [ [ [ [ [ [ [ [ [ [ [ [ [ [ [ [ [ [ [ [ [ [ [ _ [ [ [ [ [ [ [ [ [ [ [ [ [ [ ' _ _ [ [ [ [ [ [ [ [ [ ] [ [ ' ( c c l u g y * + & %.3.2.*.[ [ [ [ [ [ [ [ [ [ [ [ [ [ [ [ [ [ [ [ [ ( ( ( ( ( ( ( ( ( ( ( ( ( ( / ( ( ( ) ( ( ( ( ( ( ( ( ( ( ( ( ( ( ( ( ( ( ( ( ( ( ( ( ( ( ( ( ( ( ( ( ( ( ( l l v l l l v c l l c c l l v ( ( ( ( / ( / l c l l l l l c c c c l l l l l c l l g g k c / ......[ ..[ & o + & ' +.....$.O.+...( [ ( r.sXsX9X+.....O.O.O.| O.{ { { { ..{ o.} O.{ 4.9.r.",
"k *.i.i.r.[ [ [ [ [ [ [ [ [ [ [ [ [ [ [ [ +.O.@...( ( g f f f f f f g g g g g & . + o * c l l g g g q y y y y y y y y y y y y u u u u u f l g l c l l l l l l l l l l l l l l l l l l c l l c / / ( / ( / ( ( ( ( ( ( ( ( ( ( ( ( ( ( ( ( ( ( ( ( ( ( ( ( ( ( ( ( ( ( ( ( ( _ ( ( ( ( ( ( ( ( ( ( _ _ ( ( ( ( ( ( _ ( _ ( [ f & & & ..%.*.*.6.3.4.{ ( ) _ ( _ _ ( ( [ [ [ _ ( _ ) ( [ ` ] ] ] ` _ ` [ ] ] _ ] [ _ _ [ [ [ [ [ [ [ [ [ [ [ [ [ [ [ [ [ ) _ _ [ ' [ [ [ [ [ [ _ [ _ _ [ _ _ _ [ [ [ [ [ [ [ [ [ [ [ [ [ [ [ [ [ [ [ { [ { { [ { [ [ [ [ { [ [ [ [ [ [ [ [ [ [ [ [ [ [ [ [ [ [ [ [ l f g g * & & X.:.e.e.3.[ [ [ [ [ [ [ [ [ [ [ [ [ [ [ [ [ [ [ [ [ [ { [ [ [ [ [ [ [ { [ [ [ [ [ [ { [ [ [ [ [ [ [ [ [ [ [ [ { [ [ [ [ [ [ [ [ [ [ [ [ [ [ [ [ [ [ [ [ [ [ [ [ [ [ [ [ [ [ [ [ [ [ [ [ [ [ [ [ [ [ [ [ [ [ [ [ [ [ [ [ [ [ ' ) [ ' [ [ [ [ [ [ [ [ [ [ ' ( c v l u g y * + & %.3.2.*.[ [ [ [ [ [ [ [ [ [ [ [ [ [ [ [ [ [ [ [ [ ( ( ( ( ( ( ( ( ( ( ( ( ( ( ( ( ( ( ( ( ( ( ( ( ( ( ( ( ( ( ( ( ( ( ( ( ( ( ( ( ( ( ( ( ( ( ( ( ( ( ( / / / l v l l l l v c l l c l l l / _ ( ( ( ( ( l l c l l l c c l c c l l c c l l l l l l k k l c ..[ { ....[ $ o o & [ =.O.O.%.+.+.{ [ ) ( r.fXdXeX@.{ ..O.O.O.O.{ | { { O.O.O.O.{ { { 4.9.r.",
"k *.a.i.r.[ [ [ [ [ [ [ [ [ [ [ [ [ [ [ [ ;.*...` ' ( f f f f g g f f g g g g & . + o * c l l h k g y y y y y y y y y y y y y u u u f u f l g h c c l l l l l l l l l l l l l l l l l l l l l / / / ( ( ( ( ( ( ( ( ( ( ( ( ( ( ( ( ( ( ( ( ( ( ( ( ( ( ( / ( / ( ( ( ( ( ( ( ( ( ( ( _ ( ( ( ( ( ( ( ( _ _ ( ( _ ( ( ( ( [ g & & * ..*.%.=.6.6.4.{ ( ' [ _ ) [ [ [ _ _ [ ( [ _ _ _ ] ] ] [ _ _ [ ] ( ` ] ] [ [ ] _ [ [ [ [ [ [ [ [ [ [ [ [ [ [ [ [ [ _ _ _ [ _ ] _ [ [ [ [ [ [ [ _ _ ( _ _ [ [ [ [ _ [ [ [ [ [ [ [ [ [ [ [ [ [ [ [ [ [ [ [ { [ [ [ [ [ [ [ [ { [ [ [ [ [ [ [ [ [ [ [ [ [ [ [ [ c g g g = & & ..:.e.e.6.[ [ [ [ { [ [ [ [ [ [ [ [ [ [ [ [ [ [ [ [ [ [ [ [ [ { { [ [ [ { [ [ [ [ [ [ [ [ [ { [ [ [ [ [ [ [ [ [ [ [ [ [ [ [ [ [ [ [ [ [ [ [ [ [ [ [ [ [ [ [ [ [ [ [ [ [ [ [ [ [ [ [ [ [ [ [ [ [ [ [ [ [ _ [ ' _ _ _ [ [ [ ' ( ) ) ' _ [ ' [ ' ' ) [ ( [ ) / l c l u g y * + & %.6.2.*.[ [ [ [ [ [ [ [ [ [ [ [ [ [ [ [ [ [ [ _ _ ( ( ( ( ( ( ( ( ( ( ( ( ) ) ) ( ( ( ( ( ( ( ( ( ( ( ( ( ( ( ( ( ( ( ( ( ( ( ( ( ( ( ( ( ( ( ( ( ( ( ( ( ( / l c l l l / / c c l l l l l v ( ( / / / / c l c l l l c l l l l l l l l c l c v c l l l l c ..{ { ....[ $ o o $ ' :.%.+.@.%.+.[ [ ( ( r.fXdX0X+.{ { { O.O.| O.| O.O.O.{ O.O.| | { 4.9.e.",
"g *.a.i.e.[ [ [ [ [ [ [ [ [ [ [ [ [ [ ) { ;.:.O.( ( ( f f f f g g f f k g g g & o + o * c l l k k g y y y q y y y y y y y y y u u u u f g k g k l l l l l l l l l l l l l l l l l l l l l l l / / / ( ( ( ( ( ( ( ( ( ( ( ( ( ( ( ( ( ( ( ( ( ( ( ( ( ( ( / l l l ( ( ( _ _ ( ( ( ( _ _ ( ( ( ( ( _ ( ( ( ( ( ( _ ( ( ( ( [ f & & * ..*.%.=.6.3.4.{ ( [ ] [ [ [ _ [ _ ] [ [ [ [ _ _ ] ] ] [ [ [ [ [ [ [ ] [ [ [ [ [ [ _ [ ] _ _ _ _ [ [ [ [ [ ] [ [ [ [ [ _ _ ( ( ) _ ( _ [ [ [ [ [ ] [ _ ] [ ] ) [ [ [ [ [ [ [ [ [ [ [ [ [ [ [ [ [ [ [ [ [ [ [ [ [ [ { { { [ [ [ [ [ [ [ [ [ [ [ [ [ [ [ [ [ [ v g g g = & & ..2.e.e.3.[ [ [ [ [ [ [ [ [ [ [ { [ [ [ [ [ [ [ [ [ [ [ [ [ [ [ [ [ [ [ [ [ [ [ [ [ [ [ [ [ [ [ [ [ [ [ [ [ [ [ [ [ [ [ [ [ [ [ [ [ [ [ [ [ [ [ [ [ [ _ [ [ [ [ _ _ [ ' [ [ [ [ [ _ _ [ [ [ [ [ [ [ [ ) _ [ [ ' ' ) [ [ [ [ ' [ ` [ ) _ [ ' ) ' ) [ ' ' ) ( l v l u g y * + & %.3.2.*.[ [ [ [ [ [ [ [ [ [ [ [ ( ) ( ( ( ( ( ( ( ( ( ( ( ( ( ( ( ( ( ( ( ( ) ( ( ( ( ( ( ( ( ( ( ( ( ( / l c ( ( ( ( ( ( ( ( ( ( ( ( ( ( ( ( / ( / z ( / v / / / ( ( / / / c l l c l l l l l l l l l l l l c l l l l l l l l l c l c / l v v c c l l l v ..........[ & . o & ) O.O.O.{ +.O.( ( ( / t.fXdXeX+.{ { { ..o.o.O.O.O.O.O.O.O.O.| O.{ 4.9.r.",
"k *.a.i.e.[ [ [ ' [ [ [ [ [ [ [ [ [ [ ..) X.X.[ ( ) ) g f f u g f u u g k g g & . + o * c l l k k g q y q y q y y y y y y y y u u u u f g k g h l l l l l l l l l l l l l l l l l l l l l l l ( ( / / ( ( ( ( ( ( ( ( ( ( ( ( ( ( ( ( ( ( ( ( ( ( ( ( ( ( / l l l ( ( ( _ ( ( ( ( ( _ ( ( ( ( ( ( _ _ ( ) ) ( ) ( _ _ ( _ [ g & & & ..*.*.*.6.6.2.[ ( ( ( ( ( ( ( _ ( ( _ ] [ ( ) ` ] ] ( ( [ [ [ [ [ [ _ ] _ [ ] _ _ _ ( ( ( ( ( ( ] [ _ _ [ [ [ [ [ ( [ [ _ _ ( ( ( _ ( _ [ [ ] [ _ _ _ _ _ [ ] [ [ [ [ [ [ [ [ [ [ [ [ [ [ [ [ [ [ [ [ [ [ [ [ [ [ [ [ [ [ [ [ { { { [ [ [ [ [ [ [ [ [ [ [ [ c g g f * & & ..2.e.e.3.[ [ [ [ { [ [ [ [ [ [ [ [ [ [ [ [ [ [ [ [ [ { { [ [ [ [ [ [ { [ { [ [ [ [ [ [ [ [ [ [ [ [ [ [ [ [ [ [ [ [ [ [ [ [ [ [ [ [ [ [ [ [ [ [ _ [ ' _ [ [ _ [ [ [ [ [ [ [ [ [ [ [ [ [ [ ) _ _ _ [ [ ' ' [ [ [ [ [ [ [ [ [ [ [ [ [ _ [ [ [ ' ) ' [ _ [ ' ( l v l u g y * + & @.3.3.*.' [ [ [ [ [ [ [ [ [ [ [ ' ( ( ( ( ( ( ( ( ( ( ( ( ( ( ( ( ( ( ( ( ( ( ( ( ( ( ( ( ( ( ( ( ( ( ( l g l / ( ( ( ( ( ( ( ( ( ( ( ( ( / / / l l l l l l c ( ( / ( / ( ( v l l c l l l l l l l l l l l l / / / / c l l l l l c l l l / / / l l l l l v ..........[ & o . $ / [ ' [ +.=.$._ ( ( ( y.fXfXtX@.{ | } } O.{ O.{ | | { | O.O.O.O.{ 2.9.e.",
"k *.a.a.e.[ [ [ ' [ [ [ [ [ [ [ ..%.O.O.[ [ ' ' ) ) ' g f f u u y y y k l k g & . + o * c l l k k g y y y y y y y y y y y y y u f u f u g k g l l l l l l l l c l l / / / l l l l l l l l l l c l / ( ( ( ( ( / / ( ( ( ( ( ( ( ( ( ( ( ( ( ( ( ( ( ( / ( v l l l ( ( ( ( ( ( ( ( ( ( ( ( _ ( ( ( _ ( ( _ ( ( ) ( _ _ ] ) [ g & & & ..%.%.=.6.6.3.{ ( ( ( ( ( ( _ ( ( ( ( ( ( ( ( ( ( ( ( ( ( ) _ _ ] ] ( ( ( ( ( ( _ _ ( ( ( ( ( ( _ _ [ [ [ [ [ [ [ [ [ [ ( ) ( ( ( ( ( ( _ [ [ [ _ ) _ _ [ ] _ [ _ _ [ [ [ [ [ [ [ [ [ [ [ [ [ [ [ [ [ [ { [ [ [ [ [ [ [ { [ { { [ [ [ [ [ [ [ [ [ [ [ [ [ [ v f g g * & & X.2.w.e.3.' [ [ [ [ [ [ [ [ [ [ [ [ [ [ [ [ [ [ [ [ [ [ [ [ [ [ { { [ [ [ [ { [ [ [ [ [ [ [ [ [ [ [ [ [ [ [ [ [ [ [ [ [ [ [ [ [ [ [ [ [ [ [ [ [ [ [ ] _ [ [ [ ) ' [ _ ' ' [ [ [ [ [ _ [ [ [ [ ] _ _ [ [ [ [ [ [ [ ) [ [ [ _ _ [ _ [ [ [ _ [ [ ) [ [ [ [ ' ( l v l u g y & + & %.3.3.*.' [ [ [ [ [ [ [ [ [ ] [ [ ( ( ( ( ( ( ( ( ( ( ( ( ( ( ( ` ( ( ( ( ( ( ( ( ( ( ) ( ) ( ( ( ( ( ( l l l l ( ( ( ( ( ( ( ( ( ( ( ( ( / ( / l l l l l l l / / ( ( ( ( ( v c c l l l l l l l l l l c l / / ( / / ( / l l l l l l l l c l l l l l l l v ..........{ & . . + v [ ) [ <.4.%._ ( [ ( i.fXhXuX%.{ O.} | o.o.o.O.O.O.{ } O.........4.9.9.",
"k %.i.a.e.[ ' [ [ [ [ [ [ [ ' ) { :.;.*...[ ) ' [ ) ( k f u g i y y y f k g g & . + o * l l k g k g y y y y q y y y y y y y y u u u f u f l g l l l l l l l l c / / ( v ( v l l l l c l l l l l l c ( ( ( ( ( ( ( ( ( ( ( ( ( ( ( ( ( ( ( ( ( ( ( / ( ( ( / l l l / ( ( ( ( ( ( ( ( ( ( ( ( ( ( ( ( ( ( _ ( ( ( ) ( ( _ ) [ g & & & ..%.%.=.6.3.2.{ ( ( ( ( ( ( ( ( ( ( _ _ _ ] ( ( _ ( ( ( ( ( ( _ _ ( _ ( ( _ ( ( ( ( [ ] ] [ ( ( [ _ [ [ [ [ [ [ [ [ [ ( [ ` ( ( ) ( ( _ _ _ _ ] ] [ [ _ [ _ ( _ ( ] [ [ [ [ [ [ [ [ [ [ [ [ [ [ [ [ [ [ [ [ [ [ [ [ [ [ [ [ [ [ [ [ [ [ [ [ [ [ [ [ [ [ [ [ / g g g = & & X.2.e.w.2.[ [ [ [ [ [ [ [ [ [ [ [ [ [ [ [ { [ [ [ [ [ [ [ [ [ [ [ [ { [ [ [ [ [ [ [ [ [ [ [ [ [ [ [ [ [ [ [ [ [ [ [ [ [ [ [ [ [ [ [ [ [ [ [ [ [ [ [ [ [ [ [ [ [ [ [ [ ' _ ' [ [ [ [ [ [ [ [ [ ' ' [ [ _ [ ' ' [ [ ) ( ' ( [ [ ) [ _ [ ) _ _ ' ` ` _ [ ' ' ( c c l u g y * + & +.6.3.*.' [ [ [ [ [ [ [ [ [ [ [ ( ( ( ( ( ( ( ( ( ( ) ( ( ( ( ( ( ( ( ( ) ( ( ( ) ( ) ( ) ( ( ( ( ( ( ( l l l l ( ( ( ( ( ( ( ( ( ( ( ( / / / / l l l l l l l l ( ( ( ( ( ( c l l l l l c l c l l l l ( / / / ) ( v ( / l v c l l l l l l l l l l l l l v ....[ ....[ & o o + c [ ) [ O.%...( [ [ _ a.fXhXuX@.{ O.| | O...O.O.O.{ } | { { { o.{ 2.9.9.",
"h %.i.i.e.' ' [ [ [ [ [ [ ' ' ( O.2.2.%.[ [ [ ) ` ' ' j g u u u u u u u u y y & . + o * c l k k k g y y y y y y y y y y y y y u u u u u g k g h c l l l l c l l v / / ( ( c l l l l l l l l l l l v / / ( ( ( ( ( ( ( ( ( ( ( ( ( ( ( ( ( ( / / v c ( ( ( ( c l l / ( ( ( ( ( ( ( ( ( ( ( ( ( _ ( ( _ _ _ ( ) ( ( ( _ ( ( [ g & & & ..%.%.*.6.3.3.{ ( ( ( ( ( ( ( ( ( ( ( _ ] [ _ ( ( ( ( _ _ ( ] ( _ ] ] _ _ _ ( ( ( ( ( ( ( ] _ ( _ _ _ [ [ [ [ [ _ ( _ ) ] ( ( ( ( ( ( ( _ ] ] ( ( ] ] _ [ _ _ _ ( _ [ [ [ [ [ _ [ [ [ [ [ [ [ [ [ [ [ [ [ [ [ [ [ [ [ [ [ [ [ [ [ [ [ [ [ [ [ [ [ [ [ [ [ [ / g g u = & & ..2.w.e.2.' [ [ [ [ [ [ [ [ [ [ ( ) ) ( ) ' ) ( ) _ [ [ { { [ ( [ [ [ [ [ [ [ [ [ [ [ [ [ [ [ [ [ [ [ [ [ [ [ [ [ [ [ [ [ [ [ [ [ [ [ [ [ [ [ [ [ [ [ [ [ [ [ [ [ [ ( [ [ _ _ [ [ ' _ [ [ [ [ _ [ [ [ _ [ _ _ [ ' [ [ _ _ [ [ [ [ ) ' ' [ [ ' ' [ ' [ [ ' ( c c l u g y * + & %.3.3.*.' [ [ [ [ [ ' _ [ ] [ ' ( ( ( ( ) ( ( ( ( ( ( ) ( ( ( ( ( ( ( ( ( ( ( ( ( ( ( ( ( ( ( ( ( ( ( ( c h l / / / / ( ( ( ( ( ( ( ( ( c l l c l l l l c l l l v / / ( / v c l l l l l l l l l l / / ) / / ( ( / / ( v l c c l l l l l l l l l l l l l c ....[ ......& o o + v ' ) [ ( [ { ) ) ) ( a.hXkXyX+.{ } O.{ | O.O.O.O.{ { { { { ..O...1.9.9.",
"k %.i.i.r.[ [ ' [ [ [ [ [ [ [ O.:.%.{ [ [ ' ) ' ) ) ' k g k f u u f f u y y y & . + o * c l l g k g y y y y y y y y y y y y y u u u u u f g g h c l l l l l l c / / / ( / c l l l l l l l l l l l c / ( ( ( ( ( ( ( ( ( ( ( ( ( ( ( ( ( ( ( ( ( c l / / / / l l c / ( ( / ( ( _ _ ( ( ( ( ( ( ( ( ( ( ) ( ( _ ( ( ( ( _ ( [ f & $ & ..%.%.*.6.3.4.{ ( ( ( ( ( ( _ ] ( _ ` ( ] ( ` ( ) _ ` ` _ _ ) ( ( ( _ ) ] _ ( ( ( ( ( ( ( ( ( ( ( _ _ [ [ ] _ _ ( ( _ ( ( ( ( _ ( ( _ ( _ ( _ ( ( ] ' [ _ ] [ _ ( [ _ _ [ [ _ _ [ _ [ [ [ [ [ [ [ [ [ [ [ [ [ [ [ [ [ [ [ [ [ [ [ [ [ [ [ [ [ [ [ [ [ [ [ [ / f g g * & & X.2.e.e.2.[ [ [ [ [ [ [ [ [ [ [ ) ( ( / ( ( ( ( ) ( [ [ [ [ [ [ [ [ [ [ [ [ [ [ [ [ [ [ [ [ [ [ [ [ [ [ [ [ [ [ [ [ [ [ [ [ [ [ [ [ [ [ [ [ [ [ [ [ [ [ _ [ _ [ _ [ [ _ [ [ _ ] ' [ ) ) _ [ [ [ ) [ [ _ [ _ [ [ [ [ [ [ [ [ [ [ ` ' ' [ [ _ [ [ ' ' ' [ ' ( l c l u g y * + & +.3.2.*.[ [ ' _ [ ) ( ( ( ( ( ( ( ( ( ( ( ( ( ( ( ( ( ( ( ( ( ( ( ( ( ( ( ( ( ( ( ( ( ( ( ( ( ( ( ( ( ( ( / / v l l k l ( ( ( ( ( ( ( / l l l l l l l l ( ( / c v v / / l l l l l l l l l l l l c ) / ) ( ( ( / ( v l l l l l l l l l l l l l l l l l l c ..{ { ......+ + o + v ' ' ' _ [ { [ ' ' ( s.fXkXsX#.{ ....{ O.O.O...{ { { o.o.{ { o...2.8.9.",
"k *.i.i.e.[ _ [ [ [ [ ' ) ( O.O.*.%.' ) ) ' ' ' ) ( ) l l c l c ( v u u y y y & . + o * c l l k k g y y y y y y y y y y y y y u u u f u f g g g c l l l l l l c / c c v v c l l l l l l l l l l l l / ( ( ( ( ( ( ( ( ( ( ( ( ( ( ( ( ( ( ( ( ( c l l ( / / l l c / ^ / ( ( ( ( ( ( ( ( ( ( ( ( ( ( ( ( ( ( ( ( ( ( ( ( ( [ f & & & ..%.%.*.6.3.4.{ ( ( ( ` ( ( ( ] _ ( ] ` ] ( ( ( _ _ _ ] _ ( ( ( ( ) ( ( ( _ _ ( ( ( ( ( ( ( ( ( ( _ _ [ _ _ [ _ ( ( ( ( ( ( ( _ ( ( _ _ [ ( ( ] ( ) ' [ ( _ ( _ [ [ [ [ [ [ [ [ [ [ [ [ [ [ [ [ [ [ [ [ [ [ [ [ [ [ [ [ [ [ [ [ [ [ [ [ [ [ [ [ [ [ [ [ [ [ / g g g = & & X.2.e.e.2.[ [ [ [ [ [ [ [ [ ' [ / ( ( / ( ( ( ( ( ( [ [ [ [ [ [ [ [ [ [ [ [ [ [ [ [ [ [ [ [ { [ [ [ [ [ [ [ [ [ [ [ [ [ [ [ [ ' [ [ [ [ [ [ [ [ [ ] [ [ [ [ [ [ [ _ [ [ [ [ _ ( [ ) ) ' ) _ [ [ [ [ ' [ ( [ [ [ [ [ [ [ [ [ [ [ ) ' ' [ [ _ _ [ ' ' ' [ ' ( l c l u g y * + $ +.3.2.%.[ [ [ [ [ _ ( ( ( ( ( _ ( ( ( ( ( ( ( ( ( ( ( ( ( ( ( ( ( ( ( ( ( ( ( ( ( ( ( ( ( ( ( ( ( ( ( ( ( ( ( / l c l l ( ( ( ( ( ( ( / l c c c l l l l / v l / v c ( / c l l l l l l l l l l l l v / ( / c ( ` ( l l l l l l l l l l l l l l l l l l l c ..{ ........& o + + / [ ) ) [ [ O.{ [ [ [ s.gXhXrX#.{ ..O.{ { { { { { { { ..o.O...} { 2.8.9.",
"g %.i.i.r.[ [ [ [ [ [ ' { [ %.+.[ ..[ ' ( ' ) ' ' ) ( k c c l / ) ( u u u y y & . + o * c l l h g f q y y y y y y y y y y y y u u u u u f h g l c l l l l l l c / v / v c c c l l l l l l l c v l c ( ( / ( ( ( ( ( ( ( ( ( ( ( ( ( ( ( ( ( ( / v c / / / / l l l / c / ( ( ( ( ( ( ( ( ( ( _ ( _ ( ( ( ) ( ( ( ( ( ( ( ( [ f & & & ..%.%.*.6.3.4.{ ( _ _ ( ( ( ( ] ] _ ( ( ] ( _ ( _ _ ( _ ( ( _ ] ( ( ( ( ( ( ( ( ( ( ( ( ( ( ( ( ( ( ( _ _ [ [ _ ( ( ( ( ( ( ( ( _ _ ( ( ] ] ' _ _ _ ` ] _ ] ( [ _ _ [ [ [ [ [ [ [ [ [ [ [ [ [ [ [ [ [ [ [ [ [ [ [ [ [ [ { [ [ [ [ [ [ [ [ [ [ [ [ [ [ [ [ [ / g g g = & & ..2.e.e.2.' [ [ [ [ [ [ [ _ [ [ ( ( ( ( ( ( ( ( ( ( [ [ [ [ [ [ [ [ [ [ [ [ [ [ [ [ [ [ [ [ [ [ [ [ [ [ [ [ [ [ [ [ [ [ [ [ [ [ [ [ [ [ [ [ [ ' _ [ [ [ [ [ [ [ _ [ [ ` ( _ [ [ [ _ ( ) ' [ [ _ [ [ [ [ [ ( ' [ [ _ [ [ [ [ ] ( ) ( ` ] ' ' ( ( ( ' ' [ [ ( l c l u g y * + & +.3.2.*.' [ [ _ _ _ [ ( ( ( ( _ ( ( ( ( ( ( ( ( ( ( ( ( ( ( ( ( ( ( ( ( ( _ ( ( ( ( ( ( ( ( ( ( ( ( ( ( ( ( ( / l l l / ( ( ( ( ( ( ( / l l c c l l l l / / l c c / / v v l l l l l l l l l l l l l l l l l c ( ( l l l l l l l l l l l l l l l l l l l c ....{ ....{ $ o o + v ' ) ' ' ' ' ( v ( c 8.uXsX9X+.{ { } | ..{ | | O.{ ..{ ....{ } { 2.9.e.",
"g %.i.i.e.[ [ [ [ [ [ [ O.O.%.;...[ ' ( ' ) ) ' ) ( ) l c c c ( ) ( f u u y u & . + o * c l l g k g y y y y y y y y y y y y y u u u f u f g g l c l l l l l l c l l c c l l l l c l l l l l l l v / / ( ( ( ( ( ( ( ( ( ( ( ( ( ( ( ( ( ( ( ( ( / ( ( / / / l l l / / / ( ( ( ( ( ( ( ( ( ( ( _ _ ( ( ( ( ( ( ( ( _ ( ) ( [ f & & & ..@.%.*.6.3.4.{ ( ( ` ( ( ( _ ( _ ( ( ( ( ( ( _ _ ( _ ( ( ` ] ] ( ( ( ( _ _ _ _ _ _ ( ( ( ( ( ( ( ( ( _ [ [ [ _ _ ( ( ` ( _ _ ( ] _ _ ( _ ] ( _ _ ( _ ( ] ] ( _ ( ( ( _ _ _ ( ] ] _ _ _ [ ] ( _ ( _ [ [ [ [ [ [ [ [ [ [ [ [ [ [ [ [ [ [ [ [ [ [ [ [ [ [ [ [ / g k g * & & ..2.e.e.2.[ [ [ [ [ [ _ [ _ _ [ ( ( ( ( ( ( ( ( ( ( ( ) ' ( ( ) [ [ [ [ [ [ ' ' [ [ [ [ [ [ [ [ [ [ [ [ [ [ [ [ [ [ [ [ [ [ [ [ [ [ [ [ _ [ [ _ [ [ [ [ [ _ [ [ [ [ ` ` [ _ _ [ [ [ _ ( ( [ [ [ [ [ [ [ ] ' ' ) [ [ [ ) ( [ _ ( ) ' [ [ [ ' ( ( ( ` ' [ ' ( l c l u g q * + & +.6.2.%.( ( ( ( ( ( ( ( ( ( ( ( ( ( ( ( ( ( ( ( ( ( ( ( ( ( ( ( ) ( ( ( ( ( ( ( ( ( ( ( ( ( ( ( ( ( ( ( ( ( ( ( l l l / ( ( ( ( ( ( ( / l l l l l l l l c l l l l l l c v c c c l l l l l l l l l l l l l l l / / l c l l l l l l l l l l l l l l l l l c ....{ { ..[ $ o o + v ( ' [ [ [ ' ' ( / / e.rXyX9X+.{ { | O...o.O.| } ....{ { ....} { 2.8.r.",
"g %.i.i.e.' [ ' [ ) ) O.=.O.{ ..[ [ ' ' ) ) ) ` ( ( ) c k k c ) ' ( u u u u u & . + o * c l l g g f q y y y y q y y y y y y y u u u u u g k g h l l l l l l l l l l l l l l l l l l l l l / c / ( v ( ( ( ( ( ( ( ( ( ( ( ( ( ( ( ( ( ( ( ( ( ( ( ( / / ( / l l c v z ( ( ( ( ( ( ( ( ( ( ( ( ( ( ( ( ( ( ( ( ( ( ( _ _ ) [ g & & & ..@.%.*.6.3.4.{ ( ( ( ` ( ( ( ( ( ( _ _ _ ( ( _ ] ( ( ( _ _ ] _ _ _ ( ( ( ( ( ( ( ( ( ( ( _ ( ( ( ( ( ( [ [ [ [ _ _ ( ( ( ( ( ( _ ( _ ( _ [ _ ( ( ( ( ( _ _ ] _ ( ] ( ( ( ( ( ( ( ( ( ( ( ( ( ( ( ( ( ( [ [ _ _ [ [ [ [ [ [ [ [ [ [ [ [ [ [ [ [ [ [ [ [ [ { / g g g * & & ..2.e.e.2.' [ [ [ [ [ [ [ [ _ [ ) ( ( ( ( ( ( ( ( ( ( ( ( ( ( ( [ [ [ [ ( / ( / ( [ [ [ [ [ [ [ [ [ [ [ [ [ [ [ [ [ [ [ [ ' [ [ [ [ [ [ [ [ [ [ [ [ [ [ _ [ ] [ [ [ _ [ [ [ ' [ [ [ [ ' ' [ [ [ [ ' [ ) [ ) ' [ [ [ ) ) [ _ [ [ [ [ [ [ [ [ [ ' [ ' ' [ ' / l c l u g y * + $ +.6.2.%.( ( ( ( ( ( ( ( ( ( ( ( ( ( ( _ _ ( ( ( ( ( ( ( ( ( ( ( _ _ ( ( ( ( ( _ ( ( ( ( ( ( ( ( ( ( ( ( ( ( ( ( / / c / ( ( ( ( ( ( ( / l l l l l l l l l l l l l l l l l c l c l l l l l l l l l l l l l l l ( ( c c l l v c l l l l l l l l l l l l l c ..[ [ ....{ + . o + v ' ' [ [ [ [ [ ( / / r.rXrX9X+.{ } { } } { O.{ { { O.{ { o.{ { { 2.9.r.",
"g @.t.i.e.' ' ) [ { { @.6.=.[ ' ' ' [ [ ' ) ' [ ' ` ( l g g l ( ' ) u u u u u & . + o * c l l g k g y y y y y y y y y y y y y u u u u u f k g k l l l l l l l l l l l l l l l c l l l v / ( ( / ( ( / / / ( / ( ( ( ( ( ( ( ( ( ( ( ( ( ( ( ( ( ( ( ( ( / c l l v l l ( ( ( ( ( ( ( ( ( ( ( ( ( ( ( ( ( ( ( ( ( _ ( ( ( ( [ f * & & ..@.#.*.6.3.3.{ ( ( ( ( ( _ ( ( ( ( ( ( _ _ _ ( _ ) ( ( ] ( _ _ ( _ ( ( _ ( _ ( ( ( ( ( ( ( ( ( ( ( ( ( _ [ [ [ _ ( ( ( ( ( ( ( ( ( ( ( _ [ ] ( ( _ ( ( _ _ ] ] _ _ ( ( ( ( ( ( ( ( ( ( ( ` ( ( ( ( _ [ [ [ _ ] [ [ [ [ [ [ [ [ [ [ [ [ [ [ [ [ [ [ [ [ [ [ v g g g = & & X.2.e.e.2.' [ [ [ [ [ [ [ [ [ ) ' ( ( ( ( ( ( ( ( ( ( ( ( ( ( / [ { [ [ _ ( ( ( ( [ [ [ ' [ [ [ [ [ [ [ [ [ [ [ [ [ [ [ [ [ [ [ [ [ [ [ [ [ [ [ [ [ [ [ [ [ [ _ [ [ [ [ [ [ [ [ [ [ [ ' [ [ [ ' ) [ [ ` [ [ [ [ ' [ [ _ [ [ ' [ [ [ [ [ [ [ [ [ ' ' ' ' ' / l c l u g y * + $ +.3.2.%.( ( ( ( ( ( ( ( ( ( ( ( ( ( ) _ _ ( ( ( ( ( ( ( ( ( ( ( _ _ ( ( ( ( ( ( ( ( ( ( ( ( ( ( ( ( ( ( ( ( ( ( ` ( / / ( ( ( ( ( ( ( v l c l l l l l l l l l l l l l l l / / ( c l l l l l l c l l l l l l l v ( ( ( / / v c l l l l l l l l l l l l l v ..[ [ { ....& o o + v ' ' ' ' ' [ [ ( / / r.rXrX9X+.{ { { O.} o.{ ....{ { { ..o.O.o...4.9.r.",
"g @.t.i.e.' ' [ [ ;.2.@.*.O.' [ ' [ ' ' ' ' ' ' ) ( ( l g g l ) ' ) u u u f f & . + o * c l l g g f y y y y y y y y y y y y y u f u u u f k k k c l l l l c l l l l l l l l l l l l l ( ( ( / ( / / / v ( ( ( ( ( ( ( ( ( ( ( ( ( ( ( ( ( ( ( ( ( ( ( ( / l c l / / / / / ( ( ( ( ( ( ( ( ( ( _ _ ( ( ( ( ( ( ( ( _ ( ( ( [ f & & & ..%.%.*.6.2.4.{ ( ( ( ` ( ( ( ( ( ( ( _ _ ( ( ( ( _ ( ( ` ( ( ( ( ( ( ( ( ( ( ( _ ( ( ( ( ( ( ( ( ( ( ( ( _ ] _ _ ( _ ( ( ( ( ( ( ( _ _ [ [ ( ( ( ( ( ( ( ( _ _ ] _ ] ] _ _ ` ( ] ( ] ( ( ( ( ( ( ( ] [ ] [ [ [ [ [ [ [ [ [ [ [ [ [ [ [ _ _ [ [ [ [ [ _ [ [ / g g g = & & ..2.e.r.2.[ [ [ _ [ [ [ [ ' ' ( ( ( ) ( ( ( ( ( ( ( ( ( ( ( ( ) ( ' ' [ [ ( ( ( ( [ ' [ [ ' [ [ [ [ [ [ [ [ [ [ [ [ [ [ [ ` [ [ [ [ [ ' [ [ [ _ [ [ [ [ [ [ [ ' _ [ ) [ [ ) ` [ [ [ [ [ [ ' ) ) ' ] ' ) ) [ [ [ [ _ ' _ ) ' ` [ [ ] ' ' ) ( ' ' ' ( ( ' ' / l c l u g y * + $ @.3.2.*./ ( ( ( ( ( ( ( ( ( ( ( ( ( ( ( ( ( ( _ ( ( ( ( ( ( ( ( ( ( ( ( ( ( ( ( ( ( ( ( ( ( ( ( ( ( ( ( ( ( ( ( ( ( / ( ( ( / / ( ( ( v l / l l l l l l l l l l l l l l c / v ( / l l l l l l l l l l l l l l l v v / v / l c / v v c l l l l l l l l l v ..{ [ ......+ o o + / ' ' ' ' [ [ [ ( / ( r.rXrX9X+.{ { { { } { ....{ { ....O...{ } { 4.9.r.",
"g %.i.i.e.' ) { O.+.=.O.) ' ' ` ' [ ' ' ' ' ' ) ) ( ' c g g l ) ' ( u u u f f & . + o 3 c l l g g f y y y y y y y y y q y y y u f u u u g k k k l l l l l l l l l l l l l l c l c l l / ( ( ) ( / ( / / ( ( ( ( ( ( ( ( ( ( ( ( ( ( ( ( ( ( / / ( ( / / / / ( / l v c / / ( ( ( ( ( ( ( ( ( ( ( ( ( ( ( ( ( ( ( ( ( ( ( ( [ f * & & ..$.%.*.6.3.2.{ ( ( ( ( ( ( ( ( ( ( ( ( ( ( ( ( ( ( ( ( ( ( ( ( ( ( ( ( ( ( ( ( ( ( ( _ ( ( ( ( _ ( ( ( ( _ [ ) ( ( [ [ _ ( ( ( ( _ _ ( [ [ ( _ ( ( ( ( ( ( ( ( ( ( ( _ ( ( ( ( ( ( _ ( ( ( ( ( ( ( _ _ ] [ [ ] _ [ [ _ _ _ [ _ [ [ [ [ ) [ [ [ [ [ [ [ _ [ v g g g = & & ..4.w.e.2.[ [ [ ( _ _ [ [ ) ' ) ( ( ( ( ( ( ( ( ( ( ( ( ( ( ( ( ( [ [ [ ( ( ( ( ` [ [ [ ( / ( [ [ [ [ [ [ [ [ [ [ [ [ ] [ ` [ [ [ [ [ [ _ [ [ [ [ [ [ [ [ [ ( ' ' [ [ [ [ [ [ [ [ [ ' [ ' ` ' ( ( [ ( ( ( _ ] [ [ [ _ ) ( ( ( _ ` ] [ ' ` ` ' ` ` ) [ [ ' ( l c l u g q * + + +.2.2.%./ ( ( ( ( ( ( ( ( ( ( ( ( ( ( ( ( ( ( ( ( ( ( ( ( ( ( ( ( ( ( ( ( ( ( ( ( ( ( ( ( / / / ( ( ( ( ( ( ( / ( / / / l l l ( ( ( ( ( / ( ( l l c l l l l l l l l l l l / ( ( / l l l l l l l l l l l l l l l l l c l / / / v l / c l l l l l l l l l v { [ { ......$ o o + / ' ) ' ) [ [ [ ( / / r.eXrX8X@.{ | { { O.........{ { { { O.....{ 4.9.r.",
"g %.i.i.e.[ ) [ +.2.=.[ ) ' ' ' ' ' ' ' ' ' ' ' ( ) ' v c c c ) ' ( u u u u f & . + o = c l l g k g y y y y y y y y y y u y y u u u f u g l g k l l l l l l l l l l l l c c l c l l l / ( / ( ( ( ( ( ( ( ( ( ( ( ( ( ( ( ( ( ( / ( ( ( ( ( / / ( ( / / ( ( ( c c l h / / ( ( ( ( ( ( ( ( ( ( ( ( ( ( ( ( ( ( ( ( ( ( ( ( [ f & & & ..%.%.*.6.2.2.{ / ( ( ( ( ( ( ( ( ( ( ( ` ( ( ( ( ( _ ( ( _ _ _ ( ( ( _ _ _ _ _ _ ( ( _ _ ( ( _ _ ( ( ( ( _ [ _ _ _ [ ] ( ( ( ( ( ( ( _ [ [ ( _ _ _ _ ] _ ] ( ( _ ( ( ( ( ( ( ` ( ( _ _ ( ( ( ( ( ( [ ] _ ] [ [ [ [ ] [ ] ( ) ) _ [ [ ) _ [ [ [ [ [ [ _ _ [ c f g g = $ & [ 2.e.e.4._ [ ( ) _ ( _ ( ( ` ( ( ( ( ( ( ( ( ( ( ( ( ( ( ( ( ( ( ( ( ( ( ( ( ( ( ' ' ( / ( ( ( ' ' [ ' [ ' ) [ [ ( [ ( ( ( [ ' [ [ [ [ _ [ [ [ [ [ [ ` _ ( [ [ [ _ ( ) ' [ [ [ [ ' ( [ ` [ [ [ [ [ [ ` ( _ ] ) ( [ [ [ [ ) [ _ ' ` [ [ [ ' ' ) ( ' ' [ ' ( l c l u g y * + + O.3.3.*.( ( ( ( ( ( ( ( ( ( ( ( ( ( ( ( ( ( ( ( ( ( ( ( ( ( ( ( ( ( ( ( ( ( ( ( ( ( ( ( ( l l l c ( ( ( ( ( ( ( ( z / v l l l ( ( / ( ( ( / ( v l l l l l l l l l l l l c v / / c l l l l l l l l l l l l l l l l l c v ( / v ( v v / l l l l l l l l l l ..[ ........$ o o + ( ' ' ' ' ' ' [ ( / ( t.rXeX4XO.{ { { } { { { ..o.{ { { { ......{ 2.9.r.",
"g %.i.i.t.*.*.O.O.*.$.[ [ [ ' [ ' ) ' ' ' ' ( ) ( ) ( l v c c ) ) / u f u u f & . + o = c l l g g g y y y y y y f f u u u u y q y y u u g l g k l l l l l l l l l l l l l l l l l l l v ( ( ( ( ( ( / ( ( ( ( ( ( ( ( ( ( ( ( ( ( ( ( ( ( ( / l l / / / ( ( / / ( / l ( / ( ( ( ( ( ( ( ( ( ( ( ( ( _ ( ( ( ( ( ( ( ( ( ( [ f & & & ..%.%.*.6.2.4.{ / ( ( ( ( ( ( ( ( ` ` ( ( ` ( ( ` _ ( ( ] _ _ ( ( ( ( _ ( ( _ ( ( ( ( ( ( ( ( ( ( ( ( ( ( ( ( ( ( ( ( ( ( ( ( ( _ ( _ _ [ [ ( ( ( ] ] _ [ ] ( ( ( ] ` ( ( ( ( ( ( ` _ _ _ _ ( ( ( ( ` [ [ _ [ ` ( ( ( ( [ ( ) ) _ ( ) ( ( [ [ [ [ [ [ [ [ _ c g g g = $ & [ 2.e.r.2.' [ ( ( ( ( ( ( ( ' ( ( ( ( ( ( ( ( ( ( ( ( ( ( ( ( ( ( ( ( ( ( ( ( ( ' ' ' ( / ( / ( [ ' ' [ [ ' [ [ [ [ ' ( / ( [ [ [ [ [ [ [ [ [ _ [ [ [ _ ] ' [ _ [ [ ( ) [ _ [ _ ' ' [ ] ' [ [ [ [ [ [ [ [ ` ) ) _ [ [ [ [ ( ` [ ' [ [ [ ) ' [ _ [ ' [ [ ' ( l c l u g y * + @ +.3.3.*.( ( ( ( ( ( ( ( ( ( ( ( ( ( ( ( ( ( ( ( ( ( ( ( ( ( ( ( ( ( ( ( ( ( ( ( ( ( ( ( ^ l l l l ( ( ( ( ( ( ( ( ( / l l c l ( ( ( ( / / / ( l l l l l l l l l l l c l l l l l l l l l l l l l l l l l l l l l l l v v / / c v l v ( c l l l l l l l l v ..[ [ ....[ $ o o + / ' ' ' ) ' [ [ ( / ( t.rXrX7XO.[ { { { { { { ....{ } { o.O...{ { 4.9.r.",
"g %.i.i.t.=.3.:.o.[ ' [ ' [ ' ' ' ( ' ) ' ) ' ( ( ) / l / / ( ( ' ( u u u u f & . + o = c l l g k f y y y y y y u f u u u f y y q y u f g k g k l l l l l l l l l l l l l l l l c l l l v / / / / ( / ( ( ( ( ( ( ( ( ( ( ( ( ( ( ( ( ( ( / / l c l z / / / / / ( ( v / / ( ( ( ( ( ( ( ( ( ( ( ( ( ( ( ( ( ( ( ( ( ( ( ( [ f & & & ..%.%.*.6.2.2.{ ( ( ( ( ( ( ( ( ( ( ( ( ( ( ( ( ` ( ( ( ( _ ( ( ( ( ( ( ( ( ( ( ( ( ( ( ( ( ( ( ( ( ( ( ( ( ( ( ( ( ( ( ( ( ( ( ( ( ( _ ` ` ( ( _ ( ( ( ( ` ( ( ( ( ( _ ] _ ( ( ` ( ` ( ( _ ( ( ( ` ` ] ` [ _ _ _ ( ` _ [ [ _ ( ( _ _ _ _ [ [ [ [ [ [ [ [ [ v g g g * $ & [ 2.e.r.2.) [ ( ( ( [ ( ( ' [ ( ( ( ( ( ( ( ( / ( ( ( ( ( ( ( ( ( ( ( ( ( ( ( ( ( ( ( ( ( / / [ [ ' [ [ [ [ [ [ [ ( ( ( ( ( [ [ [ [ [ [ [ [ [ [ ' [ _ [ ' [ [ [ [ [ ' _ _ [ [ [ ' ( _ [ ] [ ( ' ' ] _ ] _ ( [ [ ' [ ' [ [ ] ' ' ' ' ` ' ' [ [ ' ' ( _ [ ' ( l c l u g y * o + O.3.3.*.( ( ( ( ( ( ( ( ( ( ( ( ( ( ( ( ( ( ( ( ( ( ( ( ( ( ( ( ( ( ( ( ( ( ( ( ( ( ( ( / l k l v ( ( ` ( ( ( ( ( ( / l l l l / ( ( ( ( ( ( / l l l l l l l l l l l l l l l l l l l l l l l l l l l l l l l l l l c ( v v / v l l l l l l l l l l l l l v ....[ ......+ o o + / ' ' ' ' ' ' [ ( / ( r.rXeX4XO.[ { { { { { { { { { { { } { ....{ 2.9.r.",
"j +.i.i.i.*.;.:.O.' ) ' ' [ ' ' ' ) ( ' ) ) ( ( ( ) ( k k l l l l k u u u u f & . + o = c l l g k f y y y y y q y u u y u u y y q u u u f k g k l l l l l l l l l l l l l l l l l l l l l l l l v ( / / ( ( ( ( ( ( ( ( ( ( ( ( ( ( ( ( ( ( / l v l l / / / / / / / / ( / ( ( ( ( ( ( ( ( ( ( ( ( ( ( ( ( ( ( ( ( ( ( ( ( [ f & & & ..$.%.*.6.2.2.{ ( ( ( ( ( ( ( ( ( ( ( ( ( ( ( ( ` ( ` _ _ ( ( ( ( ( ( ( ( ( ( ( _ ( ( ( ( ( ( _ ( ( ( ( ( ( ( ( ( ( ( ( ( ( ( ( ( ( ( ] ] ( _ ( ( ( ( ( ( ( ( ( ( ( ] ( ( ` ( ( ` ( ( ( ( ( ( ( ( ] ] _ ] [ _ [ [ ( ' ) _ _ _ ( _ _ [ _ _ [ [ [ [ [ [ [ [ [ / g g g * $ & [ 2.w.r.2.' [ ' _ ( [ ' ` ( ( ( ( ( ( ( ( ( ( ( ( ( ( ( ( ( ( ( ( ( ( ( ( ( ( / ( ( ( ( [ ' ] ] ' ' ' [ [ [ [ [ ] ( ( ` ( ( [ [ [ [ [ [ [ [ [ _ ' [ [ [ ( _ [ [ [ ( ` _ _ [ ( ( ` _ ( [ [ [ [ ( ( [ ' [ ( [ [ ' ' [ ' ' ' ' [ ) ' ' ) ' ) ' ' ' ' ) ) [ ' ( l v l u g y & + + +.3.2.%./ / ( ( ( ( ( ( ( ( ( ( ( ( ( ( ( ( ( ( ( ( ( ( ( ( ( ( ( ( ( ( ( ( ( ( ( ( ( ( / l l l l / / ( / l v ( ( / ( / ( / / ( l l c l / / c l l l l l l l l l l l l l l l l l l l l l l l l l l l l l l l l l l l v / ( ( v l l l l l l l l l l l l l c ....[ { ....$ o o + / ' ' ' ) ' ' [ ( / ( r.eX0X3XO.[ ....{ { { { { { { { { } ..{ ..{ 2.8.r.",
"g %.i.i.i.*.*.O.' [ ' ) ' ) ' ' ' ' ' ' ( ( ( ( ( ( ( g f f f f u u u u u u f & . o + 3 c k k g k f y y y y q y y u f u f u q q y u y u f g g k l l l l l l l l l l k l l l l l l l l l l l l l c v c / ( ( / ( ( ( ( ( ( ( ( ( ( ( ( / ( ( / l l l l / ( / / / / ( / ( ( ( ( ( ( ( ( ( ( ( ( ( ( _ ( ( ( ( ( ( ( ( ( ( _ [ u & & & ..%.%.*.3.2.2.{ ( ( ( ( ( ( ( ` ` ( ( ( ( ( ( ( ( ` ( ( ( ( ( _ _ ( ( ( ( ( ( _ _ ( ( ( ( ( _ _ _ _ ( ( ( _ ( ( ( ( ( ( ( ( ( ( ( ( ( ( ( ( ( ( ( ( _ _ ( _ ( ( ( ` _ ( ` ( _ ` ] ( ( ( _ ( [ ( ( ] [ ] ( [ [ [ ) [ ( _ _ _ ] _ _ ] _ ( ) ] [ [ [ [ [ [ _ [ v g g g * & & ..2.w.e.2.) ) ) [ [ ( ( ` ( ( ( ( ( ( ( ( ( ( ( ( ( ( ( ( ( ( ( ( ( ( ( ( ( ( ( ( ( ( ( [ [ [ [ ` [ [ [ [ [ [ [ [ ( ( ( / ( ` [ [ [ [ [ [ [ [ [ [ [ [ ) _ [ ' [ _ ' ] _ _ ) ( [ [ _ [ [ [ [ ] ' ) [ [ [ [ ' ' ' [ [ ' ' ' ) ` ` ' ) ) ) ) ) ` ' ' ( ) ) ' ( l c l u g y & + + O.6.2.%./ ( ( ( ( ( ( ( ( ( ( ( ( ( ( ( ( ( ( ( ( ( ( ( ( ( ( ( ( ( ( ( ( ( ( ( ( ( ( ( / c l l l ( / / l l c / / ( ( ( ( ( / / l l l l l l l l l l l l l l l l l l l l l l l l l l l l l l l l l l l l l l l l l l l c l l l l l l l l l l l l l l l l c ..[ [ ......& o o + / ) ' ' ' ' ' [ ( / ( r.eX0X4XO.{ { { { ..{ { { { o.O.{ { { { { { 4.e.y.",
"j %.i.i.t.*.2...( ' ' ' ' ) [ ' ' ` ` ` ( ) ( ( ` ' / g g g f f f u u u u u f & . + o 3 v k k g g f q y y y y y y y u u u y q y u u y u f h k l l k l l l l l l l l l l v v v l l l l l l l l l v v l / ( ( ( ( ( / ( ( ( ( ( ( ( ( ( ( ( / / l l l z / ( / / ( / / ( / ( ( ( ( ( ( ( ( ( ( ( ( ( ( ( ( ( ( ( ( ( ( ( ( ( [ u & & & ..$.@.*.3.2.2.{ ( ( ( ( ( ( _ ( ( ( ( ( _ ( ( ( ( ( ( ( ( ( ( _ ( ( ( ( _ ( ( ( _ ( ( ( ( ( ( ( ( ( ( ( ( ( ( ( ( ) ( ( ( ( ( ( ( ( ( ( ` ( ( ( ] ` ( ` ` _ ( ( _ ( ] ( ( ( ( ( ( ` ` ] ] ( ` ( _ ] ] _ ( _ ] [ ( ( ( ) _ _ ` [ _ ( ) ) [ ' [ [ [ [ [ [ _ [ c g g g = $ & [ 2.8.e.2.' ' ( ] [ _ _ ` ( ( ( ( ( ( ( ( ( ( ( ( ( ( ( ( ( ( ( ( ( ( / ( ( ( ( ( ( ( / [ [ [ [ [ [ [ [ [ [ [ [ ( ( ( ( ( ( ' [ [ [ [ [ [ [ [ [ [ [ [ _ _ _ [ [ ' ' _ _ ' ' [ [ [ [ [ [ [ [ [ ' ' ' ' ' [ [ [ [ [ [ [ ) ' ` ` [ [ ) ) ' ' ' ' [ ' _ ) ' ' ( l c l u g y & + + O.3.2.%./ / ( ( ( ( ( ( ( ( ( ( ( ( ( ( ( ( ( ( ( ( ( ( ( ( ( ( ( ( ( ( ( ( ( ( ( ( ( ( / ( / / ( ( ( ( l l / l / ( ( ( ( ( ( / l l l l l l l l l l l l l l l l l l l l l l l l l c c c l l l l l l l l l l l l l l l l l l l l l l l l l l l l l l l l l [ ..[ .... .$ o o + v ' ' ' ) ' [ [ ( / ( r.wX0X2XO.[ { { { { { { { { | { o...{ ....O.9.e.y.",
"g %.a.i.9.O.%.{ ' ' ' ' ' ' ' ' ' ' ` ` ( ) ' ` ` ' ) k f u f u u f f u f u f & . o o 2 v l l g k g y y y y y y y q y 9 q u y y y u u y f g g l l l l l l l l l l l z ( ( ( / l l l l l l l l l z l l l v / / / / ( ( ( / ( ( ( ( ( ( ( ( ( ( / c l l / ( ( ( ( ( / ( ( / ( ( ( ( ( ( ( ( ( ( ( ( ( ( ( ( ( ( ( ( ( ( ( ( [ u $ & & ..%.@.*.3.2.4...( ( ( ( ( ` ( ( ( ( ( ( ( ( ( ( ( ( _ ( ( ( ( ( ( ( ( ( ( ( ( ( ( ( ( ( _ ( ( ( ( ( ( ( ( ( ( ( _ ( ( ( ( ( ( ( ( ( ( ( ( ( ( ( ( ( ( ( _ ( ( ` ( ` ` ( ( ` ( ( ( ( ( ( ` ( ( ( ( ] [ ] _ _ _ [ ] ` ( ) _ ( ) ' _ _ [ _ [ ] [ [ [ [ [ [ [ [ c f g j * + & [ 2.w.e.2.' _ _ [ [ ( ( ( ( ( ( ( ( ( ( ( ( ( ( ( ( ( ( ( ( ( ( ( ( ( ( ( ( ( ( ( ( ( ( [ [ [ ' ' ) [ [ [ ( ' [ ' ( ` [ ' ( ) ) [ [ [ [ [ [ [ [ [ [ [ [ [ [ [ ) ( [ [ [ [ ' ' [ [ [ [ [ [ [ [ ' [ ' [ ' ' [ [ [ [ ' [ _ ( [ ` [ [ [ [ ) [ ' ' ' ' [ ' ' ' ( l c l u g q * + + O.3.2.*./ ( ( ( ( ( ( ( ( ( ( ( ( ( ( ( ( ( ( ( ( ( ( ( ( ( ( ( ( ( ( ( ( ( ( ( ( ( ( ( ( ( ( ( ( ( ( ( / l l l c / / / / ( ( v l l l l l l l l l l l l l l l l l l l l l l l l / ( ( ( l c l l l l l l l l l l l l l k l l l l l l l l l l l l l l l l c [ [ [ [ ..[ + o o + ( ` ' ' [ ' [ [ ( / ( e.eX0X2XO.[ { { { { { { { { { } ........{ O.9.y.i.",
"g +.t.t.2.( [ ' ' ' ' ' ' ' ' ' ' ) ) ( ( ` ' ( ( ( / l l c l l k f f u u u f & o o o 3 v l k g k f y y y q q y y 9 y q y u u u y u y q u g f k l l l k l l l l l l c ( v ( ( l l l l l l l l l l l l l l l / / / / / / / / ( ( ( ( ( ( ( ( ( / / l l ( / ( ( ( ( ( ( ( ( ( ( ( ( ( ( ( ( ( ( ( ( ( ( ( ( ( ( ( ( ( ( ( ( [ u & & & ..O.@.*.3.2.4.O./ ( ( ( ( ( ( ( ( ( ( ( ( ( _ ( ( ( ( ( ( ( ( _ ( ( ( _ ( ( ( ( ( ( ( ( ( ( ( ( ( ( ( ( ( ( ( ( ( ( ( ( ( ( ( ( ( ( ( ( ( ( ( ( ( _ ( ( ( ( ( ( ( ] ( ( ( ( ( ( ( ( ( ( ( ( ( ( ( ( [ [ [ [ ] ' ( ( _ [ [ [ _ ( ) _ [ [ [ [ [ _ [ [ [ [ ( [ c f g g * + & [ :.8.e.2.) [ [ [ [ _ ( _ [ ( / ( ( ( ( ( ( ( ( ( ( / ( ( ( ( ( ( ( ( ( ( ( ( ( ( ( ( ( ] ` ' [ ( / ( ( ( ( ) ) ' ' ' ' ( [ ) ) [ [ ( [ [ [ [ _ _ [ [ _ _ [ [ [ _ [ [ [ ' ( ( _ ` [ [ ) ` [ [ [ ' ] ` ) [ ' [ ' ' ` ` ( ( ) ` [ ` ` ' ) ) ) ) ' ' ] ` [ ` ( l c k u g y & + + O.3.2.%.( ( ( ( ( ( ( ( ( ( ( ( ( ( ( ( ( ( ( ( ( ( ( ( ( ( ( ( ( ( ( ( ( ( ( ( ( ( ( ( ( ( ( / / ( ( ( ( v / l l l k l l l l l l l l l l l l l l l l l l l l l l l l l l l l l ( / / ( c l l l l l l l l l l l l l l l l l l l l l l l l l l l l l l l v ..[ [ ....[ $ + o $ ( ` ' ' [ [ [ [ ( / / r.0X0X2XO.[ { { { { { { { { { ..{ { { { { ..7.r.a.",
"u X.t.e.4.) [ [ ' ' ' ' ' ' ' ' ) ( ( ( ( ' ) ( ( ( ( v v / ) ) ( g u u u u u & . o o = v k k g g f y y y y y y 9 9 y q y u u u f f y y f g f l l l l l l l l l l l c ( ( ( / l l l l l l l l l l l l l l c ( ( / ( ( ( / ( ( / ( / ( ( ( ( ( / / c l ( / / ( ( ( ( ( ( ( ( ( ( ( ( ( ( ( ( ( ( ( ( ( ( ( ( ( ( ( ( ( ( ( [ u $ & & ..@.+.*.3.2.4.O.( ( ( ( ( ( ( ( ( ( ( ( ( ( ( ( _ _ ( ( ( ( ( ( ( ( ( ( ( ( ( ( ( ( ( ( ( ( ( ( ( ( ( ( ( ( ( ( ( ( ( ( ( ( _ ( ( ( ( ( ( ( _ ( ( ( _ ( ( ( _ ( ( ( _ _ _ _ _ ( _ ( _ _ ( ( ( ( ( ( [ _ [ [ ] [ [ ] ] [ [ [ ) _ ' [ ` ] [ [ _ ( ' [ [ ' ` [ c i g g = + & [ :.w.e.2.] [ [ ` [ [ _ [ ( ( ( ( / ( ( ( ( ( ( / ( ( ( ( ( / / ( / ( ( / ( ( ( ( ( ( ( ` [ [ [ / ( ( ( ( ( ) ' [ ) ' [ [ [ ' [ [ [ ( [ [ [ [ ` [ [ [ [ [ [ ( _ _ [ ' ` ' ] [ [ ] [ ' [ ] ( ( ( ' ` ` ' [ ' ) ( ) ' ' ( _ ( ) ( ) ( ( ( ( ` ( ( ( ( ` ' ) ( l c k u g q & o + O.3.2.*./ ( ( ( ( ( ( ( ( ( ( ( ( ( ( ( ( ( ( ( ( ( ( ( ( ( ( ( ( ( ( ( ( ( ( ( ( ( ( ( ( / ( ( / ( ( ( / / ( v l l l l l l l l c / l l l l l l l l l l l l l l l l l l l c l l / ( ( ( c l l l l l l l l l l l l l l l l l l l l l l l l l l l l l l l l [ [ ' [ ..[ $ o . + / ( ) ' ' ' [ [ ( / / w.wX9X2X{ [ { { { { { { { { { { { { { ..O.{ 7.r.a.",
"f O.t.e.9.[ [ ' ' ' ' ' ` ) ' ' ) ( ' ( ` ' ' ( ( ) ' v l / ( ) ( j u u u u u & . o o * v k k g g f q y y y y y q q y y y y y y q y y y u f u l l k l l l l l l l l l / ( / c l l l l l l l l l l l l l l v ( v / ( / ( ( ( ( ( ( ( / ( / c ( / l c / ( / / ( ( ( ( ( ( ( ( ( ( ( ( ( ( ( ( ( ( ( ( ( ( ( ( ( ( ( ( ( ( ( [ u & & & ..@.+.*.2.2.2...( ( ( ( ( ( ( ( ( ( ` ( ( _ ( ( ( ( ] ( _ ( ( ( ( ( ( ( ( ( ( ( _ ( ( ( _ ( ( ( ( ( ( ( ( ( ( ( ( ( ( ( ( _ _ ( ( _ ( ( ( ( ( ( ( ` ( ( ( ( ( ( ( ( ( ( ` ( ( ( ( ( ( _ ( ( ( ( ( ( [ ] [ [ [ [ _ [ _ [ ' [ ' _ [ [ [ [ ] ] _ ) ' _ [ [ _ [ c g g g * + + [ :.w.e.2.` ' ' ' [ [ [ [ [ [ ( ( ( ( ( ( ( ( / ( ( ( / / ( / ( ( ( ( ( ( ( / / ( ( ( ( ( / ( ( ( ' ( ( ( ' ' ' ) ) [ ) ( ) ( ) ( ( ( [ [ ) ` ( ( [ [ _ ) ] ] ( _ ' ) ' ' ' [ [ ' ' ' ] ( ( ( ( ] ` ` ' ' ' ) ) [ ' ` ( ( ) ) ) ) ) ( ' ` ( ( ( ) ( ( _ ( / l c k u g q & + + O.3.2.%.( ( ( ( ( ( ( ( ( ( ( ( ( ( ( ( ( ( ( ( ( ( ( ( ( ( ( ( ( ( ( ( ( ( ( ( ( ( ( ( ( ( ( ( / ( ( ( / c / l l l l l l l l l l / / l / v l c l l l l l l l l l l l l l l c l c / ( v l l l l l l l l l l l l l l l l l l l l l l l l l l l l l l l l l [ ' ' ....[ $ o o + / ( ' ' ' ' [ [ ( / / e.0X9X2X..[ [ { { { { { { { { { { { { { ..O.7.r.t.",
"f O.i.t.e.[ ' ' [ [ ' ' ' ' ' ) ) ) ) ( ` ' ' ( ( ( [ ( v ( ' ) / f u u u u u & . o o = c k k g k f q y y q y u u u u y e y e q q y y q y y u f k f k l l l l l l l l l l l l l l l l l l l l l l l l l l v ( ( / / / ( ( ( / ( ) / / / l h l v l / ( ( ( ( ( ( ( ( ( ( ( ( ( ( ( ( ( ( ( ( ( ( ( ( ( ( ( ( ( ( ( ( ( ( ( [ u & & & ..@.+.%.2.2.2...( ( ( ( ( ( ( ( ( ( ( ( ( ( ( ( ( ( ( ( _ ( ( ( ( ( ( ( ( ( _ ( ( ( ( ( ( ( ( ( ( ( ( ( ( ( ( ( ( ( ( ( ( ( ` ( ( ( ( ( ( ` ( ( ( ( ( ( ( ` ( ( ( ( ( ( ( ( ( ( ( ( ( ( ( ( ( _ ( ( ( ( [ _ ] ] _ [ ) ' ) [ _ _ [ _ ' [ ' [ [ _ [ ' [ [ [ ] l f f g * + + [ 2.8.e.2.` [ ` [ [ [ { { [ [ ( ( ( ( ( ( ( ( ( ( ( ( ( ( ( ( ( ( ( ( ( ( ( ( ( ( ( ( ( ( / / ( ( ( ( / ( ( ' ' [ [ ' ( ) ' ( ( ` ( _ ' [ ) ( ' ( [ [ ) _ _ ` ( ( ) ) ( ` [ [ [ ' ' ` ' ' ' [ [ ' ` ' ' ' [ [ ` ` ` ' ' ) [ ' ' ) ' ` ` ' ' ` ` ( ` ) ) ) / l c l u g q & + + X.3.2.%./ ( ( ( ( ( ( ( ( ( ( ( ( ( ( ( ( ( ( ( ( ( ( ( ( ( ( ( ( ( ( ( ( ( ( ( ( ( ( ( ( ( ( ( ( ( ( ( / c / l l l l c l l l l / ( ( ( ) ( / ) c l l l l l l l l l l l l l l l l l l l l l l l l l l l l l l l l l l l l l l l l l l l l l l l l l l l l [ ' [ [ ..[ + o o + / ' ' ' ' ' ' [ ( / / 9.wX9X2XO.[ { { { { { { { { { { { { { { { ..7.r.t.",
"f O.i.t.8.[ ' ' [ ' ' ' ' ' ' ( ' ' ' ' ' ' ` ( ( ) ' v v / ( ( / f y u u u u & . o o = c k g g k g q y q q y u u y u y q y y q q y y q q y u f g g k k k k l l l k l l l l l l l l l l l l l l l l l l l l l / l l l v / / v v c v c l l l l l c ( ( / ( ( ( ( ( ( ( ( ( ( ( ( ( ( ( ( ( ( ( ( ( ( ( ( ( ( ( ( ( ( ( ( ( ] u & & & ..@.+.*.2.:.2...( ( ( ( ( ( ( ( ( ( ( ( ( ( ( ( ( ( ( _ _ ( ( ( ( ( ( ( ( ( ( ( ( ( ( ( ( ( ( ( ( ( ( ( ( _ _ ( ( _ ( ( ( ` ( ( ( ( ( ( ( ] ( ( ( ( ( ` ` ` ` ( ( ( ` ( ` ` ( ( _ ` ( ( ( ( ( ( ( ( ( [ _ _ _ ] [ [ ' ' ` _ [ _ _ [ [ [ [ ' ' ( _ [ [ ) ) [ l f f g * + & [ :.8.e.2.' [ ( [ { [ _ [ { [ ` ( ( ( ( ( ( ( ( ( ( ( ( ( ( ( ( ( ( ( ( ( ( ( ( ( ( ( ( ( / ( ( ( ( / ( ( ( ( ' ( [ ' ( ( ( / / ' ( ) [ ' ( ` ' [ [ [ [ [ ] _ _ [ ' _ [ ] [ [ ) ' ` ( [ ` [ ' ' ' ` ` [ [ [ ' ` ` ` ' ' ' ) ) ) ' ' ' ' ` ) ( ` ( [ ' ) ( / l v l u g q * + + X.3.2.%./ ( ( ( ( ( ( ( ( ( ( ( ( ( ( ( ( ( ( ( ( ( ( ( ( ( ( ( ( ( ( ( ( ( ( ( ( ( ( ( ( ( ( ( ( ( ( ( / l l l l l l l l l l l / ( / / / / / ( c l l l c l l l l l l c l l l l l l l l l l l l l l l l l l l l l l l l l l l l l l l l l l l l l l l l k [ [ [ [ ..[ & o . + ( ) ) ' ' ' [ [ ( / / 9.9X0X2XO.[ { { { { { { { { { { { { { { { { 7.r.y.",
"u O.i.t.9.[ ' ' ' ' ' ' ' ' ( ' ` ( ' ' ( ) ` ( ( ( ( v ( ( v ) ( g y u u u u & . + o * c k g g g f y y q q y u y q u u q y y q y y y q y q u f g l k l l l l l l l k l k l l l l l l l l l l l l l l l l l l l l l l c c / c l l l l l v l l l l v ( / ( ( ( / ( ( ( ( ( ( ( ( ( ( ( ( ( ( ( ( ( ( ( ( ( ( ( ( ( ( ( ( ( ] u $ & & ..+.+.*.2.2.2.O./ ( ( ( ( ( ( ( ( ( ( ( ( ( ( ( ( ( ( ( ( ( ( ( ( ( ( ( ( ( ( ( ( ( ( ( ( ( ( ( ( ( ( ( ( ( ( ( ` ( _ ( ( ( ( ` ` ( ( ( ] ` ` ] ( ( _ _ _ ( ( ( ( ( ( ( ` ` ( ( ( ( ( ( ] ( ( ( ( ( ( _ [ [ _ _ [ ( ' ) ' _ ' [ [ ) ) [ [ _ [ [ [ _ ) ) ) [ l f u g * $ & [ 2.8.9.2.' [ ( [ [ [ [ ' ( ( ( ( ( / ( ( ( ( ( ( ( ( ( ( ( ( ( ( ( ( ( ( ( ( ( ( ( ( ( ( ( / / ( ( ( ( ( ( / ( ( ( ) ) ( / ( ( ( ( ) [ [ ) ] ( [ [ [ [ [ ( ) ' ' [ [ ( ] ` ` [ ' ` ( ` ` ' ` ' [ [ ] _ ) ` ` ` ] ` ' ) ` ` ( ` ` ( ( ) ' ) ) ( ( ( _ ' ` / l c k u g q * o + O.4.2.%./ ( ( ( ( ( ( ( ( ( ( ( ( ( ( ( ( ( ( ( ( ( ( ( ( ( ( ( ( ( ( ( ( ( ( ( ( ( ( ( ( ( ( ( / / ( ( v l l l l l l l l l l l c ( ( ( v / v / v l l c c l l l l l l l l l l l l l l l l l l l l l l l l l k l l l l l l k l l l l l l l l l l l l k l l [ [ [ [ ..[ & o . + / ( ) ' ) ' ' [ ( / / 9.9X9X2XO.[ [ { { { { { [ { [ { { { { { { { 7.r.i.",
"u +.i.i.9.[ ' ' ' ' ) ) ' ' ) ) ` ( ` ' ` ( ` ( ( ( ( / / / / ) ) g y u u y u & . + o * c k g g g f q y y y y u y u u u y y y y y q y y q y u u f k f g g k l l l l l l k l l l l l l l l l k l l l l l l l l l l l c l / / / c l l c l v l l l l l ( ( ( ( ( ( ( ( ( ( ( ( ( ( ( ( ( ( ( ( ( ( ( ( ( ( ( ( ( ( ( ( ( ( ( ' u $ & & ..O.+.*.2.2.2.O.( ( ( ( ( ( ( ( ( ( ( ( _ _ ( ( ( ( ( ( ( _ ( ( ( ( ( ( ( ( ( ( ( ( ( ( ( ( ( ( ( ( ( ( ( ( ( ( ( ( ( ( ( ` ( ] ] ` ( ( _ _ ` ( ( ( ( ( ( ( ( ( ( ( ( ( _ _ ( ( ( ( ( _ ` ( ( ( _ ( _ ] [ _ ( ( [ [ [ [ [ [ [ [ ( ( _ ' [ _ ` _ [ ' ) ) ) ' l u u u * $ $ [ :.8.w.:.) ' [ [ [ { ` / ( ( ( ( ( / / ( ( ( ( ( ( ( ( ( ( ( ( ( / ( ( ( ( ( ( / / ( ( ( ( / / ( ( ( / / ( / ( ' [ [ ' ( ( ' ' ) ( [ ' ' [ ' ' [ [ ) ) ' ' ) ' ' ( ) ` [ ] ` ' ` ( ( ( [ ` ' ' ( ) ) ( ' ' ` ` ( ( ( ( ` ` ` ` ( ( ( ( ) ' ) ( ( ( _ ` ( / l c k u g q & o + O.2.2.%./ ( ( ( ( ( ( ( ( ( ( ( ( ( ( ( ( ( ( ( ( ( ( ( ( ( ( ( ( ( ( ( ( ( ( ( ( ( ( ( ( ( ( ( ( ( ( ( l l l l l l l l l l l l c ( ( / l l l l l l c c l c l l l l l l l l l l l l l l l l l l l l l l l l k k k k l l l k l l l l k l l l l l l l k l l [ [ [ ......& o o + / ' ' ) ( ) [ [ ( / / 9.9X0X2XO.[ { { { { { [ { [ [ { { ..{ [ { ..7.r.t.",
"u O.i.i.9.[ [ [ ' ) ' ) ' ' ( ( ` ` ` ' ' ` ` ) ( ( ) l k k k v v g u u u u u & o o + * c k g g g f 9 y y y u u u u u u y y y y q q q y y y u u u f f u f k k k l l l l l k l l l l l l l l l l l l l l l l l l l l l l l l l c c ( ( ( ( l l l l l ( ( ( ( ( ( ( ( ( ( ( ( ( ( ( ( ( ( ( ( ( ( ( ( ( ( ( ( ( ( ( ( ( ( ( [ u + & & ..O.O.*.2.2.2.O.( ( ( ( ( ( ( _ ( ( ( ( ( ( _ ( ( ( ( ( ( ( ( ( ( ( _ ( ( ( ( ( ( ( _ ( ( ( ( ( ( ( ( ( ( ( ( ( ( ( ( ( ( ( ( ( ( ( ( ( ( ` ` ( ( ( _ ( ( ( ( ( ( ( ( ( ( ( ( ( ( ( ( ( ( ( _ ( _ _ [ _ [ [ ( [ [ [ [ [ [ ' _ ) ( [ [ ) ) _ _ [ [ [ [ ] ) [ l u u f * $ $ [ :.8.8.:.) ' [ [ { [ ( / ( ( ( / / / / ( ( ( ( ( ( ( ( ( ( ( ( ( ( / / ( / / ( ( / ( / ( ( ( ( ( ( / ( ( / / ) [ ( ( ) [ _ [ [ [ [ ' ) ' [ ` ' [ ] [ ' ) [ [ [ ' ' [ ) ' ' ' ' ' [ [ ] ' ( ` ' ' [ [ [ ' ( ] ] ` ` ( ] ` ` ` ` ) _ ` ( ( ( ) [ ` ( ( ( ` ( l c g y f q * o + O.2.2.%./ ( ( ( ( ( ( ( ( ( ( ( ( ( ( ( ( ( ( ( ( ( ( ( ( ( ( ( ( ( ( ( ( ( ( ( ( ( ( ( ( ( / ( ( ( ( ( l l l l l l l l l l l l ( ) ( v l l l l l l l l l l l l l l l l l l l l l l l l l l l l l l l l l k k l l l l l l k l l l l l l l l l v v c c l v ..[ ' ....[ + o o + ( ) ) ' ) ) ' [ ( / / 9.9X9X2X..[ [ [ [ [ [ [ { { [ [ { { { { ..{ 7.r.y.",
"f +.i.i.9.[ ) ) ' ) ) ( ` ` ( ` ( ( ( ` ` ( ' ' ) ) [ k u k g k v g u u u u f & . o o * c k g g g f q y y y y u u y y q q q y y q q q y y y u u u f f f k k k k k l l l l l l k l l l l l l l l l l l l l l l l l l l l l l l l l ( ( ( ( l g l l l ( ( ( / / / / ( ( ( ( ( ( ( ( ( ( ( ( ( ( ( ( ( ( ( ( ( ( ( ( ( ( ( ( _ u $ & & ..O.O.%.2.2.2.O.( ( ( ( ( ( _ ( ( ( ( ( ( ( ( ( ( ( ( ( ( ( ( ( ( ( ( ( ( ( ( ( ( ( ( ( ( ( ( ( ( ( ( ( ( ( ( ( ( ( ( ( ( ( ( ( ( ( ( ( ( ( ( ` ( ( ( ` ( ( ( ( ` ( ( ( ( ( ( ( ( ( ( ( ( ( ( ( ( ( ( _ [ _ ( ' [ [ _ ' ( ) ) ) _ ( ) ) ` ( ` ( ) ) ( ( ) [ l u u u * + + [ :.8.8.:.) ' ' [ { { [ ( / / / / ( / / ( / / ( ( ( ( ( / ( ( ( ( ( ( ( / / / ( ( ( / / / ( ( ( ( / / / ( / / ( ' [ [ [ [ [ ' [ [ [ _ [ ` ` ( [ ' ` ( [ ' ' [ ' ` ' [ [ [ ' ] ' ' ' ( ) ` ` ' [ ' [ ) ( [ ` ' [ ) ` ( [ ` ` [ ) [ ( ( ) ) ( _ ( ( ( ( ( ( / l c k u g q & + + O.3.4.%./ ( ( ( ( ( ( / ( ( ( ( ( ( ( ( ( ( ( ( ( ( ( ( ( ( ( ( ( ( ( ( ( ( ( ( ( ( ( ( ( ( ( ( ( / / / l l l c l l l l l l l c ) ( ) v l l l l c l l l l l l l l l l l l l l l l l l l l l l l l l l l l l l l l l l l l k l l l l l l l l l c l l v c / ..' [ ......& o o $ ( ) ) ' ) ) ' [ / / / 9.0X9X,X..[ { { { { [ [ { { { [ { { { { ....7.r.y.",
"i O.i.t.8.' ( ( ( ( ` ( ` ` ( ( ( ( ( ( ` ' ) ) ` ) ( k u g c / / k u u d u f & . + o * l k g g k f 9 q q q q q y y q q q q e y q q y y y y u u u f f f k g k l k k l l l l l l l l l l l l l l l l l l l l l l l l / c l l l c l / ( / ( c l c l l / ( / / ( / ( ( ( / / / ( ( ( ( ( ( ( ( ( ( ( ( ( ( ( ( ( ( ( ( ( ( ( ( u & & & ..@.O.*.2.:.2.O./ ( ( ( ( ( ( ( ( _ ( ( ( ( ( ( ( ( ( ( ( ( ( ( ( ( ( ( ( ( ( ( ( ( ( ( ( ( ( ( ( ( ( ( ` ( ( ( ( ( ( ] ( ( ( ( ( ( ( ( ` ` ( ( ( ( ( ` ( ` ( ( ( ( ( ( ( ( _ ( ( ( ( ( ( ( _ _ ( ( ( _ _ ( _ [ [ [ _ _ ( ( _ ) _ ] ] _ _ ' ] ( ' ( ( ( ) [ l u u u * + + [ :.8.w.:.( ) ( [ { { [ ( ^ ( / ( ( / ( ( / / ( ( / ( ( ( ( ( ( ( ( ( ( ( ( / / ( ( / / / ( ( / ( ( / / / ( ( / [ [ [ ( ( ( [ ( ) [ [ [ ` ` ` ' ( ] ) ` ` ) ' ( ` ' ` ' ' ' ) ) ' ) ` ' ` ' ` ) ) ( ` ` ' ( ) ) ` ( ) ( ` ` ( ( _ ( ' ( ( _ ( ( ( ( ( ( ( / l c k u g 9 & o + X.3.2.%./ ( ( ( ( ( ( ( ( ( ( ( ( ( ( ( ( ( ( ( ( ( ( ( ( ( ( ( ( ( ( ( ( ( ( ( / ( ( ( ( ( ( ( ( ( ( ( l l c v l l l l l l l c ( ( ) v l l l l l l l l l l l l l l l l l l l l l l l l l l l l l l l l l l l l l l l l l l l l l l l l l l l c c l l l c ..' ' [ ..[ & + o $ ( ' ) ) ' ' [ [ ( / / 9.0X9X2XO.[ { { { [ { { [ { { { { { [ [ { [ 7.r.y.",
"u +.i.t.9.' ( ( ( ( ` ' ' ` ` ( ` ( ' ) ` ` ` ( ( ` ( k u f l l l g g f g k g & o $ o * l k g g k f 9 q 9 9 e q y q y y y y q y y q y y y y u u u u u f g u g l l k l l l k k l l l l l l l l l l l l l l l l l l l v v l c l c l / ( ( ( / c c l l / ( ( ( ( / ( ( ( / / / ( ( / / ( ( ( ( / ( ( ( ( ( ( ( ( ( ( ( ( ( ( ( u + & & ..@.O.*.2.2.2.O./ ( ( ( ( ( ( ( ( ( _ _ ( ( ( ( ( ( ( ( ( ( ( ( ( ( ( ( ( ( ( ( ( ( ( ( ( ( ( ( ( ( ( ( ( ( ( ( ( ( ( ( ( ( ( ( ( ( ( ( ( _ ( ( ( ( ( ( ( ( ( ( ( ( ( ( ( ( ( ( ( ( _ ( ( ( _ _ ( _ ( ( ( [ [ ] [ [ [ [ _ _ ( [ ( ) ) ) _ [ [ _ ) ( ( ( ( _ l u u u * + + [ 2.8.8.:.( ` ' [ [ [ ] ( / v v / / ( ( ( ( ( ( ( ( ( ( ( ( ( ( ( ( ( ( ( ( ( ( ( ( ( / / / / / ( ( ( / ( ( ( / ( ( [ ( / / ( ' ] [ [ _ _ ` ' ) ( _ [ [ [ ' ' ( [ ' [ ' ( ) ) ) [ ' ' ` ( ) ) ( ' ' ` ` ( ( ( ( ` ( ( [ ( ( ( ( ) ` [ ( ( ( ( ( ` ( ( ( ( / l c g y g 9 & o + X.3.2.%./ ( ( ( ( ( ( ( ( ( ( ( ( ( ( ( ( ( ( / / ( ( ( ( ( ( ( ( ( ( ( ( ( ( ( ( ( ( ( ( ( ( ( ( ( / ( l l c l l l l l l l l l ( ( ( c l l l l l l l l l l l l l l l l l l l l l l l l l l l l l l l l l l l l l l l l l l l l l l l l l l l c l k k l v [ ' ' [ ..[ & o . + ( ) ) ) ' ' ) [ ( / / 9.9X9X,XO.[ [ { { { { { [ { { { { { [ { { [ 7.r.i.",
"u $.i.t.9.[ ( ` ` ` ` ' ' ( ( ( ( ) ' ) ) ` ' ` ) ' ) g y u u u u u k l l c l & o + o * c k g g k f q q q q q 9 q q y y y y y y q q y y y y u u u u u f f u g k k l l k l l l l l l l l l l l l l l l l l l l l l l l l l l l l c ( ( / ( / c l l l ( ( ( ( / / ( ( ( / ( ( ( ( ( / ( ( ( ( ( ( ( ( ( ( ( ( ( ( ( ( ( ( ( ] u + & & X.%.+.*.2.2.2.O./ / / ( ( ( ( ( ( ( ( ( ( ( ( ( ( ( ( ( ( ( ( ( ( ( ( ( ( ( ( ( ( ( ( ( ( _ ( ( ( ( ( ( ( ( ( ( ( ( ( ( ( ( ( ( ( ( ( ( ` ( ( ( ( ( ( ( ( ( ( ( ( ( ( ( ( ( ( ( ( ( ( ( ( ( ( ( ( _ _ _ _ [ [ ` _ [ _ _ [ ) ) ) ' ' [ [ [ [ [ [ ) ( ( ( ( ( l u u u * + + [ :.w.w.:.( ( ) _ [ [ [ [ ( ` ( / ( ( ( ( ( / ( ( ( ( ( ( ( ( ( ( ( ( ( ( ( ( ( / ( ( / / / / ( ( ( ( ( ( ( ( / ( ` ' ( ( / / ' ' ( ) [ [ [ [ ` [ [ ' [ ' ' [ _ ) ) ) ' ' [ [ ( ` ) ) ` ' ) ' ) ) ) ) ( ( ( ' ` ( ( ( ( ( ( ) ) [ ( [ ( ( [ ) ( ( ( ( ( ( / l c k u f 9 & o $ O.2.2.%./ ( ( ( ( ( ( ( ( ( ( ( ( ( ( ( ( ( ( ( ( ( ( ( ( ( ( ( ( ( ( ( ( ( ( ( ( ( ( ( ( ( ( ( ( ( / / l l l l l l l l l l l l l l l l l l l l l l l l l l l l l l l l l l l l l l l l l l l l l l l l l l l l l l l l l l l l l l l l l c l l l l l k l [ ' ' ' ..[ $ o o $ / ( ) ) ) ) ' [ ( v / 9.9X9X,X..[ { [ { { [ [ [ [ { { { ..{ { ..{ 7.r.y.",
"u +.i.t.8.[ ' ' ( ( ( ( ( ( ( ' ( ` ) ( ( ` ` ` ( ( ( g u f u y u u k c l l l & o o + * c k g g k f 9 q y q y e 9 9 9 3 e y y y y q q y y y u u u f u f g g k k k l k k l k l l l l l l l l l l l l l l l l l l l l l l l l l l l ( / ( ( / / l l c ( ( ( ( ( ( ( ( ( / ( ( / ( ( ( / / ( ( ( ( ( ( ( ( ( ( ( ( ( ( ( ( ( ] u + & & ..%.+.*.2.2.2.O./ ( ( ( ( ( / l k f g d f / ( ( ( ( ( ( ( ( ( ( ( ( ( ( ( ( ( ( ( ( _ ( ( ( ( ( ( ( ( ( ( ( ( ( ( ( ( ( ( ( ( ( ( ( ( ( ( ( ( ( ( ( ( ( ( ( ( ( ( ( ( ( ( ( _ ( ( ( ( ( ( ( ` _ ( ( _ [ [ [ [ [ ) ' [ ] [ ) [ ' ' ( / k v l k l ` ( _ ( ( _ l u u u * + + [ :.8.8.:.( ( ) ' ( [ ( v l l l ( ( ( ( ( ( ( ( ( ( ( ( ( ( ( ( ( ( ( ( ( / ( ( ( ( ( ( / ( ( ( ( ( ( ( ( ( ( / ) [ ( ( ' ( / ( ( ' ( ( _ ) [ [ [ ( [ [ ' ' [ ' [ [ ' [ [ ' [ ' _ ' ' [ ) ' ` ` ' ` ' ' ' ( ( ' ( ' ' ` ) ' ( ' / l l l l ( ) ( ( ( ( ( ( / l c k y f 9 & + + O.2.2.%./ ( ( ( ( ( ( ( ( ( ( ( ( ( ( ( ( ( ( ( ( ( ( ( ( ( ( ( ( ( ( ( ( ( ( ( ( / ( ( ( ( ( ( ( ( / / l l l l v l l l l l l l l l l l l l l l l l l l l l l l l l l l l l l l l l l l l l l l l l l l l l l l k l l l l l l l l l g u u u g c k l l g k [ ' ' ' ....$ o . + ( ) ) ) ' [ [ [ ( / l 8.9X9X,XO.[ [ [ [ { { [ { { { { { { { ..O.O.7.r.i.",
"u O.i.t.9.[ ` ` ( ( ( ( ( ( ` ) ` ` ) ) ) ( ( ' ` ) ( f u y u f u u l c l l l & o o o * c l g g g f 9 q 9 9 q 9 3 9 3 2 9 y e q y y y y y y u u u f u u g k d f k k k l l l l l l l l l l l l l l l l l l l l l l l l l l l l l l ( ( ( ( / ( / l c ( ( ( ( ( / / / ( ( ( / ( ( ( ( ( / / ( ( ( ( ( ( ( ( ( ( ( ( ( ( ( ( ' u & & & ..+.O.-.2.2.2.O./ ( ( ( ( ( / g y q u 0 0 l / ( ( ( ( ( ( ( ( ( ( _ ( ( ( ( ( ( ( ( ( _ ( ( ( ( ( ( ( ( ( ( ( ( ( ( ( ( ( ( ( ( ( ( ( ( _ ( ( ( ( ( ( ( ( _ ( ( ( ( ( ( ( ( ( ( ( ( ( ( ( ( _ ( ) _ [ ' [ [ [ ' ` _ ] [ ) ' ) ' ) [ g q f y 9 d [ ( ' ( ) ( l y u u * + + [ :.w.8.=.( ( ( ( ( / 0 q f g d ( v v ( ( / ( ( ( ( ( ( ( ( ( ( ( ( ( ( ( / ( ) [ [ ( / ( ( / ( / ( ( / ( ( / / ( [ ( [ [ / / / / ( ( ( _ ( [ [ ) ( ( ) ' ` ( ' ' ) _ _ ' ' ' ' ` ' ) ) ` ' ` ' ' ' ) ) ) ( ` ] [ ( ( ( ) ) ( ` g q u u f y c / ( / ( ( ) ( l c k y f e & + + O.2.2.%./ ( ( ( ( ( ( ( ( ( ( ( ( ( ( ( ( ( ( ( ( ( ( ( ( ( ( ( ( ( ( ( ( ( ( ( ( / ( ( ( ( ( ( ( ( / / z l l l c v v l l l k l l l l l l l l l l l l l l l l l l l l l l l l l l l l l l l l l l l l l l k k k l l l l l l l l k k u q u u y g d f f f l [ ' ' [ ..[ $ o o $ ( ( ) ) ' ' ' [ ( / / 7.4X4X,X{ [ [ [ [ [ [ [ { { [ { { { { { ..O.9.r.a.",
"u %.i.i.9.[ ` ( ` ` ` ( ( ( ' ) ' ( ( ) ( ( ` ' ( ) ( g y u u u u u k l l c l & + + o * c l g g k f q q 9 9 q 9 9 9 9 3 9 q y y y q y y y y u u u u u u g f u f k k k l l l l l l l l l l l l l l l l l l l l l l l l l l l l l l ( / l c / ( / l / ( ( ( / / / / / ( ( ( ( ( ( ( ( ( ( / / ( ( ( ( ( ( ( ( ( ( ( ( ( ( ( ' u $ & & ..%.+.-.2.:.2.O./ / ( ( / ( ] l f 0 f q 0 l / _ ( ( ( ( ( ( ( ( ( ( ( ( ( ( ( ( ( ( ( ( ( ( ( ( ( ( ( ( ( ( ( ` ( ( ( ( ( ( ( ( ` ` ( ( ( ( ( ( ( ( ( ( ( ( ` ( ( ( ( ( ( ( ( ( _ ( ( ( ( ( ( ( ) _ _ [ [ ] ] [ ' ( _ _ [ [ ' [ [ { l y f y k v ] [ [ ) ) ( l y u u * + + [ :.8.8.*./ / v ( [ l 9 y q k h ( ( v / / / / ( ( ( ( ( ( ( ( ( ( ( ( ( ( ) [ { [ { ( / / ( ( ( ( ( ( / ( / ( / ( [ ' ( ( ( / ( c / ) ( ) ' ' [ ' ( ( ( ] ' ` ] ' ' ) ) ' ` ' ` ( ` ) ) ' ' ' ` ( ) ( ( ` [ ] _ _ ` ( ( ( ( [ { g 9 q u q 0 l ) ( / ( ) ) / l c g y f 9 * + $ O.2.2.%./ ( ( ( ( ( ( ( ( ( ( ( ( ( ( ( ( ( ( ( ( ( ( ( ( ( ( ( ( ( ( ( ( / ( / ( / / ( / ( ( / / / ( ( ( v l l v / ( / l l l l l l l l l l l l l l l l l l l l l l l l l l l l l l l l l l l l l c l l l l l k l l l l l l l l l l y q y u y f f f g f l ..' [ ' [ [ $ + o $ / ) ) ' ( ) ' [ / v v 9.4X7X,XO.[ [ [ { [ [ { [ { [ { { { [ { ..$.9.r.a.",
"u $.i.t.9.' ` ` ( ' ' ' ) ) ' ' ) ) ( ` ' ( ( ) ( ' ( g u y u u u u u u f u y & + $ o * c l g g g f 9 q y q 9 f c g g l k f y u y q y y q q u u u u u u u u u f g f g k l k l l l l l l l l l l l l l l l l l l l l l l l l l l l v l l l l l l l ( ( ( ( ( ( ( ( / ( ( ( ( ( ( ( ( ( ( ( ( ( ( / ( ( ( ( ( ( ( / / ( ( ( ) u + & * ..%.+.*.2.2.2.O./ ( ( / / l z z { O.%.O.[ ( / l l ( ( ( ( ( ( ( ( ( ( ( ( ( ( ( ( ( ( ( ( ( ( ( ( ( ( ( ( ( ( ( ( ( ( ( ( ( ( ( ( ( ( ( ( ( ( ( ( ` ( ( ( ( ( ( ( ( ( ( ( ( ( ( _ ( ( ( ( _ ( ( ) ( ( [ ] [ ] ( _ _ _ _ [ ' [ / / [ O.| O.@.+.[ ( l c ( ( ( k y u u & + + [ :.8.8.*.v ( ( l l [ | { O.| [ ' v / / / / ( ( ( ( ( ( ( ( / ( / / ( / / [ { [ { [ / / / / / / / ( / / ( ( ( / ( ( ' ( ( [ / / c ( ' ' ( ( ( [ [ ' [ [ ' ' [ ' ` [ ` ) ' ' ( [ ( ` ' ( ) ` ( ` ` ` ) ' ( ` ( _ ] ` ( ( ` / l ( [ [ [ { ' ' / k l ( ) ( ( / l c k u f q & o + O.2.2.%./ ( ( ( ( ( ( ( ( ( ( / ( ( ( ( / ( ( ( ( ( ( ( ( ( ( ( ( ( ( ( ( ( ( ( ( ( ( / / ( / l l l ( ( / / / / ( / ( / l c l l l l l l l l l l l l l l l l l l l l c c l c l l l l l l l l l k l l l l l l l l l l l l l k k g f l ( ( ` ' [ ) u y u g c ..[ [ [ ..[ & + o $ ( ) ' ) ) ' ' _ / l l 6.4X4X>X..[ [ [ [ [ [ [ [ { [ { { { { { { *.9.r.a.",
"u %.i.t.8.[ ( ` ( [ ` ( ( ' ` ` ( ) ( ( ( ( ( ( ( ) ( f y y y u u u y u u u u + o + o * c l k g g f 9 9 9 9 q k k g g k l f * 3 y e y y q q f u u u u u u u u f f u g l k l l l l l l l l l l l l l l l l l l l l l l l l l l l l l l l l l l v / / / ( ( / ( / ( ( ( ( ( ( ( ( ( ( ( / / ( ( / / ( ( ( ( ( ( ( ( ( ( ( ( _ u $ & & ..%.O.=.2.2.2.O./ ( ( ( c 9 y { +.%.%.*.%.O.f 9 l ( ( ( ( ( ( ( ( ( ( ( ( ( ( ( ( ( ( ( ( ( ( ( ( ( ( ( ( ( ( ( ( ( ( ( ( ( ( ( ( ( ( ( ` ( ( ( ( ( ( ( ( ( ( ( ( ( ( ( ( ( ( ( ( ( ( ( ( _ ( _ ) ) [ [ _ _ _ _ _ ] _ [ [ [ _ f 3 l =.*.%.=.%.O.k 9 u ( ( ( k y u u * + + [ :.8.8.=./ ( z f l +.&.%.2.*.O.' y f ( / ( / / ( ( ( ( ( ( ( ( / / / / / ( [ [ { { ( / / / / / / ( / / / ( / / / v / / ( ) ( / / ' ( [ ( ( ` ' [ [ ' ( ' ' ' [ ) ' ' ' ` ` ) ' ) ' ` ( ' ` ( [ ' ] ` ' ) ' ) ` ] ] _ ( _ g 9 j %.=.*.%.*.%.k q f ( ) ( ) / l c k u f q & o + O.2.:.+./ ( ( ( ( ( ( ( ( ( ( ( ( ( ( ( ( ( ( ( ( ( ( ( ( ( ( ( ( ( ( ( ( ( ( ( ( ( ( / / / / l v v / / z / ( ( / ( ( ( l l l l l l l l l l l l l l l l l l l l l / ( ( / l l l l l l l l l l l l l l k l l l l l k k l k l k y 9 g +.+.+.O.+.O.k u f u k [ [ [ [ ..[ % + o $ ( ) ) ' ( ( ( ' / l l 6.3X4X,XO.' [ [ { [ [ [ [ { { { { { { { [ { 7.r.i.",
"u O.i.t.r.[ ( ` ' ( ` ( ( ( ` ` ` ) ( ( ( ( ) ( ( ) ( f u u u u u y u u u u u + o + o * c l k k k f 9 9 3 3 q k f g g g k f * = q q y y q q u u u u u u u u u u f g g l k k k k k k l l l l l l l l l l l l l l l l l l l l l l l l l l l l l v / / / / / ( ( ( ( / / ( ( ( ( / ( / ( ( / / ( ( / ( / ( ( ( ( ( ( ( ( ( ( _ u & & & ..%.O.=.2.2.2.O.( ( ( ( l 9 e [ +.@.@.*.*.O.u 9 g ( ( ( ( ( ( ( ( ( ( ( ( ( ( ( ( ( ( ( ( ( ( ( ( ( ( ( ( ( ( ( ( ( ( ( ( ( ( ( ( ( ( ( ( ( ( ( ( ( ( ( ( ( ( ( ( ( ( ( ( ( ( ( ( ( ( ( ( _ _ _ ( ' _ [ _ _ _ [ [ [ [ [ ) ( _ d 9 l =.=.%.%.%.O.g 9 u ( ( ( k y u u & + + [ :.8.8.=.^ / k 9 v @.%.*.*.%.O.l u y v ( ( ( ( / / ( ( ( ( ( ( ( ( ( / / ) { [ ( ' ( / / / / / ( / / / / ( / v / ( ( / / ( ' [ ( ) ( ( ( ] [ ` ( ) [ ` ` ) ) [ ) ) ( ` ' [ [ ' ) ` ( ` ' ` ' [ ` ( ` ` _ ' ) ( ` ( ) ( ` f q k %.%.*.%.*.%.g q u l ( ( ) / l c g u f q & o + ..:.:.+.( ( ( ( / ( ( ( ( ( ( ( ( ( ( ( ( ( ( ( ( ( ( ( ( ( ( / ( ( ( ( / ( / / ( ( ( ( ( ( / l v v ( / l ( / ( ( ( ( / l l l l l l l l l l l l l l l l l l l l c ( / ( ( l l l l l l l l l l l l l k l l l l l k k k k k k k q e g O.O.@.O...O.l u f u c ..' ....[ ' % $ o + / ( ) ( ( ( ) ' / l l 6.2X2X,X..[ { { [ { [ [ [ [ { { { { [ [ { ' 4.t.a.",
"y O.y.t.e.....O.+.O.[ ) ) ( ( ( ( ( ' ( ( ) ( ( ( ' ( f u u u u u u u u u u u + o + + 3 c l g g g g 9 3 = * 3 f u g l g f u = = 9 y y y y q u u u u u u u y u u f f u f k l l k k k l l l l l l l l l l l l l l l l l l l l l l l l l l l l l l / ( / / / / ( ( ( / / ( ( / / / ( / / / ( ( ( ( / / ( ( ( / ( / ( ( ( ( ( ' u & & * ..%.O.=.2.2.2.+./ ( ( ( l 3 3 [ =.%...O.O.O.g q k ( / ( ( ( ( ( ( ( ( ( ( ( ( ( ( ( ( ( ( ( ( ( ( ( ( ( ( ( ( ( ( ( ( ( ( ( ( ( ( ( ( ( ( ( ( ( ( ` ( ( ( ( ( ( ( ( ( ( ( ( ( ( ( ( ( ( _ _ _ _ ( [ ( [ _ _ [ [ [ [ [ ) ' ' _ d 9 l %.%.%.O.O.O.( 9 k ( ' ' k y u y & $ o ..:.8.8.*./ c f 2 l | +.*.O.O.O.k g u l ( ( ( / ( / / ( ( ( ( ( ( / ( ( ( ` { [ [ [ ( ( ( / ( / / / ( / / / / / / ( ( l / [ ' ' _ ) ' ' ( ( ( ( [ [ [ ) ) ( ' _ [ [ ' ' ) ( ' ) ' ` ` ` ( ` _ _ [ ' ` ' ( ( ( ( ( ` [ [ ] u 9 k *.%.%.@.@.+.l u y h [ ( ) / l c g u f q & + $ ..:.:.@.( ( ( ( ( ( ( ( ( ( ( ( ( ( ( ( ( ( ( ( / ( ( ( ( ( ( ( ( ( ( v l l / ( ( / ( / / ( ( / z l l l l / / / ) ( / / l l l l l l l l l l l l l l l l l l l l l ( ` ' / l l l l l l l l l l l l l l l l l l l l k l k k k g q q g ....O.@.{ { l y u u v ........[ ) & + o + / ( ( ) ) ) [ [ ( / v 8.2X2X>X{ ) [ [ [ { [ [ [ [ [ [ [ [ [ [ [ [ 4.r.a.",
"y O.y.r.9.%.:.*.*.=.[ ( ) ) ( ( ` ( ( ( ' ' ) ( ( ) ( f y u u u u u u u u u u $ o + + 3 v l l k k g 9 9 * 2 = u g g g f j f * * 9 y q y e q u y y u u u u u u u u u u f k k k k k l l l l l l l l l l l l l l l l l l l l l l l l l l l l l l l v ( / / / / ( ( ( ( ( / / / ( ( ( ( ( / / ( ( / / / / / / ( ( ( ( / ( ( ( _ u & & * ..*.O.*.2.2.2.+.( ( ( ( l 9 q _ #.+.O...O.O.f q g ( ( ( ( ( ( ( ( ( ( ( ( ( ( ( ( ( ( ( ( ( ( ( ( ( ( ( ( ( ( ( ( ( ( ( ( ( ( ( ( ( ( ( ( ( ( ( ( ( ( ( ( _ ( ( ( ( ( ( ( ( _ ( ( ( ( ( ( _ ) [ [ [ [ _ _ [ [ [ [ ( ' ] [ _ ] g q l +.+.%.+.O.+.{ u k [ ( ( k y f y * + o ..:.8.8.=./ / g q l | +.*.+.O.$.c q 9 l ( ( / ( / / / / ( ( ( ( ( ( / ( ( / [ [ [ [ / ( ( ( ( / / / / / / / / / / ( v l ( [ ' [ [ [ [ ( / ( / ( [ ) ( ` [ [ [ [ [ ) ) ' ) ' ` ) ( ( ) [ ] ( ( ) ( ( ( ( ( ` ( ' ( ( ( ( ( f y f +.%.%.+.%.+.g q q l ( ( ( c l c g y f y & + $ X.:.:.@.( _ ( ( ( ( ( ( ( ( ( ( ( ( ( ( ( ( ( / ( ( ( ( ( ( ( ( ( ( ( l l l z ( ( / l l l v / / / v l l l ( ( / ( / ( / l l l k l l l l l l l l l l l l l l l l l v / / c l l l l l l l l l l l l l l l l k l l l l l l l k k q q f ..X.X...X.{ k q u f ( [ [ ......' & + + + v / / ) ' ' _ [ ( / l 8.2X2X>X{ ( ' ( ( [ [ [ [ [ [ ' [ [ ' ( ' [ 4.r.t.",
"y O.t.r.9.$.*.=.*.=.[ ' ( ( ( ( ` ( ( ( ' ` ) ) ( ) ( f u u u u u u u u u u y $ o + + = / l l l l g 9 9 9 3 3 u k g f k l u * 3 q y q y y q u u y u u u u u y y u u f g k l l l l l l l l l l l l l l l l l l l l l l l l l l l l l l l l l l l / ( ( ( ( / ( ( ( ( / ( / ( ( ( ( ( / / ( ( ( ( / / / ( ( ( ( ( ( ( ( ( ( ] u & & * ..*.+.=.2.2.2.O./ ( ( _ g 3 y [ &.@.@.@.+.} f q g ( ( ( ( ( ( ( ( ( ( ( ( ( ( ( ( ( ( ( ( ( ( ( ( ( ( ( ( ( ( ( ( ( ( ( ( ( ( ( ( ( ( ( ( ( ( ( ( ( ( ( _ ( ( ( ( ( ( ( ( ( ( ( ( ( ( ( ( ] [ [ [ [ _ [ _ ] [ [ [ [ [ [ ] ) ) u 9 c *.%.*.$.+.O.( f f ( / ( k y f y & $ o ..:.7.7.*./ ( ( f j O.&.&.+.%.&.( q q / ( ( ( ( / / ( ( ( ( ( ( ( / / / ( ( [ [ { [ / ( ( ( ( / / / / / / / / / v ( ' ` ( [ [ [ [ [ [ ( / / c ) [ [ [ [ ' ] _ ` ( ) ) ) ) ' ( ( ( ) [ [ [ ( ( ( ( ( ) ) ( ` ` ) ( ) ( ( [ f 9 g %.=.=.%.*.+.f q q l ( ( ( v l c k y f y & + + X.2.:.@.( ( ( ( ( ( ( ( ( ( ( ( ( ( ( ( ( ( / ( ( ( ( ( ( ( ( ( ( ( ( c l l / ( / ( l l v / ( / l l k l l ( ) ( / / ( / l l k l l l l l l l l l l l l l l l l l l l l l l l l l l l l l l l l l l l l l l l l l l l l l k k k 9 9 f [ ..O...+.[ u y u u ( [ [ ......' & + o $ v v / / ( ) ( ) / l l 6.1X2X>X{ ( ' ( ( ` ` [ [ [ [ [ ' [ ' ' [ ' 4.9.y.",
"q O.i.r.r...[ %.*.$.' ' ( ( ( ) ) ' ) ( ) ( ( ( ( ) ( f y u u u y y u u u u y $ o + o = / c k g k g 9 3 9 3 3 9 y y q y y 9 3 9 9 q y y y y u u u u u u u u u u u u f f f f k l l l l l l l l l l l l l l l l l l l l l l l l l l l l l l l l l c ( / / / l l / ( ( ( ( v z v / ( / / / ( ( ( / / ( / ( ( ( ( / ( ( ( ( ( [ u & & & ..*.+.:.2.2.2.O./ ( / ( k y f g l ( [ / l l l f l / / ( ( ( ( ( ( ( ( ( ( ( ( ( ( ( ( ( ( ( ( ( ( ( ( ( ( ( ( ( ( ( ( ( ( ( ( ( ( ( ( ( ( ( ( ( ( ( ( ( ( ( ( ( _ _ ( ( ( ( _ _ ( ( ( ( ( ) _ _ [ [ [ ) [ [ _ _ [ [ [ [ [ _ [ v l l ( [ { { O.[ k q g z ( ( k e f y * $ + ..*.6.6.*.l / / l l ' [ [ [ +.{ l k l ( ( ( ( ( ( ( ( ( ( ( ( ( ( / / ( / ( ( ( [ ) ( / / / ( / / ( ( / / / / / ( ( ' ' / [ [ [ [ ] [ ` / / / ( ` [ [ ( ' ) ` ' ' ' ' _ [ ( ' ' ( ' ' ( [ ' ` ` ` ' ` ( ) [ ` ` ` ] [ ( _ l 9 k / ( [ [ ) l f d u v ( ( ( c l l g y f y & + + O.2.:.+./ ( ( ( ( ( ( ( ( ( ( ( ( ( ( ( ( ( ( ( ( ( ( ( / ( ( ( ( ( ( / / ^ / / / / l l / / / / l l g l l ( ( / / / / / l l k l l l l l l l l l l l l l l l l l l l l l l l l l l l l l l l l l l l l l l l l k l k l k k l l f g g u u k l l g f g f u / ......' ..' & $ o + v c c ( ' ( ( ' / c l 6.<X1X>X{ ` [ ( ( ( ` [ ' ' [ [ [ { [ [ [ [ 4.q.y.",
"y O.i.u.9.....O.%.%.' ) ( ( ) ' ' ' ( ( ` ( ' ( ( ) ( f u u u y y y u u u u y + o + o * g u u u g f q 9 q y 9 3 * = = * * 9 y 9 9 q y q q q u u u u u u u u u u u u f d u f l l l l k k l l l l l l l l l l l l l l l l l l l l l l l l l l l l c ( / / l l l l ( ( / / l k k l / ( ( ( / / ( ( ( ( ( / ( ( ( ( ( ( ( ( ( [ u & & * ..*.+.*.2.:.2.O./ ( / ( z / l d y q y q 2 q ( / c / ( ( / ( ( ( ( ( ( ( ( ( ( ( ( ( ( ( ( ( ( ( ( ( ( ( ( ( ( ( ( ( ( ( ( ( ( ( ( ( ( ( ( ( ( ( _ ( ( ( ( _ ( ( _ _ ( ( ( ( ( ( _ ( ( ( ( _ _ ] _ [ ] [ [ [ [ _ [ [ [ [ [ ] [ [ ( l y q q w 0 q l l l v ( ( k e g u * + $ ..*.6.4.%.l l / l l f q q q 9 f l / c v ( ( ( / / ( ( ( ( ( ( ( ( ( ( / / ( ( / ( ( / / / / ( / / / / / / / / ( { [ [ ( v / / ( ( ` ' ' v / ( ( ( [ _ ( ( ) ( ` ( ' ` ( ' ` ` [ ( ` ` ( ' [ ` ` ` _ ( _ ' ` ' ( ( ` ( ) ( ] / / f 9 u q 3 y g l / / ( ( ( c l l k y g y & o & O.2.:.@./ ( ( ( ( ( ( ( ( ( ( ( ( ( ( ( ( ( ( ( ( ( ( / ( ( ( ( / ( ( / / / ( ( / v l l l / / / l l g l v l c l l l l l k k k k l l k k l l l l l l k l l l l l l l l k k l l l l l l l l l l l l l l l l l l l k l k k l l l k k g y 9 q y q u k k f f ) ....[ ' ..' & $ + & v ( / ( ) [ ' ) ) / / 6.,X,X;X{ ( ) ( ` ( ) [ [ ' [ [ [ [ [ [ ] [ 4.e.y.",
"q X.i.r.9.{ ..$.*.=.[ ( ( ( ( ` ( ( ( ` ' ` ( ( ) ) ( f u u u u u y u u u u y + o + + * f y y u u u y y y y y 3 * * = * * 9 y q q q y y q q u u u u u u u u u u u u u f u f f g g f g f g l l l l l l l l l l l l l l l l l l l l l l l l l l l v / / c l l g l v / / c k l l k / ( ( ( ( ( ( / ( ( ( / / / / ( ( ( ( ) ) [ f & * * ..%.+.*.2.2.2.O./ ( ( ( / / h g y 3 3 9 3 y / / / ( / / / / ( ( ( ( ( ( ( ( ( ( ( ( ( ( ( ( ( ( ( ( ( ( ( ( ( ( ( ( ( ( ( ( ( ( ( ( ( ( ( ( ( ( ( ( ( ( ( ( ( ( ( _ ( ( ( ( ( ( ( ( ( ( ( _ ( ] ( ] _ _ [ _ ] ] ] ] [ [ [ _ [ [ ( / l u 9 q 2 q ( ( z ` v / k y i u * + + ..=.7.7.%.l ( / v / q 3 3 q = q / ( ( / ( ( ( / ( / ( ( ( ( ( ( ( / ( / ( / ( ( ( ( / / / / ( / / / / / / / v ( [ ( [ ' / / z / v ( [ [ ( ( / / z / ( ( ' ' ( ' ' ` ' ` ` ` ` ` ( ( ( ` ` ( ] ` ` ` ` ( ` ) ( ( ( ` ( ( ( ( ( ( g u y q 9 u f g ( v ( ( ( c l l k y g y & + $ O.:.=.O.( ( ( ( ( ( ( ( ( ( ( ( ( ( ( ( ( ( ( ( ( ( / ( ( ( ( ( ( / ( / l / ( ( / v l l l l l l l [ / l / l c l l l l l l l k l l l k k l k k l l l l k k l l l l l l l l l l l l l l l l l l l l l l l l l l l l l k l l k k l k g q 9 q 9 9 f f g c c ' ....[ [ ' ) & & $ & c v v l l ( ( l c ) ( 7.,X,X>X{ ( ' ( ` ( ' [ [ [ ' ` ( [ [ [ [ [ 4.9.y.",
"e X.y.r.9.{ { *.*.*.' ( ( ( ` ' ( ) ( ` ' ` ( ( ( ) / f u y u u u u u u u u u $ . + + * g u f f f u y u u y y q 2 = = = 3 q q 9 q q y y y y u u y y u u u u u u u f f u u f f f g f g g g l c l k l l l l l l l l l l l l l l l l l l l l l l l c / / / l l k l / / ( / l l k l / / / ( / ( / / ( ( ( ( / ( ( ( ( ( ( ( ( [ f & * * X.%.+.;.2.2.2.O./ ( / / ( / c ( l 9 9 q g / / / / / / / / / ( ( ( ( ( ( ( ( ( ( ( ( ( ( ( ( ( ( ( ( ( ( ( ( ( ( ( ( ( ( ( ( ( ( ( ( ( ( ( ( ( ( ( ( ( ( ( ( _ ( _ ( ( ( ( ( ( ( ( ( ( ( ( _ [ ) [ [ _ _ ' [ _ ] [ ] ) ' _ ] [ [ ( ( / f 9 9 9 d ( l ( ( ( ( j e g y * & + ..=.7.7.%.l ( ` ' ( k u 9 q q f / v c / ( / / / / / ( ( / ( ( ( / / ( ( / / ( ( / ( / / / / / / / / / / / / / ( [ ( [ [ ( / / ( / ( [ ' ) ` ( ( / / [ [ ( ) _ ) ) ( ) ` ( ` ' ( ( ` ( ( ( ( ' ( ` ( ( ( ( ) ( ) ( ( ` ( ( [ ( ( / g q y u f d l ( / / ( ( l l l k y g y & + & ..:.*.+.( ( ( ( ( ( ( ( ( ( ( / / / ( ( ( / ( ( ( ( ( / / / ( ( ( / ( / l ( ( / ( v g k l c l l v [ ' / / l l l l l l l l k l l l l k k k k k l k l l l l l l l l l l l l l l l l l l l l l l l l l l l l l k l l l l l l k l l l g f q q 3 9 f g c ( c ' ..X.[ c ) ' & & + & c l l v c [ ) l l v l 4.,X,X>X{ ( ' ( ( ( ` ' ( ( ` ( ( ` ( [ [ [ 4.9.y.",
"e X.t.r.9.{ ..%.*.%.[ ( ( ( ( ( ( ( ( ( ( ( ( ( ( ) ( f u u u u u u u u y u u & o o o * f u u u u u y y u q q 9 3 3 2 3 3 9 9 9 3 9 9 q 9 q y y q y y y y y y y y y u y y u y u f f f f g g g k k l l k g l k k k l l l l l g g l k l l k k l g c ( / ) l g g l ( / / ( l f g c / z / / v / / / / v / / / / / / / / ( / / _ f * * * O.@.%.*.2.2.4.O.l / l c c c / / / c l l l / l c c v v v / / / / ( / / / / / ( ( ( / / / / / / ( ( / / / / / / / / / ( ( / / / / / / / / / / ( ( ( ( / / / ( ( ( ( ( / ( ( ( ( ( ( / / ( ( _ ( ( ( ( ( ( ( ( _ _ _ ( ( ( ( ( / ( / l l c l l l l l / ' ( ' [ k y g y * $ + ..=.6.6.%.l ( ( / v v v z l l l l l c v v v l v v l v l c c c c l c l c c c v c v v c v v c v l c c l v c c c / ( ( ) ( / / / / / ( ( ( ` ( ' ( / ( ( ( ( ( ( ( ( ( ( ( ( ( ( ( ( ( ( ( ( ( ( ( ( ( ( ( ( ( ( ( ( ( ( / / / v v ( k 9 f l v v / / v / / ( l k l k y f y & o & O.;.*.O.v / / / / / / / / / / / / / / / / / / / / / / / / / / / / / / c l l l v ( / l l l l g g l ( v v / l g g k k k g g g g g g k k g g g g g k k g k k k k k k k k k g k k g h k k k k k k k k k g k k g k k k k k k g k g g g f k q 3 y g g f l v l ' ..[ ) k v v & & + + l c l / ( ( / / c l k 4.,X,X>X{ ( ) ` ( ( [ [ ( ( ( ( ( ( ( [ ' ' 2.9.t.",
"9 X.t.t.9.....%.*.*.[ ) ) ( ( ( ( ( ( ( ( ( ) ( ( ) ( f y y u u u u u y u u u $ . o . & y q y u u y y u u y u u u u f f f f g g g g k g g g l l l k l l l l l l l l l l l l l c c c c l v v v c c c ( ( ( ( ( ) ( ( ) ( ) ) ) ) ) ) ) ( ) ' ' / ' { [ [ ( / ( ( [ [ { [ [ ' [ [ [ [ [ [ [ [ [ [ [ [ [ [ [ [ [ [ [ { ..[ [ o.f & & & ..+...@.:.2.2.%...O.O...{ O.O.O.{ { [ [ { { O.....{ { { } { { { { { ..{ { { ....| O.{ { ....O.O.O.o.O.O.O.O.O.O.O.O.O.O.O.O.O.O.O.O.O.O.} o.O.O.O.O.O.O.O.O.O.O.O.O.O.O.O.O.O.O.O.O.O.O.O.O.O.O.+.O.+.+.+.+.+.+.+.+.+.+.+.+.+.+.+.+.O.@.@.%.%.+.+.+.+.+.@.%.z y g y * + + ..=.7.7.*.{ O.| O.O.{ { { O.+.O.+.O.+.+.+.+.O.+.+.{ O.+.+.O.+.+.+.+.+.+.+.+.O.+.+.+.+.+.+.O.+.O.O.O.O.O.O.O.O.O.O.O.O...{ O.O.O.O.O.{ O.O.O...{ { { { O.O.O.O.O.O.O.O.O.O.O.O.O.O.O.O.O.O.+.O.O.O.O.O.O.O.O.O...O.O.O.O.O.O.O.O.O...[ { O.O.[ ( ( [ [ ( ( l k l g q f q + o + { @.%.@.[ [ { { { { { { { { { { { { { { ..{ { { { { { { { { { { | ..{ [ { { { { { { { [ [ [ [ [ [ [ [ [ { { { [ [ [ [ [ [ [ [ [ [ [ [ [ [ [ [ [ [ [ [ [ [ [ [ [ ' [ [ [ [ [ [ [ ' ' [ [ [ [ [ [ ' ' ' [ [ ' [ [ [ ' [ [ [ [ [ ' ' ' [ / k / [ ( / ( / / ' ......v c c & $ + & l l l v v v v v c c l 2.,X,X>X{ ( [ [ ' ` [ ' ( ( ( ( ( [ ( ( ( ' 4.9.r.",
"9 O.r.r.9.....*.=.%.[ ) ( ( ( ( ( ( ( ) ( ( ( ( ( ( ( u u y u y u u u u u u u $ o o o & y q y u f u u u f l c v v v c c l c c c c c c c c l v / / / / / / / / / ( ( / / / / / / / ( / ) ) ) ' c / ( [ ......................O.......O.O.............{ ..O.....{ O.O.O.O.O.O.O.O.O.@.+.O.O.O.+.+.O.O.+.@.@.+.@.+.%.%.%.+.O.O.f & & & 9 y % v 3.2.2.2.2.=.=.:.=.=.<.<.<.2.2.2.<.=.<.<.=.=.=.=.=.=.=.=.=.=.=.=.=.=.=.=.=.=.=.=.=.=.:.=.=.=.=.=.=.*.=.=.*.*.=.=.=.=.=.=.=.=.=.=.=.=.=.=.=.=.=.=.=.=.=.=.=.=.=.=.=.=.=.=.=.=.=.=.=.=.=.=.=.=.=.=.=.=.=.=.:.:.:.:.:.:.:.:.:.:.:.:.:.:.=.=.=.<.=.:.:.:.( y g y * + + [ =.7.7.:.*.*.*.=.=.=.*.=.*.*.*.=.=.=.=.=.=.:.=.=.*.*.2.2.2.2.2.2.2.2.<.2.2.2.2.2.2.2.2.:.:.2.2.2.:.2.2.2.=.=.=.=.=.%.*.=.*.*.=.*.*.=.*.*.*.*.*.*.%.%.*.=.*.=.=.*.%.*.=.*.*.*.*.*.*.*.*.*.*.*.%.*.*.%.%.*.*.*.*.*.*.*.*.*.*.*.*.*.%.%.%.%.%.%.+.+.O.O.' ( l k l k q u 9 & . . ' %.%.@.O.O.O.O.+.+.+.+.+.+.+.+.$.+.%.%.%.%.$.$.%.%.%.+.$.$.%.%.%.%.%.*.%.%.%.%.%.%.%.%.%.@.+.+.+.+.$.+.+.+.+.+.+.+.@.@.+.+.+.+.@.@.+.+.+.+.+.+.O.O.O.O.O.O.O.O.O.O...O.O.O.O.O.O.O.O.O.....O.O...O.O.O...O.....O.O.O.O.O.O.....O.O...{ { { { [ [ ) ( ( ) ..O...v ( c & & $ & c l l l v / / v l c l 2.,X>X;X[ / ' [ ( ` ` ` [ [ ' [ ' ' ( ( ' ' 4.q.r.",
"9 O.y.t.9.[ { %.=.=.[ ( ( ( ( ( ( ( ( ( ( ( ( ) ( ( / y u u u u u u y y y y u $ . o . $ q 9 e q y u u y y c / v c l l l l l c k l c c c c l / / / / / / / / / ( ( / ( ) ) ) ) ( ) v / [ [ [ ' c / ) ) ................................O.O.........O.O.O.O.....O.O.O.O.O.O.O.O.O.+.@.O.O.O.O.+.+.O.+.+.@.@.@.@.%.*.%.@.%.O.+.l @ @ & * y 3 / 2.2.2.2.:.=.<.=.=.=.=.<.:.:.:.:.:.:.=.=.*.=.=.=.=.=.=.*.=.=.=.=.=.*.=.=.=.=.=.=.=.*.=.=.=.=.*.=.=.=.=.=.*.*.=.=.:.=.=.=.=.=.=.=.=.=.=.=.=.=.=.=.=.=.=.=.=.=.=.=.=.=.=.=.=.=.=.=.=.=.=.=.=.=.=.:.:.:.=.=.:.:.:.=.:.:.:.2.:.:.:.:.:.:.:.:.=.=.2.2.2.2.( y g u * $ + [ =.6.7.2.%.=.=.*.=.*.*.*.*.=.=.=.=.=.:.<.:.<.=.=.%.*.:.2.2.2.2.2.2.2.<.2.2.2.2.2.2.2.<.2.2.2.<.:.:.:.=.2.2.=.=.=.=.:.*.=.:.=.=.=.=.=.*.=.=.=.=.=.*.=.*.=.=.=.=.*.*.*.*.=.*.=.*.%.%.*.*.=.%.*.=.%.%.*.*.%.*.%.%.*.*.*.*.*.*.%.*.*.*.*.*.%.%.@.@.+.O.{ [ / k g k f 3 y y & o + l ' ' ....O.O.O.O.O.+.+.+.$.+.+.$.+.%.%.%.%.%.%.%.@.%.%.%.%.%.%.%.%.*.*.%.%.%.%.*.*.%.%.%.%.%.@.@.@.+.+.+.+.+.+.+.O.O.O.+.O.O.+.+.+.+.+.O.+.+.O.+.+.O.O.O.+.O.O.O.O.O.O.O.O.O.O.O...O.........O.O.O.O...O.O...O.....O...........O.......{ ..[ [ ) / ( ( / _ [ [ v / f + $ $ & v v c l v v v v l l l <.,X>Xs.[ ( ' ` ( ` ( ` [ [ [ ( [ ` ( ( ( [ 4.9.r.",
"9 O.r.t.9.O.%.*.%.%.[ ( ( ( ( ( ( ( ( ( ( ( ( ( ( ( / u u u u y y y u y y y u $ o o + + + + + 2 u u u u u l v c l l l c c l l l l c c c v v ) ) ) ) ) ) ) ) ) ) ) ) ' ' ' ) ) / ) / ) [ ..[ ) / / ) [ ............O.X.O.O.O.O.O.X.X.O.O.O.O.O.X.O.O.O.O.O...O.O.O.O.+.@.+.+.O.O.+.O.O.O.O.O.O.O.O.O.@.+.@.@.@.%.%.:...k v ) q & & & * 3 = v :.=.*.*.=.=.*.*.%.%.%.=.=.:.:.:.*.*.*.*.*.*.*.*.*.*.*.*.*.*.*.*.*.*.%.%.*.*.*.*.%.%.%.%.%.*.*.*.*.*.*.*.*.*.*.*.=.=.=.=.=.=.=.=.*.*.=.=.=.=.=.=.=.=.=.=.=.:.*.=.*.=.=.=.=.:.=.=.:.=.:.:.:.:.:.:.:.:.:.:.:.:.:.:.:.:.2.:.:.:.:.:.2.2.:.2.2.2.2.2.2.3.[ q g u & $ . ' 2.7.6.2.=.=.*.*.*.=.=.=.*.=.=.*.=.=.=.*.=.=.=.:.=.=.:.:.2.<.2.2.2.2.2.2.2.2.2.2.2.2.2.2.2.2.2.2.2.2.2.:.:.:.:.2.2.:.:.:.:.:.=.:.:.:.:.:.:.:.=.=.=.=.*.%.*.%.*.=.*.*.*.%.*.%.%.%.*.=.=.=.=.%.%.%.*.%.*.*.*.=.*.*.*.*.*.*.*.*.*.*.*.%.%.%.%.@.@.O.O.O.{ / f f f * & 9 9 & + $ & & * ) { ..O.O.O.O.O.+.+.+.+.+.+.+.%.%.%.%.%.%.%.%.%.*.*.%.*.%.%.%.%.%.%.%.*.*.*.*.%.+.+.+.@.@.+.@.%.%.@.+.+.O.O.+.+.@.+.+.O.O.+.O.O.O.O.O.O.O.O.O.+.O.O.O.O.O.O.O.O.+.O.O.O.O.O.O.O.O.X.X.O.O.O.O.O.O.O.O.O.O.O.O.O.O.O.O.O.......O.........[ ' ) ' ) ) c l l * & & & & + & c c c v c c v c c l l :.<X>Xs.[ / ( ( ( ` ( ( [ { ( ( ( ( ( ' ( ' 2.9.r.",
"3 O.t.r.9.$.%.%.@.@.[ ( ( ( ( ( ( ( ( ( ( ( ( ( ( ) / u y y u y y y u y y u y + . + + o o o + & y 9 q y y y y u u u u u u u u u u u u u u u f f f g g g g g g g g g g g g g g g g g g k k g g k g l l k l k l k l l l l l l l l l l l l l l l l l l l l l l k l l l k l k k k k l k l l l l l l l l c c c c c c c / u + & & & & + $ & & + u O.[ ' ) ) ) ( ) ) ) ) ) ) ) ) ) ) ) ) ( / / ( / ( ( ( ( ) ) ) ( ) ) ) ' ' ' ' [ ' ' ' ' ' ' ) ) ) ' ' ' ' ' ) ' ' [ ' ' ' ' ' ) ) ) ) ' ) ) ) ) ) ) ) ) ) ) ) ) ) ) ' [ [ ) _ ) ) [ ' ' ' ' [ [ [ [ [ [ [ [ [ ' ' [ ' ' [ [ [ [ [ [ [ [ [ [ [ [ ..O.l q g u & + + u ' [ [ ' [ [ ' [ [ [ [ [ ' [ [ [ [ ' ' ' ' ) ) ) ) ( ) ) ) ) ' ) ) ) ) ( ( ) ( ( ( ) ) ) ( ) ) ( ( ( ( ( / ( v ( ( v / / / / / / / / / / ) ( ( ( ( ( ( ( ( ( ' ) ) ( ( ( ( ( ( ( ( ) ' ) ' ( ( ' ' ' ) ' ' ' ' ) ) ) ) ) ) ' [ ' ' ' ' ' ' ) ( ( ( / ( c f f f * & = $ . o o * 3 2 c / ( ( / / / / ( / / / / / ( ( ( / / v v c v v v v v c c c l c l l l l c c c l l l l l l k k l l l l l k k l k l k l k k l k k k k k k k k k k k k k k k k k k k l k k k k k l k k k k l l l l l l l l l l l l l c l l l l c c l c c c l l l l c c l l e & $ + & & + * l l l c l l c l l l l =.>X>Xs.[ / ( ` ` ` ( ) [ { [ [ [ [ ' ( ' ` 2.9.r.",
"3 O.t.e.9.$.+.%.%.*.) ( ) ( ) ( ( ( ( ( ( ( ( ( ( ( / u y u y u y y y y u u y $ . o o o o + + + 3 9 y q q 9 9 9 9 9 9 9 9 3 3 9 9 9 9 9 9 9 9 9 9 9 9 9 9 9 9 9 9 9 9 9 9 9 9 9 3 3 9 3 3 3 9 9 9 9 9 9 q q 9 q q q 9 9 9 q q q 9 9 9 9 q q q q q 9 9 9 9 9 9 9 q q e q q q q q 9 9 9 9 9 9 9 9 9 9 9 9 9 9 e e y y 3 & & & & + + + $ + + * 9 e 9 9 q e 9 9 q q q q q q q q 9 q 9 y y q q e q q q q q 9 9 9 9 q q q 9 9 9 q 9 q q 9 e 9 q q q q q q q q q 9 9 q q q q q q q q q q q q q e q q q q e y q q 9 e q q q q q y y q y y e q q q q q q q q q q q y 9 9 9 q 9 9 9 9 9 9 q y y y y y y 9 3 y f y & + & = q u f y u u f u u u y y y y y y y y y y y y y y y y q y y y y q y y y y y y y y y y y y y y y y y y q e q y y q y y y y y q y q y q q q y q q q q 9 q 9 q q 9 q q q 9 9 9 9 q 9 9 q q q q q q 9 9 9 9 9 9 q q q q q q e q q q q q q q q q q y q 9 9 9 9 9 3 9 * + $ $ o o o & 3 * 9 2 9 9 9 9 9 q q 9 q q q q q q q q q q q q q 9 q q q q q q q q q q q y q q q q q q q 9 9 9 9 9 9 9 9 q 9 9 9 9 9 q q 9 9 9 9 9 9 9 q q 9 q q q y y y q e e y q y q q y q q q y q q q q q q q q q q q q q q q 9 q q q q q q q q q y y e q y y y u y q 9 & & + + & & + * l l l l c l l l l l l =.>X>Xs.[ / ( ( ` ( ( ) [ +.+.{ { O.( ) ' ' 2.r.r.",
"3 O.r.e.9.+.+.%.%.%.[ ) ( ( ) ) ( ( ( ( ( ( ( ( ( ( / u y y y y y y y u y y y & . o o o o o o o 9 q y y y e 9 9 9 9 9 9 9 9 9 9 9 3 3 9 3 3 3 9 9 9 9 9 9 9 9 3 9 9 9 9 9 9 9 9 9 9 9 9 9 q q q y q e y e e e q y e e q e q q e 9 9 y y q q y q y y y y y y y y y y y y q y q q q y y y y y y y y y y y y y u u u g q + & & + + + + + + o & f u y y u y y y y y y y y y y y y y y y y y y y y y u y u y y y u u u u u y y y u y y y u y y y y y y u u y y y y y y y y y y y y y y y y y y y y y y y u y y y y y y y y y y y y y q q y y q y y y u y u u y y y u u u u u u u u u u u u u u u u u u u u y & $ o 3 g g f f u f f f j g f g u f f f u u u u u u u u y y y u u y u u u u u u y y u u u y y y y u u u y u y y q q u u y y y y y y y y y y y y y y y y y y y y y y y y y y y y y y y y q y q y y y y y y y y q y y y y y y y y y y y y y q q q q q y q 9 9 3 3 3 = 3 * o o o o o o & & & 9 9 9 y y y q y u y y y y u u u y y y y q y y y y y y y y y y y y y q y y y y y y q e y y y y 9 q e y q q e y y y y e y y y e y e e q q q q y y y y q q y y y y y y q y y y y y y y y q y y y y q q y y y y y y y y q y y q q 9 q q 9 9 9 9 9 9 e 9 9 9 + + + $ & & + * l l l l l l l l l l l =.>X,Xs.[ / ` ( ( ( ( ( [ @.O.{ ....' ` ) ` 2.r.r.",
"3 O.r.e.9.O.%.=.*.%.+.+.+.%.' ) ( ( ( ( ( ( ( ( ( ( / u y y y y y y y y y y y & o o o o o o o + 3 9 3 9 9 9 9 9 9 9 9 3 3 3 9 9 9 9 9 9 9 9 9 9 9 9 9 9 3 3 3 9 9 9 9 9 9 9 3 9 9 9 3 3 9 9 9 q q 9 9 9 9 9 9 9 9 9 3 3 3 9 9 9 9 9 9 9 9 9 9 9 q 9 9 q q q 9 e q q 9 e e e y y y y y y e y y y y y y y y y q q 9 y 3 + & & + + + + + + + + y y e y y q 9 q q y e y y y y y y u u y y y y y y y y y y y y q y y y y y y q q q y q y y y y q q y y q e q y y e y y y y y y q y q y y q y y y y y y y y y y y y u y y y y y y y y y y y y y y y y y y y y y y q y y y y y y y y y y y y y y y y u u y y y & + + 3 f u u f u u u u f u f f u u u y y y y y y y y y y q y y y y y y y y y y y y y y y y y y y y y y y y e y q y y y q q q q y y y y y y y y y y y y y y q q q q y y y q q y y y y q y q q y y y q y q q q y y y y y y y y y y y y y y y q y y y y y y q q y 9 9 y * o o . . o + + + + 9 9 q q 9 q q q y y q y y y y y y y y y y y y y y y y q y q y y y y q q q y q y y y e e y q q e q q e q e q q e e q e e e e e e q q y e q 9 9 q q 9 q q q 9 9 q 9 q q q y y q q q q e y q e q q q q q q y q q q q q q e e q q q q y e y y y y y y y y y & + + & * & & * l l k l l l l l l l l =.>X>Xs.[ / ( ( ( ( ( ( [ @.@.{ ..%.{ ( ) ' 2.e.r.",
"3 O.r.e.7.{ +.%.$.%.%.=.%.*.) ( ) ) ( ( ( ( ( ( ( ( / y y y y y y y y y y u u & o + o + + o o o + + + + + + + + + + + + + + $ $ + + + $ $ + + + $ $ $ $ $ + + + + $ $ + + + $ + $ $ $ + + + + + + $ $ + + + + $ + + + + + + + + + + + o o o + + o o o o + + + o o + o + + + o + + + + + + + + + + + + + + + + + + + + + + + + + + + + o o o o . o o o o o o + + o + + + $ $ + $ $ $ & & $ $ & & & + + + + + + + $ $ $ + + $ $ $ + + + + $ $ $ $ $ $ $ + & $ $ + $ $ $ + + + + + + + + + + + + $ $ $ + $ $ $ $ $ + + $ $ + $ $ & + + + + + $ $ $ & $ $ $ $ $ & & & & & & & & & & & & & & & & & & & & * & $ + o + + + + + + + + + + + & $ $ + $ + + + + + + + + + + + o o + + + + + + + + + + + + + + + + + + + + + + + $ + + & & + + + $ + + $ + + + + + + + + + + + + + + + + + + + + + + + + + + + + + + + + + + + + + + + + + + + $ $ $ + + + + + + + + $ + + + + + $ + + + + . o o o . o + o + + + + + + + $ $ $ $ & & & $ $ & & $ + + + $ $ + + + + + $ $ $ @ & $ & & + + $ + + + $ $ + + + + + + + + $ $ + + $ $ $ & $ $ $ $ $ + $ + + + + + + + + $ + $ + + + + $ & + + + + + + $ $ + $ + + $ $ $ $ $ $ + + + + + + + + + + + + $ + + $ & $ & & & & + + + & & @ + * l k l l l l l l l l g =.>Xf.p.' v ( ( ( / ( ) ( @.+.{ %.$.[ [ [ ' 2.9.r.",
"3 O.r.r.8...O.@.%.*.#.<.*.&.( ) ( ( ' ( ( ( ( ( ( ( / u y y y y y u u y u y f & . o o + + o o . o o o o . . . . . . . . . . . . . . . . . . . . . . . . . . . . . . . . . . . . . . . . . . . . . . . . .   . . . . . . . . . . . . . o o . . o . o . o o . . . o o o o o o o o o + + + o + o o o o o o + o o o + + + + + + + + + o o o o o o o . . . . . . o o o . . o o o o . o o o o o . o o o o o + o o + + o + o o o o o o o o o o o o . o o o o o o . . o o o o o o o o o o o o o o o o o o o o o o o o o o o + o o o o o o o + + + o o + o o o o o o + + + + + + + + + + + + + + o o + o o o o o + + o o o o o o o o o o + o + + + + $ $ + + + + + o o + o o o o + o o o o o o o o o o o o o o o o o o o o o o . o o o o o o . . . . . . . . . . . . o . o o . o o o o . o o o o o o o o o o o . o o o o o o o o o o o o o o o o + o o o o o o o o o o o o o . . . . . o o . . o o o o o . . o . o o o o o o o o o o o o o + o o o o o + + o o o o o o o o o o o . . . . o . . . . . . . . . . . . . . . . . . . .           .   . . . . . . . . . . . . . . . . . . . . . . . . . . . . . . . . . o o . o o o o o o o o o o o o o o o o o + + + o + $ & + @ & & 3 l g k l l l l l l l g =.>X;Xp.' v / / ( ( ( ( ( { [ ' [ [ [ [ ' [ 2.9.r.",
"3 O.r.e.8...o.@.$.%.+.+.%.+.{ ( / ) ' ( ( ( ( / ( ( / y y y y y y y y u y q y & o . o o + o o . o . . . . o o o o o . o . o o . o o o o o o o o o o o o o o o o o o o o o o o o o o o o o . . . o o . o o o . . . . . . . . . . . . . o o o o o o o o o o o . . o o o o o + o + o o + o o + o o o o o o o o o o o o o o + + o o o o o o o o o o . . . . o o o o o o o o + o + + + + + o o o o o o o o o o o o . . . . . o o o o o o o o o o o o o o o o o o o o o o o o o o o o o o o o o o o o o o o o o o o o o o o o o o o o o o o o o o o o o o o o o o o o o o o o o o o o + + + + + o + + + o o o o o o o o o o o + + o + o o o o + o o o + + + o o o o o o o o o o o o o o o o o o o o o . o o o o o o o o o o + o o o o o o + + o o o o o o o + o + + o o o o o o o o o o o o o o o o o o o o o o o o o o o o + o o o o o o o o o o o o o o o + o o o o . . o o . . . . . . . . . . . . . . . . o o o o o o o o o o o o o o o o o o o o o o o o o o o o . o o o o o o o o o o o o o o o o o o o o . . . . . . . o . . . . . . . . . . o . . o o . o . o o o o o o o o o o o o o o o o o o o o o o + + o o + o + + o + o o o o o o o o o + + + + + + + @ @ & & o * k g l l l l l l l l k =.;X>Xp.` v / ( ( ' ` [ $.O.' ( / [ [ ' [ [ 1.9.r.",
"= O.r.r.9.{ O.+.+.%.+.' ' ' [ ( ( ' [ [ ( ( ' ( / / / u y e y y y y y y y e 3 $ + $ + & $ $ & $ & $ $ & & & & & $ $ + $ & & & & & & & & & & & & & & & & & & & & & & & & & & & * & & & & * * & * * * * * = * * * = 2 = = 2 * 2 2 * 2 * * * * * * * * * * * * * * & & & & * * * * * * * * * * * * * * * * * * * * * * * * * * * * * * * * * & & & & & & & & & & * & & & & & * & & & & & * & & & * & & * * * * * * * * * * * * * * * * * * * * * * * * * & & * * & & * & & & & * * * & & & & & & & & & & & & & & & & & & & & & & & & & & & & * & * * * & & & * * * * * * * * 2 = = * * * = = 3 3 3 3 9 9 9 3 3 3 2 & & & & & & & & & & * & & & & & & & & & & $ & $ & & & & & & & & + $ & + & & & $ $ & & & & & $ $ $ & & & & & & & & & & & & & & & & & & & & & + + $ & & & + $ $ $ $ + $ $ $ + + $ $ & $ $ & + $ $ + $ $ + & $ $ $ $ & $ & & & & & & & & & & & & & & & & & $ + $ + + & $ + $ & $ $ $ $ $ $ $ $ $ $ & & & & & & & & & & & & & & & & & & & & & & & & & & & $ & $ $ $ & & $ $ + $ $ $ $ + + + + + + + + $ $ + $ + $ $ & & & & & & & & & & & & & & & & & & & & & & & & & & & & & & & & & & & & & & & & & & & & & & & & & & & & & & & & & & & * * * 2 * * 2 2 * 9 9 9 y y g g l l l l g =.s.>Xp.` v / / [ O.O.O.%.%.' / ( [ ' ' ] ' 2.9.9.",
"2 X.r.w.7.{ O.+.&.%.O.) ' ' [ [ ......O.[ ( ( / / / / u y y e e y e 2 * * 3 3 9 3 e q y y y u u u u u u u u y u y u u u u u u u u u u u u y u u u u u u u u u u u u u u u u u u u u u f u u u u u u u u u u f f f f f f f f f f f f f f f f f f f f f g g g f f f f f f f f f g g f f f f f g g g f f g g g g g f f f f f f u u u f u f f f f f f u f u u f g g g g g g g k k g g g k g h g g g k g k k g h g g k k k k j g k k g k k g g k k g g k k g g h k k k k k g k g k k k k k k k k k k k k k k k k k k k k g k g k k k k k k k g k k k k k h k k g k k k k k k k k k k k k k l k k k k k k k k g g k g k k g k g g g k k k k k k h h h g k k g g g g g g g g g g g g g g f f f g g g g g g g g g g g g g g g k k g g k k g k k g k g g g g g g g g g g g f g g g g g g g g g g g g g g g g g g g g g g g g g g g h g k g g h h k k g g g k k h g g g g g g f f f f f u u u u u u u u u u u u u u u f f f f f g g f f g g f f f g f g f f g g g g f f f u u f u u u u u u u u y y y y y y y y y y y y y y y u y y y y u u y u y u u u u u u u u u y u u u u y u y u y u u u u u y y y y u y u u y y u u u u u u u u u u u y u u y u y u u u u u u u y y u u u u 9 & & 3 % 3 g l l k l g =.s.s.y.' / ( / [ +.$.{ O.O.{ [ [ ' [ { [ ' 2.9.q.",
"2 O.9.9.7.[ O.&.%.+.O.' [ ' ' [ O.O.[ ..[ ( ' ( / ( / y e q y q y 9 & % o & 9 y y y u y y u u u f u u u u u u u u u u u u u u u f u u u u u u u f u u u u f u f f u f f f f u u u f u f f f f f f f f u f f f f f f u f f f f f f f f f f f g f f f f g f f f f f f f f g f g g f g f f f f f u f f f f f f f f f f f f f f u u u u d f f f f f f f f f g f g k k k k l l k k k k k k l k l l k l l k l l k k l k k k k k k l k l l l k k k l l l l k k l k k k g g g g k k k k k k k k k k k k k k k l k l k k l l k k k k k l l l k l k k k l k k k k k k k k l k l l l l l k l l l l l l l l l l l l l l l l k l l l l l l l l l l c l l l l l l l l l l k l l l l l l l l l l l l l l l l l l l k l l l l l l l l l l l l l l l l l l l l l l l l l l l l l l l l l l l l l l l l l l l l l l l l l k l k l l l l l k l l k k l l k l l l l l l l l k k k k g k k g g g g g f f f f f f f f g f f g g g g g g g g k g g g g g g g k g j k g g g g g g g k g f f f f f f f f f u f f u u u f f f f u f f u u u u u u u u u u u u u u u u f u f u u u u u u f u u u u u u u u u u u u u u u u u u u u u u u u u u u u u u u y u u u u u u u u y u u u u u f f g g f g y * & * & 2 k l l l k g =.;Xs.p.[ ( ' { [ ..O.O.O.O.O.O.O.[ [ [ [ [ 2.q.r.",
"3 O.9.r.9...O.%.%.%.+.[ [ [ [ _ { ..[ ' ) [ [ ' ' / / y q y y q y 9 $ & $ & 3 9 y y y y y y y u u y y y y u y u y y y y u u y y u u u u y u u u u y u y y y y y y y y u y y u u u u d y u u u u f u u f u y u u u u u u y y y y u u u u u u u u f f f f f f f f u u f f f f u f u f u f f f u f f f f f f f f f f f f u d y y y y y y y y y u u f u f u u u f g f f g g g g g g g k k l l k k k k k k k k k k k k k k k k k k g k k k k g g g g g k g k g g k k k k k k k k k k k l k k l k k k g k k k k k g g k k k g g k g k k k k k k k k k k k k k k k k k k l k k k k k k g k l k l k k k k k k g g g g g k k g k k k l l k l l l k k l l l l l l l l l l l l l l l l l l k l l k l l l l l l l l l l l l l l l l l l l l l l l l l l l l l l l l k k k k l k k k l k k k k k g k g g k l l l k l l l l l l l l l l k k k g k k k k k k k k k k k k k k k k l g g g f f f f f f f f f f f f f f f f f f f f f f f f g g g f g g f g g g g g g g g g f g g f f f f f f f f f f f u u y y y y y q y y y y y y y y y y y y y y y y y y y y y y y y y y y u y y y y y y y y y y y y y y y y y y y y y y y y y y y y y y y y y y y y y y y y y u y y u y y y y y y y e 3 * 9 y * 3 k l k l l h =.;X>Xp...[ [ O.O.O.$.+.+.+.+.+.O.{ [ [ [ [ 2.q.r.",
"3 O.9.e.9...O.@.#.%.+.[ ' ) [ [ { ..{ [ ) [ [ [ ) ( z y 9 3 3 & = 9 = & & q q e y y y u u u y y u u y y y y u u u y y y u u u y u u u u u u u u u u u u y y u y u u y u d y y y y y y u y u u y u u u d d f f f f f f f d f f f f f d f f f f f f f f f g g g f f f f f g g g f f g g g f f f f f f f f d f f f u d d y y y y y y y y u y y d u f f f u f f f f g g g g g g g g f g k k g g g g k k g k g g k g k g k g g g g g g g g g g g g k g g g g g g g g g g g g g g g g g g g g g g g k g k k l h l l k l l l l l k l k k k g g g g g g k g g g g g g k g k k k k k k k l l l l k k k k k g k g k g g g g k k k k k l k k k l l l l l l l l l l l l k g k k g g g g g g g g g g g g g g g g g g g g g g g h g k k k g k k k g k k k k k k k k k k g k k k l l l l k l l l l l l l l l k k g g g g g g g g g g g g g k l k k l l k k g g g g g g g g g g g g f f f f f f f f f f g f f f f f f f g g g f g g f g g g g g g g g g g g g g g g g g g g g g f f f f f f u f d d u y y d d f f f f f u u f f f u f f f f f d f d d u u u u u u u u u u u f f f f f f f f f f f f f f f f f f f f f f f f f f f f f u f f u d f u u u u f f u f f f f f f f g g g f u q 3 9 3 2 y g g k g l f %.a.s.a.O.o.+.+.%.%.*.O.O.O.O.+.{ { [ [ [ [ 2.q.9.",
"3 +.9.e.7...O.+.&.%.O.) ) ( ' [ { ..{ { [ ) [ [ ) [ ( u 2 & & & $ q f u f / c l l c l l l l l l l l k k k k l l l l l k k l l l k k k l l l l l k l l k k l l k k k l k l l l l l l l l l l l l l l l l l l l l l l l l l l l l l l l l / / / / / / / / / / / / / ( ( ( / ( ( ( ( ( ) ( ) ( ( ( / ( ( ( ( ) ( ' ( ( ( ( ( ( ( ( ( ( ( ( ( ( ) [ ' [ ) ` ' ' [ { ..[ [ ....O.O.O.O.O.O.O.O.O.O.O.O.+.+.+.@.+.+.$.+.+.$.$.+.+.@.+.+.O.+.+.+.+.+.+.+.+.+.O.+.O.O.+.O.+.O.+.+.+.+.+.@.+.@.@.%.%.%.+.+.+.+.+.+.+.+.+.+.O.+.+.+.+.+.$.+.+.+.$.%.%.%.%.%.%.%.&.%.%.@.$.+.+.+.+.+.+.+.+.+.+.+.$.%.+.+.@.+.+.@.@.%.@.#.@.+.&.%.+.&.$.%.%.@.#.#.&.$.@.+.+.+.+.+.+.+.+.O.+.+.+.O.O.O.O.+.O.+.+.+.+.+.+.+.+.+.+.+.+.+.+.+.+.+.+.+.+.+.O.+.+.+.+.+.+.+.+.+.$.$.+.+.+.@.O.O.O.O.O.O.O.| | } { { } { { } { { { ..O.O.O.O.O.O.O.O.O.+.O.O.O.O.O.o.O.O.O.O.o.o...O.O.O.O.O.O.O.O.o.O.O.{ ' [ [ [ [ [ { [ { { [ [ [ [ [ [ [ [ [ [ [ [ [ [ [ [ [ [ [ { { [ [ [ [ { [ [ [ ' ' [ [ [ / l c c l c c / / c c c c l l c l l l g l l l l l c c v v v / / / / / v v v / v / v v v v c l v c c c v v v c c v v v / v v / v c c c v v v c c / v c c v c v v c c c v v v v c c v v v v c l l l l l l g f k y 3 y = * 9 & & & O.a.s.p.O...+.+.%.$.$.@.@.O.O.+.O.O.{ [ [ ' 2.q.q.",
"3 @.9.w.9...+.+.%.%.+.' ) ' ( ) { { { { [ [ [ [ ) ) ( u * & $ + = k f g c / ( / ) ) ( ( ) ) ) [ [ ' [ ' ' [ ' ' ' [ [ [ ' ' ' [ [ ' [ [ [ [ ' ' [ [ ' ' [ [ [ [ [ [ ' [ [ [ _ ' ' ' [ [ ' [ [ [ [ [ [ [ [ [ [ { { [ [ [ { { { { [ / l / / / / / / / ( [ ..O.O.{ { O.O.O.O.O.O.O.O.O.O.O.O.O.+.+.+.+.+.O.O.O.@.O.O.O.O.O.O.O.O.| | | O.O.O.O.O.O.+.O.+.+.+.+.<.2.2.2.2.2.2.2.2.2.2.4.4.7.6.6.6.6.7.7.7.6.6.7.7.7.7.7.7.7.7.7.7.7.7.7.7.7.8.7.7.7.7.8.8.9.8.8.8.8.8.7.7.7.7.7.7.7.8.7.7.8.9.9.9.9.7.8.8.9.9.9.9.9.9.9.9.9.9.8.8.8.8.8.8.8.8.8.7.7.7.7.7.7.7.7.7.7.7.7.7.7.8.8.7.7.7.7.7.8.7.6.7.6.6.4.4.4.6.3.4.7.9.9.9.9.9.9.9.9.9.9.9.9.9.9.9.9.q.q.q.q.r.q.9.9.9.9.9.9.9.8.8.8.7.7.7.7.7.7.7.7.7.7.7.7.7.7.7.7.7.7.7.7.7.7.7.7.7.7.7.7.7.7.7.7.7.7.7.7.7.7.8.8.8.8.8.8.7.7.8.8.8.8.7.8.8.9.8.8.8.7.7.7.7.7.7.7.4.4.7.7.7.7.8.8.7.7.7.7.7.7.7.7.9.8.8.8.7.8.7.8.9.8.9.7.%.*.=.=.=.<.=.=.2.<.<.<.<.<.=.=.<.=.=.=.2.:.=.2.<.=.=.=.=.2.=.<.=.=.2.2.2.2.2.2.2.4.4.3.%.{ O.O.@.O.O.O.O.O.O.......O.O.O.O.[ c / ( / / ( ( ( ( ( ( ( ( ) ) ) ' ( ( ` ( ( ` ( ` ( ( ( ( ( ( ( ( ) ' ) ) ) ' ) ) [ ' ) ' ) ) ) ) ` ( ( ) ) ) ( ( ) ( ` ( ) ( ( ( ) ) ) ' ' ' ' [ [ ' ( ' ` ) ) ( ( v v k f u & 3 = & * & O.a.a.p.O.{ O.O.+.$.+.+.+.O.O.O.O.O.{ { [ ' 2.9.8.",
"9 *.9.r.r.O.+.*.%.%.+.{ [ [ { [ { [ { { { { { ..[ [ [ k & & & $ 3 v f f k l c v / / / ( ( ( ( ) ( ) ) ) ( ) ( ( ' ' ) ( ) ) ' ' ) ) ' ) ) ) ) ) ' ' ' ) ) ) ) ) ) ) ( ( ( ( ( / ( ( ( ( ( ( ( ( ) [ ' ) ' [ [ [ [ [ [ [ { { [ [ { [ [ [ [ ) ( ) [ ( [ ..{ { [ [ [ [ { [ { { ..} o.} { { ..O.o.{ { { { ....{ { ..{ [ { { [ [ [ [ [ { { { { { { { O.o.O.O.O.+.*.<.=.=.=.=.:.:.2.2.2.2.2.2.2.4.2.2.2.2.2.4.4.2.2.2.4.4.2.4.4.4.4.2.2.1.4.1.1.1.1.2.4.4.4.4.1.1.2.2.1.1.2.1.2.2.2.2.2.2.2.2.2.2.2.2.2.<.2.2.2.2.2.2.2.2.2.2.2.2.2.2.4.4.4.2.2.4.2.4.4.4.2.2.2.2.2.2.2.2.2.2.2.2.4.2.4.2.2.2.2.2.2.2.2.2.1.4.4.4.4.4.2.2.:.2.2.2.2.2.2.4.4.4.4.3.4.4.4.4.4.7.7.7.4.4.4.4.4.4.7.4.7.7.7.7.7.7.7.7.7.7.7.7.7.8.8.7.7.7.8.7.8.8.9.9.8.9.9.8.8.9.7.8.7.7.3.3.4.3.4.4.7.4.7.4.7.7.7.4.4.4.4.4.4.4.4.4.3.3.4.4.3.4.4.4.7.7.4.4.4.4.4.4.4.4.2.4.4.4.4.4.4.4.7.4.4.4.4.4.4.4.6.4.7.7.%.*.%.%.%.=.*.=.=.=.%.*.=.%.%.*.*.%.%.%.%.%.&.#.#.+.$.#.#.%.%.%.%.%.%.%.%.%.%.*.%.%.*.%...{ { { } { { { [ { { { { [ { { { { { / / / ( / ) ( ( ( / / / / / ( ( / / / / / / / ( ( ( ( / / ( / / / / ( / / / / / / / / / / / / / / / / / / / / / / / / v / ( / / / v v / / v v / / / / v / v / c c v l g g f u 9 * * = 3 & O.p.a.:X*.O.&.@.@.%.%.%.%.%.=.%.%.+.+.@.O.{ 4.r.r.",
"u [ +.+.O.[ [ [ [ [ [ _ / / / / / / v / / v c c c v l y = * * * 9 k k g l c v ( / ( ) ( ' ( ( ) _ ' ' ' ' ( ) ' ' [ [ ' ' ' [ [ [ [ [ [ [ [ _ ) ' ' ' ' ' ) [ ' [ [ ) ) [ [ [ [ ) [ [ ' [ [ [ [ [ [ [ [ [ [ [ { [ ' [ [ [ [ ..[ [ [ [ ' [ ..[ [ O.O.O.*.=.=.*.=.=.:.=.=.*.*.=.=.=.=.=.=.=.=.=.*.*.=.=.=.<.<.=.<.=.*.*.=.=.*.*.*.=.*.*.%.%.%.*.=.<.<.<.<.<.<.4.4.4.4.7.7.7.7.7.7.7.8.9.9.9.9.9.9.9.8.9.9.q.q.9.q.q.r.r.r.r.r.r.r.r.r.r.r.r.r.r.y.y.y.r.r.y.y.y.y.y.y.y.y.y.y.y.p.p.p.p.a.a.a.a.y.p.p.p.a.a.a.a.a.i.y.i.i.i.y.y.y.y.y.r.r.r.r.r.r.r.r.y.r.r.r.r.r.r.r.y.r.r.r.r.r.r.r.r.r.r.r.r.r.q.r.r.r.r.q.r.r.p.i.p.y.y.y.r.y.y.r.r.r.r.r.q.r.e.r.r.r.r.q.9.q.q.q.q.q.q.q.8.8.8.8.8.7.7.7.7.7.7.8.7.7.7.7.7.7.8.7.8.8.7.7.8.7.7.8.7.8.9.9.9.q.q.9.8.7.9.8.7.8.8.8.8.8.8.8.8.9.9.8.8.9.9.8.9.9.9.9.9.9.8.9.8.8.7.9.7.7.7.7.8.9.9.7.7.7.7.7.7.7.7.3.4.7.7.8.7.8.7.9.9.7.4.2.4.2.2.2.2.4.4.4.2.2.2.2.2.2.2.2.2.4.2.4.4.4.4.4.4.4.4.4.4.4.4.4.4.4.4.4.6.7.7.7.7.3.=.&.%.%.%.%.%.#.#.+.+.+.+.+.+.+.O...{ c v ( / / [ { ....[ { ....O...{ { { o.....O.O.O.O.O.O.O.O.O.O.O.O.O.O.+.+.+.+.+.+.+.+.+.+.+.+.+.+.@.+.+.+.+.+.%.+.+.O.O.+.@.+.O.O.+.O.+.+.+.+.+.O.+.O.[ [ ' [ ' ) / c ) l k c u q y 9 3 & ' 7.2.*.) v / v v v v v v / v v l c c l c l v v ) ",
"u 3 = 3 * 3 3 * * * * * * 2 * * * * * * * * * * * & & $ 3 ..[ [ ) ..O...{ O.+.+.+.@.+.&.=.=.2.4.9.8.8.8.7.7.7.8.8.8.8.8.8.9.9.9.9.9.9.9.9.9.9.9.8.8.8.9.8.8.7.8.8.8.7.7.7.7.7.7.7.7.7.7.7.7.7.7.7.8.8.8.8.8.7.8.8.7.4.7.8.=.@.*.$.{ [ [ O.=.7.y.t.a.y.r.>X>X>X>X>X,X,X>X>X>X>X>X,X,X>X>X>X>X>X>X>X>X>X>X>X>X>X>X;Xs.s.s.s.>X<X<X2X3X3X2X,X2X3X2X3X3X3X2X3X3X6X9X9X9X9X9X9X9X9X9XqXqXqXeXwXwXwXeXeXeXeXeXeXeXrXqX9X9XqX9X9XeXeXeXeXeXeXeXeXeXeXeXrXrXeXeXeXeXeXeXrXrXeXeXrXeXeXrXrXrXrXrXeXtXtXtXtXrXtXtXtXtXtXtXtXtXtXtXtXtXtXuXuXuXtXtXtXtXtXtXtXsXtXtXtXtXtXtXuXtXtXuXtXtXtXuXuXuXuXsXuXuXuXuXsXsXsXsXuXsXuXuXsXsXsXsXsXsXdXsXsXsXsXsXsXsXsXsXsXsXsXsXsXsXsXaXaXtXtXaXuXuXtXtXtXtXtXtXtXtXtXtXtXtXtXtXrXtXtXtXtXtXtXrXtXtXtXtXrXtXtXtXtXtXuXtXtXqX3X4X6X6X6X9X6X6X6X6X4X9X6X6X6X6X4X4X4X4X6X9X6X6X6X4X6X4X6X4X4X4X4X5X4X4X6X6X4X4X4X4X4X4X3X4X4X4X4X4X4X4X4X4X4X9X8X4X4X3X3X2X3X<X3X4X3X3X2X2X2X2X2X<X<X<X<X<X<X<X<X2X<X2X<X,X<X<X<X,X,X,X,X,X,X>X>X>X>X>X,X,Xi.q.r.r.r.r.r.q.q.q.9.w.e.9.8.8.7.7.4.[ [ [ [ [ [ O.2.=.2.9.9.r.r.9.q.9.9.q.9.9.q.0.q.9.q.q.9.r.r.r.r.r.r.r.r.r.r.r.r.r.r.r.r.r.r.r.r.r.r.r.r.r.r.r.r.r.r.r.r.r.r.r.r.r.r.r.r.r.r.q.q.q.r.9.2.2.=.2.=.%.%.%.%.O.+.O.[ { [ ( / f * * & & & & & & + & $ & & @ & + $ $ & & & $ + $ $ ",
"y 3 3 2 = * 2 * * * * * * * * * * * * * * * * & & & & * q =.*.*.2.2.4.2.2.2.2.4.4.2.<.2.7.8.9.7.r.y.i.i.y.y.y.t.y.y.y.i.y.y.i.y.y.y.y.i.i.i.i.y.i.t.i.t.t.y.y.y.y.y.y.y.y.y.y.r.r.r.r.r.r.r.r.r.r.y.y.r.r.r.r.y.y.r.9.9.i.7...%.O.{ O.$.+.O.9.>Xs.>Xa.9.>X,X,X>X,X>X,X2X,X2X<X<X2X2X2X2X2X<X<X<X,X2X2X,X2X,X,X,X>X>X>X;X;X,X3X3X3X3X3X3X3X4X6X6X6X6X9X6X6X9X9X9X9XqXqXeXwXeXrXrXrXrXrXrXrXrXrXrXrXrXrXrXrXrXrXeX9X9X9X9X9XqXqXeXeXeXeXrXrXeXeXeXeXrXrXeXrXrXrXrXrXtXtXtXrXtXtXtXtXtXtXtXtXpXyXuXuXuXuXsXsXsXsXuXsXsXsXsXsXsXsXsXsXsXsXsXsXsXsXsXsXsXsXdXsXsXsXsXsXsXsXdXsXsXsXdXsXsXdXdXfXdXgXgXfXdXdXsXdXdXdXdXhXgXfXgXhXgXhXhXgXgXgXhXgXgXhXhXgXhXhXgXhXhXgXdXgXfXgXfXfXfXfXfXfXgXgXgXfXfXgXgXfXfXfXfXgXgXdXdXdXsXsXdXdXdXdXdXsXsXdXsXsXsXsXsXsXeX6X9X9X9X9X9X9X9X9X9X9X9X9X9X9X9X9X9X9X9X9X9X9X9X9X9X9X9X9X9X9X9X9X9X9X9X9X9X9X9X9X9X9X9X9X9X9X9X9X9X9X9X9X9X9X9X9X9X4X4X4X4X4X4X4X3X3X4X3X3X3X3X3X3X3X2X2X3X2X2X2X2X2X2X2X2X2X3X2X2X3X2X2X2X2X2X2X<X2X<X<X,Xa.y.r.r.r.r.r.r.r.r.r.r.r.r.9.9.9.7.4.O.{ [ [ [ ( O.*.+.%.q.y.i.y.p.r.r.r.r.r.y.r.q.q.r.r.r.r.r.r.r.r.y.t.r.r.y.r.r.r.r.r.t.t.r.r.y.r.y.y.r.r.y.r.r.y.r.r.r.r.r.r.r.r.r.r.r.r.r.r.r.r.r.r.7.4.6.=.=.=.*.&.@.$.*.%.%.%.%.+...O.g & = $ + $ & & & $ $ & & & & & & & $ $ & & + $ + $ "
};
