/* XPM */
static char *b383b320ec924e95faaa794291e8e78c7yn85akzYPgze7N3[] = {
/* columns rows colors chars-per-pixel */
"500 500 256 2 ",
"   c #16140C",
".  c #291C12",
"X  c #29251B",
"o  c #37281B",
"O  c #38301C",
"+  c #2B2A23",
"@  c #372C23",
"#  c #3A3429",
"$  c #3B3932",
"%  c #1E211A",
"&  c #472A1B",
"*  c #582B1A",
"=  c #5A341D",
"-  c #4B311D",
";  c #682C1B",
":  c #762D1A",
">  c #67371D",
",  c #78361D",
"<  c #71260D",
"1  c #462D23",
"2  c #4C3B2C",
"3  c #463629",
"4  c #5B3C2B",
"5  c #573827",
"6  c #443C32",
"7  c #4B3D33",
"8  c #463B36",
"9  c #563D33",
"0  c #562E22",
"q  c #643B23",
"w  c #6B3C24",
"e  c #633D2B",
"r  c #693725",
"t  c #743423",
"y  c #7B3523",
"u  c #733B24",
"i  c #7C3B24",
"p  c #7C3C2A",
"a  c #743C2A",
"s  c #6A3528",
"d  c #4B1C10",
"f  c #78421E",
"g  c #5A422D",
"h  c #4C4334",
"j  c #4A4539",
"k  c #544334",
"l  c #5C4334",
"z  c #54453A",
"x  c #544B3C",
"c  c #5C4B3C",
"v  c #5A4738",
"b  c #5A523C",
"n  c #49422E",
"m  c #64422C",
"M  c #6C432B",
"N  c #6B4326",
"B  c #734324",
"V  c #7B4424",
"C  c #73442B",
"Z  c #7C432B",
"A  c #794A2B",
"S  c #644433",
"D  c #6B4533",
"F  c #6C4A34",
"G  c #634C3C",
"H  c #6B4C3B",
"J  c #644837",
"K  c #744B34",
"L  c #7B4C33",
"P  c #764937",
"I  c #68533D",
"U  c #74523C",
"Y  c #7B543A",
"T  c #7D512E",
"R  c #6F623D",
"E  c #584C43",
"W  c #5C5343",
"Q  c #5A5548",
"!  c #525049",
"~  c #664D42",
"^  c #645343",
"/  c #6B5444",
"(  c #6C5A45",
")  c #645B4B",
"_  c #6C5B4B",
"`  c #665649",
"'  c #735443",
"]  c #735C4B",
"[  c #785946",
"{  c #685C53",
"}  c #755D53",
"|  c #724E42",
" . c #6B624C",
".. c #74624D",
"X. c #7A644C",
"o. c #6B6455",
"O. c #746453",
"+. c #796957",
"@. c #7B735A",
"#. c #7B714D",
"$. c #7B7465",
"%. c #766D65",
"&. c #606257",
"*. c #3E4137",
"=. c #88361C",
"-. c #9C3C1C",
";. c #95391B",
":. c #862E17",
">. c #A53D1C",
",. c #B23E19",
"<. c #843B24",
"1. c #8B3C24",
"2. c #853A27",
"3. c #933D23",
"4. c #9A3D24",
"5. c #853D30",
"6. c #A53E21",
"7. c #B03F21",
"8. c #9A421E",
"9. c #86441E",
"0. c #AC431D",
"q. c #A5431D",
"w. c #B6471D",
"e. c #B6511F",
"r. c #834424",
"t. c #8C4324",
"y. c #84442B",
"u. c #8B442B",
"i. c #834B2C",
"p. c #8C4B2C",
"a. c #884A25",
"s. c #944324",
"d. c #9C4324",
"f. c #93442B",
"g. c #9B452A",
"h. c #944B2C",
"j. c #9C4B2C",
"k. c #984B25",
"l. c #89512D",
"z. c #99522C",
"x. c #874A33",
"c. c #974C33",
"v. c #885538",
"b. c #945333",
"n. c #9C5333",
"m. c #98583A",
"M. c #A44423",
"N. c #AB4423",
"B. c #AC4A25",
"V. c #A34B2B",
"C. c #AC4C2B",
"Z. c #A54827",
"A. c #B34623",
"S. c #B44A24",
"D. c #BB4C24",
"F. c #B34C2A",
"G. c #BA4C29",
"H. c #A4522D",
"J. c #AB532C",
"K. c #AA5428",
"L. c #B4532C",
"P. c #BC532B",
"I. c #B95527",
"U. c #A54D32",
"Y. c #A35433",
"T. c #AB5433",
"R. c #A75A38",
"E. c #B65835",
"W. c #B64E31",
"Q. c #97623C",
"!. c #B7633A",
"~. c #A8623B",
"^. c #C44E1E",
"/. c #C34D24",
"(. c #C55528",
"). c #C55A33",
"_. c #D25928",
"`. c #C86435",
"'. c #865B45",
"]. c #975B43",
"[. c #855B4E",
"{. c #A85C42",
"}. c #87644A",
"|. c #976548",
" X c #856A56",
".X c #86755B",
"XX c #977759",
"oX c #956C53",
"OX c #A86647",
"+X c #B66745",
"@X c #AD7454",
"#X c #887965",
"$X c #947C65",
"%X c #87756C",
"&X c #A97C63",
"*X c #C7704B",
"=X c #C97759",
"-X c #8C8368",
";X c #9C8B6C",
":X c #968568",
">X c #9A8B74",
",X c #9D9276",
"<X c #918973",
"1X c #A48A6B",
"2X c #A5926D",
"3X c #A38D74",
"4X c #A49374",
"5X c #AC9B7C",
"6X c #A89678",
"7X c #B29D7C",
"8X c #B49977",
"9X c #B68B69",
"0X c #B5A27D",
"qX c #AEA17D",
"wX c #9E835C",
"eX c #C9946F",
"rX c #AC9D82",
"tX c #A79984",
"yX c #B39E82",
"uX c #A89892",
"iX c #ADA284",
"pX c #B4A384",
"aX c #BAA484",
"sX c #B5A58A",
"dX c #BBA68A",
"fX c #BCAA8C",
"gX c #B9A988",
"hX c #BDAC92",
"jX c #B7A993",
"kX c #BBAF94",
"lX c #9F9A92",
"zX c #C3AC8C",
"xX c #C4A988",
"cX c #C6B18D",
"vX c #C3AE92",
"bX c #C8AE93",
"nX c #C4B294",
"mX c #CBB494",
"MX c #CBB59A",
"NX c #CCBA9C",
"BX c #C6B599",
"VX c #D3BC9C",
"CX c #D4B898",
"ZX c #D4B08B",
"AX c #CDBCA2",
"SX c #D4BDA2",
"DX c #C6BBB6",
"FX c #D7AE8E",
"GX c #D7C19E",
"HX c #D9C4A6",
"JX c #D7C8AF",
"KX c #E3CAAA",
"LX c #E9D3B3",
"PX c #E2C39C",
"IX c #D7D2CB",
"UX c #7F8175",
/* pixels */
"M U v 7 2 .XAX$X} 3 3 l m M D P D l U Y Y Y P K U D K oX1XoXoX&X'.}.1X9XXX1X:XaXcXcXcXxX5X,X;X$X1XaXpXgXfXnXMXfXNXVXMXNXMXMXBXhXfXdXsXgXBXNXyXrXvXBXAXMXAXjXyXtX$X%X%XtX3X4X>XyXyX$X$X.X+.:X>X1XoX$X3X#X%XtXvXMXdX3X6XdXyXpXpX6X:X#X4XpXzXaXxX8XgXzXaXfXpXnXfXaXpXmXmXMXnXpX0XpX5XrXpX;X-X>X,X,X@.O.o.#.@.:X;X;X:X:X;X<X-X:X:X@. .o.) W b ^ #X^ O.6X,XO.` #X4XrX4XxXzXaXaXdXaXaXgXnXsXzX5X4X6X5X6X6X4X6X;X5XfXrX5XsXhXsXzXMXVXHXVXHXHXMXVXHXpX0XmXjXdXnXdXhXjX>X6XtX>X4X4X5XrX>XpX3X.X2X8XaXyXmXVXyXsXSXHXSXmXVXHXKXxXxXmX4X5X%XvXcXzXmXmXSXzXxXNXHXMXnXGXcXzXvX6XbXmXHXKXGXPXVXHXzXLXHXmXCXVXVXVXVXVXVXVXmXfXbXzXVXVXfXfXaX6XsXyXsXnXsXjX<X4XrX5X$XsXjXkXsXgX6X6XBXsXnXrX6XAXSXvXjX6X3XtX X%Xo._ +.+.+.#X#X%X{ +.$XtXuXsXAXyX$X#X>X%X+.} ~ +.#X%X%X>X+.) O.>X#X+.W ^ +..X@.o.%.O.^ ^ Q ) E O.o.{ O.' '.m.]./ / Y c.R.T.U.R.eXOXM.L.N.E.T.U j @ 6 ` { E ^ E 9 p x.j.d.c.L [.` +.O.)  .) o.) o.>XJXAXMXHXHXJXHXNXpX6X! h ` { +.{ 9 9 { +.` ^ _ ^ o.o.) o.Q ~ G c ~ E ~ c 3 1 G c ~ 8 ~ / ` W O..X$.) I  .^ ^ ..^ } ` 2 J k k o.W n Q W x ",
"M D 9 3 3 n %X8 @ o 1 3 g N N m q = N N N C C M m q q T v.L v.x.v.C L v.K K K Y XX1X9X&XXX[ Y v.'.$X5XsX6XpXnXfXgXnXnXNXSXsXhXvXfXsXsXhXjXyXjX,X#X>X%X X' oX|.b.c.c.x.v.].oX| | | ~ / k 6 E  .1X[ F ^ W c ' :X3X3X%X$.#X>X4XsX6X,X:X5X5XyXxXaX7X6XnXmXSXMXMXVXnXMXNXMXMXSXVXNXmXzXcXfXsXgXsXiXpXiX6X,XiX5X5XgXgXpXgX;X4XgXjX6X6XjXtX+.>XiX#X>X<X#X5X.X) k ) #.;X#X$X$X$X;X:X#X6XyXvXvXhXfXfXdXpXfXhXfXgXhXsXpXjXhXsXfXvXnXNXHXHXGXHXVXgXMXHX$XaXHXfXrXdXMXnXrXrXrX+.6XsXtX3X$X%X>X;X#X:X$X$X X:X#XO.O.+.<X%XtX%X$.$X%X+.$X#Xz o $XMXVXmXyX_ 1XNXfXSXnXVXHXKXKX6XpXmXMXMXVXKXKXLXHXCXLXHXKXCXHXGXGXGXHXVXvXvXnXpXBXtXtXtX6XmXpXpXyXpXjX6XsX,X6XiXjX,XnXNXrXfXjXzXfXrX4X,X#XtX%X%XO.` o.o.{ ) E Q %.o.j o.b O.@.o.+.+.o.$.$X$X+.:X$.#X+.k ( #.o.o.Q o.o.W ) o.E o.o.x _ ] @.#X+.o.O.' L ' Q W +.` ` ' n.R.C.F.v.b.E.E.F.W.F.G.*X{.J.J.M.N.F.L #   3 _ h W c l Z =.4.;.;.s.i.J j G ].' }.W  .O.E >XJXnX5XyXzXMXAXAXjXo.# ^ O.+.} Q W 9 E _ ..#X XO.) { o.o.! $ 6 v c k / / c 7 _ E E j ] ` v ..{ ( ^ O. ._ ) c ^ k 2 4 G 2 9 E x ) _ 6 z z ",
"m U J 2 5 3 O 5 5 5 1 4 q > q q q - M K M C B B q > q T v.B u B C A A N B N B N > B V A w u B > A K l @.7XrXpXfXvXnXzXsXdXpX6XpXyX4X5X,X%.O.+.%X[.a Z x.c.u.f.g.g.g.g.g.g.5.p p 4 9 9 2 0 2 }.iX{ 2 9 7 c l h }..XO.+. X.X} O.{ { @.<X%.+.#X>X<X$X#X{ $X3XyXtX6XtX>X<X:XtX3X$X$XyXjXdXjXsXsXfXfXmXNXfXsXnXvXsXjXrXrX#X+.+.<X%.$.#X%X@..XXX X+.O.O.>X$.E Q  .+.O.Q E Q ` W Q x h z E j #X@.%.%.>X>X<X>X,X6XyX6X>XtXrXsXjXdXNXAXAXVXNXhXyXyXtX:XpX3XtX X3XtX3X$X%X#X XO.%.%.' G ( ]  X} } } G } +.` ~ G ) o.o.Q ! ! x G c 1 l  .W X $ { E # 6 ] ] 6X%XO.tXtXSXHX$XMXCXCXpXzXKXSXbXcXKXKXKXLXVXHXLXLXKXGXNXNXHXHXNX>X) $.@.@.tXjXsXBXsXsXyXtX<XrXjXAXrX<XrXjXBX7XjXsX#XO.#X4X4X@.Q W n E -Xo.+. .{ @. . .+.#X@.$.#X.Xo.) %X%.@.o.+.@.>X@.#Xo.O.%. .@.@.o.o.Q x Q $.{ W W x W $.{ Q ) ~ m.x.c x j ^ _ x.y.c.V.A.E.W.F.G.N.Z.W.G.3.Y.E.b.1.M.B.x.2 G ) ) x k G v.j.=.d.s.r.Y ..^ x 7 w U.n.P H W x 3XHXNX5XyXiXsXMXSXBXb l ' +.{ ` { E E z E %X%X X Xv j Q E 6 X 6 l k k W _ +._ +.{ ` ` / ~ } _ } } _ ^ +. .W _ ) ` n k G h @ x 7 / ] h 6 3 ",
"F X.[ 3 & 3 U v.e 5 g M w N N = = > N N M B B N > q q > A T w B A A C C B B = N B > N B > > u > B B > 5 ^ :XgXgXfXaXfXpXpX6X:X#X$.#X$.+._ [.{.R.{.c.c.c.g.f.f.f.5.u.3.3.1.y.p 2.Z 4 3 a s 5 H %X` 3 e q 2 k 7 ` ~ / ' [ '.^ E ! j ! Q Q o.! ) _ ] ` ) ) W { Q Q Q ! ) Q Q x 6 $ E E ) { { O.-X$X#X#X<XtX@.<X<X+.o.O.@.@.x z [ [.| P x.f.4.4.u.u.c.m.].'.G _ { j x x E Q Q x b E W j E 6 6 E h 6 ) o.Q ) Q ) %X{ ) %.O.+.#XfXMXBXnXNXtX<X#X:XpX6XO.#X] ` 7 z 2 2 9 l x E ] $X X.X#X} } _ .X} ` } ..~ J ` &.%.o.o.o.) J S ( b @.o.x X     # G v c ~ 3 h x `  X XG tX1XmXrX;XzXsX0XPXKXKXMXrXsXmXHXKXLXJXSXyXjXkXtXo.{ { -X$X'.oX&X+./ ] _ } { O. XtX>XO.+.<X3X X+. XO._  X<X%X#X) o.$.) #XQ { ) Q @.{ { ) o.o.) ` .X+.) $.) )  . .#X$.O.$.x Q %.+.$.+.o.Q W _ %X{ E E c J P [ z H ~ x a y.K k 7 c K 4 h F N.A.).(.C.N.A.;.1., 4 x.G.C.s.j.K.Z 2 oX.X) j 6 c m.T.B i.].XX9XeX^ 4 b.Y.L.C.C.h.J E yXJXNX6X;X5XjXNXAX%Xh E ` ^ { { { E ` } ` +.} | ] / ^ ` / h + j c l c ~ ` O.+.#X+.+.@.` ~  X}  X$.%XQ ) ` ) +.+.} ~ ^ G k ` I / G +._ 3 ~ ",
"U ( ' m - 2 D K 0 1 4 N q N N > q B w > w B > > > M q w w C N > B A B A B N > B B N N > B B , B N > N K 2 -XNXfXpX5XpXpX7XqX>X+.O. X X'.{.E.U.Z.4.5.x.c.g.g.U.3.y y 1.3.3.5.2.1.1.p q t 9 L a e s 5 s p P 4 D e s Y / c ) Q o.o.E 8 j h E E c [ [.^ O.+.) o.o.)  .{ %X XO.E E ! ! $ x Q 6 j E j W j Q ) O.W Q Q +.W ^ O.j k y.x.p 2.4.4.3.4.4.g.V.V.M.Z.5.D 9 W E j j 8 ) W H v h 6 W j # 6 x # + 6 6 h 6 x x x x { Q W -XgXBXsXMXnX<X<X+.@.nX+.` ^ ~ W x 3 2 2 4 I ! E x ^ $X<X+.' v k ^ ` E ^ ` ' } ` Q $.o.+.o.@.) k c o.o.Q E Q # n k 9 x Q 6 3 o.E ^ } c 3 3XdX6X$.o.;X5XHXHXSXHXMXgX6XnXVXVXSXuX<Xj 6 z # E j k D U.L.L.C.g.s 5 e 3 ] ` l / ] | c c [ ' ~ _ ( ..+.@.` o.! Q +.Q E ) Q W W _ ^ Q o.) _ ] W O.} ^ O.) _ +._ { o.) O.x ) { o.o.#XQ E { O.~ E j 9 4 Z T.E.y.c.' ! y.1.Z S C Z u.K  .x q 2.2.4.* 5 s L }.k E x.F.N.f.D v.K o }.#X) h 8 9 s.B.p.oXXX@X@X*Xm.c.L C F.N.L.E.x.h 7XKXBX6X4XpXkXBXiX# 6 $ E E ` 7 3 ` { ` [.O.2 J  XW 9 9 / l x Q x k E E ^ Q } +.+..X%.{ ~ ] ] { o.O.%.j _ O.O.] ] c l l H G ' G v o.^ 3 9 ",
"U J c D g 3 5 M q q = q w w 5 > > N q q > B N > B N > N N N B N A V N N B B w w N N > > > > , > > = = C 3 .XgXpXpX0XnXsXpX5X5X.X Xv.R.W.F.Z.d.4.1.2.f.f.4.g.C.6.g.4.4.f.u.5.<.2.i 5.1 O # 9 p y.5.s ; y Z 4 e 4 P v E ) ) ! Q Q Q j ! j x E z J S k ) E ! } [ [ [.'.|.].'.c c x ) z 9 x 6 9 O.-X) n E c ` $.z +.%X9 ~ ' 4 p p s y <.u.<.2.f.4.d.4.d.M.4.4.u.1 h Q 7 2 h v v m l k 3 D '.H k c h $ n j x ) +.x j j ! Q x .X5XsXBXfXNX6X#X#X:XhX../ ^ W ! h j h x  .o.j h E E 9 +._ _ v 3 k XX[ 3 2 k E x W Q o.$.E  .o.o.) { ) E Q ^ ) E x # $ h k / ) x n ^ ^ 1 :X+.j 8 # @.4XnXHXHXKXHXSXHXsX X] E + + j n # j 8 6 $ a S.P.P.P.).=.w 9 3 9 v 1XeX}.K S G L v.Y '.` ../ ] / O.^ z +.Q Q { _ W W ^ x ` ` ..+.~ W O.} / } O.{ ) ` { o.c ) W W Q { E E k ~ P K D J e Z p.j.W.W.F.E.b.m i 3.g.V.V.F.S.U._  .j n  .x b ) x 8 _ ..' h.I.f.M x K 0 3 ` _ b x G C d.j.C.T.Y.T.A.D.N.j.I j u S.F.(.Y.+.bXHXrX5X5X5XkXvXkX@.7 x E 3 X 2 3 # 7 9 ` h 2 G / ` v 2 v | z # 2 9 v E E E ^  X X+.^ / ` _ +.o.E %X%X) ] } _ ' _ / ` G H v c v 9 ~ v 9 J ",
"M g g D F 5 5 N B w > = N C = = = > > N N > q > B > N B B N B A B B N N = - & * > N > > > > B N N = 5 M = -XnX5XzXzXMXdX4X6X;XO.[ U y.C.g.d.V.g.1.a 5.g.M.6.C.4.4.g.4.1.a 2.i p.M 1 h W E v u.1.1.2.s 0 3 4 e 9 $ E ! { E Q Q W Q ! j ! W Q j Q j h ~ 6 v J D Z x.c.x.x.x.a D F P P e E Q 2 | +.Q W S F / ` E z 9 r <.u.5.2.1.y.> y 2.y y 2.4.4.3.4.4.3.=.<.5 h W l 3 v 7 3 k l 4 r a 1.y.x.x.v / } O./ _ _ 6 z G $ W  . .6XgXMXnXHXrX@.-XiXjX$Xc ) o.c k Q x x o.o.{ o.) 6 E 3 9 v l ( I $X.XI I k # x b  .o.@.o.) )  .Q ^ _ j ! W j ^ c x x # # x j  X^ x z o ..+.x $ $ .X5XMXJXLXHXrX#X5XiXW n 3 j ^  . .h $ # 3 # a B.0.*XE.L.C.k.e & C oX' @XOXOXa Z j.v.v.'.U U G l c ' ~ z O.J F  .] ^ ` ) E H [ XXXXU c / ` E G G U v.H c v v K P J c $ # 7 y.c.c.n.s.d.s.V.F.N.Z.C.P.).P.F.B.-.S.S.F.S.P.P.c.[ .X#X#X@.O..._ x X.oXb.M.M.2.P H L 3 6 h ` ` ` j s <.f.S.F.F.F.G.N.d.b.^ ) b t.;.>.C..XmXHX,XrXiX4XsXjXBX$.$ j j @ 2 c 2 2 c W v l ~ ~ 3 J c 9 W ^ z $ 8 7 l E E E Q ` %X[.+.` c ` .X#XO.%X%._ } ~ ' } _ | [  XH ~ ^ c ~ o.c J ~ ",
"m m M F F m q N B > N N N N q = - - N B N 5 > w N V M B B N > B B V w q = 1 5 m N > > f B B B N N q q C = .XzX4X5XnXzXaX,X5X4X Xm.[ ` Z f.3.f.f.u.p.u.5.p t y y 4.g.4.<.2.p r 5 z x E E 8 l c.4.2.2.5 $ h 6 # 6 h j n E ) E E ! ! ! $ j E ^ j j j k '.J P S l y.f.4.2.5.f.y.p p p u.s P '.r e | O.' M C x.P ^ W a u.f.f.u.2.p 5 7 5 2.t.y , <., <.3.1.=.1.<.: v.c 3 3 9 G # 3 7 9 q p a a 4.a l '.v.[ }.~ _ n c ^ W W W #X3XpXMXvXfXrX.X6XsXpX3X] _ X.X. X/ ^ _ ` Q { $.! j j 6 @ 1 g #X.X..;X:XO.z h _ ] _ $.o.o.o.! Q _ ] ..) j Q x W G I I ) h v 2 c c 2 # O ^ @.) j x :XiXzXHXnXBX6X.X5XjXo..X@.^ { { x # # e Y.e y.C.Z.C.V.+X{.A.B.t.U.p.u V.g.V.T.V.V.c.x.v.x.v.c J J / c S R.T.v._ ^ ^ o.O.G c oX9X~ ] D l j Q v 9 L b.F b.p.i.c.Y.L 6 3 e a C.F.T.V.M.M.s.3.N.N.C.N.F.P.D.S.N.-.A.S.L.F.N.(.P.E.m.'.'.P '.[ v.].|.R.V.Z.q.t.9 Z p.l o x O.` Q j r B.-.D.*XS.S.F.M.p.'.` o.Q D , N.f..XvXHX5XrX4X,XpXpXNX>X# # + o v c c ~ z ~ H ~ c v l / 7 7 z j k j 6 3 v G W ` ` } +.+.$.{ x { } } %X{ E ^ ' ^ / ' / H H  X` x Q W ` ` J ~ G ",
"4 M U M M w > > w N A K N N N > = = > w N q N N > N N B B B B B N q 0 5 M N B N N w > V A > > B N > q M q R cXpXpX7XzXgX5XyX#XO.|.'.+.` L 1.y.'.x.|.v.e 2 3 7 k 5 s y p.2.q K l J c P y.Z y.3.4.<.1.q # $ @ @ # # # # # $ 6 8 k j 7 @ $ ) ' 8 7 $ E ~ J l D u.f.3.g.1.5.u.r.u.2.2.2.i 1.p a a F |.P a c.f.u.x.x.Z u.p 2.2.e 3 3 6 6 5 p w r ; r y.;.=.=.3.y <.i 9 + $ h 7 6 $ $ 6 3 k b v e 2 7 c J 9 v 9 ~ W .X .) ` x -X-X4XBXyXgXtX#X,XfXsX:X X}..X X XX.[ } ( E E %.) x ` j h ] .X+.` x  Xo.Q j b ) ^ _ o.o.o.+.) @...+..... .O.^ +.....^ / k v G c k k o 1 2 v E h x :XpXMXJXBXBXsX:XnXBX@.o.) ) Q E j # @ c.j.j.Z.P.L.S.A.d.d.F.B.t h.B.d.q.B.Z.C.1.e 5.u.e J H v.'./ U [ |.E.L.v.E ~ ' .. X] ~ L v.D K - e C 3 2 k P c.n.T.V.T.x.S 2 x P 1.g.Z.M.{.n.h.s.-.t f.-.q.A.B.F.S.S.N.N.0.A.L.Z.8.B.W.S.B.W.E.V.R.].v.Z.E.C.q.d.F.C.f.s.e 2 . v _ j 9 v.t.d.q.P.G.S.G.A.N.Z.Y.' %.) z v.R.F .XvXHXgXsXgX5XpXkXkX) + # 2 2 3 c c ~ x W W z v v G ` 9 3 k _ c $ $ k ~ ^ E E { +.$.<X#X%.` } } +.%X! E ` _ } #X X/ _ J H ] ` c ^ ` G ~ ~ ~ ",
"q m M N = = > > N w N A V N N B > = > q N > > B N > > N B N B N = o - > N A w A C B q B B > B V B > w N B N fXfX5X2XnX5X6X5X;X@.}.v.].[ v.m.].'.x.u.u.S j E j 6 j J u.U.c.v.Z i.U.c.V.M.Z.V.s.3.1.2.5 # 8 + X + # 3 a L 3 # h 3 2 e 3 2 F Y 9 3 U J 2 M l e p s.s.d.1.5.2.u u.1.f.f.f.f.1.2.a P T.x.f.c.1.s.s.1.u.<.f.p r 5 # 1 5 e $ 2 # 3 Z e L ;.3.=.: ; : 0 x j x x j W b j x j j Q E j 8 8 2 v 7 4 l H l ` c z 8 x ,X#X6XVXvXfXsX,X-XfXsX;X XXX$X.X X X[ I X./ Q ) +.` O.....( ` _ / c x x j x I W ..( E { ) ) ( +.( O.`  X..( ( X..X^ ( b v ( / G v ^ k 1 @ o @ ) Q #XnXVXJXGXBXjX4XGXMX-X .o.Q j E 6 # w Y.<.C.B.N.L.F.0.A.q.N.B.d.1.N.S.N.A.N.-.p.|.<.: F l S H D J H U [ R.R.Q.F v.H E J ~ S f.c.e 5.OXY.M.p.y.m.s y.C.C.B.M.f.2 j W e =.3.<.s | }.v.m.1.4 p.s.>.>.A.S.q.0.A.S.C.>.A.B.B.N.S.N.A.A.S.j.V.R.Y.F.F.N.M.N.G.A.N.t k @ J _ W e Z U = y.V.G.G.G.D.G.>.M.N.n.' b x x J ` 4XmXHXhXpXpXiXpXiXgX .3 z 9 2 l 9 J ~ Q ` l 9 c ~ c c k 7 ~ ^ v j j 7 c Q Q E Q +.%X%X{ { _ %.@.+.%X%.E ) ) ] %X%.} / ~ | ~ +.` _ +.v l ^ } ",
"M N M q = q w > N N N N B > B > = > > N w w = w > N N q > w N q & + o q > > N > B > N f > q V N N > > q C = 7XfXgX7XfXrX6X6X6X@.W ~ '.x.c.x.x.f.V.4.4.u.a v W 4 a 5.U.U.U.U.U.U.U.U.4.g.3.M.V.4.4.y.3 $ 7 2 5 a i u.g.g.f.a S $ @ 2 3 S L Z a p c.u.2.u.y.s.1.g.g.M.3.p R.y.i 1.j.f.4.M.d.d.y.c.C.4.g.j.d.g.1.;.d.4.g.2.p u.u.r.j.U.e 3 # 6 v 2 y.=.<.: , : s o 6 h j E j Q W _ { E E z E x z # D Y 4 y.y.L 3 3 @ k 3 c 6X@.4XVXBXpXpX<X>XjX5X.X[  X}. X}.}.[ ( [ [ ] X. XX.[ [ ..O.` c [ _ 6 x ^ x ^ / X.+.E ` z ~ }  X..@.` ] O... .` +./  Xc c / I G G ` k 1 3 3 2 G z .XHXHXHXSXBXnXpXHXNX>X .Q E x h 9 j.L.B.J.P.B.N.G.0.A.S.M.B.w.4.y.C.B.M.F.B.q.Y.|.t s.R.'.v.F 4 J Y a H oX{.'.J x.u.y.a a p.g.g.g.d.U.Z.Z.J.C.V.f.T.E.P.Z., d.a v ..u.B.M.d.w x.c.+X|.: c.Z.M.N.,.D.A.>.0.S.A.N.N.N.q.,.S.B.A.A.S.q.d.F.P.D.A.S.L.D.D.G.D.1.2 2 5 .X) j 1 9 2 Z 4.3.A.P.B.A.A.q.q.>.f.v .X .+.x W $XCXHXnXrXpXrXrXgXMX#Xh W E v J J J / ` ` / v ~ W 8 7 9 9 c ` ~ z ! 7 c Q ^ E o.%.{ O.+.+.z } .X.X+.{ { E 9 ] ~ E ~ / ' H J / ` ` ~ ^ } / G ",
"N q q = q N N N B N C B A A B N = = > > N w q N > B A w > = B = 1 # + 5 w > N N N > l.v.B N B N q > = = N = .XpXpXvXpXpX4X2X0X;X~ e u.Z p 2.u.g.g.g.c.g.f.p P p 4.4.g.g.g.g.U.U.V.f.4.d.d.g.U.1.<.Y.u.y.i f.d.d.f.g.g.f.V.g.u.a + 3 a i 5 2 q y.p 1.d.g.Y.V.j.f.4.d.3.=.g.4.3.3.g.g.4.d.4.d.j.U.V.;.M.Z.g.s.3.g.g.d.d.g.f.g.M.C.C.V.g.<.5 $ j h x.=.: ; : , & @ D e 7 x E Q ) j Q x z 8 j x c 7 9 D 7 e 5.e 2 4 7 2 # h pX>X6XnXfXpXiX#X;XhXpX.X X X[ [  XX.( F  X:X X@.X.+.X.X.O.O.] ] [ [ k / +.^ W I U k h _ / / _  X[ ..+. X+.X. X .W ` .._ O.( ' ( v G ' G _ I G k 3 ..fXHXHXVXnXfXfXGXHX;X@.j j c n C F.P.L.P.(.B.S.S.P.S.q.q.8.>.4.T.M.M.N.q.M.8.d.<.0 M a 9 5 p e H K w x.U 1X' Z c.f.j.u.p <.s.g.Z.1.s.3.g.g.j.C.C.U.J.V.s.s.d.<.}.&XN.B.G.G.F.E.P.(.k.u u.-.D.N.N.G.w.Z.N.A.B.M.B.A.D.A.F.0.0.A.S.0.0.A././.w.S.C.A./.P.A.=.3 m Y ..h 6 h v.:.q.d.=.N.D.0.N.N.N.A.0.t.F O. X$Xx X..XmXJXkX,XfX5X6XfXhX@.h ^ / ^ 9 J S ` o.] } { ` c z ` 7 2 v ` ) j j E x E ^ O.%XE ) %.#X+.v ' %X+.o.^ ` 1 v O. .~ ' / W G G c ^ ` E ` } ` ^ ",
"q q 0 5 N N B N A N N B B T C N = = > = > B B B > > w N = = > o X o 3 m B N N A B B A C B B L C > B > > q N ;XpX4X5XgX7X6XaXvX9Xx.c.j.f.f.V.Z.U.g.4.3.f.f.5.f.3.2.f.f.f.g.g.g.V.U.g.4.g.g.f.u.f.4.V.U.4.3.g.g.d.M.g.j.c.U.U.f.1.x.K u.3.5 # 3 p i u.s.j.+XV.U.U.M.g.Z.4.=.=.4.d.g.4.4.4.3.4.V.C.V.4.4.M.3.4.g.g.M.4.Z.g.M.4.=.4.C.M.U.C.f.5 7 J p <.y ; * D # 3 a e 3 8 x c _ Q ) j j 8 j j 8 9 4 4 e 5 0 Z x.0 7 3 3 J 5XrX6XhXgXrX5X,X6XsXpX$X' }.[  X[ X.}.}.[ .X.XX.X.X. X X( X.X.` / .XX.H G [ ..} H H I / [ [ ] c .X] _ X.] X.+... XI ..O.O.] ] ( _ / / G l / .. . .o.pXJXHXAXjXgXnXHXnX>X-X6 h j 7 p.B.C.C.B.D.N.F.S.P.F.N.N.q.s.8.q.d.1.;.8.q.B.q.>., O k # @ 3 C Y L a y.A oXL <.c.u.1.f.u.f.c.g.M.d.c.c.d.Z.V.R.T.H.V.T.V.Z.d.i.P U.M.F.A.`.*XV.G.G.F.P.B.;.4.A.0.,.A.S.Z.F.0.>.-.M.G.G.N.w.0.A.w.0.A.0.A.w.D.G.A.A.A.P.B.p.c F }.^ h # G F.0.>.q.q.B.I.>.>.N.S.S.G.M.y.C [ F v.1X2XMXAXjXpXdXfX5XfXMX#Xk _ ~ { _ 9 J _ } +. X+.` v z E 9 7 z c E 6 $ h j E { } ~ _ %X$.%X%Xo.~ / ~ J v ~ O.W ` #XG ~ ^ z G ~ } { +._ v ~ _ W ",
"N q 5 q q > N B N w > M w N C M = - = = > B V V B , > B > q &     & q B V > B V > > f , > > N C > B N q 4 g -XfX5X4XpX7X5XpX1X&X{.W.Z.Z.C.F.F.U.c.3.1.f.1.4.g.f.f.3.3.g.5.u.g.g.4.1.1.g.g.a t 1.3.V.Z.3.f.g.g.U.N.F.V.3.g.U.g.y 2.c.f.g.d.V y.g.g.U.1.f.U.g.g.Z.Z.d.3.<., =.3.4.4.3.4.d.3.=.Y.U.4.g.4.g.s.d.Z.V.d.M.d.V.-.M.=.=.N.Z.M.M.Z.d.f.u.; ; ; g # + # 9 s 4 $ 6 j 7 E `  .j j z E j 6 2 e Z y.e w p.p r 0 e 5 k pXrX5XnXnX,X6XpX6XsX6X$X}.XX[ ' [ X.X.:X+.[ ( X...O.#.X.] X.X.^ O.] / X.` ..X.XX.XY [ /  XX.X.c ]  XO.O.( l I $X XI _ O.G W _ ( W _ ( ( I c O.) Q +.gXHXHXNXnXgXnXHXpX4X@.6 $ h l h.C.Z.I.F.N.q.q.B.D.N.q.q.-.-.A.S.L.g.r 0 u.C.B.Z.i 3 l ( # # J v.h.q e y.g.u.u.f.c.u.5.u.g.R.OXM.T.U.g.Y.V.C.V.C.L.C.E.J.C.Y.[ =.M.M.L.N.!.OX3.A.B.>.B.P.C.s.4.E.N.A.N.A.S.S.A.M.8.N.N.0.N.q.>.A.w.G.w.0.0.D.A.S.S.S.P.S.v.x }.oXx z l g.>.A.S.A.N.A.P.B.0.0.>.S.S.A.N.d.f.j.V.].3XNXBXhXqX5XzX0XpXBX#X9 } c }  X~ c +.z } O.| E E k @ 3 7 v E c 6 + 3 W ^ { o.^ %X%X$.+.` +.] c J ~ G ~ } _ ) { G G ^ x v ' } ^ _ ~ ~ G ~ G ",
"C N q q = N q B > q N C > = N C = * * = = q > B N B > > N q o X 1 & - q > > w w > > N V , N > N N B A B = g wX5XyX5X5X7X5XxX:X9X{.M.V.Z.C.C.W.U.g.f.2.2.g.3.1.c.U.f.g.g.2.u.g.f.f.f.3.4.u.* a 1.3.3.4.4.g.g.c.V.M.V.U.Z.V.c.3.t.f.c.g.V.Z.C.d.s.3.g.<.j.f.4.g.4.d.;.Y.u.1.4.;.;.4.3.4.4.3.=.V.g.4.V.d.M.V.M.N.Z.Z.M.Z.M.q.4.6.B.N.Z.C.4.;.-.Z.U.u.& # 8 6 # @ p 1.a 3 $ 6 6 6 z ) j j 6 j z 9 5 Z x.s 5 u.n.u.p.y.A 1 b aXiXpXnXpX>X6X5X5XpX;XoX XoXX.[ [ [ [ +.}.X.[ X.[ ] X.} }  XX.' X.G F  X` c .. X} X.] ] O..XU [ X.O.O. XI G I } ^ #._ _ G v [ ( c ] G ^ ) W o.o.c ` fXHXNXNXnXpXNXHXsXO.E j h h 2 p.C.C.L.S.B.C.>.B.D.S.E.Z.-.-.S.F.F.M.& + a d.B.B.g.y Y ] + # S y.2.h.d.4.d.u.3.f.p e 1 i.g.U.U.Z.C.s.h.Y.U.V.V.E.L.F.L.F.M.; ; T.C.B.B.F.!.!.>.P.S.M.q.G.N.q.M.E.M.>.>.q.>.T.N.>.C.N.N.A.0.0.A.A.G.D.G.S.0./.G.D.(./.D.S.Y.[ 9XoXh D E.G.>.>.;.N.N.F.D.G.D.0.q.q.>.,.0.N.C.m.p.b.1XMXnXpXsX5X6XpXfXnX$.9 } c ~ / G E } ` } } _ ~ ~ k 3 k 3 v W z h # 3 %.%XO.+.%.%.%X%Xo.` } +.+.] ~ ~ / ^ } O.{ ^ G ^ { ~ ~ ~ / / c ` G / J ",
"w q = > N N N C M N N B B N N = = - - 5 = = = > > > q N N * & 3 5 5 - o - * = > > > > > > > N N w B N w q 5 wX5X;X;X7X4X8X7X1XeXR.M.M.s.Z.V.U.V.1.2.5.2.g.U.c.f.f.g.g.g.s.2.f.c.j.g.M.g.2.> i g.4.4.1.=.4.4.4.4.4.4.4.Z.j.j.g.d.V.U.g.Z.Z.M.M.M.d.1.3.f.d.d.g.V.d.d.*XU.1.3.d.M.3.-.4.4.1.=.g.Z.4.d.d.M.d.g.d.M.M.M.M.N.M.>.6.M.Z.4.Z.M.-.M.C.V.V.5 # 2 5 3 w s.3.y 0 @ # 6 6 l v j j j j 8 9 C x.p 5 s c.Y.U.n.m.m.C S 5XhXpXfXrX#X-XfXrXgX#X] X.[ X.[ ( [ [ ( .XXX#.X.../ +..XX.X.X.X.[ ( 3X.X[ / ' +.}.[ X.[ +.] U X...X...O.H  X@.I #.$X+.] ^ ' ]  .O.X...~ k c _ o.( X.fXJXVXnXiXpXnXHXiXW _ k k v D f.A.Z.E.(.L.F.M.M.L.F.A.-.>.V.Z.A.D.C.& 4 p s.A.G.F.{.P p C e 1.j.y.d.A.V.d.3.1.f.f.=.p u.d.T.N.Z.F.L.T.V.L.U.C.L.F.F.W.L.: d Z.C.N.C.B.S.+XeXF./.F.M.S.G.A.>.F.N.-.C.N.N.N.g.d.S.G.S.0.A.S.0.A.N.N.S.G.P.G././.G.D.D.I.E.;.y.eX}.p.P._.P.0.N.N.N.>.F.S.D.G.A.A.B.0.S.N.N.j.u.f.R.9XVXMXfX5X8X0XaXfXBX$.3 9 6 ~ _ c v _ { } }  X` c E 9 9 9 ~ +.) z 6 7 +.o. X.XO.`  X#Xo.{ O.{ _ } ~ ~ / 3 ~ O.` ` c E ` ] ' W _ c ~ W c ` } ",
"5 > = > > N B w > B N B N N B > > = = q = & o & - - - - o - = & = M = & 5 = > N B > > > > N B > > B B w q g 2XpX6X;X1X5X5XzX9X@XT.V.V.U.Z.Z.V.g.y ; 2.3.1.c.c.f.f.4.4.g.1.2.f.g.g.V.f.d.f.1.1.3.4.3.4.<.1.1.3.3.1.1.1.3.f.g.R.c.s.V.d.Z.Z.d.g.-.;.V.M.d.U.C.V.T.Z.d.Z.f.2.<.3.3.4.d.d.4.1.<.4.4.6.d.f.d.d.1.f.M.6.>.M.M.M.6.M.M.M.6.d.q.C.N.C.C.Z.a C p 1.s q 3.4.f.u.s @ # 6 k 7 6 6 6 8 5 e x.c.y.s p c.U.T.g.R.OXZ C 6XiXrXhXfX-X6XBXpXfX#X+. X}.}.}.Y X..X.X+.O. X.X} O.+.] ..[  X+.( ~ $XO.K U / ' '.'. X.X../ / ` +.X.X...( O.+...+.+..XO.^ X.] ( ` / ` ] / ^ I O.] ..cXHXHXkX5XfXBXHXiX$.E ^ v L Y.j.E.V.A.D.(.L.N.d.h.B.C.q.0.>.N.C.B.q.y o @ 0 N.D.S.c.y S.C.u.c.J.j.Z.B.F.g.1.s.f.j.+XH.Z.V.C.Z.;.Z.F.B.C.E.T.C.L.P.W.E.V.<.K.B.M.N.C.P.F.W.*XN./.S.B.S.S.S.A.S.B.N.N.q.>.A.E.C.D.A.q.A.A.D.A.0.N.>.0.D.(.P.S.P.P.P.D.).P.q.;.'.'.G._.).F.D.L.A.A.0.0.S.D.S.S.G.N.6.N.q.-.s.g.C.@X8XVXBXsX:X7XxXgXdXSX.X2 l 3 ~ _ / ~ ~ } O. X} ) W ~ 7 J k z ~ o.c 2 v _ Q +.+.6 9 %X%.%.+.O.` ^ ~ ] _ z # 8 _ W W c ^ { _ ` Q ~ / ^ W c ~ / ",
"5 5 q q = > w > > N M A A M B q q = = > = & = > 0 g g - & - > q M K M 5 N B B V B B > N B B A > > A w q = v.0X7X7X0X6X2X6X7X9X9XU.V.V.C.C.Z.g.4.4.1.y.1.<.f.c.f.f.2.t s y u.4.g.g.g.d.4.4.4.1.3.3.g.g.3.<.y 2.<.2.1.<.<.1.f.U.4.3.g.U.g.V.Z.Z.d.=.g.C.Z.Z.C.Z.Z.Z.g.4.-.3.1.y.1.4.4.4.d.f.:.3.4.d.4.d.g.g.d.g.Z.6.M.Z.M.-.-.8.q.M.g.g.-.M.d.4.Z.M.1.1.V.d.r o <.1.2.y t 5 # 6 # # 6 6 6 9 p a Z c.c.u.f.c.n.c.x.t 5 H D 3X6X6XiXhX6X6XjXsXiXO.~ '.}.' }. X[ }..X^ ..+._ G } ( I O.+.] ( [ U [ F K '.}.v.[ [  X+.X.U I I [ X...( / ^ O.+.` _ ] ( ` ] / _ ^ ^ ( ] ..v I O./ ..MXHXHXBX,XpXMXHX6XO.' / H x.Y.Z.T.1.N.S.P.L.B.-.B.P.P.P.S.q.7.B.C.;.g.o + 3 <.B.A.>.q.A.B.Z.g.V.V.s.C.B.s.2.U.Y.T.eXOXZ.N.F.N.C.V.C.U.V.C.4.M.F.F.F.E., =.P.Z.S.A.B.F.S.F.E.D.G.F.N.N.A.S.S.A.M.M.M.q.-.>.&XR.D.S.0.0.0.w.e.0.>./.(.G.).(.P./.(.(.P.P.P.P.q.p.J.G./.P.D.P.F.A.G.A.0.A.G.q.0.A.>.q.q.M.q.d.U.W.OX9XVXAXsX,XyX6XfXsXBX#Xk H 4 ~ G E _ O.} } } ` ~ _ E 9 v k z l } k 2 z { { { W ^ O.$.$.O._ / O.{ O.] ~ x ! @ z _ E v ~ ` } ` W W E E ) W v ~ ",
"5 5 q q 5 = = N N N w B B N w q > = = > q = B l.5 > N > N q > B w = > m q B > V C C V B B V N N > > w 5 5 }.0X2X8XpX4X6XaX7X0XeXU.V.V.C.C.N.M.g.V.V.3.1.2.y p y r 5 e q y.1.1.g.g.g.g.s.1.3.1.3.3.3.4.; * r <.y s a 1.1.1.g.Z.4.;.d.V.3.j.f.g.Z.Z.d.-.C.M.d.d.V.V.M.=.;.-.4.f.3.3.-.-.M.d.4.3.1.4.-.M.M.Z.Z.4.4.;.4.4.;.-.=.-.4.4.g.g.;.d.g.:.<.3.4.s.f.2.0 + C a t q 1 # 6 8 # # # k 7 e 5.Z y.n.u.c.Y.U.OX@Xa c.y.C 3 #XpXpXsX6XrX6XpXsXhX+.c [  X X XX.' X.X... X.X_ I ` X...X.O.' X.X.X.[ X.L v.[ v H X.+.[ ..U X. X}.[ ] X.[ ^ +.+.I /  X] / ....] ` G ( _ [ ] ] [ '  XnXHXNXjX,XfXAXAX:X` v v.D 2 Z g.M.k.d.P.P.P.B.B.P.P.F.E.C.;.N.L.F.q.s.3 + # p M.0.F.N.N.C.Z.d.1.d.k.Z.M.M.1.U.E.C.C.T.V.Z.C.F.C.B.Z.C.V.g.Z.B.S.N.C.=.=.E.S.B.B.A.N.B.B.A.F.G.P.I.B.B.F.S.S.w.>.>.D.B.M.7.+XZ.q.q.0.A.N.D.D.0.D.D.(./.G.G.(./.(.P.P.S.P.(.M.j.(.P./.A.D.P.D.0.A.S.A.S.S.S.D.A.S.D.N.N.q.g.M.B.V.9XMXAXfXiX,X4XfXqXBX$.@ 9 c c E E / ] ] } { W c ~ W z 9 7 ~ ~ H 2 2 x O.E ` ` { ] { %._ ~ } +.{ ' _ E j E ! ! ` ` z ^ ^ ` ^ Q } ` Q ` E v ~ ",
"= 5 5 5 = = = > N N N > = 5 q = 5 = > q 5 = q N q = 5 = > w > > > = 5 > q N C > > w > T C B > > > = w w & I 5X6X0X6X5XpX2X7X7XeXR.V.Z.C.C.M.d.M.Z.V.4.g.1.; p i , y.Y C y , 1.g.g.g.d.1.1.c.1.f.<.4.1.e # o * s e 5 0 2.s.4.1.6.d.g.M.V.s.=.1.f.d.Z.M.M.M.M.M.d.Z.V.d.g.;.4.g.;.4.4.4.-.;.M.g.3.4.M.Z.M.d.<.=.;.3.;.-.-.3.3.;.1.f.s.3.-.4., =.3.1.g.g.y r 1 2 S t Z @ X # # 6 # # K w 5 0 r Z c.y.s 5.f.f.n.&XZ y c.b.3 .XrXfXfXpX5XsXgXpXsX+.` [  X X X X] ' X..X X[ X./ '  X' ] X.X.X.X. X] [ Y Y H H Y [ ..}.[ / I [ ] H I ] ' I G ] ( ..O._ G O.+.O.( / / I I ] ] ' / $XHXHXBXrX6XpXNXGX6X .6 M 5 7 3 2.t.V.F.F.N.;.q.B.S.F.F.A.N.q.S.C.Z.-.J.m X I w d.F.N.B.8.d.i M.d.d.g.V.N.C.Z.V.T.Z.A.Z.V.V.d.g.V.B.Z.C.g.U.V.M.C.N.; , H.V.B.A.S.A.B.S.-.M.S.S.S.G.A.G.N.0.0.0.>.q.N.G.S.S.,.q.A.A.w.A.A.w.w.0.w.w.>.w.G././.(.(.(.G.G.P.M.: T.).S.A.B.D.(.S.A.D./.G.G.S.N.>.F.N.>.A.M.M.-.;.F.{.oXnXNXBXrX:XaXMXfXBX@.@ 3 c _ ~ v ~ _ ` ) ` z ^ / ^ z 3 7 ` / F 9 6 v ~ ` O.{ ^ } _ ] _ ` { _ } ] ] c $ $ j W ) ^ E ` { ` ^ E _ _ Q E c J J ",
"> = = = = = = = q w w q q = & = = = = > > > > > > 5 = > > N w = N B - = > > A w > q q N B u > V > = 5 q 5  .0X0X8X7X0X7X;X7XxXeXU.C.V.M.F.4.=.3.d.V.3.1.g.f.g.g.=.3.U.g.1.2.2.2.3.g.M.4.1.4.1.3.1.4.t }.k % X 4 1 e t 3.s.3.=.d.Z.4.Z.V.g.<.s.f.<.<.M.6.4.Z.U.d.N.Z.d.1.;.g.g.4.-.;.-.-.4.M.U.d.6.M.M.M.=.=.=.4.M.-.4.4.3.;.;.3.4.d.s.4.: : ;.s.s.1.2.1.<.a q e r.a # @ 7 $ S 3 5 f.2.p 5 0 a r 5 5 5.& 0 u 2.0 4 5 y.i.XX6XfXhXsX5X4XfXpXsXO.6 ` ' ' ' X.X.X.' [ [ oXX.' ] ] H I .X[ I X.[ ] ' H U Y Y Y X.[ +.] ' U O.+.[ X.[ [ ' ' / / J +.O.] ( +..X+.X.' U ( ( ..^ v .XHXNXBXfX6X5XNXHX>X) _ k k 7 G e c.u.1.M.B.8.d.-.F.A.P.S.A.A.N.B.N.M.3.t.= XXc.q.F.N.>.-.=.1.d.M.d.B.M.N.Z.N.M.Z.E.H.C.E.V.V.Z.Z.C.L.V.V.C.C.B.C.3.1.E.B.M.F.P.D.I.L.C.S.S.F.F.F.(.w.0.A.D.A.V.Z.T.>.w.G.D.e.A.D.I.S.0.0.w.w.0.0.D.0.w.P.D.D.P.G./.F.N.-.k.d.G.I.q.N.B.D.G.S.D.D./.D.G.A.0.q.S.q.A.>.>.q.N.N.V.R.@XfXNXhX5X;XnXMXnXNX@.o 2 9 ~ H l ^ +.{ { W c %X{ W 8 h v / c 4 @ 3 l G ] ` ~ _ O.O.] ] } O.}  X XO.^ c E $ 9 ` ^ E ) { ^ ` ~ ` _ ^ Q x G / ",
"= = = = 5 5 = = > w N = = q 5 = = - = > B B > B B = m T B > = > w B q q > A B B N B B B u w B a.B = e 4 0 X.8XaX7X4X8X7X;X2X0XeXc.Z.Z.C.M.3.1.3.4.c.g.f.g.g.g.g.4.<.: d.V.3.u.<.<.2.3.1.;.=.4.1.1.; g 1Xv % % 1 * f.g.3.g.g.V.C.C.d.4.4.1.1.s.C.4.4.;.=.M.N.Z.4.d.g.4.;.4.4.4.4.4.;.;.-.M.6.M.4.M.4.6.;.-.M.d.3.4.;.>.=.=.4.4.4.-.=.i , , < : t , <.f.f.5.5.s 9 a s 0 y.5.r a e 0 a u.p a C 5 @ @ @ @ + @ 0 u.y.U 4 p.Z oXqXiXfXdXiX,XsXgXnX@.1 x W G ( [ ..X.X.[ ( +. X` ( ....#.[ I .. X] .XX.' M U F Y [ ] } ( ' ' ] #X[ ]  X[ X. X` ^ U } / ( I  X@.....@. XO.[ } ( k .XNXAXnXiX5X5XnXHX#X^ ^ x k $ c 3 e 0 & -.q.1.g.d.C.P.F.P.G.G.C.N.M.d.s.B.8.H u.B.M.N.8.Z.Z.d.d.d.N.G.C.M.V.V.Z.M.{.U.U.j.g.g.C.C.F.C.V.Z.Z.C.C.Z.-.L.P.F.F.S.N.S.F.G.F.P.S.W.S.G.P.D.D.A.G.0.d.V.Z.q.S.S.w.0.B.G.S.D.G.D.D.w.,.A.w.w.A.0.A./.D.D.G.A.t.b.j.G.(.D.e.S.B.0.N.D.D.D.G.D.w.0.N.S.F.>.>.0.M.>.B.6.-.T.1XhXAXvXnXpXpXMXMXMX<X@ 9 J z G H _ } } } W l +.E ~ k 3 4 J  X1 @ z 9 ~ ` { ` { O.` } } } [.} } } } ` ~ c 2 7 ^ W z ~ c } _ ^ +.%XO.` v ~ G ",
"5 5 > = = 5 q > = w N = = q q > = = B > f V w w V 5 N V N w q > > q C V A B w N > N w w N N B V w q > A M K 2X5X7X8X2X7X7XzX1X@Xf.g.3.4.d.;.4.g.d.f.V.V.U.f.p f.<.:.:.4.g.1.1.f.s.3.1.=.;.s.1.g.: . 3 # + X X r d.4.V.d.d.Z.3.g.N.-.c.4.=.<.M.6.-.-.4.=.3.C.N.4.-.V.V.=.<.1.=.-.3.;.=.4.4.;.>.d.M.=.;.4.6.4.6.d.d.=.=.4.s.d.f.s.;.;.1.2.=.: , ; : 1.2., <.2.s @ & a y 3.t 5 2 s 0 1 2.<.y.a @ 6 $ j + $ $ 0 b.0 e m.c.y. XgXiXfXzXpX7XbXfXnX@.J x _ [ :X/ [ [ X.X. X[ ] (  X XX. X[ ( X. X( X. XX.Y [ '.[ }.] ] X.] [ X.] ' / +.]  X] ( ..O.[ X./ ' +. X] +.-X$._ _ ( O.G  XNXSXAXpX4X4XBXHX>XQ 6 k $ + $ + + X o <.=., w.0.q.).B.S.D.S.P.q.d.8.Z.8.4.t.3.M.B.A.q.u.0 C.d.d.C.F.M.-.d.Z.M.4.3.6.V.d.s.3.U.M.B.C.V.Z.Z.C.Z.F.M.W.L.0.N.G.F.A.G.S.S.F.N.D./.G./.D.D.D.0.-.M.q.>.q.S.Z.q.0.B.A.B.D.D./.A.0.w.D.D.w.0.>.A.D.D.A.;.a.OXm.s.-.B.G.G.A.N.0.0.w./.D.G.D./.G.F.G.F.N.0.0.N.-.6.-.6.T.&XfXBXhXgX4XsXNXGXnX6X@ & S v | U ] O.O.} ~ / ^ E c k 3 4 9 S 1 3 l G ^ W { +.} ` ` ` }  X[ +. X} ] ' ~ ~ 9 ~ _  X} W c } { / } +.{ ~ ~ G c ",
"o = q = = q q q q q > * 5 q = q q = > q B B w > w > > > N N > q > > B B V w w w B B > > B B B B w N > oXoX5 :X7X2X0X7X2X0XzX:X}.Y.M.4.=.g., 1.4.g.g.4.s.g.f.a 1.s.4.4.=.2.1.1.f.1.=.=.=.=.4.3.Z., & ^ # @ 0 ; <.d.g.g.g.d.M.d.d.4.Z.g.4.=.=.;.d.n.j.N.6.;.-.g.d.N.M.Z.4.<.3.=.1.=.=.;.4.4.4.4.d.d.d.-.M.M.d.4.-.8.3.=.=.4.=.f.1.=.;.=.<.3.4.M.: ; ; : <.1.2.5 6 O i 1.i <.3 7 w s a p p s . # n h h # # @ 3 C 9 p.2.y y.[ ,XpXfXnXpXaXfXfXjX%.3 ^ O.[ / ( ( ' +.X.' ( ] I O.O.+.(  X+.( ( U '  X.X$XX.' ' U I ..X.] ( ] H [ ..I I ' G _ G G I / [ [  X[ .X.X X#X+.] [ ' ^ X.NXAXnXsX,X6XMXGX5X6 @ j + + + + + X 0 =.;.q.N.N.B.P.0.P.P.S.0.B.B.k.4.1.1.c.a t ;.4.-.<.> N.B.Z.F.M.d.C.1.1.d.3.=.d.V.g.4.Z.C.C.C.V.M.V.Z.F.L.6.d.E.C.G.S.F.P.D.D.S.S.A.G.A.D.P.P.S.D.(.q.>.6.;.V.M.d.M.B.-.B.S.B.S.A.G.N.0.D.w.w.A.q.N.q.N.q.-.|.|.g.q.>.-.q.N.D.S.D.D.D././.^.D.G.G.N.F.A.q.N.N.N.>.-.-.>.-.n.1XMXnXhXrX;XyXnXfXjX-Xv 4 9 ~ | ' } }  X X` } } } c v l 2 5 F - @ v ` } ` { } ^ E E ~ ] ' ~ } { } +.` c c 5 9 / } ~ ~ W { { ` ^ ` E G E c ~ ",
"= & 5 5 5 = = = = = = = = = = q w q * N w q w > > N > = q w > > > > N B > > C B N B > > > u u B > 5 > v.'.m 2X0X0XaXaXaX0X0XaX3Xb.V.Z.g.f.1.<.4.M.Z.Z.f.c.u.5.1.f.V.V.f.1.g.g.g.1.1.<., =.1.3.4.3., / + 5 1.g.s.<.3.f.n.c.4.d.4.4.Z.3.d.N.;.;.d.f.d.T.4.4.4.1.3.M.4.g.V.1.: ; y <.=.;.;.=.;.-.4.4.4.4.;.;.4.;.4.4.:., =.=.3., =.3.1.s.<.=.=.4.4., w 0 t p s 1 3 q 2.<.i y 2 a y.5.Z a & . n W h # # @ 6 + 4 * C n.u.m.y.Y :XfXMXBXfXyXsXdXnX$.! o.O.[ U U ' ' }.[ K [ +.(  . . X]  X] [ ( [  X[ Y '.X...` U X...] / ( I I ..+.} ' ^ H / ^ [ H I [ ( [ +.+.O.X.$. X^ +.+.c  XkXNXjXiX6X5XnXHXiX# X # $ 6 @ # + @ a s.s.P.N.M.M.-.N.(.(.G.G.A.B.d.8.i.t 5 + + q 3.6.;.3.B.B.B.Z.N.F.F.d.c.n.2.C s 1.M.F.W.V.V.Z.M.V.Z.C.F.W.d.F.C.A.G.S.F.>.A.G.G.N.-.A.S.P.P.P.A.A.q.0.0.-.-.c.t.s <.N.;.L.P.C.G.S.,.D.A.N.0.w.0.A.).(.N.0.E.@XM.A.F.A.>.q.-.N.P.A.(.G.w.A.w./.A.>.-.N.A.>.q.q.;.4.8.;.>.>.n.2XnXNXnXpX;XrXsXfXkX.XD l 9 J c c ` } #X} ] ` %.} ~ G / 5 K [ g 3 c { { o.O.} ` Q ! ` O./ ] ] %.O.} } } ` J v ~ ` ~ c ^ O.] ` ` ^ v E x E c ",
"B q = = 5 5 = = = - - * = = > N w = = B N N B w > w > = = > > > w > > > > N B > > N w w > u > B w - & 5 M M 9X0X6X8X8X8X0X0XpXiXP g.Z.4.s.g.: s.g.4.4.2.u.c.y.u.3.g.g.g.c.1.1.g.1.t s , =.=.;.g.3.y w H q <.1.d.y <.f.OX].4.f.g.d.Z.4.=.4.V.4.;.d.s.=.;.M.M.M.3.d.M.4.y ; <.=., : =.;.;.3.;.-.6.M.-.d.;.>.4.=.d.;.=.4.Z.4.3.=.;.g.; s * < :.;.3.=.5 # X . . + @ 1 ; r ; t r r x.x.0 o X O k Q W j @ # # + 3 * r.t.c.@XZ ].1XpXfXhX,XrXpXpXfX%X$.UX+.] U [ F U }.}.Y }.] X.$X+.X.` ....( X.}.+.U '.Y }. X' X.}.X.O._ +..X} / ] ..( ^ ( H G X.[ X. XJ U [ ^ ( ..] ] ` _ { G XXMXMXjXiXpX5XnXHXnXx @ 6 h E 8 # # @ s c.Z.L.M.S.N.q.P.G.S.S.S.S.N.q.M.;.=.- @ + + 1 , : 3.N.N.B.Z.M.6.d.B.V.R.Z # e Z.F.C.g.j.g.M.Z.V.M.N.F.B.F.F.F.G.F.S.F.G.S.S.G.D.0.0.D.(.P.S.L.>.R.OX>.q.d.c.m.v.1.M.-.F.S.D.D./.P.w.0.>.0.w.w.A.A.G.S.A.C.B.>.-.-.Z.>.0.A.N.N.A.w.w.0.A.D.D.0.>.-.q.0.>.>.q.>.M.q.-.>.N.T.2XdXBXkX5X;X6XpXnXNX.XS G 2 4 J 9 ^  X%.~ } } %.} ^ W J 5 U 4 J c v / _ o.O.} ` E Q } O.}  XO.+.+.X.] O._ ' J H / ] ] _ ^ ^ o.O.E k E ~ c v ",
"w w 5 = = = 5 0 - - * = = > > N w = q C w N q > q * > u w N B > > > > > > > > > > > N w u B w q w - o 5 C Q.wXaX7X0X8X0XaX0XaXgX+.t Z.M.g.4.=.8.Z.g.d.1.5.f.f.5.1.f.f.1.3.3.d.g.1.s & 0 : <.1.4.s.<.: v.q y 1.s.1.1.d.c.c.4.f.g.Z.4.1., d.4.M.g.d.g.V.OX1.y , 1.1.1.; * , 3.i 1.: , 1.;.;.3.4.M.Z.M.4.M.-.d.6.-.-.3.M.M.4.;.-.4.<.u.* 0 =.;.4.4.: # x n $ X o 6 # - 1 O & S 0 * & 4 3 2 v 5 e c h @ @ + X % 1 c.g.j.U.g.m.:XpXrXfX>X>XfXgXhX.X` $.%.' ' [ U U }.[.U } U [ O.X.X.+...X.X.] [ [ X.'.Y oX XF [ +.X.....O.} ' _ ] / / [ / G ( ] ( X.X.] [ [ +.] ` ....] O._ / #.VXNXnXrX6X0XvXHXnXW j j h 6 $ # @ @ 1 s -.8.=.q.S.S.P.S.S.S.S.S.S.B.N.>.8.=.5 + + + X r d.N.F.B.F.Z.d.M.d.3.W.p 5 s d.F.C.V.V.Z.C.V.V.M.F.F.C.F.F.W.G.G.S.A././.G.G.D.D.0.D.P.N.A.F.>.+X+X;.E.B.d.B.E.Z.;.M.M.,.D.S.G.A.>.>.0.A.0.w.A.S.A.F.C.N.A.F.Z.s.;.-.S.D.B.q.0.,.0.w.0.A.0.A.0.q.>.>.w.0.>.q.q.8.6.Z.M.R.2XnXBXhXrX4X5X5XbXNX-Xg H l S H k ~  X/ / ] +.+.} _ _ ~ U U D l 9 ~ ~ ~ o.+.} } ` { { { } +. X#XO.O./ } _ ' / _ / ] ] [ W Q { ` ^ c l ~ l 2 ",
"w > = = > = = = = = > = * > q B N = = w * > B N N > > > w > > > > > > w w w w > B N N > B A u B f > N B K &X1XgXpX7X7X8XaXzX0XgX$Xw 4.4.f.<.i 4.4.d.d.g.g.g.g.g.f.f.y.2.d.4.g.3.y y & + 0 y 1.1.4.<.: r @ * < =.s.1.1.1.3.f.3.1.g.4.; y 4.4.M.d.4.d.W.{.<.; s.M.3.: =.t 1 o X & * : : 3.1.1.4.4.M.6.-.-.-.;.4.4.4.Z.T.;.;.6.4.<.> u.f.1.<.=.3.=.<.5 6 G c x 6 c k O x x m '.Y C Z x.y.Z y.u.y.l $ $ $ X # X 5 c.f.f.g.g.m.1XgXpXdX,X>XgXpXfX+.k /  X[ H [ ' ' [ J U H I / ' [ +.+...+.X./ oX' I ' K  X.XU J [ ] X.] ..X...X.+. X' [ ] ( X.+._ [ U [  X} ] ( I / _ ` ^ ] ] .XnXMXvXrX,X;XfXMXBXE $ $ 6 n $ # @ + X o =.-.;.>.P.S.A.S./.G.w.A.S.B.B.N.N.B.Z.Z 2 + + 1 <.M.Z.L.C.Z.C.Z.Z.M.Z.4.3.s.C.Z.U.C.M.C.C.U.V.j.C.F.F.W.L.W.W.S.G.A.S.A.D.A.P.P.0.S.C.0.D.G.D.w.>.=.{.+XC.>.d.=.;.t y ,.S.A.0.0.0.A.A.,.B.0.0.S.N.0.q.>.S.B.d.m.|.d.A.F.N.>.0.w.w.A.D.N.0.0.q.>.>.8.A.A.A.N.M.8.d.j.d.h.2XfXNXkX>X;X4XpXvXMXkXJ K J S ~ v '  Xv ~  X+.} _ / / / ' H F 4 9 9 G c _ O.] O.} } ~ { _ +. X.X} ` ^ ] } _ ~ ` | ] ] ' G E ` ^ G v l E k F ",
"= = 5 = = q N N B w > = q w q N B = - N > = A A w N > > > > > > > = > N N w w B B N > > > B u w B > N M K XX8XcXaXaX4X8XaXcXxXcX<X'.g.4.g.3.3.g.j.g.g.c.V.U.g.3.f.f.; y g.4.3.y ; s 1 @ 1 ; <.=.3.2.; =.0 & : : <., r a i <.1.3., t * <.-.4.M.;.-.d.M.=.1.y g.3.3., r 1 X X X % X * & s s ; : 4.Z.M.4.;.;.;.-.6.4.8.g.;.;.;.3.=.: =.=.;.=.: 3.<.4.s.; m.[ [ D Z Z a a '.].f.c.x.5.1.f.u.y.p a H $ $ x n m 5 u f.3.=.y y p.1XfXfXBX,X;XiXgXnX XW _ v v '.H ' [ F ( [ U I ( U [ _ ] O._ ( ( ' H J / K U I  XX.] ( [  X X+.X.} H H X.[ U ../ ' ] X.[ ( } O.} +._ ( ~ ( I ] _ 1XnXBXfXrX4X4XhXNXnXW $ # # k $ 3 S # X o ;.-.q.>.A.G.S.F.P.G.G.P.A.S.B.M.q.L.B.V.p.g 3 # o y Z.F.C.C.F.F.M.B.C.>.;.L.V.C.Z.Z.N.C.C.Z.Z.M.Z.W.G.W.F.C.F.A.D.G.A.A.0.G.P.L.A.N.A.A.S.D.0.D.A.:.Y.U.>.-.=.=.p.2 Z A.0.A.A.N.0.D.D.A.;.M.B.A.S.0.;.-.M.8.m.XX9XZ.-.>.>.>.D.A.>.w.D.w.,.0.-.-.M.-.3.-.4.;.;.3.d.M.s.a yXNXSXhX-X;X4X0XgXMXjXI F H J ~ ` ' ] ^ ~  X+.} ] ~ ~ ' | H F 9 1 e J ' +.%. X' / J k / O..X#X X} _ ~ ~ ~ J S 4 S / ` H H k / { O.^ c ~ J U ",
"= q q = = = > q M B N q > q > N B q 4 C M q w q w M q q N N > > = = > > > N N V V w B w w w q > B N > w T XX8XcX8X7X5X8X0XxXdXzX<Xv y.g.g.d.4.<.g.U.g.g.g.U.g.3.3.1.; ; 4.3.1.<.y <.; 1 + * 1.=.1.y : =.y : ; > C - @ # @ 4 r r m U r 1.4.-.M.4.4.6.3.=.=.3.4.s.s.<.* 3 $ # # + X X 1 X & , , =.-.4.;.;.:.=.-.;.-.d.Z.6.M.-.=.3., : <.t 1., 1.<.-.4.f.h.].c.<.2.y t 1.u.p <.5.y y <.u.u.i 0 1 # + # j I L i n.c.d.d.y.c.|.2XyXfXjXrXrXsXsXMX#X` _ j )  XH U U [ ( F [ ..' X.+./ U / ] _ _ ^ I U ] F X.I X.' ' ( X.X.X. XX.( I Y [ O.I _ U U ' ' ' ' / [ I U .._ _ X.X.] v  XsXAXBX5X>X5XnXNXNX) # $ # 6 # 2 q @ + & M.F.A.q.N.G.L.L.(.G.D.G.S.F.A.M.q.M.M.M.J.R.s.1.r * g.N.C.Z.F.Z.C.C.C.M.M.L.C.C.C.V.C.C.C.j.C.M.C.F.F.G.F.F.F.A.A.w.0.E.S.(.).D.A.0.w.A.F.G.D.G.>.-.-.;.-.4.:.3.5 7 c.G.D./.P.0.A.D./.w.>.A.-.M.N.8.M.A.N.M.V.T.+X0.B.M.>.M.>.0.N.>.>.q.>.;.: ;.>.q.=.-.-.-.3.p.p.4.C 4 1XHXBXhX-X6X6X5XpXnXpX[ K D J J ~ H ' ] ]  X X_ ` ^ W J ] / ' J 1 9 H F } +.O.] ' ' 9 7 E .X X_ } +./ _ ] ` / 5 9 9 J ] ] k ~ O.} ^ J ~ ~ v ",
"> > > = = N w - q A B w N N > > w > = N w > N = = > q q N N w > = > > > > > w > B > B w N A C A B w q w K oX2XzXgX7X2X7X7XgX7X0X6Xx 4 p g.3.1.1.<.1.g.c.g.g.c.3.g.4.; : 3.3.=.y t y ; & @ r <.3.1.f.1.=.-.Z.<.y.m.y.q M 3 1 5 3 G P , <.4.6.d.Z.M.6.3.3.-.N.s.g.4.1.r + h _ j $ # # X . . * 2.3.;.4.d.-.M.M.4.-.;.V.g.;.g.<.3.d.=.i r 0 2.4., , 4.y =.3.d.d.<.s.p r s 1., u.y.p 2.u.u.u.y.o %   # 6 X 3 y.c.c.1.j.j.c.n.XXsX7XBXgXrX5XgXrXjX@.[ ] .X X' }. X~ 9 l S I ] ' ..+...[ U ] I ] G J U O.' [ H H ] ' ....X.X.[ } ] X.'.[ [ ] ' [ Y F X.[ U ( ( ( ( G G G ] ] _ I .X5XHXnX6X5XpXnXvXBX@.j $ $ # $ 1 V.<.& 0 s.F.A.N.S.A.P.S.P.P.A.A.D.S.N.N.L.B.N.M.C.Z.V.Z.s.; i h.4.3.d.Z.B.C.j.1.V.C.g.j.Z.Z.Z.F.C.Z.Z.d.T.C.F.W.F.F.G.S.0.D.W.J.N.G.(.S.0.w.0.A.N.A.A.0.>.d.-.;.6.-.=.=.5 k Y./.G.G././.A.w.D.w.D.w.0.N.M.0.N.F.S.q.A.w.>.q.>.4.q.N.A.,.0.>.0.0.A.>.q.N.q.8.q.M.N.M.s.m.m.<.I ` 1XHXnXiX) $XpX5XvXSXjX' D S S l l G } +.+.%X%X+.} ` v ~ } / / J 5 9 S ' O.+.+.Q  XO.9 9 E +.O.+.+.} ` ` O.O.` 4 S S J } ] W c ` ~ ^ / G / / ",
"> > > = > B N q N A i.B B B w 5 q q > w q > q > 5 q w > N N > > B B > = > N w > > > > q > N B w > w 5 q K XX8XcXfX5X1X8XxXfX8XcXyX) j 4 2.<.4.4.=.1.g.g.f.f.f.3.4.4.<.3.g.3.y * 1 1 r y r i <.1.=.4.4.=.;.<.=.1.3.f.g.g.c.2.p.v.[.D r , 3.d.6.4.M.4.=.3.g.d.s.Z.g.t & + ( oX XQ 6 5 q C q M e : 3.-.4.d.4.;.d.3.1.f.3., : , ; 2.4.2.* * d ; ; : s.s.s.3.g.1.<.1.f.r & y.p p u.2.i u.p.p.5.& # n O 6 # + a t t i f.f.j.f.}.5XfXBXBX4X6XfXrXiX XO.X.S K F J v H 5 m l J ] / / [ / ] / ] ( +.X.U I / F K U [ ( [ O.] [ [ X.( X.} U U } ] [ ' U F H Y ' H ] ' .X+./ ` / I +.6X4X4XHXhXiXiX5XBXnXNXO.6 # # k U 4 V.A.d.=.;.M.C.C.C.S.N.N.F.G.S.w.D.F.B.Z.E.Z.M.B.M.B.C.C.Z.k.1.<.<.<.1.+XE.S.V.1.Z.C.Y.V.V.T.V.V.V.Z.C.V.W.C.F.W.F.G.G.A.N.A.N.S.0.G.D.0.D.D.A.0.0.-.q.0.-.1.=.=.;.;.-.;.* 3 R./.A.A.P.D.D.0.0./.D.0.P.L.w.w.M.C.E.q.B.M.M.-.M.k.N.0.A.>.w.D.w.0.0.A.N.q.>.;.-.=.4.M.j.{.n.q ^ Q $XHXMX6X . X5XpXpXnXBXI 4 J S 2 J H '  Xo.O.+.+.^ z c ~ ' ' H G J e S } } +.%X+.} } ~ e ] ` O.O.O.] / ` ` / / e S U / J G W G W E _ ' ` _ _ ",
"> N N N N B V A A B l.i.B N N N q 5 = > > > > > = = N N N w q > N B B = > N q > w > > > > N q > K A w = K wX2XxX7X2X;X2X6XaX5XcX3XE j l 2.1.=.<.4.<.g.g.g.c.f.1.1.1.2.2.3.=.; t s r 2.1.<.2.<.1.=.4.3.V.Z.: : =.=.1.d.s.d.3.4.Z.u.p.j.u.: d.4.M.M.=.: =.4.d.d.f.2., t 5 oX'.8 # @ u 1.2.=.g.OXx.; 3.=.:.< : :.; ; : : =.: * 0 * t * o =.t.* =.s.4.3.s.3.s.3.3.1.1.2.a p s & & ; 2.u.u.5.1.2.o h ..h # + 3 D w i.u.t.f.y v.4XcXMXsX>X;XpXrX5X_ O./ H g J v 0 U }.' J J J / G +...] / ' ' [  X( ( I U I F ] #./ _ ] ] ( X.X.' ] [ ' ' ] X.H A ' ( H H I ' U X...] / H [ ..rX6X4XSXBXpXsX6XsXBXAX@.# # k '.K S V.B.C.N.4.B.F.N.T.F.M.d.B.G.G.G.M.=.1.=.=.s.Z.A.F.C.G.F.B.F.Z.=.s.f.r L c.1.V.E.V.j.V.C.C.U.Z.V.U.C.U.T.C.F.F.F.W.S.S.S.A.N.0.A.N.A.G.A.w.A.D.0.>.0.0.B.d.x.e u 2.:.=.1.q 2 c.G.D.I.D.D.0.>.D.(.D.S.S.D.A.F.Z.C.N.-.;.M.N.M.B.M.B.q.0.0.0.A.0.0.N.>.0.0.>.M.V.p.4.>.d.R.a # ) W 3XKXhXsX@._ :X5XfXMXnXb l m 4 l F J _ +.~ } +.{ c v E / } / U | 4 e F / G / } +. XO.] ] +. .{ } O.} ' ^ x ~ ~ D U ' / l ~ ^ } ) ` ` _ ` ~ ~ ",
"N N B B > > B B V V A C V q B w M 4 o 5 q * = = * = > q N > > w w N N N q > > > w > > > w 5 5 > K C N 5 m wX2X;X8X8X2XpX7X6X5XcX8X2 6 7 a , 1.: 1.=.1.c.V.j.g.4.3.y ; t 1.1.1.<.<.=.1.=.=.1.<.=.=.4.4.3.V.1.> ; ;.-.s.1.3.4.d.d.;.1.4.g.<.=.;.3.3.1.<.s.3.;.y.L y.j.g.<.s @ % o e * ; , =.;.4.j.f.2.=.<.x.y.: : : ; : ; & # 3 o 3 @ ; 4.d.3.V.g.1.3.=.g.g.d.3.1.2.a 4 1 o 2 # 0 p 1.f.f.t.<.s q @ + % + + X X @ i n.{.0 oX4XfXMXiX;X6XpXpX#Xh ` X.U J U U g [ F U U S J c ( ..+.( v [ [ G ` ( J [ +.I / _ O.F I X. X( ..O.X...] [ ..] ( X.[ / [ ' ' ' ( / ] +.I J I .._ .X#X6XhXnXgX4X6XrXzXVX-X# + + 3 + 9 s.F.A.F.C.L.F.F.N.N.B.V.C.G.G.A.4.=.=.B.-.8.F.M.Z.E.E.N.6.3.4.d.4.t 6 # 1 3 y.d.V.U.g.4.C.T.U.1.r.f.M.<.Z p.Z.F.B.A.G.L.0.,.A.q.>.q.B.A.w.G.0.w.0.0.w.A.B.y.2 1 0 - , p.Y [ U.D.G.P.(.D.0.0.A.D./.A.>.0.A.A.N.0.q.d.XXb.q.-.q.M.N.q.0.0.0.w.0.0.-.q.N.C.>.>.=.;.-.>.-.d.e h _ 2 2XHXnXiX@. .:X7XiXNXfX` U 4 2 4 l l ] O.] } +.{ G k c } } ' H e 4 5 U ~ ` G G } %X} } } } +.O.O./ ` ^ G E c 9 S ' ' / ~ E ` ~ _ ^ E j E W z ",
"q N N w > > w B B A A w B B C q q N = - = > = w = = 5 q q > = > > 5 q w q q q N N B B w = = = > B M M m R 1X1X2X6X8X8X2X8X5X2XcXxX) 6 7 M s.<.s.f.1.=.f.g.g.g.4.1.: * y 4.1.4.f.2.=.3.=.=.1.<.=.;.M.3.:., <.y r t 4.d.j.g.;.Z.V.1.d.3.g.d.4.8.s.y.m.g.V.g.3.h.c.V.j.s.=.; s ; =.s.<.; , ;.3.;.1.3.d.f.p.].x.f.1.d.-.=.d & + 0 4 8 # 0 : =.Z.d.d.g.4.;.1.1.3., : r 1 @ + @ ) c C ; y u.c.g.<., u.& . & o + # # X w j.5.1 $X;XgXmXjX,X,XsXfX:X2 G / 4 2 F U U [ K H U ' [ J G / ' +.J / G l I I I H ' I ] ( J c c ' [ ..[ ( O.` H [ X.[ ' O.G m [ H H ' X.[ [ ^ ] I ^ ( ` X.:XiXBXBXsXpX6XpXnXBX5Xn # @ + @ # a U.G.G.(.L.A.A.N.M.B.F.F.F.F.B.M.Z.N.P.P.N.F.M.d.C.C.-.=.;.;.;.;.: c E # E l 2.<.y * 0 0 t ; 4 |.h.8.m.oXX.Z M.A.N.Z.4.>.w.0.A.L.N.q.q.0.w.D.L.q.>.A.D.w.C.i.# k 3 J 4 O.].F.D.D././.D.w.A.D.D.D.A.0.A.w.w.D.B.>.d.&Xx.-.;.q.q.0.w.0.0.q.0.0.A.A.>.N.;.=.-.=.;.M.-.q.3.D k @ 3 aXHXBX4X#XO.#X7XpXMXfXl F I v 4 v v } } ` E ^ O.` E G ~ O. X] J 9 5 H { _ / ` ` E ` ] _ } +. XO.] ] E k J S J ' ' H | ~ ` ~ c G c x $ k c ^ ",
"= w w q N > w B N M L C N B B B N > = 5 = > N q > = > q N q > > = = 5 q > q w w N N C q = > > w K m e 5 U 2X2X0X;X8XcX5X0X8X6XcXcX{ j # 2 2.: =.<.2.1.g.g.g.4.1.=.: : : <.1.3.g.3.=.1.;.=.=.y t 3.M.4.M.1.: * o 5 ; 1.s.<., f.V.;.Z.d.=.3.M.f.3.3.1.4.d.g.4.h.c.4.d.<.3., t d.N.g.V.s.=.=.;.d.=.=.3.1.<.r.<.t =.4.g.4., , i 1.y o @ & ; <.Z.3.4.3.3.g.2.1.=.g.<.<.Z 4 G k l L 2.u.Z t <.1.: : =.u.x.R.c.w . @ 4 e t 2.2  .XXcXfXsXiX5XpXfX$.2 ` D K H U I / F U [ [ }.F F U H J / ' ] v 2 I H ' [ ' I H X.] H ] +.[ .XX.] ^ H K ' U ' [ U K v.'.U F ' ( I ] X.X.] _ ( X.@.-XnXNXnXpX5X;XrXnXhXgXc $ # + + G v.V.S.).D.F.F.N.C.F.M.Z.C.F.F.E.W.N.N.P.D.Z.Z.Z.B.V.3.d.-.-.;.-.d.<.J E W E h k 1 @ ( }..XI Y OXE.V.V.R.+XoXU N , <.r.u 1.>.>.A.P.C.P.P.S.0.D.S.C.B.N.G.A.G.F.x.J K v 7 F R.S.S.G.G././.0.P.P.G.w.0.w.A.0.w.A.N.q.8.;.g.d.-.6.A.0.0.0.>.R.H.-.0.;.4.d.s.p.j.>.-.-.q.=.s.b.J h ` bXHXhX;X#X...X6XaXNXiXJ H k H v v G } _ ~ ` ^ ` ~ ' J l / $X.XJ 5 4 ~ _ ] } { c 7 ~ ' ^ ' } X._ ] ] ) c J S / ' ~ | ' J v ~ W l ^ x 2 9 x v ",
"e > N > C N w w N N m N N B B M V B > = > N N N > = q q N N = = 5 5 q = q q q w N N = q * = = w Y F 5 4 & .X8XaX6X;X0XpX0X7X5XfXmX` j 6 + p 4.3.=.: : f.U.Z.g.g.3.y 1.1.t 5 2.4.4.=.3.=.3.;.1.<.;.-.-.3.g.c.Z 2 6 4 t 1.p t.1.: u.g.3.1.: =.<.y ; * * * ; , 1.1.3.4.3.d.=.<.3.;.<.4.4.j.=.;.4.3.8.1.2.1., 2.; : ;.u.g.V.H.g.3.4.; ; :., i 1.4.1.=.=.1.3.4.=.s.3.1.1.Y.OX].c.c.f.f.p y.f.j.1.<.3.f.u.5.u.2., & - 4 v & 3 ..8XnXjXiX0XrXsXrX) W 9 K }.U J ' ^ H F [ X.[ I Y U g k l c c v k _ I l c / X._ ~ ( ( ' ( ' X.X./ ' I U ' U ( ( }.[ '.'.Y ( ] ( X...' I ' ` }  X#X;XHXnXBXrX5X2X5XfXcX5Xj @ @ + 6 '.h.Z.L.E.S.F.A.M.d.W.C.C.Z.S.F.N.A.F.S.D.(.E.Y.M.M.s.<.-.M.M.M.q.N.d.m.c 6 6 k k z [ |.9X&X@X{.Z.T.C.E.T.C.U.R.v.k Y L w <.>.A.N.q.A.G.D.S.S.A.N.F.T.B.P.D.D.G.R.S c.!.m.Y.L.D.A.G.G.G.G.G.P.A.A.D.0.A.G.B.B.>.>.N.E.B.8.4.q.>.6.N.A.A.>.E.d.t.=.w F 1.4.f.m.j.s.s.-.<.i y.l W #XzXMXjXtX,X;X5X8XgXMX4XK / J F ~ ~ G ~ } +.#X+._ / G S J ~ } } c S 4 S e H ] ` W x 9 / ^ G ' [ ~ c _ ] H J 4 ~ / ' _ _ ^ ~ ^ ^ v x ^ v z z v ",
"5 = N > > q q = q w N C B A C q B w B w q w N w = = = q q q = = = 5 5 = q = * q > = = q 5 = = q M D q 5 . O 0XmX4X4X4X4X8X6X6XzXzXE # 6 @ p =.1.<.; ; : U.g.g.d.f.2.y 1.5 4 0 2.4.3.4.=.<.3.;.1.4.4.4.4.s.4.f.5 e c.p t s y * r ; r 0 e q : : , > J G 3 3 O ; , 1.4.1.<.<.<.=.=., 3.=., =.;.;.4.6.1.y : * ; <.<.=.=.4.Z.;.s.=.1.: ; =.=.t.3.<.=.:.=.3.f.1.=.1.4.3.f.c.U.j.f.u.h.f.u.f.f.j.n.c.u.1.1.<.1.<.f.u v.|..XX +  XcXsX7XgXrX6XgXtXW o./ I ] _ [ [ H F F F [ I ] } H ( ` v l c G / / [ ( ] ' } ^ b I X...( U [ [ I U U Y ] '.X.] K ( I /  X XX.' [ ..] X./ / ] H G 6XNXnXvX6X3X7XpXhXNX>X# 6 h 6 # P 4.q.S.S.B.M.E.c.=.T.W.C.C.N.F.N.F.W.F.P.).F.C.M.M.-.M.C.Z.N.G.C.V.d.E.b.'.l y.5.p ].OX+XV.Z.Z.E.+XE.W.Z.T.Z.U.Y.R.].5 <.G.0.N.N.>.q.0.N.q.B.d.=.V.-.-.S././.A.V.].P.(.P.F.A.D.A.G././.P.0.w.(.D./.N.0.S.A.S.0.N.R.R.q.q.M.q.q.-.;.q.0.>.>.>.OXI c G p.-.f.m.L 4 p g.Z e # k W +.MXVXfX,X;X5XpXpX5XHX+.m S ' ~ W E H ' } } .X+.[ / J 9 J l c 2 9 H 4 5 4 e / ` ` z 2 ~ _ / | c ^ ^ v ~ F l S G / ' U | ~ ^ _ { ~ k ~ v k 9 J ",
"= = q q > q q = > q M M w C = = B N N N N q w w > = = > w 5 = = = > = = q q > 5 = 5 = = * 5 q 5 N q m - # h ;XaX;X6X8XgX5X2X8XcXHX` X 6 # q , Z.1.t 0 d i f.3.4.1.2.<.1.p s r y 4.4.4.4.1.1.=.1.4.4.4.d.s.1., * i t o @ # # O o o o # X $ G 5 l |.4 6 x W j X o & ; : =.=.1., 3.1.1.3.;.=.=.3.4.: : <.; : * ; : 1.;.=.=.=.s.: * ; , =.<.=.1.<.=.=.t y 2., 3.4.1.3.U.R.U.@X].j.j.f.u.f.1.f.n.c.f.f.f.f.s.f.f.1.u.c.e @ # -XmXpXaXgX;X6XBXrX( ] } } /  XH S S F F F U [ ] _ U ;X] ] I l U I 5 F ] [ G G I ` U [ +.X.[ ] [ X./ U X.[ }.( ( [ ' U K  XX.] / H X...#X#XH / G 2 7XHXnXnX3X4X0X5XiXvX@.# j j # n D M.S.q.S.F.N.E.E.N.N.M.U.Z.B.N.N.C.C.J.E.C.N.N.4.3.N.B.C.M.q.C.C.V.L.W.F.E.R.i t <.OX{.c.V.S.W.T.L.E.E.d.4.F.-.V.c.f.=.-.N.0.q.>.J.E.0.N.0.B.d.2.g.w.0.d.t.Z.F.V.{.C.P.G.P.S.D.S././.D.G.:.=.>.q.N.N.A.D.A.0.A.B.M.q.0.Z.M.>.>.-.-.>.q.N.q.>.R.1X.XJ 2.F.Z.c.F 6 5 5 9 H h b _ O.bXNXjX6X;X5X8XsXdXHX.X4 J ~ G / H / / ] _ +.} W ~ v 9 7 k v 2 3 J ~ l e e J / ` ^ ~ c c J U H G D k 9 G 9 H D ' H H G J J ] O._ v z ^ v c J ",
"= > m = q = q = = q m N > > = - > A N q q q > w > = = > q w > > > > = = = q C q N w N 0 = q q 5 q N M e v { W 2X:X6X6X5X5X2X2XzXHXO.X # @ 3 1.>.<.r G l & 3.g.s.3.3.3.3.M.: s 2.4.1.;.d.=., =.1.4.d.4.g.f.1.1.* 5 1 + + j  .+.b # + x 6 6 j 6 x  XS # $ z 6 n n n 3 t =.=.=.=.=.1.1.<.1.:.;., * ; :.; o 5 a & * : =.;.;.3.y ; ; : ;.<.; :.1.<.=.: ; ; <.1.s.g.f.1.f.c.f.c.c.j.g.f.f.f.1.u.c.f.f.f.g.f.g.n.h.f.u.2.& # W 4XgXcXsXaX5X4XsXfX+.c ` X.U X.' e l 2 9 l F ' [ }.X. X( G ] X.X.U I J [ / U U ~ I [ ( ] X. X' ( [ U I I ' ..[ ( X.[ [ '.X.}...I m [ [ ] +.] k z g gXHXAXBX5X4X7XpXgX5X) j # # 2 b.C d.D.B.C.q.S.S.S.P.F.C.V.Z.M.N.F.M.B.F.E.E.N.N.M.q.Z.M.-.d.d.N.F.C.E.C.F.L.C.p.X 0 f.f.c.V.V.V.g.J.C.C.Z.M.F.N.-.2.u -.-.N.B.M.;.M.A.D.L.A.G.q.s.k.N.L.j.f.a u.C.Z.F.P.(.S.G.D.D.(.(./.A.=.: =.N.N.q.B.A.q.>.C.6.-.N.0.4.;.q.>.q.q.;.B.4.8.d.b.@XXXF ; <.f.f.'. Xn + 7 v ) x ) +.vXNXjX5X4X4XpX5XyXBX` 4 D H v J ~ ~ _ / ` +._ E G G 9 3 c l 2 5 9 G J J 0 D ' J / ~ W c H Y M H M H g 4 M U U ^ v / H K K ~ ' / c x Q ^ ^ G ",
"> = M M > = > > q > N M w > & - = w N > > > w N > > 5 N N N N N > q > N q N M N w > * - 5 5 = = 5 4 q m ) Q  .;X-X2XaX5X2XpX6XfXMX{ + # # # w 1.: 1 j W + * 1.g.V.4.g.4.M.g.<.t 3.1.1.3.=.<.1.<.4.M.M.4.2.* t * X @ # @ 3 E +.{ c c j 4 p 0 x ) _ oXJ 6 h ^  .Q 6 j 5 ; =.=.d.1.=.=.4.=.=.=.: : 1.;.r 0 @ # h Z 3.;.<.=.: * =.3.: : 3.3.=.1.y ; ; : y 1.1.f.f.g.u.i 2.j.2.<.f.c.u.u.u.u.p.f.g.c.j.g.j.V.U.g.s.g.j.u 1 Q .XaXgX5XaXpX5XgXsX#X..} '  X} ' D D g I J I D ' [ +.` _ ../ X.( [ H J ( ( I ( v ..[ X.` ' X./ ..[ U ( [ /  XO.I ( U ( ' U .X+.+.' [ ' X.' v c 7 h sXHXAXfX6X6X7X7XsX6X) E @ 1 y.Y.e 4.G.C.d.M.W.F.W.).W.C.U.V.C.F.C.N.Z.F.E.J.M.Z.Z.V.C.C.M.Z.Z.C.C.C.E.T.C.F.Z.V.= 0 Z.g.u.u.U.j.j.V.J.C.F.C.F.N.-.r 1 r ;.>.M.q.0.S.,.A.E.N.>.w.B.d.d.-.B.Z.Z K h.C.S.G.F.D.A.A.G.(.D.D.7.Z.R.V.B.0.q.;.;.Z.N.>.8.1.6.N.N.-.q.-.-.N.>.Z.Z.{.].b.].OX'.J m u.f.x.XXO.^ O._ c D v _ yXNXhX5X#X6XfX5XbXiXx 9 g J v l J ~ / G E +._ c ^ F 9 l S 9 3 9 l G ~ J 4 S l } / ~ ^ z 9 9 S D e 4 e S [ [ U H ~ O.H H  X` ~ ~ ^ W E v ~ G ",
"> q N N q = = q q = q q = = . & = > w > > q w N > > = = w w q B w 5 = N N N C N q = 0 - * = = = = 5 N 5 Q @.#X:X;X2XaXfX4X8X5XgXVX_ @ # @ @ @ 0 o o h ~ c X 0 <.2.3.4.M.M.f.1.; 4.: 1.4.g.4.=.1.4.4.4.y oX~ S 3 + 8 2 0 @ h E 8 C y.w u.<.i K ` 6 c c x Q E 6 7 3 @ # 0 =., 1.=.=.;.3.=.: , r.a s d.3.s o # # @ * =.1.* d d , =.: : 3.; o 1 1 a 1.: y 4.s.3.3.s.u.u.f.f.1.f.c.c.1.s.n.u.u.c.f.j.f.f.V.g.g.g.H.V.U.T.e $ -XmXgXpXmXmX5XsXhX#X[ F / }.[ [ ' J g F S I I ] .X+.O.[  X] J / U J H I / ( ( U _ ' ' F I O.] [ ..( ] ' ] [ ( ( [ [ G K U / F / / H [ X./ I ` x b 6XSXnXfX6X7X0XpXsXpX+.x @ a f.Y.K 3./.M.-.C.C.F.W.A.G.P.Z.g.Z.C.M.B.W.C.C.Z.Z.k.C.Z.T.W.Z.C.Z.W.N.C.E.C.g.C.!.s.V.d.S.V.f.f.g.g.U.J.F.Z.C.N.+XT.q.0 3 e d.N.>.q.S.q.0.0.N.6.>.D.A.>.M.C.C.k.Z.c.L Z j.Z.y.u.q.0.D.N.-.>.Z.q.R.].Z.R.R.Y.@Xn.j.Q.z.U.B.;.-.q.;.-.;.;.-.-.Z.OX{.f.x.].|.D x.y.A S J / .X_ ^ [ p.i.[ aXNXaX5X:X6XfX6XNX>X_ l H S v 5 S ~ G / ` } } ` _ S 4 J / l 2 4 S G G 4 / H v / ] ~ h G D U 3 G S m J U } _ D U _ ~ | H / H ~ ' ~ E x c ^ c ",
"> > > w q = = q w > > > = * - 0 o - = > w q w B w w q q q q w w q = q N C w q q q = = - & 5 5 = q M M 5 c  .:XwX1X2X8XaX5X0XpXgXVX$.# @ X # +   . n j 2 k 8 X e r 1.3.3.Z.g.<.: 1.=.<.3.1.1.3.3.4.4.3.a 9 # w y.2 4 0 @ 3 7 W j 5 g.f.1., 1.s.x.S 2 W ^ E 6 X X X 1 r * , <.1.=.s.1.:.: ; r 1.p 2.<.3.2.2 # @ # @ =.3.; =.=.; : : =.=.* @ X X 3 a t y 1.4.3.g.1.f.1.s.f.s.2.<.1.1.n.U.c.f.f.s.f.c.f.f.g.h.U.Y.f.g.h.Z # .XNXaXaXyXsXqXsXjX#X_ J U ' / I I J m U I I X.O...O...] H U I I I I ( _ / X.O.X.( ( / U U ] X...( O.H X.O.I I ] / ( ' I ( U [ ( I ] U ....[ b j 6 6XnXAXhX5X0XpXpX5XpX#X# 4 f.j.g.a f./.F.B.N.N.F.Z.M.F.Z.g.f.Z.N.q.M.C.d.M.Z.F.J.C.N.Z.U.F.B.F.F.B.L.E.V.V.).*Xf.0 c.T.E.T.Y.j.V.V.C.U.Z.C.F.E.P.G.d.p x.B.0.N.A.N.D.A.>.w.q.N.F.S.0.B.B.S.B.B.Z.c.c.C M / # p F.q.q.-.4.Z.B.V.m.Z.R.R.R.{.g.OX8XOXJ.V.M.-.q.;.s.j.d.-.;.Z.T.c., Z m.].l p Z S v c ] .X_ [.n.1.u.oXzXNXgX;X4X8X0X7XMX,Xc J D S S e J G / / ~ } ' ~ J l J _ ] H J S F G l 4 | | H l } _ ~ J | / 3 9 l m U H ' / / ' _ / / ' G J J U ~ E c ~ E ) ",
"> q q w q q > N N N > = = 5 C M o & = = > > w B w > w w q q w q q q q w N w w 5 5 5 5 - * 5 5 5 5 5 N 4 k h .X0X7X2X2XyX;X7X7XfXNX%X# # h # # + + 6 # 3 3 ^ # o s 2.1.1.4.d.3.=.; s u y y =.=.3.=.=.y 1 X X s 1.; r 1 $ k k W j 1 3., i t > 0 D Y 9 x  XJ # @ # @ X 1 X & 1.1.t.g.1.: * * 1 p y <.4.:.5 5 x j 3 5 1.: =.4.=.; : =.: , > 5 k 6 # o * 1.1.1.3.;.g.f.1.u.f.f.<.f.c.u.u.s.f.n.j.g.g.f.g.c.s.j.g.f.g.f.i - 3 ;XAXjX6X6XpX6XiXrX>X .J U I  XX...' U U F F ] ..J ] ] O.J F / J ( J ' / / X._ +.X.` ' '.[ H [ .X' / ' ] ] [ U ( ^ /  X+. X[ [ X.[ I [ +.O.}.XX# 6 gXBXkXpX6X6XaXxX5XzX>X# Z g.d.d.p u.4.Z.F.M.B.M.u u.M.Z.V.U.C.C.d.d.g.4.N.F.F.N.U.Z.F.F.S.C.F.T.W.L.F.T.J.`.*X1.t R.T.N.U.g.j.V.C.C.V.V.C.W.S.N.0.A.A.s.Z.-.N.0.-.N.N.0.0.S.A.N.N.N.N.N.P.0.A.E.d.h.].|.].x 3 s.;.A.D.q.B.F.+X{.d.6.C.>.;.j.E.E.V.+X@Xj.M.-.Z.OX{.OX8.s.s.d.4.=.<.1.y.S 0 r h.c.A J E U p.p Z Z }.dXNXfX>X5XpXfXpXfX,Xv 4 e J J U G J H H e U [ J v l 9 c c ~ ~ J m G ~ S 4 S J / ' ] ' D H J l 9 1 4 K U / _ ^ ~ / ' F ' ' ' / G ~ E ~ ^ o.Q ",
"> q = q > > q w w N > = & = = A N N q * = q > q w = N > N w > w q 5 > > w > q q 5 5 5 = = 5 5 5 5 e 4 2 6 h -X1X7XaX;X1X-X5X4XpXVX+.X 6 W 6 X # o 6 h 6 l k D 1 5 t <.1.g.g.3.<.e x c M <.1.3.4.3.: = @ + # @ ; t 0 5 1 #.;X` 6 @ 0 y = 3 # 3 K S 6 k ' ].5 3 3 2 0 0 o X t 1.5.p d o X o @ @ o 5 <.y & # v k X 0 =.=.-.4.=.: , ; * ; =.* 5 D p a i <.<.1.s.s.s.1.d.t.u.1.f.u.2.y t.s.c.c.n.g.V.j.g.1.<.1.f.j.V.g.h.5 b ;X5XsXfXzXvX;X5XiX,X../ [ [  X+.X.U }. XI ( ..( X.( ..] / ] ' U [ J v U  X X` _ O.( ' [ X.~ / }.( ( ` ..| X.~ [ ( (  X_ ~ ] X. X[ ' / .XX. XG #  .BXBXpXiXaXaX6XaX7XpX@.C d.d.<.Z.i.: f.Z.B.M.N.V.y.u.Z.C.C.C.C.C.C.M.V.C.B.C.Z.d.4.1.d.N.N.C.C.Z.Z.E.U.U.C.W.W.2.s d.E.C.V.V.j.V.Z.V.V.g.C.E.W.A.C.6.,.B.n.4.M.0.8.M.S.0.N.A.>.M.M.A.S.N.S.M.N.N.V.R.c.m.v.( W 3 L m.Z.6.C.Z.E.W.V.-.J.J.j.].J.w.-.R.1Xn.N.;.4.+XOXOXoX'.c.4.-.B.M.:.2.t p 3.B.M.M.f.4 9 C 0 1 3 H mXBXsX5X;X7X0X0XvX,X#.l 9 9 [ [ H D H F J U ' J G 9 2 4 9 9 J J J J 4 J S F S 4 ~ | / M ' D H J S / H / | | ] ' ' ' I [ ' ] ' | ~ ^ ^ ~ O.W ",
"= = = > = > w > > w > = - > N A B A w q q w w = = q N w > q N w q w > > > = = 5 5 5 * = = 5 5 5 5 5 1 # # x ;X6X2X6X4X6X1X2X.X5XnX+.# 7 6 6 # o # 6 6 + 3 7 k 8 1 0 i g.g.g.2.t y. X( 3 0 : =.<.1., p.y.r 3 @ & a 3 5 o  .yX` h X % X + X % # D v 9 a a c.u.f.a s 2.s 1 X 1 ; & . X + X 3 k # X 1 M a 3 3 J M X 1 3.;.=.y ; r * o X o ; & ; <.3.4.y t t 1.g.Z.s.3.d.t.u.1.3.<.=.y t.1.1.s.k.j.3.3.1.; ; j.R.U.Z.V.n.M +.5XfXpXgXzXdX4X7X5X>X` I [ U [ .XX.I  X X/ O. X}.+./ / I _ ` I ( ..c H I ] ..` _ X.X._ I U F S [ [ ( I ( ' O.J U / ~ $Xo._ _ ` / }.l S ..] XXx $  .MXAXnXpX5XaXpXaXxXiXX.k.Z.d.k.C.h.* 1.C.C.Z.Z.Z.g.d.g.V.V.V.M.V.N.N.g.4.;.=.3.V.3.;.;.: 3.V.Z.Z.C.M.Z.U.V.Z.M.4.& p U.T.c.Y.Y.V.C.U.j.j.Y.W.E.W.B.A.A.C.=.B.M.0.A.D.N.>.>.N.0.G.N.0.G.S.D.B.B.M.g.Z.m.].[ #X@.o.[.m.M.0.N.q.F.L.C.OXOX|.].XXm.d.s.OX@Xp.6.4.V.U.OX X$XXXx.=.4.f.M.Z.T.4.4.Z.M.U.Z.Z.Z.u 2 2 7 X [ VXnXpX5X6XaXfXgXSXiX` G J H } [ F H ] J H ' H 4 G 7 9 5 1 5 9 W ^ k l F K S U D S J U S J S S ' 9 / H ~ / U ' ' _ ' H [ } ~ ~ J ` ( / ' ` 7 ",
"= = = = > > > > 5 q = - 5 > N V N A B w N N q = N N w w w C B 4 4 > = = = = = 5 q 5 = = = 4 5 5 5 3 + + @ # #.1X;X2X4X;X.X2XXXqXnX+.# 6 h 3 2 # X # X X @ J 9 2 t 2.; 2.s.3.2.<.Z oX&X XX 5 ; <.<.2.3.1.1.u a <.3.t o 2 q P | O.k X X X X # 3 h Y f.2.2.j.n.g.<., , & r & X X X 3 3 # 2 9 e D 3 0 1 @ # $ k F # 0 1.=.* o o @ h j 6 + s <.U.1.<.=.<.y , 1.g.Z.g.V.T.g.s.3.f.<.1.2.y t.f.4.d.j.<.=.1.t.1.f.j.n.g.d.f.y. XpXgXgXpXzXpX4X0XfX#XO.] S I X.] J ' ...X@...[ +._ G X.] c l ( I I J J I ( ] ] ` ' ^ G H v.'.Y ] ..` I / I / [ [ U g S S ' #X/ ] } 5 I x g wXb 3 ..BXNXMXpX4X5X8XxXCXgXXXj.B.d.B.F.V.* t 4.C.C.Z.N.Z.g.Z.g.g.Z.d.Z.C.6.d.:.=.-.;.M.-.;.r 0 y <.d.g.C.C.F.E.V.U.Z.-.u p.U.V.n.n.j.U.U.U.U.U.n.C.F.-.B.w.A.B.B.A.=.; 0.0.4.d.;.1.M.D.F.S.A.A.S.S.S.F.N.V.Y.Y.m.[ [ +.l ].j.V.N.B.C.M.M.W.T.{.@X9X Xp.@XOXM.;.6.J.V.h.v.$X|.XXl Z c.Y u.U.f.d.n.R.-.4.4.Z.L.S.j.e e 9 3XHXMXgX5X5XaXmXsXSX5XI H J ~ U U ' J / H J F H g J J 4 0 1 0 l ^ { c G J D D H U U J J S m 4 5 e J ~ ` / / } ] ~ _ ] U ' _ x W ~ ` _ ] ~ ^ ` ",
"= = = * = = = = = = = * = > M C w > B q N C w > > B > > w B B e 4 > = * = 5 = = 5 = 5 = 5 5 - - 5 @ @ + + + .X1X:X0X0X6X:X2X7X6XfX.XU k h k 7 + # # 3 3 k ^ 3 * 1.3.5.> s 1.2.q [ oXOX] $ 9 2.<.1.1.3.1.1.d.3.=.4.d., 2.V.c.i.4 b O.k k  .k @ 3 f.Z.3.: f.u.1.1.;.-.d.s.t o + h E h # 3 s =.t.F 3 X + # 6 # 9 y.u.=.& X X X X 3 4 @ + t 3.4.3.1.f.3.=.<.=.1.g.g.U.f.1.s.f.f.<.t <.h.n.j.d.g.Z.V.j.j.u.<.;.d.j.d.g.f.f.U :XzXfXxXmXaXrXyXfX#X` | F ] I ..+.X..X X( [ I +.X.X. XI I }.I [ }.J F ..] ] ' I ( ~ U Y Y Y / H O.O.[ / U G ] X.Y Q.U U I } X.O.c U ..l S 1XI j +.sXnXyX3X7XyXpX7XdXsX XZ.P.T.N.L.E.t.t.d.g.d.C.C.6.4.V.g.s.Z.C.C.C.M.N.M.:.M.-.N.N.M.: <.J.Z.Z.Z.B.T.J.C.E.U.T.C.Z.j.Y.c.U.n.U.U.j.V.U.U.V.C.L.Z.T.,.0.N.N.6.;.=.B.;.: N.F.M.d.N.F.E.N.N.Z.F.E.C.B.C.c.c.m.].].].|.XXL x.V.Z.;.Z.Z.M.F.F.N.eXvX$X1X@X;.3.1.c.c.v..X XH $XW l ].[.M f.y.f.i <.M.T.j.d.Z.E.L.d.a 7 :XHXnXgXpXpX6XzXdXBX<X XI 9 J ' H / H F [ J G ' D 4 e 5 2 9 e c ` ^ 3 J J D [ ' ' Y U H e e e 4 F ` ` ^ ` ~ { ^ ^ ^ ` ~ I G { _ W W { / ] } } ",
"e M q > > = = = = q = > > B N w N N w N B V B w > > > = N B N N q q = = = > > = = = = 4 5 5 & - 3 1 @ + + # @.;X6X5X4XpX4X2XaX5XvX.X[ v # h 6 # I X.}...O.E 3 t 1.<.1.t w 5.<.2 h k ] 9 1 5 3.1.1.f.1.3.4.4.3.=.<.t y 3.3.f.c.1.w ~ W ) o.[.a y V.g.3., f.g.i y 4.N.M.;.g.r @ # h # # 3 y 1.<.x.9 3 @ 1 C 4 r f.<.* o @ X X & y.u.t 1 & =.-.1.3.3.;.3.:.=.=.<.y 2., r.c.j.h.<.u.i 3.d.V.j.g.d.U.j.j.u.g.V.g.s.1.d.<.m.|. X6XfXaXxXzXaX7XnX;Xv J [ ' (  XO...X...( ....O.( #XO./ }..X..X. XX.l / ( c ^ G ^ O.] U '.Y ' ] ' ] ] ( X.G _ / [ Y [ H I H G ` X.` _ G [ $X.Xx o.jXBXgXpX7X7X5XaX6XyX}.Z.F.V.V.F.F.c.h.V.d.V.C.Z.N.d.Z.g.d.C.C.C.Z.N.S.A.=.4.A.B.N.A.D.W.F.C.Z.N.C.T.V.g.Z.V.V.U.-.d.Y.c.c.V.V.j.f.V.V.V.V.C.F.W.C.M.F.g.8.-.-.=.-.;.-.S.G.G.q.M.M.N.N.B.V.W.V.Z.V.C.Y.n.Y.m.x.n.E.OX{.n.<.j.m.V.M.Z.Z.;.{.2X9X X.XoX=.:.t 0 R.@XbX:X` oX}.' ].c.i.g.V.3.s.j.M.5.s 4 <.M.C.M.r ^ 6XHXMXaXdX7X7XxXaXnX:X.XI v G / H 2 l D | J G ~ U D 5 5 3 2 J / ~ k J J H F H / / ' H S e m e S ^ ~ / ^ ^ ` O.` ` E / / ] ` ] ~ ^ ^ ( ] ] } +.",
"q q w w w = = = = > > = A A B w q w w > w , N w w > > q N N > w q = = > = > q 5 q 5 * N S 5 5 4 # 3 o # + # x #.4X5X2X8X;X;X7X6XcX+.# h # h h h W O.} { E h u <.1.3.g.1.a a u c J 0 2 e p 2.4.4.<.1.1.1.Y.g.;.3.h.i 1.4.;.=.4.1.f.p r e e b.U.V.g.f.3.d.g.3.2.1.;.-.6.-.4.j.u.2 @ X 1 + & <.1.f.1 @ @ 0 Z a y s., & 3 o X o 2.U.g.s.1.r : =.1.1.1.3.=.=.3.3., ; ; y.p.f.h.f.f.f.u.1.s.g.f.g.g.V.V.j.f.f.U.4.s.s.U.p Z M X.iXzXaXaXdXaXpXaXrXc J [ H F [ [ I U ]  X#XO.' [ ] ` I .XX. X..[ H S G ( .X/ ( _ ] I U [ [ F  X..I / ( X./ / ' H Y U U ..I l 1 _ G ( ...XX.#X .O.nXfXnXxX5X6X7X5X2XcX9X4.N.d.s.C.P.c.i M.Z.V.g.g.U.V.Z.d.Z.V.M.d.Z.W.W.A.G.G.L.C.F./.D.E.C.B.Z.V.J.T.V.V.C.V.Z.C.C.T.U.T.U.Y.V.g.3.g.V.U.C.C.C.C.M.F.C.=.4.>.;.>.0.N.A.N.G.D.L.M.B.B.d.j.V.Z.d.C.W.C.T.U.Y.x.p.k.M.C.V.R.OXY |.c.g.f.n.b.oX8X@X].XXx.i <.; > OX].&X&XOXY.U.c.c.R.V.T.V.8.s.t.a 3 h # <.V.j.y.1 ) tXSXmXgX5XdXzXxXdXVX,X-XI ` _ / ~ 3 9 J S J / H H D S 3 5 9 2 J ~ ^ J H U ' S J [ ' U M ' ] K G c c l k J _ } } ` z _ ' ' / ^ ~ ' ~ _ X.] } +.",
"& . & * > = = * - > > > T A > > w w q = > B B B N w = 5 C N w > q 0 = > = = 5 4 4 5 * g J 0 5 N 3 # + # + # h #.6X6X2X2X2X4X7X6XfX$.# n h x  . . .Q z 7 $ J 5.3.4.3.d.1.2.; r Z 2.<., y f.s.g.Z.4.;.g.=.s.4.;.d.g.4.M.6.3.=.3.3.4.d.d.4.f.f.3.d.d.=.4.Z.g.y =.3.=.;.=.;.d.d.U.u.& 0 : * u V.4.s.q + # # p f.<.<.; 3 5 0 > , 3.3.8.d.d.1., :.=.4.4.4.3.4.3.y t i p.p i f.u.c.f.f.f.c.f.f.g.Z.g.j.c.f.j.f.f.V.V.V.4.t a 4 .XNXbXmX0X7XpX5XpX4X^ H U ( X...] ' X.] X.O.( X.../ G ( X.$XO.( ..[ v 2 ]  X/ I ..G H U [ X.}.X.H G ] [ X.J S ' U J l I ( J g 3 o 3 v G ]  X.XO.X.NXhXfXmXzX4X2X2XyXbX9Xu.d.g.s.g.F.s.: d.C.N.Z.U.U.Z.V.g.M.Z.C.N.F.F.F.B.D.G.C.V.F.F.F.F.M.Z.Z.F.E.T.T.W.W.W.T.E.E.R.U.U.Y.Y.Y.V.-.g.U.U.Z.Z.C.Z.6.M.f.u.1.Z.0.-.>.A.N.B.B.0.E.Z.M.d.C.Y.V.j.U.C.F.J.R.Y.c.u.T.E.T.C.F.W.{.].{.R.R.OX+XR.@X8X{.M.OXX.J oXT }.].{.{.T.R.{.n.Y.].f.F.N.B.C.M.u.2 k g u 1.;.j.F 6 W 3XHXNXdX6X5X5X0XaXmX6X.Xv ~ c ^ ^ F D S F ~ ] ' D D F 2 5 5 4 J ] O./ S 4 F ~ l / / H [ H / H 4 9 l l S J H ] ' [ { _ ' ' } ~ ^ _ ( / ] ` _ } ",
"= - - = = q = * = q q q N L w > w B B > N > > B B N > 5 M N > > = q > = > = = = 5 = = = 5 5 q M M g @ X @ j h #.4X6X;X4X6X4X0X8XgX` # W b W @.#XO.$ 7 C 0 L i y t =.1.1.:.1.1.4.=.=.1.3.3.4.4.3.4.4.4.3.3.3.4.4.4.4.6.1.<.;.;.4.3.g.=.;.d.d.4.3.s.1.4.6.d.3.=.=.<.;.3.4.d.8.4.4.=.3.4.1.=.=.=.s.s.w 4 q 1.n.1.: & 5 t : 1.3.;.6.B.d.4.1.<.: : =.3.4.3.4.4.=.f.R.f.f.c.g.f.j.u.u.5.x.c.c.g.g.j.g.3.<.c.j.f.g.V.g.y <.A Y XXgX5XMXzXyXsX7XpX6X^ U U ' X.( J [ [ X.O.( I / ] ^ G ( ] +.+.X.] ` k l [ [ U / X...( [ / ' U ( G ( _ [  X( g / [ / J S ] G 5 I ..n g / } ^ _ .X:XnXjXfX7XxX7X1XaXCXyX1Xb.j.C.V.d.M.H.2.=.g.d.M.W.6.;.d.3.d.V.U.Z.Z.C.C.M.P.F.-.M.E.F.F.W.F.W.C.F.E.T.W.E.R.T.T.R.T.T.Y.Y.T.U.V.j.4.5.g.d.M.V.V.4.-.d.L u.e C q.<.3.0.N.S.-.s.M.M.V.4.M.E.W.F.C.U.Y.U.h.y.c.U.C.c.u.V.C.F.F.W.C.W.E.T.c.Y.OXXXb.;.R.:XX.XX7X7X[ m.n.U.R.{.s.c.|.c.g.-.F.C.q.<.9 c <.F.Z.8.k.S j h 6XHXfXpXpX5X5XpX5XMX6X:XJ v 2 c k D H H | / ] ~ D H S 4 5 3 5 4 _ } ' H F l ~ @ W ' | G G J U k 4 D e e e H / F H ^ ~ / ~ ~ / ] ^ _ ] O.` _ _ ",
"> N T M e q q M q q q > N C w > w > B > > > > w B C = = = 3 5 > = 5 q > q > q > q 4 5 5 5 5 q M K D # @ $ x  .-X:X2X;X2X2X2X0X7X5X_ X ^ G W x O.) $ X p 1., 0 0 y 1.y f.d.s.4.4.1.;.4.3.s.3.3.4.M.Z.4.=.: 1.=.1.Z.3.=.3.1.-.4.;.g.g.=.3.4.4.4.4.=.=.=.1.3.4.3.2.s.4.:.1.Y.g.=.d.d.;.d.3.:.=.=.=.C.R.V.g.<.Z U., u <.=.;.=.=.7.-.M.d.4.-.1.=.t.1.3.3.-.3.4.4.f.c.y.u.g.f.f.g.c.f.1.p n.g.g.j.V.j.f.s.c.Y.d.d.d.u.<.<.m.OXXXfX5XmXvX#X:X0XpX#Xv J U [ I J / O.( [ X.( X.X.^ G / X.+.I _ ..( I G v H }.' ( ( ..../ [ Y +..._ / ' ' X. X' I ] I G I ] F M G ' X.( ( ] ( X..X:XMXpX0X5XaXpX1XxXnXaXyXx.f.L.H.4.Z.Z.V.g.g.j.B.F.M.6.Z.; * g.C.V.V.C.C.M.F.W.N.N.F.F.W.E.Y.J.C.M.C.W.F.W.T.U.T.R.R.T.E.Y.U.j.g.d.-.Z.V.V.V.U.B.B.N.Z.j.f.Z U x.u.3.7.V.d.h.n.U.Z.V.M.Z.f.d.F.F.T.Y.f.i.m.U.U.W.g.c.V.V.C.C.C.g.M.C.Z.OX|.{.&Xc.>.{.&XY oXyXvX8XXXoXu.{.].f.g.c.1.1.V.Z.M.N.P.w 9 i ;.N.M.B.<./ 2 8XHXaXxX5X4X6XyXpXnX#. XJ H  Xg c S D J S ~ ] H S e D e 9 9 7 v } } ' } [ / c h ~ [ J E 2 S 4 5 4 m S H H I / g S G J U ' / [ } } } ` ] ] ' ~ ",
"> N N q e = q M N N q > N q N w > > > > V B B B B B q 5 = - 5 = = 5 > N q q w q q e m M e 0 m D M M 2 # 6 j @.2X2X2X4X3X2X2X0XaX5X+.$ j G }.h E j # o ; 1.2.* o & t <.=.V.g.g.d.4.=.d.M.g.d.Z.g.M.4.g.3.;.4.=.1.6.1.y c.=.3.4.;.4.4.4.;.4.-.4.1.1.1.<.3.4.4.4.3.3.d.d.3.c.c.3.-.=.-.4.=.;.4.: ;.T.E.C.U.j.2.<.:.3.1.=.3.3.;.6.M.;.6.>.=.=.3.g.4.4.;.;.4.4.1.1.1.u.f.c.f.j.g.g.f.1.f.T.V.s.d.j.U.g.f.2.c.h.s.g.f.p.b.c.|.1XfXmXcX>X` -XCXNX<Xl J I H [ X.I I ( ( +.x ` ] ..` ^ O.] ' ( ( [ ( x J S / I ( ] [ ] ( [ X...O.] J ' [ / [ ' / ( [ G ^ ( ( [ +.I ( X.O.] +.O.-X6XnXpXpXaXpX5X2XaXVXsX;Xm.g.j.j.f.C.Z.V.3.4.g.N.M.1.=.y e 0 2.3.V.V.C.Z.F.F.L.S.F.B.F.F.C.C.C.C.J.F.W.W.T.H.E.T.R.E.T.R.M.U.Y.j.d.V.j.c.f.n.U.Z.Z.C.Z.4.A.N.a Z c.M.N.Y.{.n.H.U.V.Z.F.C.V.g.d.Z.V.U.c.R.U.W.V.V.L.C.{.U.V.V.d.4.V.C.C.W.U.T.R.V.N.Z.OX].XX2X2X1X8X:XU A 4 s f.g.d.d.V.M.Z.B.C.d.u.=.M.V.q.M.4.' 8 5XMXzXzXaXgX5X5X7XgXwXX.3 ~ ] 9 m F S S S [ / J J S U U 5 9 9 ~ .X+.} _ [ c k ~ } ' l W c 9 5 4 4 5 S H } O.' / ' / / ' | ^ ~ } } _ ` ` ~ J G ",
"= > > q N q w w w N q q N q N > > w q = V C A B C N w q 5 1 0 * = q > = = > > q 5 e e M M 5 q N 5 4 3 # 6 b -X;X7X3X4X5X4X;X6XaXaX#X2 3 a f.5 o g '.5.<.s.g.g.y.W 5 4.3.<.s.V.4.4.3.d.d.Z.g.g.g.d.4.3.g.d.6.6.-.6.;.t.x.i M.M.4.;.d.d.-.;.;.4.=., =.4.4.8.4.3.=.<.u.f.=.4.f.f.d.-.d.<.< =.3., ;.d.M.J.T.T.g.; y -.: , =.-.;.;.U.V.4.=.=.;.4.-.-.>.4.;.g.1.1.1.<.1.g.U.j.j.c.g.j.u.f.V.V.j.h.j.V.f.5.<.u.g.;.j.f.h.n.y.@X2XgXVXdX...XcXNXMX,Xx l ' I U X.( ( ( [ ../ I ] O.] ( I v ( ( ] ` ( H ] H F / ( I / / ( ` ] ' ....[ _ I J X.( G I X.I J [ [ ..X./ / ( .X.X#X+.:XzXnXrXzXpXfX7X0XxXdXpX.Xx.V.Z.j.f.Z.Z.4.1.1.Z.C.d.s.y.5 C C q , <.Y.B.Z.C.L.L.W.W.C.F.L.M.C.C.U.W.J.W.W.W.T.W.T.T.T.Y.U.U.U.U.j.3.c.c.g.f.g.j.C.-.d.M.g.f.d.d.f.g.V.C.T.R.C.W.W.B.N.C.F.C.C.L.V.=.V.j.j.j.R.+Xs.C.C.V.U.U.V.M.F.Z.Z.M.C.C.T.N.Z.M.Z.E.{.aX1XzX2XOX&XoXK S 6 4 n.p.p d.A.F.L.B.P.P.q.M.C.B.;.m.+.h 6XMXSXgXaXyXsXzXaXzX2X.XI 1 3 S H J m M K ' F S S H H 4 5 l 9 l } { { } ~ ] / ^ } / ~ c ' G J J J J H _ _ } ] ' O.` ] ' | ~ ` ~ ^ c k k 9 / } ",
"= q q q w w B N > w w 5 q w q w w > = = B w > B B C N q 5 - * q w > > = > > w w * q q w M m 4 e 5 0 1 + h @.6X6X8X8X#X+.;X2X7X8XxXXXp <.1.4.g.y.<.5.2.1.c.3.3.g.y.a , <.: 2.f.d.4.g.g.M.Z.g.g.M.Z.3.3.4.4.4.M.M.3.;.=.V.4.<.g.4.4.s.4.4.3.3.s.4.s.s.s.4.-.4.1.* r j.4.1.f.d.s.4.d.d.3.;.1.=.=.;.;.4.C.g.<., r.;.4.3.=.;.-.;.;.;.4.;.=.;.;.M.-.-.4.=.=.4.3.=.1.2.1.g.U.j.j.g.d.g.1.f.j.U.U.h.j.V.f.1.j.d.f.d.j.f.u.s o .XaXnXdX6X;XrXpXHXNX>XE v l ] U [ ] ..] ] ( ( ....+.' ] ..I ( ^ ` I ( I G G U H ] [ ] ( ' ( ( / ] O.O.I I ( X.] I ' I ..I / I ( ....( ] $X] ] .X@.fXsXrXaXzXsX7XxX5X8XfX Xu.j.V.C.M.M.M.=.c.3.V.V.V.g.t 5 N 4 e y.1.V.C.Z.C.L.F.F.A.F.F.C.N.F.W.Y.V.C.W.F.F.W.T.T.d.T.Y.n.n.f.f.f.g.g.U.f.t.g.j.j.Z.F.A.N.c.g.Z.=.Z.N.F.V.F.R.C.F.A.A.W.E.F.N.M.R.g.d.j.R.H.U.n.v.K c.s.4.c.C C <.u.i.j.Y.C.C.Z.T.C.C.J.T.XX:XVX9XV.+X|.4 oX+.k Z '.k e s.L.C.B.E.P.B.;.>.B.N.R.@X..7XnXsXpXfX0XfXpXaXnX:XX.U l 2 D F F S M e J H N S l J 4 S 9 3 9 v W ] [ ] } +.} ` / ' ' G ' H 9 G [ / { _ ] ` ' } ^ H ' K H ~ E W k 7 k ~ _ ~ ",
"> q 5 4 m q w w w w w q q w > q w > q q A B N B B A B N N = = w w q = q q > q q q w q N N M m 4 4 5 1 + n #.:X2X;X3XX.3 k ;X0X0X7X&X1.1.u.s.g.3.y y : 1.g.3.<.1.4.g.i =.w s 3.4.g.d.Z.Z.4.4.4.C.V.s.d.d.4.4.M.6.4.d.d.d.M.; ; 4.3.s.4.=.<.4.f.1.4.4.=.d.4.3.t o q g.d.f.y s.3.;.;.4.4.4.s.3.;.=.: :.=.: < =.V.s.3.;.=.;.: =., ;.:.:.d.d.-.-.>.3.;.=.3.=.1.1.1.1.s.f.j.j.j.g.g.g.1.f.n.h.f.f.f.u., Y.U.R.R.H.Y.2.* . @  .gXfX7XxXzX$X2XnXmX6Xx ^ c U U [  XX.' / ] X.] ] O.] [ / I ..I ( ' G I I G J H X.] ( [ ....H ( [ ..O.] ' H [ O.^ ' / _ / I ^ I [ X...` ] I l  X-XnXfXpXdXaX8X8X6XsXxXaX Xj.V.j.C.N.C.J.C.2.t 4.Z.V.M.Z.t.x.D D s h.g.3.V.W.F.C.C.N.F.W.N.W.E.F.g.C.C.W.L.E.T.C.T.f.U.Y.U.g.d.g.s.g.c.g.c.u.g.Z.g.d.V.R.C.B.C.6.0.S.N.d.g.R.Y.C.N.N.S.A.F.F.F.F.C.g.g.V.j.V.J.x.OX..G C p '.}..XY v.x.i.m.V.M.4.W.V.Y.{.OXm.&XMXoX1.U.L 3 O.X.c # 9 / x 4 1.Z.B.T.M.0.;.4.q.-.-.Y.[ yXnX5X7XfXfXpX0XpXhXfX..9 J F S ' F U U 4 4 J Y v J G l 4 9 2 7 9 c _ ' '  XO.~ ~ } _ / / ( J E ` ~ G ` ^ _ ` ' ] / ' H D D v k l k l ~ ^ [ } ",
"B N N e e q q q N w w q q N B N B > > B B u N C A B L C A N q q q > > > q q > m N N A C A w 4 e q M 5 6 b .X6X6X5X;X6X;Xb 2X6X0X2X$Xp <.f.3.g.4.; 2.=.s.g.4.;.=.=.g.4.s.y.a 1.1.d.Z.V.g.1.s.V.V.g.g.Z.M.M.V.M.4.M.Z.C.Z.C.; d 4.d.d.d.3.t.M.d.d.;.-.=.=.<.=.t s 2.g.4.1.1.4.4.4.-.6.3.s.3.d.=.: ; d , f.j.Z.4.1.;.:.=.3.:.;.1., : =.1.4.;.-.4.=.=.=.=.=.=.g.g.d.V.j.Y.j.j.g.s.1.f.f.f.f.4.1.<.1.h.R.U.U.T.E.U.t . 0 3 .XpXpX0XxXdX.XaXNXmX<Xk ^ O.../ X.X.[ ..( I [ ' l X.[ X.~ ( ( ] _ ] I H I v k J ' _ X.#X..] ] ] [ X.X.' ' ~ U / I J I I g ..O.J ..( / H ' ( U XX-XiXnXfXpXzX6XpXpXaXzXxX Xf.V.j.P.F.3.g.g.r p : y 1.M.F.Z.x.].p.2.y =.=.M.F.W.C.C.N.F.W.F.W.E.W.C.F.C.W.E.T.V.Z.V.=.d.U.U.V.B.g.3.g.d.j.f.f.j.C.V.T.Y.U.U.M.U.6.B.C.A.c.g.E.V.g.V.C.B.A.S.B.A.A.N.M.N.F.F.Z.V.c.OX$X_ ` G ..oX{.R.m.v.J ].M.n.OXd.R.@X&XOXR.eXzX} t i * 1 7 G ^ x 9 c S J p d.Z.V.;.d.8.M.C.8.q.V./ 5XcX7XxXmX6XaXxX5XsXgX#.3 l D U D F C P F l D '.S J H l 9 9 9 1 J } O.[ [.[.+.} _ } } ~ _ ^ c J ~ ` ` ~ ^ _ } ' G 5 4 4 e 9 9 9 G } ^ ` ` }  X",
"N N M m e q M q e q q q N N N B w N q B B B N B K A A C A M > = q 5 w w N N w N N M A L L M q e m m M x ...X7X6X0XgXfXfX6XpXaXaXdX] 2 u 1.f.g.V.;.1.c.c.g.c.c.d.d.d.M.g.3.2.1.f.V.g.4.c.g.C.W.g.M.U.c.f.n.4.g.d.M.C.M.d.4.; ; :.4.d.4.4.Z.N.Z.Z.8.4.=.=.f.g.d.Z.1.g.g.3.3.d.d.N.6.;.4.d.d.4.4.8.j., d.M.3.g.g.=.1.;.=.1.=.1.* * 3.1.1.N.6.6.4.4.4.4.3.3.d.g.V.g.j.V.U.U.U.f.f.f.f.f.c.c.j.f.1.3.U.n.n.V.V.T.U.<.> s 3 ;X7XzXpXmXnX6XzXHXVX#Xc k / ( ( ..I [ ] [ ( / ( ( I X.' / ` ( ] c ( ' H I G ( / ] X. X>XO.I ] ~ ( _ ] H I I v I D U / I I ....] ..( ~ / H _ ....>XrXfXaXzXbX7XaXxX7XaX6X Xc.f.j.d.C.5.u y p Z.3.t 2.1.Z.s.Z m.u.1.<.4.s.M.A.C.C.U.Z.W.W.C.N.W.E.E.T.C.W.T.d.d.M.4.C.C.U.V.U.C.j.4.4.g.V.f.g.j.g.V.C.V.C.M.Z.Z.-.f.U.C.{.U.C.U.V.V.N.C.C.N.N.G.M.N.C.C.N.j.i.h.c.v.c ' '.+.'.].g.N.n.v./ ' g.+XOXg.OXoX] oX@X3XzX@.o e y.=.a e | / ( D b.y.<.=.M.-.-.Z.N.N.M.M.T.i / dXmXbXzXfX5XpX4X5XsXcX6Xk l S S H ' K P S D Y [ l 5 S S v l 7 3 ~ +. X%X} ] } ` ] _ / _ ` W G I ^ { _ _ ] ` E / G g F 4 9 S 7 9 k Q E 7 ~ ] ] ",
"q w w M M N C M q q N w w q > = - q C B C B N N N C C q q q 5 0 q N q N N q q N M M L Y ' D r = M D J ^ ^ .X2X6X5XpXzXrXiXgXaXzXyXO._ P <.s.g.4.4.g.u.u.U.f.g.4.4.g.V.4.s.d.d.j.c.g.g.U.Z.M.Z.M.M.Z.g.R.OX3.M.4.3.4.Z.d.4.:.=.: ;.Z.d.4.Z.Z.g.g.N.M.;.d.T.V.4.6.4.4.M.d.=.f.Z.N.>.;.-.d.V.d.M.6.4.=.=.1.u e e S ; -.;.-.: * 0 t.;.=.M.B.4.-.4.4.4.>.4.4.4.g.g.j.f.U.g.j.g.t.f.1.u.f.f.1.j.g.f.j.3.1.f.f.j.T.U.u.u.b.v.6XmXaXnXnXnXgXNXSXSX:XO.j  .] X./ I ' ' [ X.X.] X.[ } ] ..+./ / ( ..' I ] ] k I .. X X X] ] X.O.I X...X.[ [ / U I [ H / ( ( J ( [ X.I l l v c #X#X#XaXaXfXaXdXpXaXaXbX;X X{.d.c.<.<.e 5 0 P g.;.s.4.d.t.e s f.y s p.r u.V.N.E.+X-.d.C.F.Z.V.W.W.C.C.C.C.C.+X!.-.V.V.C.g.4.g.g.U.d.Z.V.f.f.n.g.g.Z.U.U.Z.C.>.w.q.4.>.C.Y.R.U.C.L.M.N.F.N.F.6.=.d.B.d.c.y.v.' L p P I ' m.].].U.+XR.u.c.v.L i.v.].OX|.x.C U &X;X1X6Xx @ t (.-., L v.b.t.u.t.1.3.M.6.-.>.F.B.Z.+Xs.4 +.sXaX8XzXaXpXzX5XgXpXCXgX2 4 S F D D F H 4 4 D K H S D J ~ c 9 5 l } _ } ' } #X{ ` } } ` ~ c ~ ^ E ~ ~ ] } ^ ^ ] G c ~ E 9 S v v c E h x ~ ` O.",
"q m > M M N M M > > q N w > > 5 A 4 q N N A B C M w C q = = 5 = > w w q > q N C K C C M D e 5 = 4 5 2 ^  ..X5X5X5X5XpX<X-XpX7X8X:X` I '.1.1.g.d.d.V.u.f.U.g.g.4.4.4.4.f.s.d.Z.V.4.d.V.V.M.C.M.g.4.V.U.g.4.;.3.4.3.1.f.g.M.-.6.6.N.Z.C.V.Z.M.s.g.d.Z.d.4.d.s.2.M.1.i d.N.M.Z.Z.4.4.8.M.M.M.M.-.:.=.=.; * 3 6 2 ~ 1 ; < < * , d.1.=.4.6.6.3.d.;.;.>.4.4.3.3.4.g.c.j.g.f.u.1.1.1.2.y a p f.f.f.j.g.f.d.u.1.j.U.g.i : j.b.2XzXaXpXMXMXnXvXzXVX+.` b k } [ X. X+.X..XO.] _ ( / / ' ] ] / [ [ ( I I X.O.v O...I I l I X.+.X.[  X XX.X.[ ] ` J I H U I ( I G I }.[ I l 4 v #X@.6XsXxXaX2X7XxX7XgXzX#X` A V.C 1 1 1 5 5 K 2.=.2.a 2.s 5 1.M.Z.p.H @ a d.4.1.U.M.B.V.Z.M.M.E.C.F.C.C.V.;.+XR.N.B.4.3.-.3.c.f.u.f.j.g.4.h.c.j.g.V.U.Z.B.Z.M.M.q.>.N.W.{.Y.c.B.V.C.q.,.N.d.t 4 U 1.s.p.D [ ' S 4 L |.[ ].OXY.V.Y.m.C.F.C.V.b.J ' }.XX@X+XXX7XaXI XX+.x 3 y -.V.c.v.<.4.k.s.M.-.-.-.-.B.C.I.L.{.OXe  XxXxXaXzXaXpX$X5XsXpXgXgXv v H F M K Y / l H U K F K J J J ~ G 9 [ +.~ _ E } +.` ` } _ _ ^ ^ ~ k ^ W ^ ' [ _ ~ ` ~ z ~ ` S 9 l ~ J c c ^ E E ` ",
"m q N q m N N K q q q m q = = K D 5 m q C C N q w q m M K D 5 5 q N N N M N e C L K e 5 1 = 5 3 5 # h I X. X2X5X5X5XgX6X6XaX8XxX>XG P ].2.f.j.V.Z.V.U.n.j.U.g.4.4.4.g.U.d.C.M.3.f.V.Z.g.g.g.g.g.g.3.V.M.3.3.4.3.4.V.2.=.Z.g.Z.M.4.g.Z.M.Z.M.C.Z.M.V.U.M.d.d.<.y s <.g.Z.V.V.M.: 1.d.4.Z.Z.=.: ; y p 3 @ $ 1 = d - & q * <.j.g.;.;.q.;.4.M.6.M.d.M.6.4.4.3.4.j.V.V.U.y y 2.y p 2.i e s f.s.f.1.3.s.f.1.1.1.j.t.i d y v.:XaXbXgXaXzXCXmXmXHX;XX.@.3 / ( ( ] ]  X#X.XX.' O.+...O...G ] [ ..W ( I ' ^ l ..O.[  X-X+.( +. X X X[ X.' X.^ ( I ( I H [ _ ( ..X.I ( ( 4 l J ..:XfX6XpXzX7X6XyX7X5XaX,Xx 3 D # + X 1 C r v.].y t s w q u.V.N.N.j.D 0 3.d.=.: T.V.Z.Z.d.M.C.T.C.L.T.T.J.N.C.W.C.Z.N.-.q.F.n.u.f.f.f.;.M.c.n.Y.3.g.d.M.>.N.N.4.-.>.A.W.V.C.F.N.V.C.0.N.N.;.v.$XY <.f.c.v.K ] Y y.D 1XoX/ v.s.C.M.N.F.Z.B.S.C.].[ [ &X9X9X@X1X X( +..Xj $ 3 5 =.-.-.=.=.s.f.2.t.Z.-.Z.Z.d.Z.6.Z.c.C X.bXVXaX7XxXaX#.6X7XzXMXpXG v e H U L [ / 4 F U ' H U D l ~ ~ ~ 1 ` ] / } } +.O._ } +.%X_ _ ` ^ ` _ ^ ` / / ~ ~ ^ W E ~ / S S c ~ c v z k x W ` ",
"M q N M w q w M q q q q 5 q q K m 2 3 5 w N N > N w w v.}.U 4 5 C w C Y A C C Z A K K e - = 5 h h b b #..X.X8X2XpXfX5XfXpX5X6XzX$X7 5 e i {.Y.U.U.U.V.T.U.U.g.=.g.V.g.g.V.V.V.3.f.g.g.g.g.4.4.f.j.f.g.V.3.;.1.=.=.1.c.1.3.4.1.g.M.M.V.C.U.M.4.M.M.6.N.M.d.4.3.u <.Z.V.g.j.U.<.<.; s.S.M.s o @ + @ # 6 k c X.OX9X@X@Xm.u.d.;.;.-.-.M.8.M.6.6.A.B.N.6.6.6.4.d.V.V.V.f.* u.s y u.2.p S a f.f.g.1.<.f.5.c.c.1.g.u.2.: y P pXxXxXcXcXVXSXvXmXVX<X@.+.^ [ O...' / >X#X( X.I O. X[ ] ] I (  X#X..} I / 3 H / ] ] .XuX%X#XtX<X[ #XX.[ X.] U ..( I [ U G U U  X6X X X( 4 2 k O.+.rXpX7X5XaXaX7X3X$X5X5X) h 7 $ 6 ..k 1 w p e 0 p q p.U.>.C.V.Z.Z.d.;.Z.1., -.T.Y.g.Z.-.q.3.V.L.C.C.T.C.q.A.C.C.U.Z.C.J.T.V.f.c.V.B.B.Z.g.N.M.=.1.-.M.M.A.F.-.-.D.N.1.Z.B.F.N.N.N.V.M.V.V.f.oXc.Y.d.f.|.[ v.c.f.4 _ I ` U Z j.Z.c.d.C.Z.N.C.E.+XR.@X@.XX1XG 2 ^ ` #Xh h $ + r V.Z.d.d.d.f.5 e 1.4.q.M.q.d.;.=.=.C ] 8XzXMX7X6X6XwX;X7XaXnX#X2 9 0 D F F 4 9 m l F ~ ~ G ~ v J ~ J 2 ~ ~ ]  X%X X%X%X{ ^ +.} ) ~ / ~ { v v J | } _ ~ ~ G ~ ~ l S / ` ^ v c ^ ^ } ) ",
"N N q M N * & > N q N C w > - M F F 4 5 5 e N q q C w C v.Y M 4 m 4 m Y v.U K K K K Y P e 0 2 h c ( ( :X;X.X5XwX6X5XpXfX7X5XpXaX6Xv k j r 3.c.R.R.E.W.T.g.U.U.4.d.g.f.3.g.Z.U.Z.g.d.3.1.1.s.g.f.3.V.U.g.3.: ; ; =.c.+X3.: 1.4.4.N.M.Z.Z.C.C.+X4.-.M.M.N.4.;.s.M.C.M.M.4.d.g.f.t., ; : d X + X # X n x j h j E 9X9X].2.t.4.;.4.=.-.C.F.6.8.N.B.N.M.Z.6.M.Z.V.d.c.U.n.y * * s.g.1.2.y.p 2.2.1.u.1.f.a s 5.1.; ; , 1.1.p.xXaX0XVXmXvX4XsXMXbX.X#XO.o._ [ X. X..3X:X[ X.+.( ] ] ]  X+..X] ] ] ( [ G 2 ' ] H [ J J _ >X$X XX. X] ] ] ( [  XO.` ^ J H +...X..X/ I I l J k n  .5XpX5XyXaX4X6X$X2XfX6X#.6 x ! x { 7 @ s 1.a 5 a t M.F.6.N.M.F.C.L.F.N.M.M.6.<.D C j.M.-.=.N.Z.=.N.C.T.B.S.N.T.V.M.V.U.U.Y.c.g.V.Z.C.V.V.d.M.R.OXl.K.V.C.F.M.>.A.>.M.n.V.J.F.F.V.Z.Y.u.m.h.F L f.p 4 '.@X].f.C / +. . .k / Y m.oXb.E.J.J.B.M.B.F.+X}.XX}.h k k x ] ^ # # 3 O s y.4.C.J.Z.i w y ; : ;.-.-.-.<.p.C ' 6XaXMX8X8X7X5X5XdXdXfX@.3 4 q D D D K H S ' ' / ~ G / v l H l l ^ J ' O.%X%X%X$.+. XO.O._ E ' / ` c _ J | / ~ ~ ~ l z ~ c ~ ` ^ ^ ^ ` { ` } O.",
"q q C A q = 5 q M M C C q > = q M T K 5 = q q M F A L v.}.v.T M e e m v [ }.H M v.Y H H J n x x ) ^ (  X.XX.;XaXaX5XfXfXpXgXgX6X7XO.c j 3 a 1.j.n.U.U.U.g.U.g.2.<.f.f.3.s.g.Z.Z.Z.f.i y <.2.f.g.d.g.g.4.3.& + o 0 s 1.=., <.g.d.Z.6.Z.C.Z.V.+XM.M.d.4.d.d.s.4.4.4.4.4.=.f.h.y.i s.= X 3 n 6 b  Xv.|. Xj x x S c.n.1.3.3.=.=.-.;.M.4.=.:.3.-.d.-.M.M.M.M.V.V.1.1.V.U.p & * t <.2.u.f.f.f.s.1.u.1.t 1 o & r ; ; D y.V.m.dX4X7XxXmXMX,X:XzXSX:X#X` ) `  XX.O.+.+.X.[ X.] / X.[  X X X X..] _ / } 2 I ' _ / 4 g I .X X} +.' $X.XO.' ( +.v J c g I G ] ` ...X[ ] +.J ( ` ! W ;X;X.X4X2X5X:X4X$XaXpX#XO n k 6 j c 1 S U 6 q n.].g.B.C.C.Z.7.F.N.N.w.q.A.M.C 6 3 a r.1.F.M.J.<.Z.N.C.C.C.-.M.d.j.V.U.V.V.f.V.U.j.V.V.t.|.9X&X@X9XeX&Xb.d.6.N.q.M.C.V.k.c.h.S.Z.Z.g.m..XI / ] F g ..] }.h.i 3 9 ^ O.x k ~ oX[.b.s.Z.T.E.S.C.Z.T.R.j.@XoXk 2 1X..7 ^ c .X..W 1 3 > 4.U.g.Z.Z.J.i.u k.M.t y d.T.d.m.3XzXaXaXaXxX2X:XgX5XfX#Xk l C e H U U D m ' } O.G ' ' ` H ] l c ` [ / } } { %X#X%X X} _ W k / / ] } ] ^ | ' J ~ I c ~ E ~ ~ ^ ^ ` O.^ ^ _ } +.",
"B N M K C C C q N N M M q 5 5 5 N K U M q q q M K Y Y '.|.|.|.'.m U H k G / I 4 [ / v G k $ h 6 )  .#._ X.XX2X6XaX7X5XpXyX4X5X6X4X+.] / 9 * 2.g.3.n.Y.Y.R.U.g.<., t.c.f.x.c.g.f.1.a l 3 5 s r p 1.i <.p r 1 3 X X o r u.s.d.V.Z.C.C.C.C.Z.Z.3.1.4.1.3.4.3.4.s.1.=.4.6.1.r.<.y y Z I ^ #.O.W x G oXeX.X8 j ..R.V.d.;.d.-.d.8.4.M.4.=.: =.:.=.-.d.d.4.M.4.R.c.f.j.c.j.r.M M > r.s.f.f.4.g.g.d.3.2.0 X + % X 2.s + l 2.u.9X>XyXpXgXpX#X6XmX5XO._ @. .{ X./ ( ' ' F U ' ]  XX.[ ..X.' X.@. XO.X.J 4 X...#X+.[ ,X>X] ` 3 3 1 H $X+.H J v v g X.X.^ b  ..X:X:X.X..c I  X` _ #... X6XpX8XfX6X#X_ 2X7XXX( I #Xn $ h 6 b @.x J t P i 3.M.3.Z.N.C.3.1.4.1.U.f.k # 3 4 3 * E.{.6.>.q.q.q.M.M.N.M.M.U.d.3.g.M.p.m.h.=.1.b.OX&XzX7XXXxXzX1XXXY.4.V.T.M.B.M.j.c.c.V.M.k.m.|.~ $X .k 6 W +.O.K c.e 6 h +.-X( #Xx ] } K h.j.V.V.Z.N.1.y.s.n.R.OXoXZ P ` # 7 / +.Q W c 6 0 t f.F.F.F.F.E.T.V.B.u 1 f.C.;.{.1XzXmXxX8XsX$X2XxXaXfX-Xc g m S S S S 0 D ] G J ~ | ~ J ~ ~ 4 2 ~ } ] ] } } %Xo.%.c ~ %.` +. X+.} ^ ` ^ ~ H ~ ~ / E c ~ ^ E ` { ` O.{ E Q { ^ ",
"L L M N N m m M N N C C N q q = q N M C A M C K m U J I Y '.Y J ^ #...b ^ I .X+.W ) W  . .6 n n  .) ` X.@..X2X;X6X5X0XyX:X4X8X;X:X:X+.O..XU K A h.@X@X+X@X+XR.u.Z L Y F x J F g l h h 7 # # @ 1 g J H v 3 Z Z 5 o X 1 0 <.V.M.Z.E.V.C.V.Z.C.=.y , t i , i <.x.t.g.=.=.3.u > 4 1 3 h X. XE v e e J $X' 9 h x.V.g.3.:.3.N.B.C.V.M.3.1.f.g.=.<.s.C.Z.4.d.g.{.{.c.c.f.g.f.5 i.V.T.U.g.f.f.j.V.4.2.<.* X # W j U h $ @ 5 p.XX6XfX4XaXfX:X;XVXsX( ..:XO.x +.+.X.H 4 / ` ] / +./ ] ` ] X. X....] / 2 [ X.G $.#X:X+.{ v W 3 O o v 3X$XJ ....b ...X$X.XO.:X;XhXhXO..X:X..>X6X.X#X:X;X>X3XvXtX( I v .X7X.X.....X.X.. .#.b  .4X-Xg e e j.N.B.M.L.U.5 3 3 1 s 3 $ $ @ 6 $ 4 f.V.q.N.M.-., t f.d.N.N.Z.1.: =.8.9X}.'.[ }.1X8X&X1X1XmX5X:X1X@Xn.Z.V.Y.S.L.d.b.j.j.b.'.X.#X^ x  X+...b ` #.) 3 o 6 # h ~ .X+..X .h W k P m.U.Z.q.q.N 4 s.c.c.R.[.n.u.w ~ n X $ # 3 ^ j @ 3 5 u.f.n.T.T.Z.s.Z.a # y.3.3.{.mXxXaXmXpX.Xz $XbXpXpX#Xc l K F F J 2 1 J ~ 7 G ~ ] ~ _ O.} G 2 / }  X X+.%.{ G z ` ^ _ +. X X+.{ E E W v / H / ^ v c ~ E E O.+.O.) ^ ` { ` ` ",
"m M K D m S S M M M C K M N q N M N K Y T Y Y M 4 4 2 G U X.X.I #.#.#. .W .X#X+. ....X-X+._ ^ #..X@. ..X.X;X;X5X6X0X0X5X6X5X8X2X:X#X.XO..X:X#X..y.@X@X{.].].].'.+.O.o.@._  . ...@.O.x 2 h n 6 n 6 8 8 6 6 S H ' 2 $ b x e g.4.f.1.3.4.M.C.3.w S 2 o o 3 U ( ^ l a 1.t.2.5 # 6 n # $ h 7 # + 5 M D P p y.P 1.3.u.5.& & s.M.4.4.Z.Z.: o * * ; y 4.4.2.<.f.R.m.1.R.Y.T.1.i c.3.d.d.g.g.U.U.Z.<.& 0 o h ) %.+.W x 6 $ $ 1 ( 3XfX0XfX:X:X6XaXhX.XO.@.#X) ! { ` 9 b k x 7 3 # W @.Q ^ O._ ] c ) _ G .X,Xx z rX,X) 3 6 3 o O 3 ...._ v  X5X:X6X0X6X<X;X6X>X4X5X;X6X5X;X4XyXiX6XjXnXfX:X..#.2X0XgXpXnXhX;X-X#X>X,XpX6X>X.X$.+.O.9 1 p u.c.y.g.u.h h c ` # + # h n h 6 @ e d.C.V.; e m X 5 2.f.1.i K c 2 D ` Q h ^ .X;X+.k  X6XtX1XwX_  XZ m.|.b.V.V.Y.p.R.OX[  .) #X+.` )  .{ Q E #X .x h X 6 Q 7 D G _ ) W Q k h [ Y.B.C.OXoXt.M.g.n.c.P y.Z.Y.|.XXv.v 6 6 h n 6 # W v 2 3 Z c.c.e e 3 # q s.-.@X6X5XgXcXgX#Xj  .8X0XzX@.v 2 F J k O o X o 3 9 z _ } X.O.]  X~ 2 ~ }  X%X%.{ ^ / ^ _ O.^ } +.` ^ _ ^ j 3 z ~ ' } } ^ ^ ` ^ ^ +.+.O.{ _ o.+.+.+.",
"Y A T l 1 2 M M m M K K D F }.Y F U U U Y Y [ l I [ I ..#. X#..X.X-X;X.X..:X:XX.#X-X.X:X4X#X.X;X2X6X2X;X6X;X5X0XbXmXnXgXfXnXnX0X:X.X:X#X:X:X>X;X|.@X&Xv.x.m.@X|.}.+. .;X;X.XsXpX0XpX5X-X.X@.@. .x h n n h W .. .E W O.O.G 4 w C K Y u t.<.m ^ @ #  ...b k ) Q x 4 m l m k ^ j j h 6 h 3 2 @ 4 K P 2.y t 1.y <.* o 3 1 r <.Y.d.3.<.o X X % o * y , ; y 2.m.R.H.OX{.<.t , ; : 3.d.U.c.5.5.t & # % # W h 6 E Q Q h j j j ...XfX5XzX#X:XfXpXhX+.X.#X#X_ h h 6 W o.W h j x b j Q o.x )  X X.X-Xo.] rX,X .O +..Xc b ^ h #.;XqXfXpX@..X5XNXHXHXAXiXmXfXgX-X;XfXfXpX6X6X5X;XdXgXsXsXvXjXiXHXAXNXkXyXfXfXjXBXkX:X.X#X@.+.^ E # $ h $ # # 3 2 4 l W c v h # # h Q j $ n 6 2 H D 4 # $ c $ # k 9 @ # # j # @ x x x h E W ! # _ +.x XX8X..(  ..X.X}.|.K F [ v G ( ^ _ x ^ z c +.j ) +. .) ^ ..n v O.k 4 K ' ) ..+.@.:X2XwX+Xn.XX8X@XY.f.m.j.u.x.C.L.T.m.U.a 6 ) _ W h 6 E )  . .k k 2 h # 3 k x Y R.@X_ 3XfXaXcX@.-X-XcXCXgX#. .G }.( o k k k n W +.) 3 } %X` #X+.9 ~ %X%X$X>X%X} ^ ~ ^ _ ` ^ } } ` E E E ! 6 ^ _ #X] / } } { o.O.+.O.+.o.o.%X%X$.$.",
"XX}.}.F k n U Y v.}.}.'.}.}.9XXXU H H I I X.X. X2X;X;X;X>X:X;X-X;X;X;X:X:X2X8X:X.XO.@.#.;X#X:X#X#X;X4X:X;X;X5X;XyX5X5X5X4XpXsX6X;X X;X;X;X:X:X;X:X:X XXX9X|.1XoXXX X-X0XfX6X5XdXaXfXvXgXfXfXpX0XqX6X;X;X6X4X.X .W O.) ) b 2 # k v h O.[ [ @.{ c .X4X;X4X^ 1 b ) c k 6 h x ) j 6 6 6 x I g b c b J m A V =., & 3 # + @ @ & e Z r & + # 2 c l 5 > ; 0 a Z P @X].; 0 & & OX; ; : OX{.s . o X   #  .{ E 6 n x b #.-X.X) #.:X4XzX5XnXrX.X5X;X5X X.X#X.XO.) ) ^  .o.o.#X-X:X;X .j h b 4X2X}.8X2Xb ^ #X#X5X-X.X-Xx +.k #.LXJXGXnXrXrXrXsXpXBXNXnXnXnXfXNXnXzXrXrXsXpXsXiXsXqXrX5X0X6XrXhXjXhXjX4X4XpX5X6XBXHXHXNX,X:X-X.X#.@.x x E n 6 h W n Q _ ) x Q  .O.@. .E j x h 2 # + # h X X # k 7 # n $ n x x j h 6 x ) ` b W ..@.>X-XpXpXnXgXaXpXaXzXcXaXgX5X:X;X;X,X+.@.^ (  .W ) ) W ) W O.O...( O.^ ^  X X+.:XkXpXgXsX..oX}.:X<X+.oXZ v.v.L v.OXE.Y.x.y.5 E ` x ^ _ z h x  ..X#X .#.-X .) +.#X:X1X X/ .XrXMXHXpXBXNXKXLXzX6XzX0XcXgXqXaX5X6XqX@.o.#X:X..W 3 ^ k X o 1 9 } j @ 2 8 ~ v 3 ~ ( ^ ~ k 1 3 @ @ 3 3 Q h O @ @ 7 E { ^ } +.%X@.$X%Xo.! %X",
":XwX.XX.#... .}.oXoXoXY v.1X:X X X#..X-X-X;X2X4X;X;X;X-X;X;X4X:X-X4X3X;X0XyX7X;X-X-X.X#.:X#X X+.#.;X-X:X5X2X;X;X;X1X8X4X4XxXyX;X:X:X.X6X2X2X5X6X2X6X;X;X7X1X:X.X5X:X:X0X0XaX0X6XaX8X5XpXpX5XaXfXMXnXMXMXvXiX4X#X@.#X:XgX>X.X#.b b x n k 3 X n .X6X5X7XcXfX7X5X;X-X;X.X.X.X#.#. .-X:X:X0X0XaX,X2X7X0X8X:XXXwX#...#.) x x 6 O l # + # .. ._ ~ v z 9 c Q Q h 7 @ h ` z H XXe 4 4 '.5 . o # b  .b c  ...wX;XgXgXgXiXgXgXpXzXmXvXnXVXrX-X$X+.6X;X,X>X.X@.+._  .iX5X5X0XvXzXpXfX,X#.2XdXgX8XcXcXrX4X;X4XaXnXfX5X#...;XzXnXvXrXrX2XaXxXyX7XsXpXzX7XyX6X5XyXpX4XpX6X5XgX6X7XvX7XaX8X5X7X4X4X6X3X4X7X0XzXfX5XsXvXnXHXHXJXJXHXBXqX5X6X:X@..X@. .o. . .)  .+.+.@.@. .#X-X@..X#. .O.#X@.#.#.@.b  ..X#.#X#X#X#. .-X...X:X2X4XqXcXnXnXfXfXBXaX0X6X7XCXzXmXVX5XqXmXMXpXqXsX6X6X:X.X.X#.#.-X-X:X:X2X2X-X.XgXgXdX5X;XfXsX#XX. ...}.6X:XX.;XXX8X0XaXwX}. Xv.Y ..Q O.k n b W  . .X.:X6XgXsXgXhXjX4X6X5X5X6X.. XyX5XyXnXhXMXBXvXnXnXgXsXnXMXSXHXHXSXBXNX-X:X;X6X:XI .XI ( wX..n 3 o 1 ( g I oX}..X@ 6 @ . 2  Xb X.wXwX..b G X.wXR R v o 3 3 n b I z W 6 3 ^ ",
"5X4X.X.X;X-X#.' Y }.X..X;X-X;X;X>X6X6X>X-X4X6X5X4X;X-X;X:X1X;X;X:X4X;X;X6X6X6X4X;X;X-X:X;X:X2X.X.X-X>X:X7X6X#X#X5X4X2X1X7XaXpX4X:X+. X4XaX1X;XpX4X$X$X7XpXaX0XfX6XaXaXgXfXzX5X0XxXhX0XzXpX2X8X2X0X6X4X;X;X5XpX@.) @.#XpXVXKXHXHXNXHXGXcXcXfXmXHXHXBXnXsXjXNXMXNXnXNXGXHXHXBXmXBXGXMXcXnXnXmXaXaXgXfXpX0XpXgXgXgX0X0X6X;X;X;X#.R #..X.X#.) x n n 3 O k W # @ X % X X . @     . X I .X;XxXGXcXBXpXmXGXJXJXHXAXkXmXBXsX>X$X@.$XmXSX#X$X;X.X4X#XO.+.;X;X5X,X0XGX5X0XfXsXyXpXrX6XpX7X5XmXbXzXmXpX8XsX5X7XnXvX8XfX5XyX6X5XyXpXfXzXzXmXaXpXsXxXxXdXnXpXgXpXpXvXmXxXgXaXaXaXfXaX7X2X5XpXrXsX5X5X5X5X0XyXyXaXgX5XgXVXVXBXHXSXHXHXAXHXHXNXAXBXfXiXiXfX5X5X,X,X.X,XrX6XrXsXjXBXMXBXnXGXnXNXGXhXsX6X<X>X:X6X6XjXBXfXMXJXJXHXAXNXBXMXSXAXVXHXHXHXHXHXHXVXVXSXVXNXNXnXnXbXMXMXBXNXBXNXVXVXVXHXHXHXHXHXfXdXnXsXpXfXNXzX5X5XpX5XaXcXxX0X2XgXmXCXmXpX3X:X-X2X5X;X#X>X,XpXsXgXnXmXBXMXnXfXvXxXsXyXzXgXpXpX.X#XpXyX6X5X5XrX5XfX8XxXfX2X7XaXfXsXhXVXSXGXMXNXnXnXpX5XgXfX4X2X X/ XX..}.2XwX6X0X1Xg  Xb g  ...XX8XXX6X3X0X;XI :XnXmXmXgX#.X. X2X6XqXx b X.2X;X",
"6X:X..#.-X-X.X+.b +....X6X;X2X:X.X:X4X5X;X:X2X0X5X:X:X;X;X6X6X;X-X:X:X;X4X5X7X;X:X;X:X;X:X:X#X+.;X;X6X.X#X.X.X+.4X6X1X:X2X0X:X2X4X.X+. X3X.X X2X+....X2X8XgXaXaX5X7XxXfXfXpXpXaX5XaXmXyX7X7XpX5X2X7XpXpX6X8XgXaX4X4X;X1XyXyXnXvXhXnXNXMXNXAXAXBXMXMXBXNXkXnXhX5XpXfXiXsXhXpXpXrXpXsXfXnXdXfXbXfXzXfXnXzXbXzXnXVXHXVXVXVXHXHXBXmXCXGXcX0XxXZXgX8X0X2X2X6X6X;XX.R #.R n - .X6XqXfXHXKXKXJXHXSXSXJXHXAXBXjXdX6X#X.Xo.o._ W O. XmXhX+.` .X#X#X` :X;XnXsXnXBXHXNXaXmXmXpX7XgXaXpXaXfX7XaX5X2XVXaXaXaXxXxXaXaXaXfXVXaX7XaXaX6XxXbXdXaXzXxX7XpXfX5XzXpX7XpXdX7XaX7XfXaX8X7X4X3X5X0X7X7X0X5XpX7X0X8XrX0X7X$XrXmXmXbXnXnXBXgXMXMXAXBXMXBXBXNXnXjXhXBXhXNXnXMXpX5XpXpXpXhXjXnXBXMXfXnXMXHXNXhXjXfXsXrX#X$X4XfXMXnXBXvXBXMXnXMXnXzXvXBXvXzXhXnXnXMXVXMXxXbXfXsXyXxXdX5XrXdXdXpXyX5XyXdXdXhXdXfXfXfXpX0XfXjXfXnXMXNXBXBXzXnXVXGXzXxXGXcXxXmXfXsXfXgXgXnXmXfXpXsXsXsXsXsXpX6XyXzXbXaX0X8X7XnXvXzXaX5XcX9XaXpXgXfX6X;X7XmXaXaXyXpXaXpXzXxX0XxXmXAXSXAXMXfXsXzXvXSX,X .;X-X4XMXgX6X;X-X.X#.#.(  X:XXXXX5X5X2X4X#.8X5X.XrXrXpXsXpXgX;X:XpXgXpXpX6X4X4X:X",
":X;X:X:X.X X.X.X .+.^ .X;X:X4X6X7X0XgX5X;X:X6X5X4X:X:X:X:X;X;X;X:X.X:X:X:X-X#X.X.X.X.X:X.X-X.X+.#X-X:X.X.X#.#.+.1X;X1X4X2X5X;X.X:X.X.X.X.X(  .:X X#.0X7X0X0XaXaXpX7XaXaXfXpXzXaXmXxXaX5XpXxXdXpX0X0XaXsX7XxXmXmX5X;X3X.X..7XbXaXaXpXgXaXpX5XpXaXpXpXyXfXgX5XgXzXpXpX7X2X5X7XzX0X0XaXaXfXaX0X8X0XxXaX5X0XaX8X7XaX7XaXzX7X5XvXvXhXMXmXzXnXmXVXNXHXKXLXLXLXHXKXKXPXPXHXCXCXGXKXKXHXJXSXBXjXhXnXvXjX5X3X;X5X5X;X;X-X..` W ^ ...XxXhX#X+.7 k ` ..6XrX4XGXVXVXnXnXvXdXdXnXgXcX8X7XyXyXxX7X8X8XsX7XaX6XzXxX8XxX7X5XxXmX5X0X0X2X8X8X7X0XaXaX6XyXaX0X5XaXzXaXsXzXsX6X8X7X8X5X:X6X6X6XpXfXzXaXzX7XcXnXyXaX@.% .XzXpXzX7XCXdXmXMXMXMXnXbXHXhXvXmXgXaXnXaXaXaXdXzXfX0XaX0XfXgXaXgXpXzXyXaXzXzXzXaX5X5XpX5X0XpXzXfX0XxXMXxXvXzX0XbXdXaXyXzXgXaXzXaXaXcXxX0XzXmXxXxXVXaXaXpXfXfXpX7X6X1X,X6X6X6XsXaXzXdXxXzXsXpXnXpXfXnXKXVXpXvXvXaXcXCXzXpXxXVXNXnXMXMXpXyXaX6X5X5XpX7XpXfX0X0X0XaXxXcXxXcXcX7XzXfXpXfX0XMXmXVXvX:X$XcXzX7XaXpXaX4X6X5X7X5X5X5XfX6XpXpX5XdXsXpXpXpXfXfXmXnXmXbXzX7XcX6X:XpX4X-X4X:X6XyXpXfXsXpXvXnXaXsX4X6X5XaXpX2X2XyXdXfXpX,X(  X6X",
":X1X:X;X;X@.@. XX...@.-X-X:X;X6XpXmXvXfX:X4X4X4X4X+..X:X:X:X$X#X-X:X:X.X;X:X.X.X$X.X#.:X#X;X<X.....X;X$X#X.X+..X.X6X;X2X:X4X;X.X.X#X+..X Xb  .#X-X:XcXxXaXxXfXMXzXsXpXaXvXbXaXaXfXdXaXfXpXgXvXpXfXgXzXfX0XaXxXxXpX:X6X<Xh 2XmXcXaXgX0XVXpX7X0XpXzXgXaX6X0XxXHXzXaXMXpXxXfXzXxXcXCXxXgXzXxXcX0XaXxXcXmXcXaXzXaXxXzXzXsX7XpXrXpXaXxXxXpXaX0XfXzXnXBXNXMXnXAXAXBXNXVXVXnXnXnXnXfXhXhXkXjXpX5XpXaXpX8XaX6X;XgXaX6X4X.X.X..( ` ..6X6X+.@.+   # ..:X:XaXnXSXjXfXvXhXaX6XsXaXmXaX7X:X2X7X8X0XpX8XaXnXaX0XmXzXzXhX2X7XpXfXmXpXxXxXxXmXmXmXzXyXfXbX7XyXmXaXpX7XmXvXpX7X8X0X5XaXaX8X0XfX6X0XgX6X:X4X7XmXHXiX.XgXsXpXgXzX5X5X5XaX7XyXaXrXrX6XfXbXVXMXmXmXnXNXNXCXmXpXaXCXbXzXnXBXsX5X6XqX0XxXVXzXzXcXfXzXGXzXCXNXmX0XCXxXcXGXzXxXxXmXcXCXCXmXMXmXCXcXzXcXmXzXaXmXHXxXcXxXzXcXdXxXCXgX;XaXzXaXyXMXaXaXbXaXyXfXzXfXNXHXVXVXxX:XS F xXxX8XxXmXaXmXxXVXNXpX8XxXaXpXgXfXpXzXmXVXmXcXcXzXmXxXaXzXcXMXNXnXCXVXsX5X4X3X4X8XaXfX7XaXhX4X4X5X6X7X5X5XaXfX0X5X5X0XpXgX5XqX6X4X>X;X6XmX7X7XNXHXpX.X.X7XcXdXzXzXaXmXnXyXfXzX7X2X7X5X1X7X7X7X8X2X5XfXfX5X6X:X6XfX",
"..+.+..X;X.X-X;XX... X#.+.@.-X:X.X2XgXfX0X2X;X:X-X#.@..X#X;X#X.X-X.X:X X;X;X:XO.#.:X+.$X X-X.X.X+..X#X+..X+.X.#X:X:X.X:XX.;X:X.X#X_ .. X.X@.+.:X.X#X1X7XmXnX3X7X5X2XsX8XpXxX7X0XaX8X7X0XaXVXaX0XvXMXzXzXfXpX0X0X3X2XzXrX#.xXmXnXxXzXxXmXaXaX7X8X7XgXvX4X0XCXVXcX2XpXzXCXmXgXxXxX7XzXxXxXfX0XCXzXaXmXcXmXmXbXmX2X0XxXvXfXxXaXaXxX0XzXaXxXzXzXaXaX5X7XdXyXsXhXkXhXvXMXsXpXfXfXrXpXMXdXsXpXfXnX7XzXBXfX8X7XfXaX7X7X:X..#X+.E  .fX:X] 9     X I 6XnXHXmXmXmXzXzXfXzXaXpX0XzX0X0X7X7X5X8X8XaX8XaXaXxXaX7X8X7X0XfXfXaXaXfXpX:XxXSXCXcXVXzX7X5XgXaX5X8X6XiX0X0X5XaXzXxXxXxXxXyX8XfXaX7XfX:X4XaXpX7XaXzXdXnXnXgXnXMXmXGXmXgX7XfX6X;X:X5X:X;X:X.X4XpXfX5XyX5X5X5X6X6XpX6X6XsXaXfXyXgXnXVXzXxXNXfXNXVXVXVXmXVXMXGXCXCXCXCXbXzXCXmXmXMXxXbXmXNXzXcXCXcXCXSXzXxXnXSXmXCXVXVXxXxXaXcXzX2XaXJXBXxXMXnXzXxXaXnXmXvXzXxXHXMXCXmXxXwXX.8X0XCXVXHXzX7XzXCXJXpXaXxXbXdXnXaX2XMXnXVXVXaXmXbXMXnX8XxXzXxXyX8XdXfX;X;XaX2XmXmX0XcXzX3XyX4X7XfXgXcXzXzXmXVXMX0X0XaXzXzXaXpXiX0X0X2X;XxXpX.X3XaX.X( 6X5XxX8X7XbXmXfXsXpXpXaXaX2XrX3X;XaX2XxX7X5X7XzXsXpX2X5XfX5X",
"#.@. ...+..X;X0X$X( .X.X+. ..X$X..@.4XpX5X5X;X#X.X-X:X#X.X:X$X.X$X:X;X6X4X6X5X.X#.;X.X#..X#X.X.X.X.X..#.0X8X XX....X+...#.#X X+..X..+...;XyX..+...#.XX X.X6XXX X.X;XcXcXpXxX7XpXgXaXxX0X7XyX2X2X>X,XfXmXzXpXxXfX6X5XpX7X6XaXaX7XaXdXdX6XfXnXaXmX8X7XyX7XaX7XmXmX-X;XaXaXzXfXcXzX0XCXmXaXaXcXzXpXxXzXzXzXmXbX1X.X8X8XzXaXaXzXxXzXxX8X8X7X0XfXaXxXfXcX6X4X2X4X;X5XfXfX5XpXpX4XpXnXsXpXrX6XpX6X;X<X:X,X:X2XdX6X6X;X.X( _ +.O.O.>X+..X`       .XMXHXnXnXhXjXmXmXpX7XzX0XCXzXxXpX5X6XaX6X2X2X8XaX7XfXzX8XpXaXaXxXmX7X6X7XrXXXaXMXmXVXMXvXcXCXaXzXyX2XxXmXKXVXxXxXoXaXzXSXzX;X0XdX5X4X4X7XgXaXmXVXnXaX5XpXdXVXVXmXVXVXKXfXMXMXbXVXVXvXNXfX0X6X6X>X>XiX;X5XpXgXpXpXiXjXpXsXaXNXzXxXmXmXnXNXfXpXvXzXmXnXnXfXCXmXaXzXvX5X6XsXvXpX5XrX5XpXmXmX6X2XVXMXCXHXCXmXgXmXmXbXxXCXcXXXxXzXaXxXaXNXAXnXCXaXcXCXZXcXmXMXpXxXVXMXnX2XX.X.1X2X8XSXnXmXVXaXnXzXaXpXpXmXaX8XzX0XxXcXmXSXCXzXpX7XpXgX7XnXaXpX7X5X2XpXaXzXcXmXmXvXmXmXnX,XpXnXHXHXHXmXHXKXVXVXzXcXzXgX7X7XxXmXcXMXMXBXaXpXvX;X4X0X-X$XxX8XHXcX0XfXzX6X;X5X0X5XpX5X6X4X6X6XyXaX8XpX7X7X5X4X3X5X6X5X",
"-X.X#X.X . X.X#X-X..( ..X....X2X-X#.@.:X7XaX$X+..X:X$X:X:X.X.X#X+.:X.X:X;X;X.X.X.X.X.X:X.Xb +.( ( .X X' ;X7XXX....^ _  . .O.O.+..X#X+..XO._  .:X@..X;X4X.X}.X..X-X-X5XaX4X3X.X:X6X6X;X4X;X;X;X;X-X;X3X3X5XMXaXpXdXfXzXaX4X8X2X4X;X6X;X;X4X4X7XsX;X$X.X-X.X@.$X6X5X:X:X6XzXzX7X7XzXyXzXMXbXcXbXzXmXzXxXxXzXaX8X6XaXxXzXaXbXzXzXzXmXVXmX0XaXzXzXpX5XMX5X4X7XzXpXpXpXiX;XsX;X;X5X6X;X5X,X4X3X4X,X;X;X4X6X;X4X6X5X6X;X.X#X:X.X#XO.) )  .k   X ;XHXVXVXzXzXbXzXnXxXmXbXVXMXyXGXzX5X1X0XxXxX8XxX8X0XaXCXmXpX1X6X:X2XzXzX7X1X:XyX7XdXhXdXMXvXyXmXBXBXMXaXAXVXzXbXyXXXaXfX5XzXaXpXpX5X5XxXmXzXcXmXVXfXpXaXzXcXMXVXNXHXcXHXHXHXNXHXNXVXMXhXnXMXcXfXiXiXiXiXhXMXnXnXsXsXjX4XfXcXSXmXVXVXVXzXfX6X;X6XaXnXxXxXmXNXvXpXfXpX7X8XfX6XgX5X4X4X5X2X8X,X#X6XrX7XxXaX5XcXPXZXCXCXPXCX:XcXmXmXSXzXmXAXmXMXaXbXMXbXmXmXmXpX4XxXCX#X2 X   U 0XxXcXKXFXeXCXVXmX2XaXbXSXxXaX7X5XxXdXaXxXmXMXcXxXgXcXVXcXmXMXNXVXfXpXMXSXmXmXcXcXcXGXNXgXMXSXVXVXHXHXHXVXCXVXmXfXNXfXpXaXpXMXMXMXnXgXnXfX5XfXpXzXgXXX2X8XyXzXfXaXpX6X5XpXpXpX5XsX5X2X6X;X;X2X5X5X4X6X4X;X;X6X4X;X",
":X:XiX>XO.@.@.:X:X.X..#..X@..X$X:X-X:X;X XO.b G G X.#X$X+..X;XO..X-X:X#X.X<X$XoX-X#X<X<XO. .O.O.` ` ^ ^ G 2XLX$X` z @ @ X X n ..+.6 # x 3   #.;X.X6X5X5X5X;X.X;XpX:X-X X.X#..XX.3 k .X5X5XpX5X5X;X:X Xv .XCXcXgXzXpXxXxX7XaXpXfXcX0X6X5X6X:X;X1X;X;X;X6X4X:X-X$X4X:X..:X0XpX6XpX6X:X.X:XyXpXyX5X5X2X7X0XdXvXmXaXxXzXcXzXfXbXzXdX6XyX2X8X#X1XdX5X;X6XrX;X6XpX4X;X:X<X;X4X4X;X4X4X6X;X6XqX6X6XpXgXBXfXfXBXgXfXvXBXnXiX6X2X;X.X+.) O..X X+.( ;XHXHXCXmXbXMXmXyX5X7XfX6X4X6XVXHXyX:X8X3XyX2X8XcXCXCXzX7XxX$XXX|.OXeX9X1XXX:X3X.. X` ` +.W W ` } I #X.X.X.X.X4XpXpXpXqX5X5X7X7XzXfXmXCXGXGXGXGXVXHXGXKXGXKXGXBXnXnXNXMXMXHXKXHXSXVXHXnXVXMXkXhXvXhXfXgXgXnXvXMXvXmXNXgXnXMXVXNXzXzXSXmXnX5X5X0X5X7XbXCXCXxXaX0X0X0XmXGXMXzXfXfXzXaXfXaXzXgX0XpXgXpXzXcXfXdXvXxXaXvXxXaXaXdX8XCXaX6X7XpXMXvX4XpXyXaXHXzX6XxXzXCXcXX       O 8XPXVXLX9X~.CX0XzXgXpXrXvXyX5XrXpXaXfXcXVXVXVXHXVXSXHXHXCXSXHXVXHXNXhXNXVXNXcXKXPXHXGXHXGXVXGXGXHXHXVXVXmXVXHXHXBXVXHXCXCXmXVXVXGXHXNXnXnXBXMXnXcXBXiXo.O.#.5XpX5X,XfXnXfXBXhXgXpXzXpXpXpX7XpXpXfXfXpXpX5X5X5XiXpX",
":X:X#X.X@.-X,X5X4X>X#X>X#X#X;X@.' :X8X&X|.'.@X|.N |.&X].' .X#X}.oXXX4X$X$X$X@XOX#X$.+.O.O.o.8 j $ @ $ # + _ $XE + + X X b .. ._ _ b ( @ 3 k W _ @.fXMXmXmXaX6X0XHXVXmX7X:X;XaX0X-Xb .X;X0X5X5X4X3XW .XW g mXVXzXyXdXmXgX0XpX5X5XzXzX7X6X0XaXfXCXmXaXzXfXfXpX5X7X;X;X5X5XpX7X0XfXpX5X4X2X8XpX;X.X.X;XaXgX:X-X;X;X6X5X3X;X7XpXhX6XXX:X.X#X#X.X;X-X>X-X#X-X4X<X.X .#X:X;X4X;X;X;X5X5X5X7XaXrX5XrXpXfXNXBXBXMXBXhXjXtX<X<X#X(  .c U }. XX.+.+.^ :XtX:XyXbXaXmXhXnXvXMXmXnXMXjX>X$XO.:X+. X.X;X+.$X6X6X1X&Xx.c.J.C.U.R.]..X' ' k ) o.-X#X.X.X.X4X;X4XnXHXHXHXVXHXGXHXHXHXHXHXLXLXKXHXKXKXKXKXKXHXKXHXbXLXHXLXLXHXHXGXVXVXVXSXSXHXSXVXNXHXVXkXBXMXfXdXnXhXvXfXfXnXnXnXnXNXVXVXVXgXzXMXVXpXpXjXpX5X,X4XmXCXxXcXmXVXVXnXbXzXmXcXfXzXcXSXHXHXVXGXHXKXKXKXKXNXvXgXdXyX%X-X>X#X.X6XcX7X2X1XAX<X#X+..X3X;XgX0X;XCXMXMX3XX       ( 5XmXKXVXcXcX2X7X;X2X8X0XpX5XzXgXfXgXaXnXVXVXCXVXnXMXSXHXHXKXHXKXKXAXNXHXSXHXKXLXHXKXHXKXKXKXKXHXGXKXLXKXKXLXKXKXKXKXLXKXLXLXKXLXLXLXLXLXKXKXrXyXSXjX4X>X:X,X>X:X#X#X>X>XyXfXjXsXdXsX,X;X>X@.$..X#X3XvXsXtXsXjXfXsX",
"@. .) W +.>X6XrXrX6X#X$.o.W #.oXc.m.+X*X`.).E.T.U.W.E.W.V.m.m.T.U.c. X[.m.m.T.b.[ .Xo.W h 6 6 @ + @ j E # + x ^ b ) +.` o.<XsXO.h :X#X .+.` @ ) @.:X<XrXyX+. X#X3X>X:X7XMXMXMXSXmXLXHXfX8XaX1X` j 6 .X . .8XKXCX.Xc :XxX8X0XVXaX0XMXVX7XaXVXzXvXmXmXzXzXgXfXaX0XsX6XpX5X0XpXaXpXfXfXnXvXnXMXfXfXgXzXaXrX>X-X#...;X7X4X4X5X4X6X4X5X;X:X-X#X-X,X,X<X>X>XqX5X5X:X5XpXpX6XpXcXgXhXzXfXvXBXfXzXvXfXpXsXtX,X-X-X,X<X:X#X#X-X#X#X.X|.=X!.*X9X@XOX|.g K l.m.9XCXaXtX3X>X<XrX#X:X%X#X+.x c W W ) x 6 W .X6X6XoXp.Z K Y.Y.|./ +._ l W X..X>X,X>XsXsXsXvXsXjXyXyXsXhXjXBXjXhXnXvXjXtXuXsXSXHXhX%XvX6XMX>X%X} %X6XrXsXSXHXKXKXLXLXJXHXHXHXHXHXVXHXGXVXSXnXvXNXnXhXBXMXnXgXMXVXHXHXHXHXHXHXHXKXGXmXkXfXcXcXGXKXHXKXLXKXMXdXbXaXzXMXzXGXmXfXaXvX5X4X5X3X<X:X3X$X;X;X$X#X@.` W X.$X7XpXfXnX7X5XpX:X.X.X.X-X-X7XzXpXfXxXpX.X( O   2 6XnXxXLXVXKXVX.X7XpX5XzXgXaXnXNXkXNXNXMXnXHXHXKXKXJXHXHXKXKXLXLXJXSXVXMXnXVXNXSXmXbX8XSXzXbXzXbXvXjXrXdXdXdXbXMXSXaX7XzXdXdXdXzX4X$X$X$X$X;X;X@.@.+.o.O.#X@.@.+.o.Q o.o.) @.<X$.+.O.O.+.@.O.+.$.o.W } #X{ o.O.O.#X$.",
"@...W $ x ` ) +. . .{ x k J Z 4.-., k.R.E.!.E.E.N.>.B.C.N.F.F.M.g.4.U Y c.u.u.f.x.'.} ` o.o.E %   % # ) O.j @.+.x O.$X_ x ) +.o.o.%X%X@.-X,Xo.h +.#XO._ O.#.) k c O..X@._ o.x c k  X6XrXyX5X$X+   wX4XW :XbXmXMXNX.X.XCXGXVXvXKXKXHXHXKXVXGXHXmXCXVXVXGXKXGXVXcXzXgXmXCXHXHXKXHXSXHXNXMXSXMXmXnXzXrX6XpX5X5XpXpXzXnXhXsXrX6X5XgX6XpXpX,X>XrXiXpXfXpXzXgXmXxX0XMXMXfXpXfXhXBXMXnXfXBXnXhXhXvXmXpX5X4XrXiXiXjXjXhXjXsX,X,X#X[ *X*XeX*X).)._.).R.).`.G.E.ZXO.'.i.Y G ^ ^ G ) +.#XoX[ [ c E x j $ # _ +.Y b.p.OXc.x.' G ` / }.}.'.].[ +._ #X#X~ ^ ) O. .) ) o.{ %.+.{ ` ( ( ] _ ] :X>XO. .$.O.tXW x  .Q x h W o..XtX3XjX6XbXSXvXSXKXVXSXSXHXNXzXzXmXVXHXKXKXLXKXHXHXHXMXvXpXfXmXAXdXBXMX5XbXGXKXLXVXSXLXSXyX>X@.:X:XyXhX4X5XMXMXfX,X>X-X:X:X:X;X6XpX6X4X6X:X6X;X5XpXfXnX7X0X0XaXxX6X5XrX4XzXpXyXaXMXnXyX2XaXmXmX.X....] 7XHXVXKXKXVXPXCXxXVXMXnXBXSXHXAXsX:X%XyXtXtXAXSXvXvXvXAX5XrXdXtXzXpXbXSXCXPXNXfXbXhX..X.yX6XO.%X+.{ { ^ ` ] ^ x z c ^ ^ ` W #X>X$.@.@.-X) ` X...@. .) +.@.+. ..X$._ %.O.o.@.) E W j j E o._ +. XY x.m.]. X$.[ P ] +.",
"+.) # X j 6 # x  .E k ~ H G y.: =.=.~.9XeXeXeXeX@XZ.C.R.+XE.g.3.4.d.s.y.c.u.u.p.}. X X'.}.:X-X#Xz # @ n c 8 E $ 3 c ] _ W ^ Q o.] | ' _ ^ } } ' [ ' G v c o.} P A [.}._ @.+... .#.h @ 7 v h @ 3 ..5XtX..^ ( #X:X4X6X:XO.#X%X:XHXSXHXKXLXLXKXLXLXKXKXKXmXtXBXdXKXLXLXsX3X6X$X XO.~ #XbXsX>X3XsXrXhXsXiXfXMXgXpXnXgXiXiXsXaXaXgXfXgXfXnXsXsXjXsXnXBXhXjXBXMXnXMXnXMXMXnXnXBXnXBXvXjXpXhXfXhXfXnXfXgXnXnXnXnXBXBXBXNXnX6X#X[ R.J.L.*X=X`./.(.(.(.^.(.I.D.x.H j.k.h.R.H K p.i.U }.|.oX X'.U G I H ( n I i.T.C._.P.h.Z v.oX' m.R.v.v.c.Y.p.'.].W.R.' #X@..X.X/ J |.|.v.v.m.].'. X.X#X#XO.o.W _ ` O.) _ Q W E ) Q j x  .) c { O.^ +.#X#X#X$X#X5XVXHXLXSXtX,X%X#X#X6X>X%X#X;X2XcXVXnXrX,X:X,X#XsXtX#X+. X$X%.Q { O.$.O.$X+.+..X( 1XsX$XhXyXsXhXMXNXvXhXMXfXpXzXMXGXMXhXfXaXmXKXJXzXaXiX4X7XpXsX5XgXzXMX5X0XmXmXVXyXrX:X XXXGXHXHXHXKXKXKXKXxXHXLXLXAXyX6X3X&X|.A &X9X'.^ _ x c ` ` #Xo.` c | }.'.].}.bX7X7XsX/  X}. X] ~ ( ' ` W W ^ _ ) 6 # k ^ b ] ( 6X9X.X+.-X.X#. .^ #X;X:X.X.X XO.+.oXoX+.[ _ O.oX'. X@.b I Q h ( @.[ v.x.m.m.oX' M x.[.}.",
"{ $ k / 7 6 j W +./ }.v.4 v a t.R.+XeXeXZXZXxXeX9XT.F.+X@X=X{.4.4.Z.T.Y.@XOX].[ XX@X+X+XC.Y. X+.) b z h x # @ n ) ) ] ] h ^ / ' Y.F.Z.C e Z C U y.K J e D / D a p c.b.U _ z Q #X3X$X6         X.:X6X#X.X-X4X-X-X,XpX6X .j k W +.#X.X>XtXyXMXMXjXMXBXKX>X# g U $X%XO.k 1 l 2 o 2 3 & 9 v o c E @ E +.#X%X<X4XdXdXbXnXnXnXNXvX5XjXhXtXjXrXsXjXjXnXfXnXnXMXGXsX:XnXNXHXMXnXcXhXfXcXvXnXBXnXMXfXNXVXSXHXHXHXSXBXhXtX<X%X} v D E.j.j.8.j.F.V.G._.(.S.A.D.A.k.c.V.B.L.P.j.b.x.n.R.v.].m.m.].|.oX'.|.[. XH v.j.S.S.A.P.d.j.E.b.!.J.J.n.c.S.Z.y.f.N./.P.|.'.|.[.p.Z.L.c.f.V.V.E.x.| X..X` W Q W x E W ` { F H ~ ` ` ) ] _ ) +. . .j W O.E 7 ..+..X#X#X#X%.E ) x ) _ ..O.W O.6XpXGXJXMXaXcXnXrX) O.) Q W #X<XQ E W ) { ^ /  X6XtX;X>X#X.X+.#XrX3X>X5X6X>X@.) ^ $X>XrX:XsX5XxXLX>X>XnXhXfX0XMXMX5X5XMXmXcXmXPXKXKXHX:X^ .X$XCXKXVXHXKXLXLXLXLXKXHXsXjX X}.&Xm.i <.2.y.c.m.' 2 2 j 6 W @.] Y K M C L q A 9XOX&X$XM XX9XoXA v.'.' _ ` ^ ` ` ^ _ .X+.` / X.+. X&X}. X$XX.}. X#X6XXXoX[ | D [.oX&X3X#X.X.X}.].oX].'. X-X$.Q ^ / U v.x.c.n.v.U F K oX1X",
"h 2 [ } & # W }.x.m.9XoX: q x.M v.9XOXOXeXxXeXeXeX+XF.E.+XE.E.F.A.F.d.J.+XE.c.p.c.M.M.N.L.F.2.c +.#Xx X X $ k  .+.) ] ^ j | c.h.V.F.W.g.p f.y.U C F p y.y.f.f.x.C y.x.' J 7 2 W W W @._ 6 # b X...fX>X@.gXnXpX,X6XcXkX#Xo. .# 3  X.X^ ) _ ) O.` z h j v 1X8X$Xl 4 4 U / H ' ] ] ~ H l l J l H g 9 5 9 k h 9 z 2 } +.+.$X>X>X$X#X#XW _ ,XtX<XrX>XtXtXsXsXBXsX4XVXSXVXMXHXHXKXHXAXHXAXAXHXHXHXAXyXsXyX,X%X$.) Q Q E j x j F L.t.m 2 2 Z s i (.L.R.p.t =.V.j.f.P.B.d.B.P.L.d.C.R.v.m.m.|.].m.'.U '.'.].n.V.S.P.D.w.w.J.`.`.E.F.L.m.n.D.J.E.N.q.D.(._.).F.B.F.D.4.g.V.C.g.E.p.s XX_ 8 x W ..+.^ ` H | D Y U H H ] X.' ] O.O.O.) ` Q h `  XX. X+.O.@.) x W O.o.+.O.o.O.+.;XxXJXzXMXzXSXNX,X_ ) ` #X#X#X>X#Xo...` +.:X.X+.jX3X>X$X#XO.+.O.X.' / } O.] c v ] z J O.v  XO.&XLX_ z .XrXjXBXdXzXcXfXsXyXCXdXpXhXnXMXSXrX.XpXHXHXHXKXHXzXVXMXbXMX#XE S q b.h.p.> V i p c.c.b.Y v h c F K L b.A U 5 C N p.OXOX|. XXX0XMXXXp.x.x.x.[ ~ ' G ] ^ / [ ' G U H ' ' oXXX[ |.}.[ Y O. X}.x.C w 5 a p.oX>X.X[ X.U &X<XL [.] @.+._ U D L v.Z p n.x.x.v.'.[.XX",
"3 x c x H ^ 4 m.g.j.].L 1.:.; e A +X<.: h.+X+X@X=X+XW.L.E.P.W.F.F.C.4.d.M.B.N.>.6.6.6.N.F.C.4.4  ..X.Xh O b @.+.+.W c x x S U.C.M.M.M.1.2.s.i.D C u.s.A y.M.4.Z u.i i.x.F 7 2 x _ c  . ..X.X XO. .mXtX;XbXdX5X5X0XhXnX$X@.o.# + k X.c 6 _ v x v 5 v 3 J 4 4 9 m F H G l S ~ G G l l 9 l l v J l 4 S J x ~ g S v g l c 9 ] O.~ _ O._ _ +.O.%.E + 6 W +.hXhXnXvXnXfXfXkX%X%.$.#X%X%X>X#X%XO.{ Q E 8 6 j j x h x j z v v 7 9 C 3 # 6 $ e w - d., b.' 6 [ c.L.J.S.B.V.L.0.B.B.L.V.n.p.c.R.m.n.|.oX/ H L c.Z.A.>.Z.0.k.n.C.P.V.s.f.c.C.D.L.B.D.^.^.(.(._.S.A.(.q.s.(.).(.T.E.L.y.].' 3 @ _ rX:XX. XU y.L U H 2 J / [ Y H ^ / ` [ ( j E ^ ) [.OX}. X.XO.b W o.O.O.` ) O.O. X4XNXMXfXMXnXGXMX$Xx ] $X>X#X$X>X$X$X.X_ <X Xc +. X X$X X}  X X X} G J I ( H U }.J [  X] _ ] X..XX.[ #X>X6XrXrXjXNXyXrX3XMXrX6XsXsX#X_ 1XCXCXHXKXKXNXMX7X6Xo.^ c h z A r.Y.p.Z a.u.i , p.x.y.Z v.g 5 C y.V u q B q w u c.R.~.v.}.eXxXdX|.p.m.b.x.D H F e F J ' Y H H K H H [. XXX] / c I }.b / J P P [ m 4 e [ +.U T }  X} +.` E c ` [ F e Y '.Y p 5.u.x.u.f.v.[ [.",
"m Q ' c ~ 9 , <.1.3.: ; : ;.;.t.j.g.<.<.f.4.M.Z.Z.N.F.N.F.P.F.B.N.4.=.3.M.N.F.N.-.6.-.M.B.N.0.Z x +.#X>X$Xo.o.o.Q H 0 D P e p.d.4.4.s.s.u a p.a a s.s.t.s.N.Z.f.g.4.r.x.] c 6 h E h _ x W O.X.`  .nXrX;XMXsXpX7XfXjXnX4X+.Q @ + X 8 / g F J v l 4 0 4 3 2 3 3 9 H G z v S l S J I v 9 S J J l S J J v j 9 J | S ' +.~ c ~ _ O.O.^ ) #X%X` Q 8 # + @ + ) nXyX#XsX5X5XrX .E k .X^ h z x j h j j x x j j x E 8 h z l K F ' J.Y.J 8 2 w <.t t.M.& b.n.n.|.J.(.S.S.S.B.S.0.q./.P.L.B.B.B.Z.U.R.R.}.U x.v.H c.P.A.0.S.C.m.M.N.d.T.n.P x.A.D.w.w.^./.(.(./.G.>.>.C.F.N.P.).`.`.).E.Z.u.5 6 } $X$X X'.U v.].}.[ J [ Y x.b.L ' [.' ' G c ~ h 2 v.R.OX'. X X_ +. .) _ _ ^ ] O.#XnX0XBXdXnXnXHXvX .+.$X+.%X%X%X:X#X%X .( / .XO.2 ^ } +.] ] ' ] ` ..I ] +.] #X+.' ' } ^ ] ] / [ ] [  X#X..[ X.+.#X../ } .X_ o.E ^ :XW W [ aXnXSXHXHXHXNX4X;X.X) h 1 '.v.V b.w Z h.s.y.r x.Z y.m.b.l.].V y.b.B q w x.l.Z c.OXm.v.K 1X8XoXn.c.n.p.c.|.L D e D F S / J F K D S S U '.H W x [ XX X' P H F J 4 4 F Y D '.v.[ } / | G J G v.}.M C [ L p 5.p 5.y.x.y.].[.'.",
"S Q } ' e * <.=., :.:.: :.;.q.N.E.Z.-.s.u.M.C.4.6.;.Z.N.C.W.F.T.Z.4.3.=.=.N.N.4.-.6.6.-.M.M.7.4.2 +.o.$.<XO.Q { P n.y.u.d.j.H.C.s.s.V.Z.a l j.8.M.M.d.4.8.M.d.Z.Z.f.y.L X.` 9 h h $ x E j W _ c ..NXfX:XnXsX6X2XpXfXBX,X_ { h + % # G H [ k 7 9 1 2 v z 6 j O S U ' H F 4 l J / E 2 9 5 l F H S v J J ^ v 9 9 H | ~ J J E 9 ~ _ { o.$.} E @ 6 $ # # h #.vX,X>XpXsXgXpX#Xj ) ,Xo.j # 3 j j j j j x Q E j 6 6 6 { 6 c 4 x.P.w.k.c.L.P.M.8.B.1.; L.I.S.(.(.E.D.A.A.0./.w./././.(.P.(.D.B.L.L.P.E.K.L.T.c.V.0.^.*XP.e.!.P.P.B.).B.t.v.k.D.w.w.w.>.w./.(.(.w.d.9XW.>.D.G.P.`._.).F.3.Z S 7 H [ '.x.c.Z ].'.v.'.' x.Z v.v.H | [ '.K J c J I i.E.R.m.[.X.] +..XI H / }.X.O.#XVXKXMXgXrXjXSX6X) #XtX%X} +.] tX>XkXkXtX%X` G  X%XU ] O.~ ^  XX./ +..X] ] .X Xv J l ' X. XX.O. X] X./  X.X` G [ ..v ' v 7 j 6 6 _ _  ._ 8XmXMXAXMXnXfXpXpXpXx h e OXl.V r.w y j.y.y.c.v.w L OXOXm.c.y.x.p.'.e u b.Z i u.p.i.C A b.v.Z c.c.u.t.c.c.Z e S S U S U M D D e e D ' +.}...) G '.'.' v.K D H g 4 S P P K H D ' _ / U D v.Z D q C C a > a a y.P Z Z y.x.c.",
"x W E ` e , =.-.3.=.=.Y.;.-.q.N.N.N.B.G.d.=.4.-.3.8.S.N.-.-.M.T.M.N.-.=.=.4.1.;.-.>.-.: 1.Z.-.;.A XX^ x ) E J n.F.C.p.h.`.!.C.P.F.F.F.P.a D Z.N.q.N.q.M.8.-.4.d.d.s.x.I  X[ l 6 h h ^ ) h b W c .XHXBX5X5XpXtX4XpXgXnX,XW E x j X X 2 v E 7 1 2 z + # X . o 4 H ' H / F g H H J J l S J J J } ~ J | [ ~ v / H [ H J _ ~ c G ' } ` { { $.{ W j $ W j  .5XrX;XpXpX4XBX>X@ X 6 #XQ j  .W 8 3 8 z z x F D 4 j h h ) x S J K Z.K.V.S.A.M.j.L.M.1.Z.S.S.P.A.0.D.D.w.D.P./._._./.e.D.(._._.G.P.(.F.).S.B.S.S.D.S.(.(._._.(.(.`.).(.D._.*XL./.(././.w.^./.D.(.(.L.=XP./.(.F.0.)._.).;.n.V.V.i.x.h.n.u.5.Y.i.x.n.c.y.c.n.m.K P v.P v.v.P S D U v.R.R.R.c.n.b.|.].m.x.D v.'.` $XHXMXNXnX;XsXAXrX@.+.} ^ c +.~ ^ { %.%XjX%.3 l $XuX,X$XtX_ /  X X/ +.%X_ ~ '  Xl J '  X$XO.~ / +.I / _ / O.^ .X.X( U } / h x j 6 k O.O.c $XCXmXhXmXnXpX6XpX6X ./ b.h.b.p Z y.f.f.u.r.u.c.V e a p.b.Z i.y.p.x.w V b.B Z y.i i.w x.v.a x.c.u.y.f.f.<.x.m D D L D m C D 4 e M ' ] O...+.( I U H U H P l S 4 e 4 4 4 0 D Y X./  XoXM C 0 5 D 4 e e v [ x.a L x.x.y.u.c.",
"j b E E 9 , ;.-.=.d.j.E.B.q.-.B.4.6.N.F.7.=.=.-.-.>.M.6.;.>.-.-.4.M.>.-.=.=.:.=.-.-.;.:.=.d.;.;.1.x Q E U r.M.G.C.L.Z.C.`.E.C.M.N.L.z.Y.b.x.4.M.N.M.q.q.M.;.: ;.d.M.d.Y oXv 2 6 h h 6 6 n O.x 6 .XHXcXnXgXpX6X4X5XhXnX,XW W x  .# o @ $ j z 2 1 7 X   . 1 4 H F H F ' | 4 | D 4 e S S v G [ / z H } ] S J _ ' ' ' ~ O.} ` } %.+.` %X%.O.%X%.Q @ %X_ ( 5XsX.XgXsX5XnX-X  6 b c x 6 x x 9 u.r.C K [ p f.<.H l 9 P x.u.K v.8.Z.OXk.l.2 F B.D.w.(.D.P.D./.(.(.(.D.e.S.(.(._.^.D.I.(._._.(./.I.).(._._.I.(.D.^.(.(._._._._._.(._._._._.(.(.^.w.^.e./._.(.(.(.(.w.w.D.e.(.(.(.).`.P.T.V.q.L.g.V.V.V.f.T.Y.n.s.f.R.E.g.c.c.x.b.m.].v.v.Z v.m.R.{.OXm.H.E.`.E.E.Y.Y.b.x.L J 3XKXHXnX>XyXsXBX6X@.) H [ / l _ c 2 g 2 { 3 1 ^ ^ { %X<X+._ _ O.o._ / U X.]  XO.H %X+..X>X@.X./ / / ~ ' .X.. XtXO.I ] ( [ E j j $ z _ W G  XzXbXcXdXzXmXcXnXsX+.h a n.n.> u p.u.2.<.r.y.c.p.C w Z B a x.p.p.y.L p.b.y.p u L i.u b.L ; x.x.i.i i u.<.Z e S 4 m m J l c D M m e K I [ [ ] [ '.U F ' U J g 4 D D S 4 '.}.'.K D F K D 4 e Z D 4 m ' ' U a 5.5.y.f.y.f.c.",
"` ) E E 9 a 4.-.;.d.Z.q.A.N.M.M.8.d.M.M.-.;.-.-.-.M.M.M.M.;.-.4.;.M.B.6.:.;.;.=.r.i -.q.M.6.-.-.y.J P m.E.E.F.A.B.F.B.B.F.N.d.d.4.F.R.j.p.n.s.Z.F.C.N.A.N.E.8.E.C.M.q.f.H c h 6 j 6 6 h j o.{ @ I GXSXvXrXfX6X6XqXfXnX,Xx ) Q  .E o X $ 8 # @ o o o o 5 4 m H / 4 ' ] ' J l J 4 l 9 5 S | ' ] ' '  X[.' H [ ' ' ~ / O._ +.%X%X{ ] %X{ ` lX%.{ 3 %.` z ;X5X#X;X5XpXgXsX) h h v Y 3 6 4 r.L.P.d.u.p.a u.j.E.Z C E.E.K.f.B.B.B.Y.r.i.P v.t.A.G.(.e.w.e._.).D.A.A.e.w.D./././.e.^._._.D._.(.(.`.).(._._.P./.^._.).^.(.(.(.(.(._._.e.(.(.w.(.e.w.e.w._.(.(././.D.D.(.P.(.G./.).(.G.G.P.-.L.W.L.W.E.C.V.U.g.Z.OXn.M.F.V.f.f.c.x.y.y.c.c.c.m.R.R.Y.Y.J.E.*X`.E.E.n.p.p.L v aXKXHXnX4X,XsXNXrX.X.XO.W / [ [ ` ^ [ c . o g J ( G 2 z k [ ` { +.[ X.$X..} .X#X^ %X+.#X$X} [ X.U [ +.O.$X%X+.Q v ..^ ( X.G x j 7 k W ` _ XXaXzXMXpXvXVXHXnXnX@.x g Z Z u u Z a * : p y.y.i.T Z Z Z Z y.y.p.p.y.y.u ; u p p a.V y.i.r.Z x.w '.Z u p Z w q 5 e e G J I F D S m F [ ] J k ^ G D 4 G / ~ c v 0 S K '.v.H D K F H J S 0 e w 5 9 P L p a s y.c.u.u.y.x.y.",
")  .W E j # y =.-.M.M.B.S.F.N.N.M.N.M.B.M.N.6.-.d.=.=.;.:., =.=.d.M.Z.M.8.-.;.4.1.s.q.N.N.>.g.h.r.u.4.M.g.J.W.F.W.N.M.M.B.M.s.p.y.4.M.N.8.J.L.Z.C.B.q.B.A.D.F.M.-.M.M.M.c.l k 6 h 6 # j E W  ._ ..NXnXnX6XiX,X;XrXgXBX,XE W W j 2 5 o X X o 0 5 - o 1 S 4 m D ' H H _ | ~ 9 k #XS J J ' J ] ] ] _ } [.' H | | | ~ ' O.{ ~ } } ) ] ^ ` ` %XuX%X7 %.z k pXdX,X-X6X6XfXsXo.z k OXL.Z.j.Y.V.B.1.d.q.0.J.y.p C.i k.B.P.P.L.0.A.0.I.P.q.B.q.u.=.8.P.D.w.).*X(.e.0.0.(./.(.(.(.(.(.(._._.D././.D._.(._._._.(.>.>._._./.(.^.w.D.).(.).(.(.^.w._.(.w.e.(./.^.(.(./././.G.P.(././.(.(.S.P.).-.F.).).I.J.M.C.L.@XR.E.d.B.P.C.s.f.g.f.g.g.g.V.V.J.T.g.g.k.J.N.).`.!.E.j.U.c.P ^ xXLXVXHXrX6XhXAXhX>XO./ v H ^ ] [ ] _ ] v c ~ / / X. X^ O.#X^ _ +..XuX#X^ / $X#X^ #XO.O.} /  X XH ' _ ] ` W 9 l [ }.U J / +.$X( x G ] ` 7 X.4XsXhXgXdXfXfX0XhX#X$ g q > y.C w V L > Z i.C Z i.A Z i.x.p.x.<.x.p <.; : t t t a x.a.p.y.a s a '.}.q w M N w e e F F D D e m D U H J H U H / ( F F J [ [ I H 5 5 K U K e H S J l 5 4 4 5 5 0 e a w w t a p u.f.y.p y.x.",
"x  .) E 6 # ; =.4.8.M.M.C.C.N.q.7.>.-.S.F.A.-.-.=.: * * w s =.j.1.<.=.1.d.8.-.4.8.Z.M.7.N.M.1.i f.s.g.V.C.P.L.L.T.M.6.=.d.d.i.}.~ e i.f.B.V.M.C.L.B.N.M.B.F.C.q.M.C.S.S.P.Y.c.m $ $ # $ j ) O...O.MXnXfXrXrXrX:X5XpXBX<X6 E k 7 3 5 q o & e m Y K S e e m D K [ ' K | F ] k 2 k 4 F S F / ] ' ' [ | [ [ [ [ [ / H / ` } _ / k ! { O.#X} ~ >X%.2 @.v X.sXpX4X;X;XpXMX4X .x K =X`.P.(.P.Z.0.d.k.C.P.P.R.q ; , /.q.B.B.L.L.P.I.(.P.D.0.>.0.8.8.e.(.^.).(.(.).D./.^._.(./._.(.(._.(.(.).)._.A.F.P.)._.).D.w.^.(._.(._._._.).(./.(._._.^./.>.w.w.^././.(.^._.^.w.S.w.A.D.D.w.D.(.C.V.G.(.P.P.`.F.C.E.*XE.@XE.N.L.P.A.F.W.W.L.3.d.d.d.N.M.Z.C.S.V.V.g.;.G.).E.U.V.H.n.x./ aXHXNXMXrX4XfXNXfX,X+._ 6 v uX^ 9 v .X3XtX] X.I X..X%..X_ O.` G } } +.} ` .X$XE O..X$.+.c ^ X.[ [ ( c H X. X' [ ] U J k / $XpX:Xx W { 7 3 k aXBXMXnXrXdXmXaXfXo.# g q u u N q r w > x.y.Z x.Z Z Z C Z p Z p p p r.p <.r.r.y.p.c.p.u.> 5 q q q q q w q D e q v.0X'.D 4 q D F D e K S J ' | I v D U S H 4 0 D q 5 e U 5 5 5 l 4 0 5 5 4 5 0 s r a 5.2.u.y.y.u.y.p u.c.",
"x  .O.Q @ X t 4.g.1.d.q.=.;.4.-.N.M.-.N.M.4.-.<.* - 1 # K 3 5 Z y.b.e e a s.d.N.N.L.T.M.M.Z.; - u.=.s.C.E.*XF.F.M.4.8.3.d.;.U z $ h 7 e g.3.d.N.C.F.F.N.N.B.L.P.N.N.C.P./.S.E.E.e $ @ # x {  .Q  .fXhXpX,X6X6X6XpXfXnX,Xj x 3 m 1 3 e q = - M D K K D D m D U [ [ [ ] U J 1 1 & 5 H | H [ } | } | ' [ } ] } }  X X} _ ] .X+.` ~ ^ ] ` %X+.{ 3 9 ' l .X,X5X0XpX6X4XzXyX_ J |.9XE.F.0.S.S././.B.K.D.M.j.t ;.w.I.B.M.>.q.L.S.E.P.F.F.A.q.A.I.P.S.P.(.^.^._.(.(.D.0.D.G.A./.(.`._._.`.(.(.).P.D.w._.(._.(._._._._._././._.(.(.(.^.^.(.w.D.-.0./.w./._.(.w._._./.(.S.w.0.D.D././.Z.k.L.P./.P.P.P.J.E.T.V.V.B.+X!.D.;.M.P.D.C.d.N.d.F.L.Z.Z.S.F.Z.B.E.-.C.).E.Y.C.Z.V.m.] aXHXBXBXsX;XaXNXjX#Xv h @ # { c / yX>X>X>X:XyX%X$X+.^ ` .._ ` / +.+.#XO.{ +._ 9 #X` ` ` ' } ' H / W / .X#X} } .XH U X.oX6 k %Xx b @ # $ # O.yXHXHXmXfX5XnXaXBXO.# 9 e w Z C 5 w > a u.p.Z i.V A x.Z p.Z Z 2.Z i i.i.y.y.t.{.R.u.p.y.s r * ; w N w C e a H 5 e 1XH e 5 m 4 5 5 5 M Y G S U H 4 m S 4 e 5 5 q M q 5 5 5 = 5 5 0 0 S S ' S r q u Z Z u 2.p.y.u.x.y.2.3.",
"j  .o.E # + & * > i <.4.=.=.;.d.B.N.d.4.=.: , q 2 S D H U l S D =.1.y.Z 0 y 3.M.N.N.C.8.d.V.q 7 u =.8.B.V.U.M.g.t s.V.Z.Z.Z.e ^ z Q E 2 y.1.8.8.N.Z.d.q.0.F.Z.Z.M.N.M.F.P.C.*X`.L h 2 n h Q Q E @.gXfXnXiX5X;X3X5XfXnX6X_ W 4 w 4 5 4 e N 5 q D F D D M S J S ' } [ ] _ ~ 1 @ 1 m H / | ' [.} ] ' ' +.} +. X X%X X} +. X X#X+._ v } +.O.#X%.2 ] } v -X,XsXpXrX6X5XgXpXO.I @X+XP.w./.D.w.I.P.C.D.G.C <.B.S.P.L.B.L.N.0.0.B.Z.B.B.e.D.S.A.w.A.D.B.I.D.^.(.A.0.-.>.;.M.e.w._._._._.(.).).P.(.(.^.(.)._.(././.(._._.(._._.^./._.(.w.w.e.D.w.0.D./.(._._.^._._.(.I.S.(.^.A.>.A.F.P.(.!.F.-.<.r.d.V.R.p.h.R.M.+XE.F.L.E.P.).F.4.C.M.S.P.J.J.M.B.F.B.G.q.N.C.U.V.Z.J.Z.c./ zXHXBXnXpXyXfXBXrX@.#.F F 2 o 2 H $X%X$X>X] +.<X` ] W `  X^ ~ / +. .#X:X#X#X~ | uX.XO.` H [ / } ^ ` ] ] +.U ' $X}.[ O.U 2 7 h I ..( ( 6 h #XnXMXMXmXcXgX0XaXfX.X# 3 0 V Z q e w C a a Z C w C N a w y.i.C Z x.y.i.C y.Z y.p.y.t p p a ; u u.c.C w M w D ' 5 5 e D D 4 q & 0 5 D H [ H ' ' ' [ F U F e e w a w w q 5 5 q 5 5 4 5 4 5 0 5 q C y p.' Z c.c.u.c.y.y.5.p ",
"x o.) 6 + # X # 6 9 4 u d.-.-.V.B.>.=., r 1 & 4 D J S K Y v.|.D ; =.;.q.4.1.<.4.6.6.6.M.d.g.5 l f.;.d.B.B.d.<.4 6 C C.B.C.M.Z ( { W W W Z 3.d.q.M.6.-.M.F.N.-.Z.V.N.N.F.(.L.E.E.b.v 6 h j W W x @.MXnXjXsX5X4X:X:XpXnX,X)  .J q N N e 0 e e m M D 4 M m M F K ' | U ' } 9 1 0 1 F H S l H [ }  X[ H [.} }.+.%. X%X%X X.X+..X} ~ J ] >X%X#X%.O.+.~ l :X5XpXpX0X3XpXjXsXo./ 9X*XP.w.D.A.0.C.I.q./.M.v x.Z.-.-.M.B.0.S.P.P.q.M.Z.s.M.A.q.0.I.C.S.C.L.S.D.-.;.>.0.>.0.0.0./.(.(._._.(.I.(.I.(.(././.(.).!.E.e.(.(.(.)._._._._.(.0.(.(.(.(.^./.^.(.(._./.(.(./.(.(.D.D.^.(.L.N.F.P.).E.F.R.|.v.i.x.XXY OXOXB.q.F.P.P.P.P.F.W.g.k.Z.G.D.C.F.N.S.P.P.B.N.C.Z.Z.V.Z.V.V.K.I gXHXNXhXpXrXsXnX,X.XxXeX}.[ ' v ..uX>X] ] .X+.$XX.O.W x E G ~ v c ^ { }  X+.2 ] >X,X_ ^ l c _ W H [ ' [ [ [ ' F '.J v [ 1 O. XoX.X:X+.$ x $XNXHXmXmXMXpXaXGXGX-X# # 3 4 C C C w w > e C q a F e a a u u C C C w w w u C w u.y.i i y i y.m.r.c.y.w = = = 0 q q 5 D U 4 q 5 4 M U D H H ' ' U ' / [ F e N M q q r 5 5 M e 4 4 q w r p L > w A p u.u.f.p.f.g.c.2.p.Z e ",
"x Q x 6 # # @ 3 J J 9 1 s 3.;.=.=., i N 3 # $ l a S / | K Y P 9 , q.M.M.q.N.> q ;.-.-.d.g.s.i <.S.>.d.Z.4.t k k 6 a q.B.F.d.3.x.U J z Z V.B.B.A.F.E.N.C.F.F.0.B.Z.N.F.F.P.G.S.P.C.x.G k j h ) E ^ nXfXfXpX4X6X:X;X5XnX>X( O.l 5 m C w 5 5 e 4 e M e m m S F U | 9 J ' | 2 5 4 5 S ' J 4 ' } ] [ [ [ } +.%X%X X} O.$X X+.] } ~ | ` ~ O.%X$X%X+.` E G #XsXpXaXsXqX5XjXrXQ ( =X=XP.D.D.I.D./.(.D.I.S.C 1 , ;.L.8.q.q.8.w.L.P.q.N.q.B.F.A.0.L.E.q.q.0.q.S.M.=.;.;.q.w.w.^.(.(.(.).(.P./.(.(._./._.(.(._.(.(.(./.w.^.e.(._.(.^./.w.^.(.(./.^.e.(._._.(.(./.^.(.(.(.(./.D.(.*XE.(.P.P.).).).W.R.$X}.&X9X9Xn.L.C.V.Z.W.W.L.C.d.W.V.V.G.F.F.S.D.G.A.W.F.6.-.Z.Z.Z.d.j.g.T.K rXAXhXpXhX5XrXMXtX.X4X3X X[ I U  X>X>X+. X..} ( X./ @.) # _ v v v 8 3 3 ^ ` ~ 9 +.#X( ' / ^ v F }.U H F }.XX X'.v.Y 1X XH ( ^ } ` ] ^ c k _ SXNXBXMXMXzXnXmXmX>X6 + @ # S w q Z u > s 5 0 5 3 @ 5 s C w e C C u w q u Z > p y.a r.t.r.r.y.p.r.p w q q w q & 5 5 5 5 e e 0 5 e D D a D H H [ [ ' S ' J M C w a e s 5 5 e e > Z L y m.&XZ x.].a x.<.2.i 1.g.u.y.y.a D ",
"$ 6 j $ 2 @ # 2 M Z a 3 1 y , ; ; o 5 U H 2 o o , Z m.x.y.1.t.f.d.J.C.L.M.q.r.3 y 1.4.;.2.V.<.1.G.A.!.d.w h 7 k 7 w d.C.F.M.4.1.2.w s , q.B.C.F.S.C.A.S.S.P.G.M.M.J.M.D.N.M.M.L.F.L.Y.p.p.Z h j x mXfXfXsX6X6X;X;X6XsXiX@.k 2 m C C N q N m N q e M e D m H H S k / [ | F e m ' / ~ J 5 U ] | H ' [.} ] }  X X~ } } } } / ` ' ^ ~ ~ J _ %X#X#X} / H 1XyXiXpX5XzXpXpXiXx U 9X=XL./.e.B.e.(.(.(.B.d.=.& =.0.(.M.;.q.C.0.w.A.w.0.0.I.C.q.e.w.q.A.S.B.0.S.B.0.q.8.q.I./.^.(._._.`.).P.S.P.D.(.(.`.).D._._.(.`._.^._._._._.(.P./._.w././.w.w.w.D.(.(.D._./.(.(./.).E.w.^.(.(.w./.).).).E.E.V.Y.}.&X+X=X+XL.L.C.d.V.C.M.P.P.Z.j.R.M.B.F.F.W.G.D.M.M.A.6.4.d.M.d.g.d.j.V.F pXAXnXhX4X6X5XBX,X,X-X) ] [ H ] +. X+.] ] ] _ O.#X#X) x x c x ` ( I ^ b c c ` ` v W ^ +.H ` J v. X}.Y }. X XX.U }.[  XH U v x _ +.+.` +.n v vXNXBXVXNXfXpXMXHXpX$ + X + 2 e q s e r - X 4 1 O 1 1 s w e q C Z Z y.p y.y.v.L p ].x.y i u p r.y.= > q > N q w q q q q 5 = 4 1 - e S H S m K [ K S D K S C Z w v.F 5 e q Z m.b.p Z y.v.Z i y.x.u.t.u.u.2.y.c.y.5.x.t oX",
"# # h 6 + + # z P f.i 3 5 <.=.=.=., , > a t.s.t.;.;.d.C.C.B.N.>.>.M.V.C.N.M.Z.s =.M.7.4.2.f.Z.N.B.P.F.Z.Z c h h 7 w Z.F.N.B.C.1.r a 1.=.B.C.q.B.F.C.B.C.F.F.B.N.q.N.S.(.4.-.F.F.P.L.).(.V.J.u e I cXBXnXjXrX;X5X;X6XgXnX#Xx 8 5 N q q w 5 0 w q q e e M w e H ~ H ' H J J S J / +./ 4 0 H [ | / | [ } ] } +.%X X} ` ~ | ~ ` } ^ E ^ / ~ ] #X X X[.S ;XtXiX5XsXsX5X5XsX) }.eX=XD.0.B.D./.(./.D.0.q.u V.^.P.-.-.+XeXq.S.0.0.0.0.0.S.0.A.P.D.w./.S.D.).P.0.0.w.P.P._.(.(.P.D././.(.G.A.P./._.(.`.)./.(.(.^.(.(._._._._._._.(.(./.w.^.e././.w./.I.D.D./.P.(.(.(.I.P.G.D.(.(././.P.G.P.b.Y.C.T.j.R.E.V.C.L.d.f.s.d.U.0.F.4.d.g.U.B.C.W.N.Z.N.A.Z.Z.G.B.C.F.W.C.g.Y.c.g.m nXHXMXnX5X5XfXhXiXrXtX .] @.'  X+./ $X:X_ l ] _ %X$.o.Q  ./ W E ` ] I ] l c ^ _ v k 2 9 | F J [  XX. X#X[ [ ] U U c S [ (  X;X.._ ..{ ` n 2 yXNXMXVXmXhXgXfXvX5Xj h # X + 2 5 4 r u 5 @ 3 5 q 5 q w w w C L C Z x.Z p p.x.i.y.y.w q s i u u t 5 0 q C e e C w q q K m N N 4 5 D e H 4 M F U K J e e e e a w D e D L p.f.c.h.p y.y.v.v.u.u.y.p.u.b.5.f.p s p y.2.p L ",
"e v K 5 + @ @ S x.c.1.5 0 ;.;.;.q.B.C.M.R.Z.N.Z.6.6.M.B.F.Z.M.M.M.4.d.6.q.N.N.M.6.-.>.M.1.2.s.N.M.S.C.N.<.l x 9 y.j.B.N.B.d.4.1.e D g.d.B.F.Z.B.F.F.C.S.S.F.F.A.=.=.G.(.F.S.(.(.P.P.P.(.Z.C.P.Y.( gXBXfXsX5X4X6X4X;XgXhX+.# # m 4 5 w C 0 o 5 N w N e w q M K S S H H J 4 J ~ 9 J ~ 9 5 H ' 9 ~ [ [ ] ]  X+. X X X] ~ / c 9 J c c ` / } } %X$X X[ F @.>X6X;X5XpXsXzXvX^ '.=X`.(.0.f.S./.(.D.0.w.w.=.B./.D.I.0.=XeXP.L.`.(.P.L.D.(.(.D.P.w.D.w.D.P.D.0./.w.^./.D.D.(._.D.D.D.S.L.q.M.I./.(.(./.>.>.D.^._._._._.(._._._.(.(.).D.0.(.^./.P./.^.w.D.P.D./._./.A.`.P./.D./.(././.P.E.E.V.C.W.V.E.T.C.d.4.L.n.s.3.3.Z.D.M.d.4.C.V.Z.Z.C.Z.M.N.M.N.C.F.Z.W.P.C.V.V.R.c.i v NXNXBXsXsX5XnXnXrX6X>X.X.X.XX.] / #X#X.XX.+.] ( ^ c ^ O.#X XO.G .._ 2 ^ _ & l +.] +. Xv H ]  X] [ ] .XtX;X4X#X/ c k }..X$X XO.I # v k 7 z h sXBXnXnXVXzXfXzXpXrXQ h j j # h S N q w q 5 + 5 w q w w q w u Z C y.y.Z u y.u C y.u q r = p u B w 5 & > N M e e e q 4 D a q e C q 0 e S e m Y P P K D m D D D C ' J F L x.p.c.p.<.5.u.v.|.x.x.x.x.c.y.c.5.b.].5.y.u u p ",
"t.V.H.s.& @ # e 3.4.<.5 ; =.-.q.N.M.N.F.F.Z.M.-.-.B.M.M.N.C.C.M.q.-.4.>.q.B.M.Z.4.-.M.N.M.1.1.Z.C.S.N.B.j.F D <.d.B.F.N.B.k.V.4.f.f.N.M.C.N.L.W.A.S.S.F.D.A.N.N.-.-.F.D.B.C.D._.G.P.P.(.(.D.D.!.}.0XzXsX,X5X5X6X5X6XfXnX+.3 k S q q q N 5 o q N w N N e e M D M e D D S e 4 9 5 0 J 4 4 J G 2 3 / [ ' } [ } } ] }  X` ~ ~ +.~ G } ^ / $X$.%X<X.X} X.6XsX5XrX0XnXpX0XjX) F +X`./.D.V.N.w.D.(.w.0.D.B.0.w.A.).S.B.E.L.I.(.`.(.(.(.D.e.D.P.S.q.e.S.I./.e./.(././.I./.(.D.D.D.P.I.E.L.B.(.e./._.(.8.:.(.^.^._._._._._._._./.D./.D.^._._.(.P.(.^.w.w.G.P./.P.D.D./.D./.w.(.(.D.S.F.E.E.E.E.Z.R.E.L.C.Z.4.g.f.d.N.P.F.`.E.S.d.1.d.V.g.g.d.C.C.B.F.C.N.C.F.P.L.V.d.Y.m.-  .SXAXhXjXiXpXfXAX,X#X;X<XO..X+.X. .G ] [  XO.>X+. ._ c / ..` ^ ( ..c o 9 ] / v [ _  X:X[ v J .X` } [ jXjX%X>X%X( 5 k >X;X X[ ' ` k 6 # 6 @ G NXMXkXnXdXzXmXfXpXgX .j h x h W H N > = q q 5 q w q a a a w u a a i.Z i V a w w y.V r a w > y.i.C * w y.r.B w N w e e w C e e L C q 5 4 w C x.L Z L D U K K L H ' D C K x.L x.x.y.u.x.Z P P C F D y.x.x.p 5.b.a u t t t ",
"8.S.C.V.u.0 @ t ;.q.;.s =.;.M.N.3.-.S.B.q.B.M.q.A.;.;.q.N.S.M.6.-.d.q.B.7.>.M.d.-.M.q.-.d.M.4.M.C.F.C.F.G.M.Z.M.d.V.V.Z.M.s.V.W.B.N.;.d.C.B.F.W.G.F.S.A.P.D.S.N.S.A.A.A.-.b.s.D.P.).*X(.P.w.G.!.XX5XgXpXqXrX5X6X6X;XpXBX#Xh 6 D N q q q = 0 > w q q C M N M q e q e m e 4 0 1 4 4 9 5 5 H S 0 2 H U | } } [. X[.] ] ~ } / o._ / ` O.} ]  X<X%X X' _ 4XfXrXpX6XpXsXpXhX .m R.`./.w.D.A.0.F.(.D.w.D.A.>.B.I.(.(.G.I.P.P.A.(.S.S.P.).P.A.D.S.0.S.P.P.D.(.I.(.(.D.(.(.P.(./.D.I.L.D.e.q.D.I._._.I.0.0._.^.^._._._._._._.D.0.^._._._.(./.(.S.D./.0.w.0.C.).`.w.G.A.w./.D./.D.F.B.F.).W.E.U.Z.Y.Y.W.d.u.3.j.n.C.F.M.Z.C.J.F.M.8.K.d.V.4.g.V.F.G.P.N.N.W.C.M.C.E.d.Y.].0 +.HXAXnXfXrX5XfXBX,X#X>X%XO..X@.O.+.^ X. X#X..] X. X+._ O...^ ( ( c k ' v G } O.` G ~ ..( O...' G ( [ $X%.c ^ ~ ] [ [ }.X.O./ G / ^ h ` v 5 X.vXmXnXgXiXqXzXzXpXfXO.h 6 $ $ l H e = = > q q > q w w > Z a C u r C Y > a a q w u u u a w V x.x.x.p.t.y.i.Z q C q 5 e q N a K F M C a M Z Z x.A C x.D ' [ K A D s 2.y.P ' H H Y p.Z K v.[.C P H e a C Z Z y.p r q a t t ",
"8.8.C.B.F.g.0 i 1.t s.p 1.N.M.-.-.M.A.N.M.A.N.M.N.< :.B.N.N.B.-.-.;.8.N.6.>.6.q.N.N.>.-.4.d.g.M.q.N.F.W.F.S.B.d.M.L.d.=.M.d.Z.F.M.;.;.T.B.L.L.W.F.F.G.D.G.G.D.F.C.0.A.S.0.F.C.S.P.).).S.C.G.P.E.P >XfXgX5X5X;X5X3X;X5XkX.Xj 2 K C w q 5 0 q > N q q N e m M w e e e e D 0 - 5 4 5 5 0 0 S 4 D H U H F / ' }  X+.} ' H } ] +.+.} ^ ^ %.+.%X X%X X}.U 4XnXiX5X5XpXpXiXgX XD Y.)./.^.w.e.S.P.P./.w.A.w.e.).)._.).(.(.0.0.G./.0.w.D.S.B.C.S.0.W.C.S.(.0.D.(.P.D.D.(.P.S.S./.(.P.I.P.(.(.S.G.(.P.I.D./._._._._._._._._.).(.w.D.G.D.(.(.^.^.w.w.w.A.q.>.,.D.(.S.N.D.(./.w.(./.).).L.F.Z.V.d.U.V.C.C.g.p.g.3.s.V.j.3.g.g.d.B.F.P.L.d.V.g.V.U.F.A.P.N.4.=.1.g.s.Z.j.u.c.e  XNXNXBXsXsXfXfXmXfX4X3X#X XX.O./ ( O.O._ O._ @.` ~ #X_ +._ ( I c ^  X+.c ] I _ ] H k ~ G O.+.^ G  X[ [ #X+.( G +.X.}..X/ O.( @...9 6 z H v  XvXSXMXfXfXfXzXMXjXfX) $ # 6 I F F q = = r > > w w w C u u Z w u i x.].0 0 w w w w u w u u y.y.x.p.y.f.y.i.p.w w C q w N Z L C m M C x.P r a a a e i.C N K K D K Z c.x.U G F H F m.C Y  XP w 5 P D w C a C w r > i a s t ",
"d.-.B.F.L.Z.0 1 5 2 2 e =.M.F.L.E.7.B.F.F.q.G.4.-.;.s.>.;.;.4.4.>.-.;.M.q.N.N.q.A.0.>.M.q.8.C.N.M.N.C.F.A.S.S.F.F.C.q.N.N.N.N.B.;.:.=.V.F.S.S.F.G.G.D.G.G.G.W.F.F.S.S.P.A.0.S.F.P.).(.F.0.>.L.L.h.2XnXpXiXpX;X2X:X4XiXnX%Xn 2 M w q N - & w w B C r q q q e 4 4 5 e 4 4 e q 4 * 1 1 0 5 H J ' _ | U ' [ [ } [.[.}  X+.[ [.[ } }  X] [ ] +. X$X X[.' ;XNXsX4XzXnXpXrXnX#XU R.`.e./.(.^.D.w.P.G.(.P.D.I.(.(.P.)._./.w.S.A.P.e.w.D.S.q.q././.F.F.A.D.D.D.P.(.P.P.P.I.L.P./.(.(.(.P.(.(.P./././.G.`.!.(._._.^._.(./.0.0.(.^.^./.^.^.^.^./.D.w.I.>.0.(.0.w.D.F.0.w././.^././.`.P.N.Z.d.C.V.V.T.g.M.1., f.s.f.n.f.s.s.g.Z.E.).E.k.g.j.s.V.U.C.S.M.B.d.p.V f.1.g.f.t.x.Y X.BXAXhXsX,X4XdXvXvXpXrX.X X+.@.( / #XO.....] #Xz g G G ` ] ....^ ~ ..I k } _ ` O.( ] v ^ / k l ^ } } [  XO.+...+. X X X+.O.U  X[ c # k ^ x X.fXnXNXhXsXnXMX0X5XnXo.h n 2 +.( M q q > = q w > w q w a u C w u Z ].}.= > q w q q w u u B V i.i.y.i f.r.y.f.y.w C i.C C Z Z L D C C A u a t Z v.C x.y.Z a v.[ ' [ U [ [ J ~ / [ v.i.t | [ Z t w N N C a C N > t p p y.u ",
"Z.d.B.C.Z.s.0 X 2 H x Z s.M.q.M.C.N.F.A.G.F.< d < : : < =.-.-.-.q.N.;.M.N.N.C.M.7.q.A.N.q.d.d.F.B.C.N.-.-.A.S.F.F.C.M.M.C.M.N.>.q.A.>.:.8.A.D.G.A.D./.G.G.G.G.D.F.F.S.S.S.F.N.M.S.B.B.C.7.>.S.C.R.xXBXjX5X6X6X0X2X;X5XfX,X6 3 C N A V q e q q q q C M q q q 0 q e 5 5 0 m e 0 4 0 5 0 5 9 H ' / H ' [.[ [ ]  X[ ' } [ [ ] +.} } ]  X XU } }  X X} 4 :XnXjX6XfXaX6X5XjX%Xv.`.*Xw.e.>.e.(.^.^.(.(.P.(.).(.D.P.D.(.(./.I.D.D.D.w././.S.(./.(.(.D.D.(./.D.S.D.P./.P.P.I.A./.(.(./.e.P.D.P./.(./.D.).`.(._._._._._.-.:.q.w./.e.D.w./.w.(.).(.A.P.>.;.0.A.0.w.w.0.w././.(./.(.(.S.S.J.d.=.d.j.g.U.Z.1.j.<.f.f.u.1.s.j.g.B.F.F.Z.H.V.d.4.Z.V.V.C.N.M.=.R.OX2.3.1.j.c.v.S .XSXnXjXsXrX4XpXMXfXsXrX X_ ~ ] .XI ..O.] .XO.` H ( ^ G ' ` ..o. .v ( G ^ ^ c v ` ^ O. .]  X../ ` ^ ^ v #X] v } _ ' ' [ / '  XU '.X.# k W k ` zXnXpXfXzXmXsXhXhXBX@.$ x x .X[ w C D > w w w w > q C w C a w C u v.9Xq a q w w > q u u u u Z C C y.y.u.v.t y.C w i y.C V x.Z B C C C p x.m.a C C w e e a Z U S H ' ' ' H U X.X.' K <.D F Z y.e w D C a w Z w t u Z p p ",
"Z.Z.M.1.=.: 3 j 6 k K 3.-.>.M.C.M.N.S.A.N.< . ; =.:.:.: =.d.N.M.M.M.M.q.S.B.F.M.-.q.F.B.M.8.M.B.F.F.S.q.q.A.S.B.M.M.-.8.M.8.q.N.>.>.w.;.=.q.>.0.A.D.G.G.F.S.D.D.S.D.S.S.S.M.d.N.C.V.Z.F.>.B.P.F.H.9XBXpX0X5X4X7X6X;X5XnX>X8 3 C A A B q q q w w w C C N e q q e e e 4 4 e 5 0 2 0 4 5 S 9 9 | J | | [ ' +.[ [.} U [ ' / ]  X+.} H [ [ U F [ X.] G S 7XfXhX6XhXzX6X5XgX#XC *X)./.I.e.D.(.(.P.(./.)./.I.e.B.(.(.(.(.(.(.G.P.w.w.^.w.G./.I.G._.(./.D.w.D.e./.G.P.P.P.S.I.(.(.(.D./.S.P./.(./././.P.S.D.(._./._.A.8.!.L.0.D.w.0.0.G.e.(.e.D.w.0.L.!.B.q.A././.w.0./././.(.).G.q.E.J.B.F.B.f.3.U.g.s.f.f.u.f.1.<.1.1.M.k.j.d.k.T.c.3.s.V.j.U.T.N.6.N.N.U.c.1.2.s.b.U @ ;XSXnXjXfXsX6XhXMXsX,XtX XX.+.] ] X.] ....+. ...G c ^ v ` W c c k ] ( c l c v v _ +.' ( G ` ] [ +._ G G %X<X/ / +.' Y oX^ Y Y F U .XX.D G k v dXMXVXMXcXsXvX7X5XNX$.X # k [ U M F w w w w C u u u C u w Z a w a Z XXC C u w q w w a u p r.y.B w i.2.Z M B r 5 w C Z B Z p w w C D e N w x.y.A P C w q w a e m D H | H _ ' [ ] I M x.[ K C D q s D a w u u a p p a t p ",
"Z.M.d.=.:.: 1 E _ 7 r -.-.;.8.Z.B.q.N.B.< . =.k.g.;.-.-.-.;.4.-.-.>.S.N.N.S.A.B.N.S.A.B.B.B.N.N.N.S.6.M.B.N.F.C.Z.M.M.N.N.q.N.S.w.0.w.D.S.D.N.0.,.A.S.P.G.N.>.D.G.G.S.A.D.Z.M.A.F.C.M.M.q.q.D.S.J.eXnXdX6X4X;X8X:X;X5XfX#X# k K B C N q q q > w N w w e q A A C D e e J S 0 - 2 5 9 ~ J | J J 4 / [ } } ] [.| } [ ' ] ' ]  X} ' | H H ' U [ [ ' 4 I zXnXpX6XaX5X3X5XpX#Xx.*X_._./.(.^.(.(.D.G.P.P.D.E.I.S.D.(.(./.D.D.P.P.G.^.e.S.D./.`.P.(.(.G.P.D.(./.(.e.G.D./.S.S.(.(./.D.S.0.w././.(.(.^.(.D.P.D.(./.^.P.(.(.(.P.0.D./.(./._.(.^./.w.A.R.eXeXN.G.w.w.e.D.^././._.).S.D.E.E.B.D.C.4.L.V.g.V.u.u.2.u.t.1.<.1.d.s.4.f.j.j.j.s.4.Z.V.U.C.-.N.-.>.F.U.s.<.u.].Y @ 6XHXBXvX5X6X5XnXBXiXjX>X+. X#X..@.O.+.O.( _ W x 9 k ^ ( ( I k c G [ ..O.F G v l _ ..I G I J X.}.} _ ' _ %X<X^ / ] _ ~ U H }. XF U }.$Xv _ G ' yXhXMXNXMXvXzXgXpXMX#XX W c J H D M e w w u a C > u C C > i Z B N r |.x.; u w q w w a u i u.u u c.c.i C C C C C M w w e C N e a w e e e w a 5.v.[ L u a u C C P K ' ' ~ } ' ' [ I C Y ' ' S H M q a Z w B V r > a r t u ",
"M.-.R.@XOX: =.1 6 C : =.=.;.8.M.:.=.M.8.=.d.d.=.=.;.8.N.6.;.-.M.M.>.0.N.B.N.>.0.A.S.A.S.F.V.-.B.F.F.;.q.M.q.-.;.s.C.B.N.q.B.L.F.S.S.0.A.G.G.N.G.>.>.0.A.S.A.-.;.B.F.S.F.P.W.G.w.F.S.M.0.S.q.B.A.!.0XvXyX5X5X5X4X2X;X6XnX#XX h J C w B N q w > w w q q q N N D K D m S 4 4 9 4 5 4 l W c S | G S ' } ] ' } } ~ ' | ' ' ' ' ' ] ' ~ G ' ' / / ' U & U cXjXyX6XfX5X;X4XgX$XR.).)._./.(.(.(._.^.w.P.`.E.P.(.(.D.(.(.(.P.P.P.w./.D.D./.P.I.P.P.(.w.G.P.D.D.D./.^./.w.0.e.D././././.D.P.*X_.w./._.D.(./.(.0.q.A./.P./.^./.D.w.w./.(././.G.P.S.w.>.u.oX+XN.D.D.G.(./.(./.(._./.P.P.E.L.C.Z.T.S.P.S.C.c.1.<.y <.t.1.<.1.d.s.s.s.d.Y.j.s.d.V.C.Z.d.F.B.>.M.W.j.<.2.p.m.}.3 6XNXfXnXpXsX6XvXfXyXMX;X X X_ #X:X+.O._ J G c k G ^ c ( / v I _ ^ O.H ' [ Y ( ..G ] ..[ X.X.[ ] ^ k ` ^ ` ` G _ ] v g [ v. X..Y K '.] b k 2  X6XfXVXnXzXvXzXyXpXpX5X@ ^ ( @ @ 0 5 q > C Z p C Z x.a a u y.C N N * oXY * > w w u C Z Z Z t w p.p.Z i s a A x.i.K C C e C Y q q w D q w w C D v.L v.Z p a p y.D e a }.U / / | / [ '.K U [ H D 4 e w A C Z 2.p ; t p a p ",
"=.=.=.OX@X=.;.* o : , : :.:.4.;.:.=.;.;.d.>.;.;.;.-.-.-.>.-.-.>.q.0.0.B.L.B.A.A.N.B.C.N.-.8.;.4.F.C.B.M.4.>.;.8.d.Z.N.S.q.M.q.q.B.F.B.L.S.N.B.q.q.0.A.A.C.7.:.: =.B.N.F.F.G.S.A.F.L.M.N.F.L.M.G.!.8XpX7X5X6X$X2X6X;X;XjX$X@ + J K q N w q > w w w e q w M e N Y D 4 m m D D F S 4 2 5 4 ' ' 3 J _ ] ] ] [ U [ [ ' U J | U H | J | S ' [ ' [ [ H 1 X.cXhXzX8XsX5X4X;XpX#Xm.*XG._._.(./._.^./.w.).+X)././.D.w.(._._.E.e.P.(./././._.e.!.P.S.P.S.G./././.(./././.A.w.0.0.w./.(.(.(./.)._././.(.D.P.w.(.P.L.B././.G./.e.^.w.D.w.D./.^.G.G.0.0.>.E.=XH.0.A.w.A.D./././.(.(.(.G.N.E.P.F.V.V.C.B.C.U.s.g., > 2.f.<.u p j.g.s.d.j.Y.V.d.d.j.t.d.g.C.C.V.M.C.V.d.y.m.b.[ I 7XMXfXjXpX;X;XjXjX3XaX>X$XX.X.X...O.+.] ] +.I ^ c I ( ..k v G _ ( ^ Y U H  X^ ^ J ^  X] X.' O.] ( x c l G k / O.>XrXY  X}..XU ' H '.I k 3 I  XsXfXNXzXhXpXdXaXpXMXrX# E 6 % . o 3 4 a C Z u w L v.Z u Z Z w u C = '.[ * q w C Z B u ; u u i u.p > Z w y.T K Y K M w q e C L V K D q M a C w p L K A y.a Z a > i t D ' H U ' [ '.' [  X' F F 5 q w Z w a u p 1.i p i p ",
"=.=.-.:.:.-.: =.: ;., * :.;.-.;.;.;.-.Z.Z.-.;.=.:.:.8.;.-.-.:.;.q.>.-.-.M.C.F.P.F.A.7.-.N.1.=.=.d.N.M.;.=.;.-.N.F.N.B.N.B.M.;.4.N.F.B.S.Z.B.S.B.M.q.G.G.W.-.:.;.>.G.S.B.A.S.F.N.F.B.N.V.J.I.W.N.b.8X8X5XpX5X2X8XpX;X;XiX$X# x ^ N N B N q q N N q q q w w N M M D 4 e F J S H F 4 5 S D [ '.0 9 ' [ | J ' ' ' ] ] | [ ' ' H H S 4 F [ | ' ] } U ' } 6XkXBXdXmX4X5X7X0X$X..+X/._._.(.(.(.(.G.w./.E.E.w.e.D./.(.).(.P.(.(.(.^./.(.(./.e./.S.P.0.N.(.(.(._.^././.w.G.w.0.0.S./._.(.w.D.(._._.(.e./.(././.D.P.^./.D./.e.e.e.w.^.w.D./.w.D.P.D.>.D./.0.0.w.D.D.D.(./.(././.(.F.N.C.C.g.g.d.s.V.Y.R.d.J.d.<.f.j.f.f.c.d.s.f.f.V.Z.J.V.d.s.t g.g.g.d.4.3.N.8.M.c.OX].XX[ pXNXmXfXiX5X6XhXgX7X7X+. X.X.X] O.X.G v ( ] ] ( ^ ( O.o.c ` +.o.) ` K U v ^ [ J '.S 2 _ ` +.( G / / I ^ U G c ` O.%X' H H [ H U | }.[ 1 6 #X] mXfXnXnXnXbXhXgXrXjX-X# h k XX Xb ( .. XM M w w B B L C a C w a u = C P r w > w w Z A p y , w u w N L L v.L Y K M N w - a P P C K H D M a s a a K e w a y.x.Z y.y.p.Z F ' [ ]  XX.[  X[ ' H D e w a w r w w , 2.y.Z > y ",
": ;.-.;.-.-.;.-.s.;.=.; =.>.-.3.;.M.-.-.-.-.-.;.8.-.s.M.q.-.8.-.q.M.-.-.-.F.P.F.F.6.N.>.;.& 5 i ; =.M.-.d.L.N.-.=.3.d.M.Z.M.d.1.d.S.S.A.q.B.F.Z.N.B.A.Z.4.;.>.A.A.D.G.N.F.F.L.A.-.-.B.-.Z.F.s.y.K 0XcXpX5X6X5X7X8X1X4XfX#X# x 6 5 N B N q w w q B C w q N C D K F e 4 M J e H ~ J S S J ~ H H e | | G U ] ' / ' H ' [ [.U Y F H K K H K [ ' ] ' / / 1XnXrXhXyX2X;X3X7X>X^ @X_._.^././._._._./.w.A.G.D.w.A.(./.(./.D.(.(.P./.^.(.(./.w.(.).(.e.0./.e./.^.^.^.D.D.w.A.>.>.0.e.^.D.0.D.(.^.(.(.(.(./.^.(.(.(././.D./.^.^./.^.^.D.A.^./.(././.w.w.>.S.D.D././.G.P.^.(.P.P.P.F.C.M.M.d.g.Z.Z.U.C.C.Z.j.M.C.d.j.Z.C.V.j.j.k.j.j.V.V.V.d.d.V.V.V.d.4.-.=.4.M.M.c.n.].&Xv 4XHXnXBXsX6XrXnXjXsXyXX. X#X......@./ I ] / O.$. .#X@.( ( ..@..._ ( F H ^ ..U v.oX}.S 9 ` ^ _ ( ] ' / I g X.k g l 4 M '.[ F Y M F Y oX}.3 ( z :XnXfXnXfXmXsX6XpXzX#X# c G XX2X2X-X( .X:XF w N r r Z C w D q q q > C v.> w w t w Z u V V u a w a '.v.C K D K K C C q 5 a Z P F K F M q a D D s D F D D w a a a x.y.P D U } } X.[ [ [ U C U K m e w > y u a h.1.2.t D C ",
";.;.=.Z.d.>.F.M.;.;.;.=.=.-.-.M.N.q.M.q.-.-.q.M.d.R.Z.B.N.-.-.d.-.d.;.: < M.F.L.C.d.;.=.=.; & & q <.=.N.B.A.N.>.;.-.;.8.M.B.q.d.d.Z.B.S.S.B.q.Z.d.Z.-.N.>.A.>.0.G.G.S.S.S.D.G.M.;.;.8.Z.F.Z.1.* n 6XfXpX5X5XzX;X7X4X4XaX.X$ # 3 4 N w w w C N N N C w q N C M K [ S S S S F F G 4 J 4 J J | / J J H J ] ] ] ~ / ' [ | U U H D U ' F '  X[ ' ' ' / G 4XnXpX7X5X2X:X5XpX,Xv ' L._._././._._._.).0.E.).D.w.w./.(.D.(.(.D././.(.P.(.P.G.0.G./.w.D.D.(.D.^.^.^.e.0.0.0.-.;.w.w.(./.D.w./.(._./././././.(.(.^./././.D.D.^.^./.^.^./.^./././.w./.^./.w.D././.w.^./.A.D./.P.P.F.F.Z.C.M.M.V.V.V.V.V.{.C.V.V.L.Z.B.S.L.C.V.H.Y.Y.Y.V.V.V.V.Z.E.U.g.F.C.s.4.3.d.M.g.g.@XoX^ aXHXkXvXsXrXrXfXhXrX6XX.#X XX..XX.+.] .X] .XO.%.#X:X#X#X X+.@._ ( S ( c ^ ..Y v.[ }.v.F J ^ ` [ ] ] / ( g ] ..J [ ' '.v.|.'.'.v.Y Y X..XoX( @ .XfXpXfXbXfXyXbXfXNX,Xj x ( }.1XXX_ h +.#XF w w p y.B u u a e = q q u '.5 w w w w u C Z p.u q w w P Y C m D D C w C e w a a K N D K C p a M e e e H M e m e r M C w 4 s ' +.[ U U H U U w D D D q q a p.t a 1.<.i u H D ",
"8.;.: =.4.-.M.T.8.;.=.s.-.-.-.-.-.N.>.>.q.>.-.-.Z.M.N.N.M.-.-.-.-.;.:.=.=., V.Z.=.=.8.-.< d , : > |.A d.N.>.>.N.M.M.0.B.N.N.N.N.-.-.B.N.B.M.=.M.M.-.0.A.w.D.S.B.D.A.B.S.A.G.N.3., d.-.8.U.M.=.o n 2X5XpX6X5XpX8X0X2X4XpX X$ # k m N N q q N w > w w M q w e 5 M K e S | l 4 S J 0 l J H H H H D S | | J [ ' ] } [ H U K H l e F / F [ } ' [ ' ' J D 7XBXrXaX6X0X0X4X6X6Xz + r._._._.P.^._._.(.(.`.G.D.e./.(.^././.(.(.(.D.0.D.(.P.0.>.I.`.w.w.w.e.D.D.^.^.w.0.A.>.-.;.B.S.w.w.(.^.w.D._.(.D.A./.D.(.(././.0.-.0.D.e.^.(./.(.(.(./.w.^././.^.(././.e.(.D.D.A.D.G./.(.P.G.B.B.C.V.g.s.C.C.V.V.C.E.E.j.C.J.M.L.W.Z.Y.k.R.g.V.V.J.K.C.V.V.3.4.E.B.d.B.C.T.V.U.h.OX'._ 7XNXvXfXrX,XrXvXnXyXXX[  XX.' } .X.X] X.] _  .O...+.+.$.o.O.X.] X.U ` I v ] X.U [ U v.'.J J 5 / ( ' ( ^ I / X.[ _ G ' }.'.H }.'.' ' Y  XX.H c #XfXdXBXaXaXbXzXdXBX@.x c .. X] v h $ 3 c 0 q w Z C N u w w q 5 0 e w '.m q w w w w w Z Z u w q w C P C C D P C N N e C C D M D D m D C e e w e 5 H K D D Y K e e e e D H H m F H U J e t P D N 5 e q w w C p <.i a Y S ",
"-.;.=.: 1.=.-.N.M.3.r 2.4.-.;.;.-.6.>.M.M.s.;.M.Z.M.6.-.-.>.-.;.>.-.;.-.;., : : =.-.=.;.8.=.8.8.: OXH , -.N.A.S.B.N.N.N.M.N.A.F.-.d.B.M.0.A.1.8.-.=.w.>.B.G.P.F.A.A.F.F.S.S.>.=.d.=.N.-.3.-.-.* 6 ;X7XfXqX5X3X8X6X1X2X5X#Xh 6 6 5 q N B B B > w w w w w w e m H e q e J J e m S 4 5 4 S H U K D F | ' [ [ H ' ] ~ K D H M F P / / ' ' [ } } [ ] ' H aXhX5XzX2X8XmX1X8XtXj # q D.^.(.L.^.(.(.^.(.).w./././.^.^.(./.D./.(.P.e.w.(.(.N.-.S.+X0.w.w.w.^.^.^.w.D.w.,.>.;.-.q.w.(.P.w.D._.(.^._./.D./._.(.^.(.B.-.V.V.q./.^././.D./././.w.D.w././.^././.(.(.D.A.A./.D.G./.(.G.B.W.N.Z.V.j.C.L.C.L.L.W.c.u.s.d.-.L.<.=.j.j.j., : g.Y.T.V.V.Z.S.).P.F.C.C.C.C.V.U.j.c.'...7XHXhXsX6X;X7XsXnXiX:X X/  X XX..X] / ..] +..X+.+.+.#X#X_ _ ] O.O.[ / X.....( ' [ U '.v.L v.v.U D H O.( / } [ [ [ [ '.[.' K '.Y G U U [ ] ' ( .XzXMXmXfXzXsX5XpXAX$.x G  X] 6 x j l ' Z q 4 M P w a a q w 0 0 = 5 q oXD w w w w u Z C C w w w C w C C C M N D e w N P M e M m D D K P e e w q 5 e m H P C e 4 q r Z K ( I J J S ' H p a U e e e 4 M C w C a u.u.p '.K ",
"M.-.d.=.=.M.q.M.>.<.h @ 0 , 1.;.-.-.q.M.q.M.>.-.-.;.-.;.;.4.q.>.>.;.>.M.>.-.=.;.=.: : ;.B.G.S.Z.k.~.i.t.Z.G.A.S.A.0.-.N.M.M.N.q.M.q.C.A.D.W.q.M.0., d.N.S.P.P.G.A.G.F.F.N.A.6.4.B.-.N.6.-.-.:.o 3 1X6X5X5XgX6XpX;X:X6X4X1Xc 6 # m C N B N B > > > > > = = > q K e 5 1 & 5 5 4 9 5 5 5 4 H H D F H F ' ' [ U H ' ` [ U K K K F / ' H ' ' ' ' [ ] [ ' ;XsXaXpXyX$XzX6XfXsX! @ @ <.S./.w./.(.(.(.w.e.e./.D.0.^.(./.(.^.D.^._.(.P.G.P.0.8.q.!.L.w.w.w.w.w.,.,.D.w.,.>.-.-.0.D./.(.P.e.(.(.(.(./.D.(./.D.e.A.=.d.J.E.V.B._._.^.w././.w.^./.^././.w././././.D.A.D./.D.A./.P.(.F.T.F.M.g.V.Z.F.E.L.j.Z.3.=.d.V.L.E.d.d.Y.j.s.V.H.d.d.d.d.Z.C.P.E.C.F.L.E.R.>.V.V.g.c.'.` 7XSXBXyX6X5XtXkXnX6X3X X}.O.$X' H +.( ^ ..+.` ^ _ O.O.%XO.` ^ ^ #XX.} ....O.( c / U U D m.|.}.U K ' O.#X`  X+.X.[ }.'.'.v.}.[ U F '.'.[ X.[ X.bXhXfXfXMXdX5X7XpXBX-Xj j ` ( x + 2 L C x.a e w C q q w C q = s q = = '.U q N w a p V w a w w u w N C M N N M e e D e e K D D D M K Y a w M 5 e 4 e ' | D m 5 5 w p a Y } J 4 e S K ' P ' S D q e q e w a ; t u.5.2.5.x.",
"d.d.-.;.g.d.8.-.-.s.4 # 1 5 1.;.>.-.>.N.>.N.S.M.M.-.;.-.4.d.M.=.;.N.>.-.;.-.;.:.< =.=.-.q.N.N.M.s.n.j.C.M.N.S.B.M.-.;.-.S.A.N.N.B.B.N.F.A.A.N.N.>.: , 0.N.C.>.M.F.S.F.B.B.-.>.6.N.B.d.M.M.4.; & i.eXpX5X7XpXpX0XpX;X1X2X:X^ # @ m A V B B B > > > = > = * = 5 q M 5 0 0 - 5 5 4 0 0 3 4 S J D H H S F U [ U ' ] ] | '.Y P U H F J H ' | ] [ [ } ] / 6X5XaXfXpX-XaX5X6X6X` 6 # 1 > S.^.S./.^.D.).G.^.w.q.0.D._._._.(.I./.(.(.(./.D.D.0.q.P.D.w.w.w.w.w.,.,.0.w.w.w.0.0.w.D./.(././.I.(._._./.I.W.0.V.k.8.J.E.M.F.j.y.8.0.S./.G./.(./././.(.^.w./.^././.G.G.D.(.(.G./.).P.F.E.*XB.j.j.Z.C.W.M.R.T.B.d.g.g.B.J.J.V.V.V.j.S.E.T.d.V.V.V.C.).F.W.E.E.E.+XL.F.M.Y.OX'._ aXnXnXsXpX;XrXMXMX:X;X.XAX,X[ '.X.+.X. X..+.I ] ^ } _ +.O.k ^ +.+.( _ O...c XX X[ ' S Y Y | H Y Y J l v ' X.' X.( [ }.'.'. XX.Y Y '.[ I ( / I $XsXfXfXyX5XxXfX7XnXgXW # k '.I 2 S D C C M e D q q q w a q = q ; = * Y Y ; r q u B u p p u C C K N C N v.oX0 * 0 = = m 5 e U K K D M w u D e w 5 e F H D J 5 5 q w r S 4 ' K L 4 e ' F H 4 D 4 r e w C a 5.2.2.y p y y ",
"s.d.>.M.d.g.-.;.=.t.Y 2 5 p ;.-.q.-.8.q.-.-.F.G.>.-.M.t.3.4.=.=., =.;.:.=.;.>.-.-.8.-.q.0.Z.M.d.3.=.d.N.>.-.V.d.-.d.8.;.q.q.N.A.N.q.M.B.A.N.B.M.>.>.0.G.S.B.N.A.A.G.B.q.B.N.N.N.q.M.d.d.M.-.; t Z.9XzX7X5X7X0X0X8X2X2X2X.XW # 3 C A V V B A N > > > q = = 5 = - = q 5 4 1 0 0 5 5 5 7 9 4 l J S J 9 S J F H D ' [ K Y | S D F U F ' ' ' ~ | ' .XO.G ;XhXyXyXVXaXzXcX0X>X..x $ # o y.(.S.(._.(.(././.w.>.0.;./._./.0.D.(.^.(.(.(.A.;.N.L.S.A./.D.w.w.,.w.w.w.w.w.w.0.0.(.D.^./.w.w./.(._./.G.P.P.M.p.L p.E.P.L.F.B.Z V =.M.B.-.>./.^._././.(.0.w.^.(.D.w./.G./.w.D.).S.B.B.E.+X).J.d.Z.E.V.M.T.R.K.t.d.d.Z.Z.V.V.V.g.s.E.P.M.d.C.V.d.M.).).C.W.F.C.V.V.C.d.b.'.] ..VXfXhXiXfX5X4XhXBXrX$X} %X X'  X X X.XX.I ..I .X<X` ] ] ] ' G ( ` _ @.+.O.G [ '.'.[ I m 4 m U F }.Y I l I ' / I O.[ ' ] ' [ '.Y ' U / I [ X.~  X5XvXaXdXgXaXbXpXxXPX.Xh F c.x.D D ' ' F M D e 5 = e q e q 5 r 2.= - v.oX> u ; u V a u y.L C N e e C w '.&X* w e L &X0XR * a K K K w D C M K w 5 D I F a e e 4 S w a 5 S F D F U C ' l 0 4 S e e a C a p x.i 2.2., w a ",
";.8.M.>.;.4.-.d.-.u.' k 1 r -.>.M.M.V.s.;.;.: ;.V.-.-.<., =.=., =.;.-.B.0.-.q.q.3.4.M.q.M.q.-.;.;.-.Z.N.>.J.U.-.M.q.N.-.;.C.M.N.S.A.A.S.S.N.C.>.0.`.S.S.D.A.S.W.C.A.S.F.S.G.F.N.B.-.d.Z.N.d.M.q.K.wXaXpX5X7XgXaX7X2X8X8X+.6 # k C B B B > B B > > > = 0 = * - - - - 5 e 5 & 0 5 0 - 5 e 4 S S S J H S S F F S S H U H H ' U F ' H D ' '.U U [ X.O.] ;XhXjX6XMXmX8XxXnX4X( 3 3 8 @ 0 P._.(.(.^.w.^.^.w.w.q.8.Z._./.w.G.(.(.(._./.-.;.-.-.;.>.w.w.w.w.,.,.,.w.w.w.w.D.0.S.D.w.P.!.w.(.)./.(././.0.K.p.C 0 ; s.V.A.S.K.n.x., :.9.d.P._.(.D.w.>.w.q.A._.^.^./.(.G.w.A./.G.F.C.M.U.T.L.V.V.g.=.C.s.H.n.k.S.E.j.d.d.V.Y.U.g.C.P.L.T.V.U.=.s.Z.V.F.F.B.N.L.B.N.+XXX .# k zXcXMXsXsXpXqXsXnXrX+.^ [ .XX.X... XO.G +.+..X#X%.O.%..X+.O.v c ^ O.+...] / U }.[ oX[ S U D J J Y [ l J c / / ( X.] ( U I [ [ U ] ' ' / / ' ] .X6XzXzX5XrXfX7X5XMXGX-Xx F Z Z a K U H S H F e 5 q U = q e e e 5 = * D '.u c.m.u Z Z r.Z w w e * o & 0 5 L r.u 5 L Y 8X0X}.r D K '.M '.'.D D e e F H D u e s w w w a e H F ' [ [ Y K s r 0 e N M C w e Z y.2.5.2.; e b.",
"M.d.M.M.;.=.;.4.3.p 4 F 3 & , -.N.q.M.;.=.4.=.=.<.-.-.8.<.4.M.i r.B.N.S.A.N.S.>.;.;.;.-.=.=.;.:.;.d.N.N.>.d.s.-.;.;.q.M.N.S.C.N.N.A.F.N.F.F.A.>.N.*XC.A.F.S.q.F.F.>.N.D.G.A.A.C.N.Z.g.M.A.C.F.G.E.9X7X5X5XfXaX7XpX;X8X1X.XW j 6 N A w N B > w q q = = = > = - = 5 5 - - 5 - 1 1 S 4 5 4 4 e 4 m D D J J e e S U H F D ' } | H / / H H ' ] ' [  X] H 5XsXaX6X5XGX8XcXgXsX/ 1 # 6 6 3 , /.^.w.(.^.^.^.w.0.8.V.;.D.(.P.e././._.q.-.w.P.A.0.0.0.0.w.0.,.,.,.0.,.,.`.P.w.w.0.w./.0.W.D.e.)._.(.(.w.q.~.OXn.|.M N j.B.-.E.F.k.OXOX!.+XC.w./.P./.w.P.q.;.D.(.(.(.(.(.(.P./.).F.-.d.s.d.k.d.U.1.=.U., <.f.j.k.j.f.s.g.j.j.Y.H.V.U.j.V.V.Z.V.d.d.M.C.N.C.C.C.C.F.R.X.x . c fXNXjX5X4X7XfXgXBXrX.XG  X XX..._ c ^ ` _ +..X.XO.` _ .X+.} c G ` G / ] +.+.[ oX/ [ }. X[ l k / [ J H G ( X.J I ] ] J v / ( U U U / [ / / ] [ .X6XfXxXaXyXdX7X7XVXHX<Xv L L C K [ F F e 5 e m 0 4 S r w w q * 4 e 5 0 q N <.p w C p y.p > q o & * o . & a i.L u L L |.9XXXq * U ' K [ U D F D e e F a u t e C ; * S a ' L [.[ x.' Z c.2.e e s D i.Z I Z f.1.1.y * x.v.",
"4.>.8.Z.8.4.4.3.=.=.Z b.a q w =.>.-.-.-.=.s.k.3.t.Z.-.N.=.<.1.t.8.B.M.q.0.0.B.N.N.N.M.;.;.M.0.N.>.q.C.M.=.-.M.M.q.N.M.>.N.B.B.S.B.q.q.0.N.A.A.0.E.C.B.S.S.N.0.F.W.G.A.S.P.A.A.A.N.N.Z.Z.q.Z.C.F.K.9XzX4X4X0X7X5X6X1X2X1X:Xo.6 2 N w q B Z B B N q > = = = > 5 0 0 0 & - 4 0 0 2 4 5 0 5 5 5 S m D S m e N D D P F H | / ' ] H K D H H U H F / ] ] H 2XsXgX7XnXMXMXaXpX4X^ e & + $ 1 & B.(.e._.(./.D.0.A.8.K.8.;.(./././.w.;.; t D./.P.F.D.0.>.0.w.0.0.>.>.>.N.W.D.w././.).D.w.w.D./._.(./.w.`.eXY.@X@XoX X[ 4 5 L eX!.p.n.eX`.+XR.>.A./.^./.S.E.P.w.0.D.(._.(././.(.G.N.-.M.M.d.k.k.V.J.s.r.Y.V.s.s.d.s.f.f.f.h.j.j.j.k.C.E.J.L.B.T.Z.M.6.M.8.C.P.N.A.H.Q.'.# 6 :XVXNXzXfX6X;XgXfXBXrX[ [ O.] G v 3 I ` ^ c ] ( X..X( ] ..o.O.O.v / [ U U O._ .X.X+.[  X.X#X X( g J v U ' ^ ^ / ' ( / ( I c G U [ _ I ( U H H ]  X7XdXzX0X5XpXfXpXVXGX;XI P Z b.v.[ S H S 4 m e 4 5 * = e q u q 5 5 e q w w p p q e w a r.w ; * t x.Z Z Z C g J L C L L v.wXY C D P U U H D m H M e m a a > * r b.i.a y.'. X[ Y [.[ C P i.t a q w w Z m.x.1.1.u.1.u.|.w ",
"3.-.>.Z.M.>.-.M.-.s.s.j.u.e w =.-.1.4.-.=.3.1.;.;.Z.F.0.B.3.1.Z.-.q.0.N.N.,.A.D.A.0.A.N.>.M.L.B.q.N.M.Z.;.M.M.B.L.M.4.4.N.S.A.S.N.0.A.S.B.N.q.M.B.S.B.P.S.N.N.F.N.N.B.B.N.G.G.G.S.B.F.Z.d.;.C.Z.t.0XCXyX6XaX6X8X6X:X4X$X.X+.# 4 C a C u B N N w N q 5 = * q e - & 0 5 0 5 0 0 5 4 g & & & 5 l 4 m e D M P K F 2 M K K H H / / U K K U ' / U H ] } U 0X6X7XaXVXfXnXvXgX,X) C f.0 # + r P.(.G./.(./.w.B.B.P.w.I.K./.0.>.D.A.:.8.B , =.P./.D.w.A.q.w.w.w.,.>.>.=.0.0.D.^.(./.D./.(.w./.(.(./.E.).E.N.h.oX'.c | [.X.4 Z x.v.b.C.G.E.R./.D.^././.D.D.^.^.>.>.0.D.S.A.G.G.G.S.N.C.N.M.d.j.s.3.V.R.J.J.k.=.f.j.s.j.j.j.j.j.k.V.V.V.Z.F.N., =.3.: =.-.Z.V.C.P.OXoX2 # x :XSXBXaXrX4X4XpXsXhXkX.X] / [ H F U H ^ I / ` #XO.O.) $.] ` ) / ( ^ ( / ] ..O.} [ ' [ ] _ :X[ H F ' K K H / S / / ( [ / G G I U [ ` / ^ / G [  X.X6XyX7XmXfXfX7X7XVXHX,Xh J C b.C 5 C K U F 4 S D = = q q w C C e K q B C e p p.> * ; p x.p u C 9 k v.u.b.v.@ k A p p w C |.].e * s '.U K [ S U L C e w g H D D P v.b.p C P C Y ' '.a ; K y.t D e K w u.u.y i <.<.c.].u.",
"8.d.M.M.;.-.-.8.4.;.d.d.j.x.5 p <.w 3.;.;.q.;.;.-.s.Z.*Xn.=.C.E.>.M.A.N.0.,.S.B.D.S.0.0.A.B.B.M.>.F.M.q.M.M.-.-.B.Z.d.=.8.A.I.W.q.q.M.E.0.q.N.M.S.F.F.A.S.G.S.A.N.B.S.S.>.A.G.G.S.F.W.q.F.M.3.V.s.9XfXpXaX4X8XaX2X-X;X;X:X+.3 4 A C A A B w w N N q q 5 0 0 e 4 4 5 e 0 * & 0 5 4 4 0 0 5 4 5 5 5 4 5 M K D 1 0 e D F F U D D U | U U ' H ' [ [ ] #.aXpX0XxXbXgXnXNXMX,X` w k.M.2 + i (././.e./.^.^.w.A.(.D.A.P.D.G.0.q.-.t.t.z.i = =./.^.,.0.q.>.w.^.w.,.Z.;.0.w.w.w.D.D.^.e._.(.D.0./.w.e.w.0.G.J.n.R.v.q A |.[ M |.E.m.i q.E.Y.D./.D.^././.w.w.^.D.w.(.S.F.S.F.F.-.;.d.d.=.3.4.;.d.q.Z.M.C.d.f.d.s.n.j.j.n.h.V.V.Y.Y.d.8.d.j.V.J.Z.=.g.4.4.d.f.j.T.p.'.# k ( :XSXnXrX;X;X6XpXfXnXiXO.[ } }. XoXXXU G ....X.O.]  XO._ / H ( ] X.] O.] ' ` +...}  X[ c .. XX.5 H Y Y U J / U H G g ] / ' X.[ [ ] / _ ^ l / / %X+.:XaXxXxXzX5X6X5XcXVX:Xc U Z 2.i.e a L H K F e D e q w w w q q Z x.u w C C Z y.a e q p A * & # # h z Z b.|.3 U Y i p a Z y y.x.u * 5 U [ ' D D a C M m F L y.F ' [ ' y.p.Z L [ P M w p ' C t i.u a a 2.2.u y y i 2.c.c.",
"M.4.3.;.;.;.q.-.;.-.>.4.s.f.C e C <.q.M.M.>.q.4.Z.V.-.d.f.s.Z.C.;.d.0.A.N.N.A.A.S.G.S.q.0.0.B.F.N.M.N.S.N.-.;.M.8.Z.4.: ;.A.N.B.B.N.0.F.F.N.B.N.B.S.G.q.3.q.6.M.A.0.A.7.>.D.A.q.F.D.W.A.S.G.d.u.z.9X5XrX5X5X5X0X6X2X2X:X8XO.3 5 Z C Z Z C w > = q q q q q 0 0 5 3 5 5 0 0 0 1 5 0 5 4 5 4 5 5 4 M e e s M / S K F m S F H U U F K | | [ U ' ' ] ] ( xXdXyXaXpXcXnXfXBX6Xc e , A.d.@ r.(.w.(.^.^._.^.e.w.D.I.L.B.P.0.D.B.B.K.OXOXY.@Xa.S./.0.>.0.w.^.^.^.w.>.,.w.w.w.w.w.P.(.D.(./.0.w.^.G.D.w.(.0.-.(.(.E.j.k.Y.c.|.].b.m.L n.C.q.D./.D.^./.w.D./.^././.^.(.G.D.G.A.F.E.B.k.y.<.4.B.P.L.M.>.F.M.: j.j.g.f.k.j.j.k.V.H.V.P.W.8.8.V.V.Z.3.4.Z.6.4.g.M.T.m.7 3 +.` #XHXfXpXzX5X2X6XkXnXnX..' Y U  X[ ' }./ ` _ +...( ^ ( ( ..G / ( ( _ ^ G ( c O.+.c ]  XO.$X;X.X[ U S Y v.Y ( $XO.H '.K U [ I J I ] _ ` / [ X._ @.:XaXzXxXxXaX8XfX7XnXNX:X^ ' y.2.u.p u q 4 S m e M e e w C a N w w w t w s w u r w 4 e 0 e w a Y l 7 @ 9 [.@Xv.D m t a D w t i p.p.y.q 0 e C q D M * Z L a y.x.s P } [ ].$XL K C P [ l D } K p b.p u 2.p t s r t p y 1.5.",
"4.M.q.8.8.>.M.M.M.M.-.8.d.Z.n.w a d.B.M.;.-.4.M.C.L.M.>.0.;.s.-.;.d.N.A.A.0.0.A.W.G.S.S.N.q.M.B.M.S.B.S.A.q.B.C.8.s.4.:.-.S.C.M.N.S.A.S.F.A.N.A.A.A.M.=.<.;.:.=.S.F.S.N.q.A.A.q.W.G.F.L.B.S.F.d.R.eX8X5X5XxXaXxX7X;X2X;X.Xc + 1 N w Z A w q 5 q q w q q q 5 . & 5 5 5 0 1 0 0 1 1 1 2 0 5 4 5 0 5 e m e S S K Y F F e S H ' H K F F | K ' [ [ ] 9 F zXdXaXgX4XaXmXaX0X4Xj a 3.N.q.t 2.P./.^._.(._.(.(.D.w.D.E.L.D.w.w.D.(.P.E.L.J.OXR.P.P.D.N.C.w.w.e.w.w.0.,.w.w.D.e.(./.(./././.w.^.(.G.0.w.A.A.L.(.D.F.).P.P.P.E.R.+XE.m.m.h.=.3.A.D./.^.^.^.^.w.(./.D.G./.D.D.G.(.).P.F.U.U.3.Z.B.V.B.D.S.P.C.k.V.j.j.Y.Y.j.k.V.Y.V.V.V.V.Z.C.C.V.M.M.4.V.4.M.Z.Y.b.# ) { _ :XNXnXzXfX6X2XfXhXvXnX$X[ U [  X'.'.U I / [ ] ] ( O. .I O.+.( ^ ( b ( / ` v ` +.} ]  X.XO..XXXY ' J U v.[ ] +.] K [ F  X[ U F S ^ I I ( H I X.O.#X6XmX7X8XdXMX5X5XfXNX<X7 U P w t p y.e - 5 m N q M w u C C a q * s p a w C e 4 q w Z q 3 9 H x.M 5 9 3 # }.@Xw ; y h.L S q y.y.Z y.p.r.Z ' 7 x U Z x.y.y.y.p > r a Z b.$X' [ [ ' / m H 3 2 [ P C a w q q s : t t y 2.p ",
">.d.M.M.-.-.M.V.M.d.6.M.N.B.V.c.f.=.-.M.B.M.Z.N.L.B.N.B.M.;.;.4.N.N.N.N.N.-.S.G.F.F.A.S.N.6.8.q.q.A.q.M.M.F.F.B.d.=.=.M.-.;.d.M.A.A.A.S.F.F.A.A.N.B.4.: p 2.q.M.M.F.F.N.B.-.A.C.N.A.G./.D.G.F.F.F.+X8X5X8XxX7X2X3X:X1X2X.Xc + 1 e 4 q w w 5 3 5 w w N N q e o o e 5 0 5 0 0 0 0 * 0 5 m 4 0 0 e 0 m J J 4 e U '.' K e q D F F J K F H ' ' ' G F H F 2X5X8XaX;XgXSX5XpX>Xh N d.F.I.P.=.S./.^.(.(._.(.(.^.e.e.).(.D.S.0.e.(.P.P.P.F.k.I./.G.0.I.E.,.w.w.D.w.w.w.,.w.w.^.(./.D.D.(.^././.D.w.(.(.P.w.P.).(.S.,.L.E.w.(.).B.J.Y.c.Y.A 4 1.q.A././.w.D.w./.^.^././.w.^.D.G.).S.S.C.s.1.g.d.V.L.L.J.J.B.d.B.Y.h.h.j.k.H.Y.s.j.s.j.d.f.V.V.4.N.M.Z.M.4.C.U.c.o 6 W W Q #XSXVXpX4XpX4XrXfXnXkX$X}.[ U  X' [ ..U ( ^ ( [ H ] _ I ` ` / ` ( c ] ] v ) _ +.X.K Y oX/ [ :X[ l 3XX.D I G / Y U [  XJ F }.[ H [ }./ / [ .X] / ^ 4XzX7XcXzXxXpX2XhXnX;Xk ^ 3 5 t p Z w m 4 q C a r w w w * * a w a c.i u C l l 5 u y.u.y.C s c.Z q M 2 3 [.&XD y.<.Z v.g 0 i.y.w a u y.y.J x J w p p x.p p r ; Z p.p b.$XD [.[ K l H J X.( c H m e e q > t > r ; <.u.u ",
"-.;.M.q.V.Z.M.M.M.6.d.q.-.M.Z.V.u.1.=.-.N.B.N.q.N.q.q.V.=.N.q.M.N.N.S.F.B.8.8.B.B.S.G.P.N.M.M.q.P.F.N.B.M.M.A.F.4., <.M.B.-.C.q.w.A.0.0.A.S.D.A.q.B.Z.s.s & V.F.L.L.S.D.D.>.0.S.D.G.).(./.P.W.M.B.9X8X4X5XaXfXyX2X;X8X8X.Xx # 3 C N q N w 0 X & w N q 4 M 4 2 X o 5 5 0 0 0 & 0 0 - 4 S S 4 4 e 5 m e 3 K D F '.S D 5 e m S H H K S H U U H F U F U 1X7XpX7X;X2X5X:XrX#X# K C.P.(.(.D.S.(._._.(./.(.^./.^.^.(.(.S.P.(._.(./._.).P.e.I.G.w.0.w.w.0.w.w.S.0.0.,.,.w.w.^.^./.^./.(.(.(./.D.D./.^.(./.w.w.D.D.D.P.L.D./.(.G.8.b.K b.U D R.8.-.S.w.(.D.w./.(.^././.D./.A.S.P.E.F.S.M.4.s.k.V.T.T.H.N.F.k.j.s.k.j.k.k.k.n.k.j.k.c.s.s.g.s.Z.M.4.C.Z.6.F.E.s + +.o.@.E ..MXfXaX5X5X5XpXnXfXkX:X[ }.U [ }.[ X._ _ ( / O.] ( ( ( ../ I _ ( ( X...I ` ( ^ _ '.v.}.[ [ X.[ U } }.H I ( '.v.|.#X#Xg }.}.X.' / / ( v D $XX.@.G ;XxX7X8XbXvX0X0XpXcXrXx # # 3 a y.p w 4 D e r D q q w > t a s 4 r p.<.r 9 @ v N w p y.u.y.p 5.2.t w P 3 v. X+ e y.Z x.v 5 u a u i i a a x.U S a A w U K y.w Z i p p p [ e D r C / J C '.[ v J e e e w C > r ; s r s t ",
"8.;.-.4.d.d.-.8.d.M.M.q.>.N.Z.V.f.c.1.=.-.M.>.B.A.N.;.8.q.>.M.C.N.N.A.B.S.S.6.>.S.A.D.G.C.B.B.N.F.P.F.B.M.-.A.N.;.k.f.2.; i d.q.N.A.A.0.0.S.F.S.N.N.A.V.3.> V.N.W.C.-.q.8.-.q.G.G.D.).P./.G.S.L.T.eX6X4X5XxXbX7X1X;X8X6X.Xx @ 2 a w C N C w = - 5 4 4 & 5 1 h # o 0 q 0 0 - 5 4 4 5 2 4 e S J 4 5 0 m M Y F U Y e m S e e e S S D F F ' [ H F ~ l U pXpXaXaX7X;X:X5XaX%Xj ] M.D.D././.I.w./.^._.^.D./.(./.^.^.D.e.(./.(./.(.).).(._./.D.D.e.N.0.w.w.D.^.w.A.0.w.^.(.(.^._._.(._.(._.^.w./.(./.(.(./.w.w./.).P.(.).).D.G.C.OXOXm.U x.@XR.q.q.w./.A.(./.^./././.D.N.>.B.E.E.B.q.B.M.4.d.V.k.Z.J.V.I.C.k.h.s.H.H.V.j.j.J.k.j.h.s.1.3.;.s.d.>.C.g.N.(.c.+ b  .E .X6 +.NXfXfXsX4X3XrXfXnXjX$XU H [ O...} X.` ] ' ( ] ] / I [ ( ( H ] ] _ O.X.^ / O.( [  XX...X.O.] H ( H U v S ] X.[ [ X.'.v.$X} ' X.^ _ ^ v X.:XO._ ..pXpXzXgXaXmXyXyXsXvX,Xj # x j S w w K e e C a w w w w p t p t a m.y.2.p e 2 e y.u w w y.Z ; 2.r w y.y.5 }.] H 4 Z p u D M > Z w 5.y.C Z v.U M C [ Y a s y.t p ; 0 Z y.p.2.w Z A F U L a D ' m m e q w P 0 a <.i 5 s y ",
"4.;.;.-.8.4.d.d.M.C.C.N.B.N.N.C.M.T.c.H.C.>.q.>.>.>.-.q.-.:.M.N.N.q.F.F.B.F.A.0.F.F.S.S.D.A.L.B.A.P.B.N.M.M.L.4.d.L.F.e + o & d.A.D.A.A.A.0.G.S.A.0.A.Z.B.B.N.>.=.: ;.;.=.;.q.q.A.w.w.D./.D.N.L.!.eX8X2X8XaXaXaX6XXX2XaX5Xc 3 e w w C N w w w 5 - 5 5 5 X @ b 2 5 0 m 4 5 - m S e m S 4 S S D S e 0 m v.L Y D H m S S S D D S F S D F J H U H J J F 2X5X7XxX6X:X;X7XpX$.6 ) f.G.D.w././.D.w.^.(./.w././.w.w.^.^.w.w.(.(.(.(.(.S.(.(.D.e.e./.D.w.).P.w.w.D./.e.^.^.(.^.^.(.(._._.(._.^./._.(././.).S.w.^.D.(././.(.P.P.q.=.V.R.OX|.m u J.-.0./.0.A.D./.^.^.D./.D.>.B.E.d.N.F.C.;.M.M.d.j.j.Z.V.h.Y.n.j.j.j.T.H.j.V.H.V.j.n.j.d.1.<.1.3.M.M.Z.g.C.E.5 + o.x h +.6 _ HXNXiX5XpX6X5XfXBXfX#XU [ / _ / [ ] ` / ( I I ( / ( I  ./ ] ] ( ` I [ ( _ ( ..( G ` _ +.~ ' }.[ [.U / v J / ] I [ '.[ ' [ ' O...` k +. X#X.XX..XaXbXaX8XfXaXaX3XpXfX-Xk h $ z D a e D M q N C C C w a i , r t u x.i y.p.x.y.x.Z 2.Z Z w l.u.y.5 e y.2.y.S 4 x.P i.t i p B * e a t r q t a C i a P P Z t p p Z * F U p Z Z P P D J U ' Y D F D e 4 5 r e r a Z v.D Z y ",
"d.4.4.d.;.Z.M.d.Z.N.M.M.M.M.M.C.C.g.<.n.M.M.d.-.>.F.B.>.;.8.k.4.q.-.8.q.F.C.D.G.G.S.S.D.G.C.G.B.S.W.F.N.0.C.N.-.t u r 2 v h 6 1.A.A.A.A.A.D.G.F.D.D.B.N.F.F.B.8.1.:.=.=.=.0.M.M.S.D.A.D./.P.W.F.!.ZXxX2X2X8X7XsX:X2X8X7X#X$ # 4 e s w a B u w q o 1 4 m @ 3 2 3 0 5 N m 5 5 e e e D e 0 m S M e e e e U L Y Y F m m S F F g S H J D ' ' J F H J F U 4XpXaXxXsX.X-X4X5X#X6 c s././.w.w./.w.w./.(.(.(.(.D.(.w./.w.e.w./._.(.^.(.(.(.(.(./.e.^.w.^.S.A.0.0.0.^././.^./._.^.^.^.(._.(./.e.(.(./.(.(.D./.^.^.w./.w.G./.L.S.0.B.V |.b.' ].c.=.-.0.^.^.w.w.w./.(./.D.A.w.P.F.M.F.W.M.B.d.g.g.U.V.k.j.j.h.j.j.h.f.H.Y.j.V.j.j.j.n.j.k.t.b.f.Z.M.M.M.d.T.b.+ n  .W x ) 6  .NXfXpX5XfXpX4XsXhXhX X[ J }.U X.] ....( ] ( ( ..I I I v ] ( G v c O./ ] / ^  .H 2 J H F J  X}.' Y H '.U F K  XJX>XY [ ' [  X+.] / I ..}. X}.6X .yXbXcXaXzXdXfX7XsXfX.Xk # k ' P q r e w w M q a q w C a 2.x.y.b.2.x.i 2.x.p Z Z p a u p u i.e 0 5 r t u.a ; y.x.Z w u y 2.w = C Z q 5 U C L q r P '.a y r x.x.r e '.i.r D H J e J ~ l / J S F 4 5 r w s q r P U e p p ",
"-.;.3.4.-.d.M.M.M.6.q.M.N.N.M.N.Z.V.a ; ;.-.;.M.q.B.N.;.;.>.u.4.>.-.;.;.-.B.B.>.F.S.F.W.G.S.P.W.F.F.S.B.0.N.F.B.=.1 @ g 9 c l r d.N.N.N.F.A.D.S.S.0.A.G.A.0.A.N.Z.Z.<.3.8.>.q.-.-.q.G.D.D./.D.B.+XeX9X4X0XgXaX4X;X6X7X1X:X .# 3 4 w C a w w > q 5 0 m 5 o 1 3 0 5 5 N D e 5 M S S S 4 5 m S F S D D e L v.}.U S D e H F D J H F D D H H F ~ J S S S #XhX7XyX5X;X#X;XgX#Xh ^ f./.w.0.q.D./.0.(.(._./.w./.G.0.D.0.e./.D.(.).`.(.).(.(./.e.w.w.^.A.P.C.;.w.^.(.(.^.^.w.(.(._././.(.(./.G./.G.0.-.A.G././.^.w./.D.G.e.M.q.eXeXL OXv.v D -.B.C.q.w./.^.w.^./.^.^.(.D.A.S.F.W.E.W.Z.4.j.d.M.j.d.R.j.j.j.s.j.k.j.n.j.j.j.k.V.k.j.k.d.g.n.d.M.j.V.Z.Z.y.+ % j +..X#XO.6 #XNXgXaX4X6X6X5X5XvXsXU oX^ I [ _ / ` +.] ~ +.O._ / G ^ ( I ( I ' ( O.+.+.( ( X. X[ [ K [ U [ [ U [ [ '.oX}.X. XIX%XK [ ' }. X+...+.+.+..X+.X.#X( zXzXzXzX;XaX5X6XfXfX-X^ h c H S K M M C C C w L C C L t p r.c.i y.5.y 2.x.1.Z C t a V Z y.t Z x.e e a p.u.y.u Z y.e 5 y.i p w w u 1 # W X.M q Z F K Z <.a ' [ Z e p u.i q 5 5 e J H l J / D m s a t s a r 0 Y P a t t ",
"3.;.=.-.-.M.M.Z.4.M.6.>.N.6.M.N.M.C.y.0 s.N.>.q.M.q.M.-.q.q.;.;.d.8.-.>.>.M.M.;.q.D.F.F.G.M.C.P.F.A.S.N.N.S.S.B.M.M.n.c.y.f.h.v.t -.B.q.B.A.G.S.S.D.D.D.0.0.A.N.>.M.d.-.>.>.q.N.q.B.W.G.D.G.P.F.+XeX1X5X8XgXnX7X;X:X1X;X8X@.7 3 e C C a w q q q C N q 5 & X 5 4 5 4 M e 4 4 J e m S H 4 l S D D D m D P L v.F D D D v S S F S S F U J K F H F | J m ;XvXaXaX4X:X;X6X4X@.j ` y.S.B.1.-.w./.0.q.e.G.-.q.G.^.(.(.D./././.(._.)./.(.(././.(.^.^./.0.D.D.0.D.w.N.D.D.0.w.(._.^.(./.^./.w././.w.I.I.0.0.e.0./././.P.A.A.M.=.+X+Xi.].v.U q V.K.V.:.-.q.w././.(./.(./.S.D.S.C.L.E.T.8.;.d.M.Z.j.Y.H.V.k.n.f.f.k.j.k.j.V.j.d.H.j.g.j.f.j.d.d.Z.j.V.j.'.#     . _ #Xo.j 6 +.VXnXsX5X5X;X6XsXhXsX.XX.}.[  X` I H ....I [ ] G .._ G ] I G I [ +.` ( ..' .. X...X[ U  X'.'.X.K H F  X X( O.#X3XX.P [ '  X+.(  X X( ] ' ' G h ] aXdXVXmXaXzXaX1XpXfX;X` / F J Y '.' M q 0 A a Z x.w a y.2.p y.t t 1.u.i <.u.w 4 p u t w C C C w 5 5 p p.V a a i u.2.C L i.Z C u |.4 3 x ` +.5 p D L x.y.s [ oXv.y.p x.y.N 5 4 ~ G ~ J H F H e q i a i a 5 4 L L M * d ",
"-.4.4.6.M.N.N.M.-.M.d.6.M.4.8.Z.M.C.f.u 1.M.q.-.-.q.B.M.q.S.C.-.d.>.q.N.B.B.6.>.q.G.S.P.D.B.S.S.A.B.S.S.Z.F.F.F.F.S.P.L.E.S.P.W.M.8.C.q.A.S.A.S.S.A.A.F.S.A.D.A.q.M.>.8.>.0.0.>.>.0.S.D./.D.G.S.!.eX8X2X6XaX7XaX:X;X7X2XaX` # 5 e w a a a q w > > > r 5 0 X 1 e 4 5 e 5 q D H S m S S l J J l F P K D e D D K C K D D D 4 S e m F F F U H H S F S S 2XnXxXyX,X.X2X1X6X+.j h a E.+Xc.A.w.w.D.N.N.q.A.e.0.I.(.w.D./.(._.^._./././.(.^././.).).A.G.G.w.A.G.w.0.P.w.w./././.(.^.^./.A.-.M.P.D.P.0.,.q.q.;.>.,.w.N.M.;.=.b.u =.V.F.V.e 1 p.R.c.M.-.N.w.^.^././.D./.G.A.G.N.F.M.C.B.N.S.>.;.R.T.k.V.d.n.j.f.h.j.k.j.V.k.Z.j.k.n.h.s.j.g.M.V.Z.n.U #     @ 2 ` ^ W 6 j #XHXgXpXpX5X;X2XxXhXtX#.'  X...XI ] +.( ..( X...^ ....^ ( I ] +.] .... ...] ..`  X.X+._ '  X XO.I F ' }  X X( X..XX. XX.[ [ +.}.' } g g _ l X.]  X5XfXvXMX7XVXzX2XpXNX,Xc [ U m H Y '.L K 5 q p Z C e a y.Z t p t i p u 2.a a s 5 Z y.p q w > w w w i p.Z A '.M Z y.a Y m N 1 4 C L S m Y U $XX.e P L p.t a c.<.x.A a L e H J ^ O.^ J ~ / F U F 4 4 0 e a a L Z m.K p 1.",
"-.M.d.M.M.M.N.N.6.N.Z.M.3.3.d.Z.Z.C.F.y.y d.M.-.-.8.4.-.q.S.G.F.N.>.q.M.N.N.;.>.0.A.G.(.P.P./.G.A.N.S.F.N.A.S.P.P.W.P.).P.E.P.A.P.(.P.G.D.G.S.A.D.A.A.S.S.A.A.G.B.K.M.-.>.0.0.0.N.A.!.S.D.P.S.>.+X2X4X2X6X7X0XpX0X:X6XwX8X} @ l a a w w a w > q q > > q 5 & o 5 4 5 5 0 4 D e 9 S D 4 9 J S e H U F e e D ' D q K D D e 4 J 4 S ' S D H | J ' H 2 J 0XzXdXpX5X;X2XpX5Xo.j $ > L.U.W.(.D.D.0.A.0.S.e.e.D.0.0.0.D././._.(.(.(.w.D./.^.D.A.P.S.0.D.P.D.w.w.C.G.(.w.0.D.^.^./.(./.S.q.B.8.B.>.>.w./.P.S.D.w.>.0.>.;.;.w e r.L.).*XE.h.w i.v.5 y.F.D.G.w.w.w./.w.e././.A.N.S.L.W.F.W.E.W.!.J.N.4.8.V.d.s.s.j.n.k.j.k.V.k.g.k.k.h.s.k.j.j.V.x.1 +     k ^ j 6 E Q # j .XAXMXnXpX4XrX2XaXNX4X.X+..X X] / ] ] O... .{ +.+.+.( ( ..( _ ^ ^ _ O.`  X....I +..X$. .#X[ }.}.X.H S m ' #X] X.} ] +.X..XI [  X/ / 4 v 9 J  X X[ $XVX4XmX0XbXfX0X7XrX@.c }.' S 4 M '.}.S a Z Z Z p s C r.p Z x.t u a p r @ 2 K Z p a w a p x.y.y.Z y.<.q w A Z Z y.C 4 P 5 + # D oXyXC > p L X.g Z C p r s y.<.y P K M D S J ~ ~ ' H H U K } F e F v g e p Z t L 4 2.c.",
"-.6.6.M.-.M.q.M.M.4.3.f.1.=.3.-.M.g.U.g.p 3.8.M.>.N.q.;.-.N.,.0.A.q.>.N.S.G.-.>.D.G.(.P.(.(.P.(.B.B.B.S.F.B.S.B.G.P.D.P.A.S.F./.A.G.G.G././.(.G.A.S.A.A.A.N.N.S.B.R.!.4.q.0.B.Z.A.D.P.P.S.F.G.q.~.6X6X5X2X1XzXaX2X;X2X2X;Xj # M C C w w q q = q > > w w w q 5 5 5 0 4 5 5 H F 4 4 S S 4 S F H 4 4 J D 5 N Y D e D D e m H | S M M m D K ' J H F 5 ..gXrXrXaX6X;X2XpXpX#XQ k s.G.h.t.0.D./.w.-.0.D.w.G.D.A.0.e./._.(./._./.w.w.D.(./.w.w.P.B.0.S.P.D.0.w.0.D.^.^.^.^._._.e./.(.e.q.L.D.w.0.w./.e.^./.P.D.G.0.B.N.A.Y.'.j.D.B.d.L.L.h.b.].'.e d.-.>.0.w.A.D./.(.(.D.S.M.N.N.F.C.M.L.).*XE.(.F.N.F.P.q.4.i r.j.j.j.j.s.d.k.j.f.g.g.h.'.S o 3 h 6 I .XQ # # $ $ # h :XvXmXMXrX4X2X5X5XnXyX X+.+.#X..^ $.+.O.+.( ( ...._ I ( ^ ..( I O.^ ^ ] W c ] _ _ ` O.O. XX. XH U Y U Y K I U / / / '  X#X..H ] ` x 2 X @ $X.X[ .X6XCX6XpXxXCXaX8X0XpX:Xb ] k l D 4 C K C y.p L L p t y.u.2.r x.L q w p w 2 x.XXa u u i a a Z u.u.y.<.y t u.u u p.y.y.Z v.k j X 3 D P e A u r P ..a a r w Z t 2.9X}.Y C F J D 4 0 H ] [ }.K H H F '.[ ' q w t s s r i t ",
"8.8.d.M.M.M.N.M.M.8.g.f.1.3.4.-.d.g.j.U.i <.4.M.M.N.M.;.q.B.M.M.>.>.N.W.D.G.S.S.(.P.P.P.P.(.(.).W.F.A.B.F.L.C.B.A.P.A.N.q.0.A.P.G.w.w.G././.(.G.B.N.A.A.A.B.F.D.V.8.V., =.s.=.=.-./.D.P.A.+XJ.-.Q.5X7X6X8X2X0XaX8X7XxXaX1XW 3 M Z C C C w N > N > = q q q F q q q 5 5 0 4 F U S S H D S S 9 4 0 e H K D D M S S D D m D H H F D D e F U H S J U 9 +.pXpXaXaXaX2X2X2X7X#Xo.( 1.A.V.M.0.S.P.D.S.S./.(.^.G.G.(./.D./.^.(._.w.D.P.e./.D././.P.B.e.0.q.q.A.;.0.^.^././.^.^./.(././.w.C.P.0.D.N.:.C.(././.G.G.D.A.C.6.0.J.@X+XS.0.N.(.).Z.i.Y }.v x.<.;.-.w./.D././.(.A.N.B.B.F.L.F.N.C.Z.B.F.E.Z.> s V.F.M.b.}.i.j.k.k.f.4.s.g.f.d.1.2.G h b _ x j ) Q 6 # e C S 6 ` ;XfXfXnX6X0XrX6XpXnX6X[ } ] .X..b O.O... X+.O.] O.O.( ( ` ..] I ` _ ^ ^ / .X_ ^ ` I _ X. X X..X.}.#XX.}.Y [ F G [ Y G O..X X( O._ 7 2 1 K $XX.( O.:XvXvX0X7XHXfX;XdXgXpXx ^ k S C q C ].i.u.i Z Z p 2.i m.x.p y.Z a w r p x.a 0 w s w t.u t i y i p y.u.t.i.- w i.p.Z p x.H h + + 1 S e F e Z x.[ 4 w g }.[.4 D vXX.'.K [ U e e M | [ X.U [ F M P [ H S q s e t ; d ; t ",
"M.Z.M.M.M.M.Z.C.M.M.-.;.=.d.s.d.d.g.k.U.u.<.4.=.-.q.-.4.M.F.B.M.q.0.q.>.B.B.F.F./.(.(.(.P.(.).(.P.S.P.F.L.S.F.B.D.P.F.B.L.B.N.A.D.D.G.G.S.S.D.D.G.B.A.A.0.S.L.E.U.;.H.1.t.S 0 p.a d.A.B.A.E.Z., XX5X6X0XaXzX2X0X6X4X0X0X8Xk # C Z Z C C w w > w > q q q q m q q N e 5 5 m | J J ' S v J J 5 4 e e e D m M e m D F D e H ' H S F D D K F H J F J 1 ..gXnXzXfXyX;X4X1X0X#Xo. XV.A.B.N.I.q.L.E.N.w././.w.w.w.^.(.e.P./././.(./.N.0.G.D.A.A.P.D.P.A.>.0.,.-.D.w.w.^.^.^.^.P.(.(.(.D.P.e.e.G.;.: ;.B.D.A.S.>.-.N.B.d.B.F.C.T.E.L.A.G.S.P.J.T.m.v.m.n.u.<.S././.(./.0.A.w.S.C.E.C.F.C.j.V.C.W.Z.= o . * s.r x.@X' e y.s.1.t.s.j.s.k.s.<.i.].v.v.C k j 9 m Z g.E.R.m +.8XnXfXfXyX2X5XrX6XhXrX' U O.>X#Xk / ....#X( b ( ^ ` I _ o.o.) ` c ^ I Y AXDXE v k ] +.#XO.` ] [ [  X X'.X.v / ..F H H F c z ` v c . o [ U } }.[ O.5XsXMXzXpXnX;X:XaXnXpXb }.( M N C P L x.].y.p y.p 5.u.u.2.u.b.p p a t p p w i.a > a p N p f.<.Z y u w C U # H Z y.u.Z x.P c h $ z S S J q i.x.'.Y L I _ W $ 2 ] ^ ( ` ] / J D K U ' U H ' ' U '.K H m M D e > p P r t ",
"d.d.V.M.M.Z.M.N.C.-.-.V.-.-.4.d.M.M.d.g.d.<.1.;.M.N.N.>.-.N.F.B.A.N.Z.d.-.4.M.F.D.(.).P.(.P.P./.P.P.P.F.P.F.S.S.D.P.L.L.F.L.B.N.S.A.N.0.M.B.D.A.S.A.0.A.S.M.T.R.c.d.B.d.f.f.s.Y.S q ;.;.;.d.4.i :X6X-X8X0X0XpXxX1X:XfX6X;X~ # e w w u Z C w w > = q 4 = = = q q e q q 5 4 H J S S 4 F S J 4 S 5 5 e S D K m D D J F m / %._ H H 4 F U U ' ' F F 5 .XpXyXvX5X2X.X:X;X4X@.) O.f.S.A.A.A.w.B.A.S.D.e././.e.^.e.(.(././.(././.>.;.8.S.D.w.w.e.D.q.,.w.S.w.w./.P.`.D.^.^.^.w././.D.0.P.D.w.e., ; q.q.F.0.w.A.N.>.L.V.q.G.F.S.B.V.B.S.0.A.(.L.F.B.J.c.f.n.B.P.D./.B.;.N.B.M.C.M.V.d.4.V.Z.C.M.: 9 G x + o 1 @ t x.X.m.S.M.j.f.s.d.d.C.E.T.R.g.Z.V.p.H Z R.{.Y.j.E.R. X:XfXnXpX4X;X1X5XyXhX,XF }.+..X$X.. X..+.` I ( ....( ] ` ` b ( G I c G $XuX%.7 ;X+.z O.-X+.2 l }.J v ] } #X/ [ $XF Y F M m - l J o 2 _ ]  X.X#X+.] 3XpXvXvXzXzX2X7XpXnX5Xh [ U e q C a N x.v.x.a p y.i y.i 2.u.Z s u u u t a p.c.p w C w w a p f.y.r.C 4 x.Y 3 c g q a i.Z K U H v ' a a a > a P P C C a v ! j h # E b v x  .W H | ' | M P Y U P U U D K e q q ; f.'.u r ",
"s.d.Z.B.C.N.N.C.N.M.d.<.1.;.-.4.s.Z.M.d.Z.i <.4.-.M.M.M.-.M.F.P.A.>.B.F.B.F.7.N.W.P.(.(././.P.P.(.P.W.F.F.S.S.G.F.D.S.N.M.C.B.S.G.A.0.C.N.N.0.S.S.A.q.N.0.N.M.V.d.>.0.M.4.q.M.V.<.5 =.;.=.1.a 5 2XpX:X0XzXaX7X8XpX0XaX1X:Xx 3 C w Z C Z C B w > = m e > q = q q 4 q 0 5 e m S J S D D F | 4 5 5 4 D S m U U D D F G F ~ %X+.| D S D ' [ ' G ^ J l  X5X5XaXaXxX;X8X8X4X@.Q +.m.>.w.G.0.G.q.A.P.A.P.).(.(.(.P.A.(.D.P./.(.D.;.M.1.d.S.w.D.0.L.B.0.I././.e.e.^.*Xq.e./.(./.D.(.w.w.0.w.e.P.: ; q.q.M.A.q.J.0.w.B.B.(.N.C.A.A.d.s.g.M.D.P.P.G.q.: b.j.b.Z G.A.A.-.N.6.4.4.M.C.J.Z.C.M.d.Z.i & z X.oXj 2 ].[ e 1.@Xc.N.F.k.V.j.k.Z.C.C.Z.T.C.Z.J.E.n.p.T.U.W.E.W.W.c.XX5XnXgX4X7X6X5XzXAX3X' $X X X X:X#X+.[ I G +.[ .XO...( +.( ` _ .._ _ +.+.] X.>X$XS U O..X'.U F m ' ' ` { O.[ F K '.oX:XY '.U U [ #X+.O.$X X#X+.' $XpXjXhXvXHXcX5XfXmXaX..' K D C L w C Z x.x.Z Z 2.5.y.u.f.p c.i a r ; r > a y.u.> C a Z Z 2.i p p a a y.l ) x ` ^ S M w u Z K '.Z > s s 0 1 e e C M u '.) j j j h 7 k j W ] U S l n 0 A K ' ' | K F H C s a i 2.p p r ",
"Z.V.N.C.W.W.C.C.M.Z.4.1.1.g.d.g.s.d.d.M.f.r t 8.q.N.N.q.-.8.F.F.E.M.B.N.A.A.>.-.N.S.G.G.(./.*X).(.P.P.S.S.S.F.S.B.G.W.T.B.C.P.G.G.A.A.-.A.G.G.;.;.M.S.A.F.G.F.Z.d.q.q.M.M.0.-.Z.Z.y.s.>.;.8.t F 5XrX2XpX5X8X0XxXxX8X2X8X:Xk M A C Z w C C w w > 0 m 4 q = q > 4 4 q 5 5 q 5 4 D H H H S e 5 * 5 m S g D K F F D K F ] | v ~ H F F H | / G k v | 2 X.aX0XaXmX6XxXaX6X4X>XE _ m.0.w.w.D.I.P.P.P.D.(.D.w./.(./.w.w./.(.D./.>.;.B.> <.q.q.-.A.F.N.B.E.D.(.D.w.w.w.)._._.^.(.(././.(.P.D.w.D.B.M.q.;.M.>.L.E.B.L.L.B.E.d.q.B.Z.J.p.p M.0.S.).G.;.=.J.C.R.P 1.q.M.M.6.-.d.M.B.E.F.Z.V.M.M.B.C 2 X G XX1XoXX. Xv.u.c.V.d.r.f.k.j.k.Z.Z.V.V.Z.Z.C.J.E.U.g.V.k.V.E.C.E.E.OX7X5X8XaX5X;X:XpXhX6X XX.X. X X:X#X_ ] _ W _ ..+.+._ _ ..o.^ c G _ O.`  X X+.#X' }.[ [ .X'.}.Y oX[ U g l +.oX'.}.Y }.$X XO.oX$X$XG ~ +.X. XX.#X.X3XpXpXaXpXfXdX4XsXfXfX@.l C K L C C p Z x.x.v.L 2.1.u.2.y.y.y.a s i Z M q r a i w w a a w y.C C w w Z Z k x _ l [ ( v a y.u A P w e 0 5 s M L M C C p ].'.| c h h x j 6 k z X.5 @ # 1 C C [ H M K D e C e p Z w a C q ",
"B.B.C.C.W.L.F.L.C.M.d.d.d.d.g.V.Z.d.C.g.N 9 0 4.M.M.N.M.-.M.M.8.C.C.N.N.M.B.A.A.N.S.P.S.G.(.=X).P.P.P.P.G.F.S.D.F.F.L.L.F.S.F.F.0.q.M.q.N.A.A.-.>.-.q.>.8.N.M.s.u.M.6.q.>.M.6.q.M.s.V.N.B.+X4.|.#X.X6X5XaX0XmXpXaX6X1X8X3XO.K i.u C e N C > > > > N q q = q 5 5 4 q e 4 4 m 4 5 e 4 J H 4 0 5 5 q m m e D S S D J H ~ 7 2 4 G H D D J U J 4 H ' 2 I xXaXzXmXzXzX7X5X2X;X_ j e q.D.^.D./.(.(././.(.D.D.(./.w./.(.e.^.(.w.B.B.w.d.B.I.S.>.F.8.d.q.P.(./.e.w.(./.(././.^././.^.D./.0.D.D.D.(.P.C.s.0.0.J.Z.B.P.P.A.P.B.A.P.H.i.m x.F.0.L.).N.q.P.P.F.N.c.f.;.;.1.;.F.F.F.W.C.S.F.d.M.C.8.0 ^ k U  XXX|.oX].n.1.h.+Xn.2.j.g.V.j.M.d.d.d.Z.F.C.N.F.C.Y.R.M.V.W.J.T.W.OXdXaXzXbXpX6X7XbXjX:X' [ ( X.X.+.X.#.( k ) ^ ( ...X^ k W ) { ^ ..o.` _ +.%X+.X.X. X}.O._ ' '. X XX.X.K [ +.}. X X'..XO.+.+.[  X] I _ ( U .X+.} +.$XaXMXgXaXdXnX4X8XfX5Xj 2 Z C s a a w a y.y.y.p 1.u.1.2.i y.p u * 5 x.a w e w w w w w r u i p i y.x.2.p b.K Y D [./ @ 9 A & & 4 H m e 5 e p.i e D D y.v.p x.L K U }.3 ] o.G $Xm 5 k k C '.U F ' ~ J K K m w q r q v.~ ",
"C.L.L.F.P.E.W.W.W.Z.M.Z.d.4.V.Z.Z.g.g.Z F c 1 y 4.C.F.N.-.M.;.3.M.;.;.N.N.F.S.G.P.L.G.W.G.).*XE.(.(.D.P.S.F.F.S.S.G.G.B.F.S.A.B.B.M.;.>.F.A.6.0.S.-.;.-.-.-.>.>.=.d.q.q.-.8.M.B.M.s.s.d.d.j.y.` Q ` ;XgXxXaXzXaX0XpX7X0X3XO.F C u N N B u w w > > N q > = q q 0 5 5 5 q 5 4 S S S 4 J D H D 0 * 5 4 4 m H e m m e S 9 2 ' J 4 S D S e U ~ S l ~ F 4 :XxXxX0XnXdXgXaXaX#XW 6 F N./.w./././.^.^././.w.D.w.w.w././././.(.e.B.(.).P._.P.w.e.0.8.-.q.P./.D.w./.D./.D./.w.(./.^././.(.w.A.F.S.w.0.E.d.q.0.W.M.M.S.L.B.S.w.D.>.OX9X[ 3 u.).P.A.q.q.w.>.M.3.{.@Xj.u.i.t.M.A.F.W.F.S.G.M.4.M.p.k ^  XoXXX1X'.oX[ R.L.2.c.U.s.j.s.d.k.d.j.g.V.d.N.C.C.F.T.eXC.B.k.V.E.V.N.@XxX5XcXxX8X;X7XmXBX<XF  X X' O.}  X+.O.I 2 ) c J +.^ F g ) ^ ^ _ b I ^ ` @.@. X#X X:XO.[ } X.[ [ v.[ }.[ [  XO.] } X.] X.[  X#XX.[ _ [ ( ..` ]  X$XxXMXpXzXzXsX2X4XsXhXW 9 L w e u 5.t p u.u.y.u.1.1.f.f.2.p a 5 1 9 M a Z a q w C a > q C i.p y y.b.p y.u.y.y.c.p.C L Y K 5 X.[ l k # + 2 a p m F F C 1.p.y.y.<.C K M oX( x k U 1X#.2 K P K '.[ D K Y U D 4 I w U P G ",
"M.C.B.L.W.F.L.C.F.C.Z.Z.M.3.t.f.s.Z.3.m F P 1 t -.d.C.M.M.F.>.;.N.N.F.F.N.M.W.(.F.F.G.F.;.;.*X).(./.P.F.A.B.F.B.F.D.S.S.A.B.S.G.F.N.q.A.q.d.M.q.d.s.q.A.0.q.>.>.-.;.6.B.B.d.d.M.d.f.g.j.1.<.S @ # H 1XzXaX7XzXxXxX2X8XVX7Xv M N 5 = w N N > = N w q q q e e q 5 = * * 5 q e D F D K J F S S 4 S e 4 - e D S 5 5 m 4 v ~ J F D D H K D F S S J 9 g g 1XcXzXaX7X7XzX7X0X;X) j 9 d.0.D.w.D.D.D./.w.D./.w.w.P.w.^./.(.(.(.(./.`.(./.w.0.B.0.).(.;.8.S./.e.D.D.,.A.(.(.(.(.w.^./.w./.w.w.S.S.D.N.N.J.J.L.S.;.;.E.L.L.M.j.V.s.|.'.@X'.2 p 4.M.;.M.A.J.a Z n.P |.j.f.n.M.N.W.W.F.S.S.N.d.;.c./ W +.8X8X;X| ].D Y.T.2.t.h.j.s.s.s.j.V.k.j.C.B.Z.V.C.F.E.+XC.B.Z.Z.E.W.M.m.FXpX0XzXaX2X7X8XfX .S '.}.[  X} / ( o.^ ( ^ H H ^ X.[ ] ^ _ c 6 x ) ` b _ #X X+.>X<X( }.}  X}.'.}.oXX. X#X[ #X.._ [ ( F '  X+.' U F / ' [ ( ( }.X.$XmX7XmXdXaX0XaX5XqXW 7 v.x.Z 5.5.y.u.1.2.y t <.1.1.u.u.2.y '.^ H x.Z w a w s w w u r C a > i p i.a Z Z a y.t.u.y.5.y.e } 8X1Xh 1 c j 3 3 q D K C i.c.j.u.Z s e m K [  XW W O...E + 9 K '.}.[ i L C C M S [ Y e C v.",
"V.V.M.L.W.F.L.W.C.F.Z.Z.M.=., y.y.d.M.D '.b.e <.s.s.d.-.j.C.M.M.Z.N.F.L.Z.-.L.G.6.N.F.F.B.B.`.).(.P.F.B.N.8.N.F.A.S.G.D.D.0.S.P.A.q.F.S.B.d.d.q.1.j.A.A.A.>.>.4.-.q.8.B.L.Z.N.q.6.d.V.g.y v.l # 5 oX8XxXgXzX0XxXaX9X0XaX3Xc g C q K L q q N w C q q q M m q q q = = 5 5 m e M S M G ' [ H g H ] M H D H D U S F F S ' | ' [.H H D H S l l S l 5 S S 2XxX7XxXhXrXcX:X6X:Xc j + 0 8.B.w.0.w.w.w.D.w.D.G.e.w.D./.w.^.(./.G.e.`.P./.P.P.w.L.`.(.0.;.S./.P.w./.D.D./.(./.^.^././.w.A.w.w.D.0.N.F.0.A.T.T.L.C.d.(.P.C.E.+XR.U.V.x.{.OXS 4 Z , 3.Z.6.N.c.p.j.].' U.N.M.7.N.N.W.F.F.F.G.N.4.4.L c &XXX6X4XL T.c.s.s.t.s.p.p.f.k.j.g.g.V.V.g.M.N.F.F.F.F.6.Z.T.>.N.J.F.g.m.CXMXaXzX5X2X0XxXgX#X[ [ }.[ / | / ( k g c 2 g D ` @.' ( W ) _ ` O.^ } ) ^ +.} O.%.%X[ '  XI .X X X' U ] o.( X. X] +.[ ..] X.] ] / ( _ / / '  X[ [  XMXpXsXsXfX6XpXaXsXj 9 P p p p Z y.p 1.f.5.5.f.f.u.f.f.5.=.OX Xt y.Z V a t t u w a p t w w x.Z u.f.y.> T M C x.<.<.<.K | 8XwXh $ c h + # # 1 e a x.].Z p y.C D D [ ` x k H 4 x h 3 e U '.oXL u.x.L l 4 a '.}.g D P ",
"E.V.V.F.L.F.F.E.W.F.B.d.s.g.g.j.d.j.f.g W oXK y s.s.k.Z.Z.Z.B.N.B.N.M.W.C.B.W.P.S.A.F.G.W.E.`.W.P.).G.P.G.S.N.D.W.A.G.S.P.F.G.G.A.B.w.>.Z.M.j.s.q.0.F.w.>.0.N.s.>.0.w.A.S.F.q.M.q.q.Z.-.|.'.k 6 U wX8XxX2XpX0XaX0X6X2XaX#Xz M i.A v.K N u w q N w q q M M q q q 5 * 5 5 e m e S S J H H | 4 m ' S m D | U ' ' H ' D H } ' ' ' H D D H H J F S 5 ' U :XfXfXhX6X5X6X4X2X;X}.E + X * d.q.I.A.D.D.e.e.D.G.D.^.^./.A.^.^././.P.(.D.D.P.D.w.(.D.-.>.0.P.w./.w.P.`.w.(.(./.^./.D.^.w.A.P.D.w.q.C.q.>.0.T.x.C.j.v.L.w.M.E.E.R.j.H.Y.c.m.m.n.h.B.A.q.M.M.+XOX|.R.T.0.G.N.A.A.B.F.F.F.S.S.M.4.>.s.Y 9X1X9X9Xj.L.T.g.k.s.h.f.f.f.s.j.k.k.Z.V.B.N.N.F.F.W.F.;.<.+X6.N.W.C.g.|.SXVXyXzXzXyX8XaXaX6X[ [.[  X#Xv / v l G ( U Y ( ` G U I ( O.^ [ O.v #Xo.o.) ] { ) +. XX.' O.+.~ .X.X X..O.#X_ @.+.] X.] ` } ] X.] G ` O.X.( } _ / 1XVXsX6XpXdX2X6X5XpX( H a t 2.5.i p a 2.2.2.x.t p f.f.<.1.1.x.P <.2.p u a y.i r u <.y.2.w C C <.u.p.p.x.@X}.J 5 2.y.y.Z l +._ 3 7 ( c ^ 6 # 6 U A p Z y.5.y.Z K P U ^ 6 / L U c z L Z  X[.'.Z v.H 1 / 2 v.}.v G / 2 ",
"F.N.B.Z.Z.C.L.P.W.F.F.Z.s.d.V.Z.Z.f.u.v Q }.S > Y.V.Z.B.Z.C.C.C.L.C.B.M.N.B.F.P.G.W.P./.P.E.P.G.P.(.G.(.G.G.G.D.G.G.A.G.G.D.D.G.F.N.0.;.s.W.S.F.A.A.A.N.>.0.w.0.w.w.A.A.S.A.M.M.0.M.M.-.p Y [ 6 Y 8X1XxX0XfXmXpXaX8XaX#X^ 6 3 A V V A C w > q q N N q m K C e e 5 - 5 4 e 4 5 S F H J l 9 e m U H S e S U } / | F H H H J S | K H S F / G J l l | k #XbXrX6X3X3X4X8X8X6X] 6 # @ X & s.S.A.0.A.e.G.A.D.D.>.D.D.D.w.w././.G.P.G.D.S.E.E.0.F.,.A.B.A.G.w.w./.(././.(.(.^.^.^./.G./.D././.P.L.E.S.e.+X Xu.T.@XR.S.u.u.j.+XY.U.Y.b.A T.F.j.d.Z.d.d.V.N.N.T.V.F.G.w.A.A.S.B.N.7.N.B.F.M.;.4.Z.m.+XE.E.E.L.N.d.j.V.k.f.f.t.t.s.s.j.s.k.d.N.F.F.F.F.N.F.6.;.C.T.C.Z.C.d.'.mXaXaXvXpXpXmXaX4X:X X[ S [ 3XF #./ J I #X%X3X.Xg  X+.+.] O. X.X` [ ] ) ` _ ) W +.#X.X[  XO.] H  X XX.+.#.O.O.~ [ +.O.G J .. X.X..+.U X. X[ ' ] [ 3XMXyX;XpXzX7X8XpXMX..S Z a a p x.y.y.L y Z Z s s u.f.1., 1.Z A 5.p a a u p y.p u i.u.1.m.A u p.p.a y.].m.&XoXo o e Z p Z * P k # ^ ^ h /  XD 1XI q F H u.i w m P U Y S J '.k # 2 x.oXU [ / [ '.F | [ c k ~ ^ [ H ' ",
"C.N.C.E.F.B.Z.W.E.P.F.F.M.M.Z.d.Z.t.r.H W }.J 1 f.d.V.N.C.C.F.L.J.F.B.C.F.N.W.P.P.W.P.(./.).P.(.L.L.L.F.F.S.F.F.G.A.A./.G.S.A.D.0.A.S.M.M.0.A.S.D.A.A.A.q.q.w.^.D.G.w.0.A.w.N.q.q.0.q.1.C K J 3 X.aX5X2XaXmXzXaX2X2X3XO.I h & V V B > N w * 5 w M N 4 4 m D D e 0 5 5 e e e e S H ' | H l e S U F e m F ' } H ' | | ' | 4 e S F D D K U ' l 4 J 5 4 -XfX4X6XiX8X8X7X6X3X .h h j + X & Z.q.q.S.D.w.^./.w.A./.w.w.w.w.^.(./.D.A.A.w.(.P.N.>.w./.q.q.D./.G.(.(./.^./._.^.(.^./././.w.w.D.A.d.R.).E.{.n.n.j.E.n.A v x.OX{.Y.j.E.n.2 Z F.B.u.Z.c.h.y.M.F.E.B.s.F.G.N.A.A.N.B.N.B.C.G.A.-.3.g.g.C.L.C.P.J.d.k.V.V.n.h.h.t.u.r.s.s.d.g.j.g.N.F.F.C.d.1.-.>.M.Z.F.Z.E.C.v.yX7X7XdXaXzX7XxXkX:XH [ ' X.#XY U H ' ( +.] #X#X X+._ }  X+.#X#X$X.X/ G ..O.) W _ .X#X.X+.O.}.[ ] } .._ O.] X.U ] ( ^ +.+.` ( O.+.#X[ '.[ ~ ^ '.' 9XMXdX6XaX6X5XaX7XVX#.o 0 9 @ 0 a t Z > Z x.r s p 5.u.x.5.y 1.<.p p t u a Z y.p a t y.i.y.a p Z y.<.n.OXp.m.|.Y S & & a c.u.x.L l ` .Xj J  X'.}.oXXX X` D C D H / X.F K v 2 2 ^ # 9 _ 5 ' X.} H P D 3 J k J 4 S 9 Z ",
"M.B.M.C.B.1.; =.C.W.L.C.B.N.d.Z.d.Z.J.p.^  XG X = 1.d.C.F.C.C.J.C.F.F.F.F.F.F.P.(.P.G.).G.`.).F.C.F.F.F.A.G.W.P.D.S.F.G.D.G.S.G.D.S.N.N.N.w.G.S.q.N.G.S.M.N.A.D.D.G.w.G.A.S.M.8.d.-.t.v.H 2 k ( .X7X2X8X2XaX8X0XaX4X7X.X( x 5 B w B w q w > q N N m e m S D H m 5 0 0 4 S 4 5 e S J ' G F e 5 m F S J ' H F H H ' J / H e D ' S D H F D H G 4 S S 5  XCXaXpX8XaXpX8X8X#X) h x 6 3 + X t D./.P.w.D./.e.(.).w.^.^.;.>.^./.G.0./.G./.(./.w.w.w./.I.8.G.D.(.(.e./.(./.(././.e.(.^.w./.A.0.0.L.E.P.M.S.A.d.Z.Z.L h 6 A |.].i c.+XR.l K S.>.F.L.E.m.Y.;.-.E.L.4 r A.D.F.G.A.C.C.N.G.G.A.4.4.s.g.j.d.g.g.j.s.k.H.K.T.j.f.f.u.1.s.k.V.j.Z.V.N.M.M.N.C.c.M.A.6.N.W.C.U.f.[ 6XxXaX8XZXzX5XaXyX:XJ / } I X.X.[ [ [ #X.XU  X.X#X_ / +.#X@.O.#XO..X>X/ :X..c ..+.+.+.O.#X+.} ' O.X.X...( X.X.[ ( I G X.;XO.~ X.O.U ' O. X/ / [ ' XXVXfXaXdX4X7XaXzXVX .0 1 3 2 # o 1 # 5 D D e t u.2.t t 2.t 2.2.2.t s t w a Z a Z w Z L Z Z x.y.y.u.h.u.b.D F &X|.q & a p y c.x.y.oX XD Z Z '.v.}.9XX.^ j 7 v x n h x 2 _ k [ [ x 6 h x ' ' K D K m m y.Z L Y  XU x.",
"M.B.-.=.=.r.i.u.Z.L.F.F.C.N.M.M.M.d.V.i._ XX X8 X 5 t.V.J.W.F.C.W.E.F.F.F.P.F.F.G.W.W.N.C.*XE.F.Z.B.S.S.A.F.F.P.W.A.0.0.A.A.N.q.0.A.0.>.0.w.S.S.q.q.d.s.M.B.N.S.A.G.G.F.0.q.N.-.;.B.n.oX^ # v .X5X0XeXeX9X2X2XxXbX1X6X;X..6 & N q > N w 5 w q w e 4 4 m D U S e e 5 1 1 9 q 4 e e D | | J 4 4 D ' F e ' F F ' | H P | ' U D U U D D D F U | l H ' 3 X.zX7XyX0XaX5X2X7X X( _ ) # 1 # 6 o Z./.w.^.^.w.w.^.w.w./.w.>.-.>.D.A.D.G././.D.D.w.).).D.P.k.A./.(.(.^./././././.^./.(./.D./.w.0.A.B.A.0.0.B.S.M.A.1.3 ] [ g # 2 4 D m.P G v.M.0.A.7.F.R.m.V.J.;.p 3 X d.D.S.G.F.C.N.A.w.G.A.6.d.j.j.h.h.k.h.j.j.z.Y.H.T.H.c.p.p.p.f.k.j.g.V.V.N.Z.N.M.Z.1.6.M.N.6.C.C.V.u.| 5XaXpX0X7XyX7XmXfX,XO.X. XU [ X.O./ J  X,X#X+.O.:X+.X.+.%.O.O..Xo...] X.+.{ _  X+.O.@.J #XO....XU  X....` ^ / ` ^ ] [ H $X( J .X[ ..X. X+.( I ' }..XvXdXsX7XsXxXaXpXgX#.F 5 @ # + X + $ # 9 K C a <.2.2.p i 2.1.1.y 2.y s a t a p A L i.L x.c.p x.x.p 2.p.5 X o F oX@Xv.v.w t x.Z u.u.2.y.f.u w y.].oX] k  .b / ..b n $ # z ` XXU U W Q ` }.Y M K e a e s t K oX'.x.x.",
"d.d.Z.f.e oXOX3.M.B.F.C.S.B.N.B.Z.<.s.C )  .O.) j @ a V.C.Z.E.E.E.E.E.L.W.W.).G.G.F.4.-.F.*X).).P.F.N.F.L.S.P./.G.G.0.A.N.A.N.N.G.G.0.A.A.0.S.D.N.t w 2 w u , N.M.8.M.q.q.7.q.M.q.H.D k h x v .X8X9XeXeX9X2X5XzXyXaX4X.X_ ^ 5 B N w w N = > q w w M e 5 m S S S D 4 o . 3 0 4 5 e S e U F D m D S J S 4 F U } } H ' | U [ F Y U U U U U H / G v G 3  X$X8XyX4XgX5X1X2X.XO.( W 6 3 3 h 6 w S././.^.^./.D.^.w./.w.0.;.=.: : q.P.).^.^.w./.w.E.(.E.Y.A.^.(./.^./././.(./.e.(./._./.D.w.,.A.S.w.Z.B.B.F.M.V.x._ _ '.z $ # X @ k k 7 5 U.6.4.d.q.F.E.R.9Xp.S [ 2 r D./.G.A.7.q.S.C.B.F.4.4.h.f.f.h.m.j.h.z.n.n.n.R.R.c.|.Y C c.h.h.j.s.g.c.m.j.V.j.1.M.F.N.F.M.C.V.m.[ yXzXzXmX5X6X6XaXaX;Xo.` [ [ [ #X+.X.[ +..X#X ...+.+.+..Xc / +..X#X+..X+. ._ o.O._ / +.#XO.] ] .X[ +.} ` c v I I [ O...U / _ I } [ ' ' X.X.[  XX.X..XsXpXrX;X4X1XxXaX0X .^ c o #   o @ # # 3 1 1 a s u Z y.y 2.<.y 2.<.y t p r e Z a P C a a p y.Z a a m.J X     & y.9XoXS K y.c.i <.x.f.u.u.p a M x.v.}.W )  .W $X^ x W x 6 k z I }.' ~ / }.oX}.K s Z a r a K ' C y 2.",
"d.<.t.p.k _ ' Z ;.B.W.F.B.N.B.C.n.v 4 ( +. .o.{ E 6 Z V.E.C.E.).).).).).E.W.).).W.3.;.-.N.).W.F.G.P.P.F.F.W.W.P.G.S.A.A.A.A.q.A./.G.A.S.>.>.D.A.y 0 m 7 a p s.N.q.;.8.N.N.;.d.k.p.4 # 6 h 7 _ ..X.wXeX9XwX0X0XcXyX:X0X}.^ ^ M L K C > q 5 5 D M q N e e M J S e m 5 o   . o 5 e 2 9 S F G S K P S S H F 4 4 H ] [ | | U [ ~ H U Y H U H H H 7 h @ O #..X:X6XsX6X:X8X1X#X+.+.c # 2 5 v b v j.D.w./.w.^.^./.^./.0.Z.u.:.< ;.B.F.).(.(./.).P.P.A.B.Y.M.S./././.D./.(./././.G.(._./.0.w.0.A.0.w.A.0.G.G.M.j.c.` E 2 @ @ 7 j # x W 7 5 Z.3.C p.B.0.C.d.R.].9 ( W @ Z./.D.G.A.N.F.N.N.B.6.4.t.h.z.n.m.h.c.h.n.b.p.u.c.p.OXoXl K c.n.n.U.j.[ .X/ v.U.c.C.F.F.N.M.N.F.x.( :XgX5X4X,X1X7XfX7X4X@ 1 ' / +.#XO. XX.+..X( .X#XO..X+..X.X+.+.+.X.#X$X+.+.+.` / $X.X..$X..[ _ X.X.}  .c ^ / ' [  X+.O.+.I H S ' [ ' K U [ [ [ ] I [ bXmX6X6X8X1XaX0XNX+.o O.x # O   X # + X o X @ 2 1 9 D 1 0 ; 2.<.: 2.2.Z 9 @ & Z p 2.2.i t i a 2 9 c X   . 3   * L U # 5 u.f.u.y.y.u.u.y t o @ a v.OXU c O. .x +..._ } W b H U H }.F X. X XXXL i.Z A m L A 5 C 2.i ",
"Z.f.C ] x x x h q Z.F.F.C.N.F.Z.Z h $ j _ o.{ ) ! 6 e j.E.L.).).).).).).).).E.E.M.;.-.6.N.F.G.S.G.).).).P.W.G.F.G.S.S.S.A.A.N.N.G.A.>.L.&X<.M.1.l 4 e u.;.4.q.A.0.0.>.>.q.;.8.C m 2 k h x 2 ^ .X .( 8X9XwXgXaXxX0X;X2X:XO.v g K D C q q q q m M e q q m e m e M m 5 1   # 5 4 m 4 D U | J F K [ H H H S ' H J 9 S H P ' J J J ~ S 4 m K U v X +   b +..X:X$X$X X2X;X;X$X.X-X^ g }.X._ c k b.P.e.w.^./.^.^./.q.=.j.v.: -.F.0.N./._.(._.)./.D.M.!.j.Z./././.^.(.(.D.D.w.).P.E.A._.e.0.N.M.0.0.P.G.0.A.A.1.e $ # # h I Y c 6 h ^ 9 ; V.m.p.3.d.S.B.-.g.v.2 ( ( + u G.D.A.N.N.B.A.F.F.6.4.s.f.n.m.R.m.f.h.c.h.i p.u.p.n.].U / c.t.m.m.v.|.&Xc x.T.n.Y.F.N.C.C.F.c.^ x :XxX7X7X.X6X.XaXNXaXc o # ` k z O.) ^ ^ ..+..X+.W O.+.{ o.#X+..X>X#X+.#XG O.( m }.$X X_ ( X.` I [ O.+.I G +.' ( O._ ` ` ] ' '  XX.I [ X.X.X./ ^ ^  XyXaX6X4X#X$X:X7XaX;X# 3 h k / I g 3 h O o X X X 3 l l + $ 9 p 5.3.1.p g 6 # # e P D 5 e e C 3 # # % . * p ' n   * [ G e p y.<.2.a A x.2.q + 3 D a a K ^  X#XX.( ..'.[ [ }.I K [ _ ...X$XwXXX}.].y.Y 9 C x.5.v.i.P ",
"C.u.I #.j x j j # p F.L.F.F.C.F.h.h $ j W Q W ) x + X q H.).).).).).).).E.C.W.L.W.N.=.-.d.6.G.).).).W.P.).P.D.G.G.A.0.F.S.S.S.A.A.M.4.J.CX&X;.k.' Z s.q.-.-.N.A.w.0.6.>.8.J.!.[ k I  ...^ c z ) ) ( Q.wX9XxXaXxXaX,X:X.Xk 6 2 e M M M m 5 5 N M M M w q e D m F l & X X 2 4 5 J K H H S F U m ' }.[ H m [ } ] F 4 S | ' ~ H ~ J U F H F F l 2 O 3 ..X.+.:X+..X X7X1X+..X.X X_ m ^ ^ O.X.^ b.P.A.A.A.w.D./.=.y r.z.v.S q j.S.0.P.(././.(././.!.@Xv.J.D./././.(./.G.w.P.w.).P.S.(.A.q.H.v.u.N.0.0.F.S.A.u 6 Q E x ( .X.XW ) h J c 4 N x.Z.>.>.N.d.M.s.H 6 +.$X6 X 4.D.F.N.C.Z.C.F.F.Z.g.j.b.b.b.].n.t.m.Y.n.f.h.c.x.c.i.m.oX].{.m.'.[.].OX|.{.+X@XoXU.C.V.Z.U.S x X.3XdXpXzX6XpX..yXnXrX) I b ` W O H / 3 h #..X+..X.XO.{ x ) O.O.@.#X+. X#X] +. X[ X.#X#X_ ( X.( ( ..] X.X.+.( ] ..v k ^ G [ ^ l ' X.[ ' X.O.[ O.O.O.X.yXfXfX4XW ^ 7XxXcX5X .$ # ` ..Y A 4 1 & & o X . X # # 3 6 6 1 e e e k v 6 + @ + X @ @ + + # v n $ + 3 H 2 9 c S x.v._ v K e b.c.v.v l e 1 @ 2 M a L G / $XX.XX.XX.}.}.[ }. .v  Xj v O.:X X]  XoXU m 9 P x.2.y.v.H ",
"V.i.x b k x j E 6 D M.F.C.C.L.C.F.x.x b ) E x  . . .E h C Z.V.V.E.`.).(.L.V.V.E.Z.<., , : <.F.L.P.W.F.G./.G.P.P.B.N.B.N.B.F.S.D.M.-.>.8.ZX&X>.d.P C i s.M.N.q.M.>.q.-.8.n.|.' ` _ ) ) .._ x h 6 ..gXxXxXGXmXmXmXaX2X:X.XG 6 2 S F m  XX.5 q e F F K D 4 e D K ] l 2 o X @ 1 2 S F H H / l l U  X}  X' [ [ / /  X XS | G J J J J / S $X4XG k G U W X..X#.O.:X@.:X-X@.X. X+. Xx k b ` +..X.Xv.F.A.N.V.F.M.* 5 D v.' K [ l D d.D.D./.^././.(./.Y.v.X.Y Y.S.(.(.D.A.S.G.P.A.w.P.D.D.w.j.F L k.V.n.V.J.N.N.e W ) Q +.o.{ ^ I X.( J k 6 7 D j.R.f.Y.v.p.|.G x O.O.] 6 r >.W.N.B.F.F.C.F.d.s.b.].].m.m.].m.p.x.p p.p.4 2 P |.m.].|.'.H 9 [ |.b.OX|.m.}.'.R.C.V.Y.Y ` ] .X.X4XgXfXiX6X` gXxX@.X h W O.O.W v k h h XX.XX./ +...^ c +.@. .o.O.O.~ O..X#X X+.X.:X-X:X#X X:X:X6X;X1X;X2X#X#X5Xl 4 l 2 c k 2 J ~ ] } [ O.+.( { O.] $XnXhXiX ._ bXKXKXfX) E z W @.O.K 5 2 J k k c S n @ 6 # + + + X   X @ # o o .           X @ c b # # I h $ j G U L ' ] h 5 5 g H ] j x 6 3 2 5 P S } c ^ [.'.1X1X X X#XX.^ ^ n v h n h W x 6 / $X#./ [ / U x.L '.'.",
"t.M h W x h j ( ( D V.V.Z.Z.L.L.T.p.k b ) )  .o.o.{ Q 6 x q t.R.+X{.j.T.C.d.t.2.d & K D > : <.1.C.L.Z.F.G.A.B.C.n.a w r.r.w w s.M.d.-.V |.E.-.1.f.j.e w r u > 4 r , B T K b @.+.@.+. .#. .b o..X4XvXsXaX4X5X5XcXnXyX:X) # 2 # 1 k I ..+.K Y M 4 4 4 S 4 m D J ~ / J 1 o + @ 9 S ' H J 3 / H ' } } } [ [ } ] }  X} [ ' / } ~ 1 . . . o _ ` #  X:X@..XaX.Xx o.^ O...x .. ..X..Q  .+.o..X#X#X X}.m.m.m.m.S W +...#.E I [ _ ^ i I.D.G.(.(././.M.L U c l x.t.S.S.B.B.0.N.-.C.P.D.B.S.N.<.=.h.h.Z F J Z >.s.G +.c x ) k c W x b W x z j W K s.@X[ [ I b W b ! Q b ..$ 2 d.4.N.A.M.F.U.j.=.y.@Xb.|.OXOXm.y.p.L  XoX3 + # # h  X[.X.X.j j c ^ ' ].|._ [  X@XC.V.].+.#XW +.+.;XMXsXgX,X+.NXBX@.@.x E _ 6 $ 6 @ 2 x I ` ..W O x  .W $ x o.+.$.#.+.( .X5X4X;X8XfXpXrXO..XNXpXpXnXyXyX2XO. XpXXX2X6Xg v 2 l k 2 _  X XO.+.` _ Q o..XSXpXpX@.+.aXKXLXHXx n j 6 x ^ ^ ...X.Xv I ..x 6 h h 6 X .     X # X O (  XU 4 2 O o x h h + # + # 6 6 # 3 $ 7 v v k n k k 6 6 E Q j x ^ H 4 k ^ x k ) ] XX0X2X X' ..G ^ n x  .x ( x 3 v  ....X . . X( [ ..X....X",
"C I W  .{ W W _ |.n.U.U.j.j.j.j.p.D k Q  .@.+.@.#X) n W ) b H U D 0 * > ; * . . 1 I _ ) ' p ; * * , V.V.M.4.3.s.'.` W ( ..W c '.m.m.].U I a.b.}.x.q g I  .b -X-X#.4X5X6X;X:XpXfXjXpXpXfXsX,X;X;XfXaXgXNXcXGXHXHXMXnX7X,X@.x k c `  .v ^ ..)  .] +.2 k v & 1 n I .X^ 3 J k 2 J l I 1 # v 2  X} 1 9 5 & 5 3 3 3 7 1 3 3 2 k x I  XI g I g b g 0XNX4X-X.XX.b g b I  X.X...X.X-X4X4X:X#X:X;X;X:X.X#..X.X+...X.#X+.@.o._ ....}.x.d.G.(.).(./.G.t.J J v n F i.j.=.q.N.j.y i d.B.q.s.F.C.F.L.V.p.h.i.[ Y v.}.o.@.#X .o. .-X<X<X<XQ x G c / OX@X&X.X X,X,X>XQ c ( #._ W 7 @XOXOX@X@X+XOXR.v.|.@X@X@X@X@X@XOX].m.8X2X..^ h 6 h j h ) ) 6 ) I ( _ ' ` z / +. XoXm.].} O. .) ` 6XvXBXHXtX,XHXAX,XtX#X4Xk _ ^ W ( ) x x  .O. X-X .#X>X#.#. .+.,X4X#.X.3X6XyXvXMX4X;X;X+.:X;X3X4X>X+. X.X.. X#X...X#X#X+._ #.c 3 7 G / ] +.^ %.$.x $XMXnXSXhX>XvXHXVX@.X k b +.:X5XzXNXmXNXVXHXNXpX4XI b b #.;X4X-XI b O. ..X.X X.XX. .x h O 3 h # # n n 6 h n 3 # 6 c ^ c h h # # 6 x x x ^  .) ( ..#.$X6X4X;X:X$X-X( ..X.#.3 X.1X:X1X..X.2X5XpX0X5X5X6X1X2X0X0X4X6X",
"6 n Q Q ) ) ) Q ( [ ' U / / X.'.I #...^ O.{ E b o.@.E x 2 6 x b x x I l 3 v b c h x ) x ^ l & &     & * ; 1.m.oX[ -X#X#X@.@.#X.X:X6X4X5X6X6X:X$X_ +.( X.:X.X-X0XzXpXpXbXfXsX7X4X2XfX5XyXnXhXzXzXMXVXmXVXmXVXHXVXHXHXSXSXMX3XXX@.h  .:X:X:X-X,X@..X#X..#.b #..X .#..X.X.X:X.X5 g x #..X:X3 v O.& & k ( O O ..U I ..I .X8X;X8XxX8X2XmXzXxX0X0XmXVXHXHXNXVXKXHXHXHXGXKXNXkXhXBXBXAXHXHXJXGXMXzXMXfXnXBXsXpXgX6X:X+.O. XXX'.m.|.v.h.V.d.F.(.B.b.U v. X` H Y |.'.L m.|.b.<.h.R.Y.OX=X+XY.@XXX9X1X&X1X3X,X>X#X,X<X%.o.#X#Xo.-XsX,X.X:X#XX.oXXX}.[ #XrX4X,X+...-X#X#X@.) :XyX3X$X1X1X7X9X9X@X].@X@XoX@XOXn.b.|.'..X;X#X..+. .o.W o.W h +.#X .) ..E k W b ..] $X.X.X#X@._ ) <XvXnXnXtX<XvXhX@.E W _ X.5XMXgXfXfX6X1XgXsXBXHXHXHXMXnXBX4X..X..X$X<XX..XXX:X.X#.@.@.+..X:X#X$X+....X;X.X.XX. X;X.X#X .O.+.-X^ h h 3 # 6 % Q #X( O..X.X.X) 2 n [ I #.fXcXHXKXJXJXHXHXHXHXHXHXHXHXJXHXHXMXHXKXHXHXHXJXHXHXHXSXnXVXfXpX0XgXpXfXMXkXfXfXfX6X4X:X;X6X8XgX4X4X>X:X-X-X-X;X5X5XpXfX0X0X7X0X0X2X4X4X:X:X;X-X8X0X0X.X:X0X8X0XxXmXcXpXzXmXcXfX0XnXfXgXfXMXnX",
".X:X-X#X#X-X@.O.@.#X@.#.#.@.<X.X#..X.X+.@.x x +. .+.@.-X>X...X:X.X@..X@.O.@.@. . .Q ` W ! E j b  .b n O v }.2X6XrXiX6X>X-X>X$X#X$X,X.X:X4X:X#XX.X..X.X-X4XaX8XCXcX7XsX5X8XnXmXaX5XvXsX5XpXpX7X8XpXpXcXcXxXCXmXmXMXmXxXxXyX6X5X7X/ .X0XpX7XaXzXiXgXMXgXpXnXBXgX5X4X5X4X;X2XcXaX7X1X8X2X:X2X2Xg  X;X;XcX8XwX0XgXVXmXCXNXNXNXMXBXVXHXHXHXHXHXJXJXLXJXJXJXHXBXnXSXAXJXMXSXMXsXpXsXpXhXhXdXMXAXBXMXMXNXnXvXsXnXhXfX5X.X6X3X&X9X8X5X6X1XXXwX9X@XXXwX.X.X-X.. X}.X./ U #XoX|.XXXXoX@X9X1X2X$X>X,X>X#X>X<X6X>X$X4X;X,X;X;X,X;X6XsXhXvXsX6X4XsX$X:X.X2X4X4X5X5X6X;X0XaXrX5XpXyX4X;X2X;XxXpX4X6X5XzXxX8XxXeX9X9X6X#X-X6X6XsX:X>X$.Q { h x j 2 ..) ) +.@.#X+.#X,X5X;X#X_ x _ b +.-X+.#X ... XX.#XX.b I GXMXmXLXKXHXKXKXCXVXHXHXBXSXAXNXnXvXMXpXqX;X;X5X7X:X;X4X4X4X2X2X;X5X:X6XqX6X6X;X6X4XrX6X;XaX2X:X;X-X#X@. ..X:X.X@.....:X7X.X.X#.#..X;X5XfXKXLXLXKXHXHXHXHXKXKXKXKXHXKXHXHXHXKXHXJXKXHXHXHXHXHXHXHXSXHXHXHXKXKXKXKXJXJXHXAXHXJXHXHXGXHXHXKXHXSXHXKXHXVXNXAXNXSXNXNXnXmXMXMXMXvXNXBXNXBXcXmXCXNXMXBXmXHXNXnXfXhXMXMXMXnXVXMXhXgXaXmXMXnXnXMXgX",
"mXzXcXfX5XqXsX,X>XpX6XaXpX5X6X:X:X.XwX;X,X@.@..X.X .#.5XMXmXVXGXNXfXnXrX4X5X6XpXsX>X.X.X-X,XfXnXnX5XcXBXfXfXfXiXrX3X:X.X;X6X;X-X-X.X.X:X:X-X5X3X;X8X2X0X8XfXaX0XxX7XfXpXMXxXnXmXNXpXpXpXzX6X6XxXaX0XxXmXCXPXKXCXcXmXmX0X8XfXpXpX:X:X7XaXgXxXzXgX5X7X7X7XzXMXnXNXkXMXzXfXgXVXMXnXCXGXHXHXHXJXNXnXMXSXbXMXzXaXhX5XgXBXHXSXNXvXnXMXAXNXMXvXnXhXpXsXpXpXsXhXyXrXfXpXyX;X5XpX:X;X5XyXaXaXrX4X#X;XyX5X$X,X7XpX5X;X5X:X-X;X8XpXpXMXMXMXHXHXVXmXgX0X7XsXgXgXaX7X6X;X4X;XwX2X>X;X5X5X7X,X;XpX4X4X>X.X#X:X.X,X,X;X6XrX5X7X0X7XaX7X5X7XyXpX7X8XpX1X;X5XpX7X5XpX5XyXaX5XpX6XaXMXaXnXMXnXvXdXyXpX5XpXfXvXgX5XdXaX:X.XsXrXrX5XfXjXfXrX^ _ -X@.;X-X;X;X>X;XiX4X;X7XjX5X5X>XpXgX6X7X4X5X6X5XaXMXHXNXHXKXHXJXMXHXKXKXLXKXKXHXLXJXVXJXHXHXJXJXHXHXSXHXHXSXHXSXNXAXSXMXNXAXAXBXMXBXNXHXHXBXnXhXnXmXhXgXnXJXKXKXJXJXnXNXHXHXNXHXHXBXNXVXJXJXLXLXLXLXLXLXLXLXKXJXJXJXJXHXHXHXHXJXKXHXKXHXHXKXKXKXJXKXHXJXHXHXHXHXHXHXHXHXHXHXHXHXHXHXHXHXHXHXVXSXNXnXvXmXbXaXiXfXzXfXsXgXhXsX5XsXgX7X6XaX6X5XfXsXfXAXVXVXSXMXnXzXfXfXdXnXfXsXqX6XtX6XyXaX5XpXpX5X5XsXsXsX5XpX",
"jX,X#X$.#X.X@.#X@.-X:X:X>X;X0X5X:X4X8X4X;X-X;X6X4X-X;X6XfX5XpXMXmXBXMXsXpXNXBXBXBX4XrX5XiXgXBXNXBXnXzXVXvXcXMXbXxX5X$X..:X8X7XrX5X5X5X5XxXaXgXzXpXaXzXcXcXzXzXmXcXzXcXCXHXCXcXcXCXxXaXcXzXpX7XNXnXnXzXcXCXGXHXSXmXCXmXaXxXmX5X4X8XxXaXaXfXzXdXzXmXcXMXnXxXHXMXcXsXsXfXnXmXMXgXCXMXmXNXnXmXnXmXzXmXcXCXmXmXfXfXaXvXsXpXvXfXdXhXnXMXfXpXfXpX5X5X4X5X6X8XpX4X4X;X#X-X6X.X6XaX1X;XaXyXaX6X$X:X;X5XrX.X5X7XpX2X;X7X6X2X:XgXaX8X6XsXpXfXdXfXvXxXsXgXfXnXsXaXaXsXfXjXsX7X2XiX5X7XfX0X5X;X;X4X3X$X:X:X6X4X5XpXaX7X5XyX7XyXdXpXxXfXhX7X6X8XaX0X0XpXgXyXdXpXfXdX8XxXpXBXaX7XyXpXpXgXdXzXsX3XMXhXjXHXVXVXHXNXhXnXkXdXfXiXpXhXhXBX5XgXBXBXBXAXiX:X5XnXMXBXHXHXBXgXnXAXGXHXJXHXJXJXLXLXLXLXLXLXHXJXJXHXHXHXHXJXJXJXHXJXHXMXBXBXBXAXnXhXsXdXvXfXvXBXhXsX5XsXjXjXdXfXiXiXrX5XsXrXiXsXsXyXyX5XyXgXpXMXSXnXMXMXAXNXjXHXHXHXJXJXHXHXJXHXMXHXKXHXHXHXSXVXVXKXHXHXHXHXAXMXSXVXAXMXSXVXHXVXHXHXJXHXMXSXSXHXHXSXHXHXVXVXHXSXHXHXHXNXSXVXBXnXBXMXzXfXsX5XyXaXaXpXgX7XpX7XaXpX4X:X7XpX7X6X7XpX7XzX2X2XaXaXaX;X1X7X5X1X5X5X1X2X2X:X;X#X.X:X:X:X6X4X4X6X6X4X;X6X:X",
".X@.@.X.#...#.-X.X.X:X X-X0X6X2X7X0XpX5X5X2X6X3X6XqX6X5X6X6X5X5X7X7X6X5X4XsXdX5X5X8X7X4X2XrX:X5XzXzXpX5XaXzXCXfXmXCX3X-X0XcXbXzXgXcXgXbXaXzXfXaXaXMXnXaXzXxX8XzXVXmXVXmXVXCXVX6X0XCXcXCX7XxXcXmXxXaXCXVXCXmXyXNXNXnXsX5XnXpXaXxX7X8X0XxXsXnXmXxXgXmXmXHXVXVXMXHXMXaXaXgXcXnXzXmXGXmXmXmXVXNXmXnXnXmXHXzXmXfX5X0XfXzX7XgXpXmXfXmXnXpXnXnXyXpX6X5X6X8X0X7X;X3X3X-XXX2X$XXX7X5X6X2X6X8X.X X1X1X.X;X:X3X8XnXdX:X5X5X5X4X7XpX7X0XfXmXpXyXyX7X6XhXdX6X5XrXaXsX6XpXdX5XyX7XfXaXMX8XVXnX.X X4XaX:X:X4X5X5X5X7XaXaX8X8X0XdXyXdX7X8X4X7XmXfXfXpXxX:X5XfX5XyXzXsXpXxXaXzXbX8X7XpXnXgXaXxXmXyXfXMXzXzXmXnXMXAXBXMXhXBXnXsX5XdXsXvXsXjXhXMXAXBXjXHXHXNXBXAXHXAXMXNXAXAXAXHXJXHXHXHXJXJXKXKXKXKXKXHXHXJXJXNXMXBXhXvXnXjXrXrXyXrX5XsXjX5X5XyX5XgXgXpX5XyX4X5XpX6X4XpX7X7X6X6X7XxXgX7X6XxXbX0XxXbXfXaXzX7XsXdX;X5X5XdXpXzXnXBXSXSXbXzXmXxXMXMXMXhXxXbXmXmXbXmXmX;X6XaXdX5X5XaXnXvXaXzXvXbXfXaXsXdXaXpXpXpXbXNXzXbXCXzXzXMXnXnXMXbXVXVXdX4X7X7XxXnXpXaXmXCXaXgXaX8XcXaX5X7XzXVXgX0XbXMXfX6XaXzXmXzX0X7XaXfX5X7X7X1X2X7X;X2X.X.X#X;X;X2X7X2X.X:X.X;X;X2X7X",
":X;X;X;X2X:X;X2X5X5X5X6X;X6XpXpX0X7X7XgX7X5X7X1X2XpXpX5X7X4X;X6X5X5X8X2X5X7XxX6X8X8X0XzX0XpX;XpXpX0XfX7XaXmXVXzXxXxXyX0XmXxXaXaXxXxXxXfXcXmXzXzXnXfXsXbXbX7XxXzXnXzXyXfX6X0XGXaXCXmXzXVXsXcXCXmXcXHXHXHXHXaX8X7X4X7XpXzXyX8XaXxX6X$X.X8XaXpXMXaXxXmXaX6XzXfX0XCXVXNXzXaXpXaXnXNXmXmXVXCXHXHXMXMXpXVXbX$XfXSXfXaXxXmX0XfXnXNXmXmXpX4XsXhX;X;X:X1X2X8X5X4X;X>X:X-X#X:X.X.X;X5XpX6X4X8X3X6X2X6X6X;X:X5X4X5XhXpX6X;XtXpXfXgX5XnXnXmXMXbX8X1X4X:X:XcXaXfXpX5X6X6X;X;X:X;X:X1XaXxXmXsXXXXX8X0XzXsXpXyX5X4XaXgXpXfXnXzXaX7XxXvX5XxXNXLXJX6X4X:Xj 4XaX7X7XaXaX6X7XaXmXsXmXMXfXsXaXmXaX7X4XdXdX0XzXrX;XpXfXsX5X6XgXsX4X5X5XpXpX5XiXfXnXMXMXBXNXNXNXAXnXNXBXBXnXAXSXSXHXHXSXnXMXAXHXKXGXVXHXHXHXNXVXnXyXfXrX5X5XpX:X4X6X4XpX6X6XyXqXaX5XpX5X:X7XpX6XqX7X7X2X7XyXrX;X7X7XaXfXaXzXzXzXpXpXaXyXaXzXzXcXdXmXzXsXMXsXcXcXaXpXpXaXzXMXCXgX5XzXgX7XzXVXmXaXnXzXzX8XmXmXxXzXmXzXzXfXaXxXzXbXCXcXzXxXgXaXnXzXcXmXzXxXfX5XxXmXdXCXfXaXVXaXzXzXzX0XaXfXbXVXCXSXmXaXyXyXxXaXaXMXnXzXmXxXdX4X#..X:X#XaXvX;XdX;X..#XyXbXaXaX6X:X:X@.( :XJXiX#X.X#...$X2X;X;X;X5X",
"2X2X6XqX5X4X5X:XwX0X2X6X5X2X0XaX2X2X5XaX8XgXaX8X5X2X0XaXaX6X2X5XpX0XxX9XcXaXfXdX5XaX7XyX0XpXpXaXgXfXzXmXzXcXxXaXzX4X2XmXCXbXzXxXxXNXzXaXzXpXsXpXmXmXrX4X:X:X6X2X4X:X.X8X7X7XxXmXnXzXmXCXmXCXVXVXVXMXfXzXaXpXzXiXiXpX6XaX5X8XbXzX5X5XaXxXdX5XgXgXzXpX;XXX0X5X2XaXNXmXnXMX7X5XpXzXyXpXaXxXnXdXfXdXdXnXzX:XfXMXvXzXmXhXnXpXpXfXpX5X4XyXaX5X3X;X1X4XrX6X;X4XsX5XpX5X,X:X#X#X:X@.#X@..X#X4X:X$X.X$X6X2X;X4X5X4X6X8X0X,X;X6XpXpXrXgXsXrX;X;X2XaXcXpXjXrX:X$.#X-X#X;X>X>X4X;X;X5X:X;X:X:X@..XgX5X>X4X>X:X:X6X4X6XyX,X6XsXMXBXyX2X2XmXJXMXbX7X2X;X7XmX8XaXvX7XxXdXaXrX5XMXfXyXvXzX0XfX6X.XfXpX5XsX6X2XmXbX5X:X0XdXpX7X7XpXbXpX5X5XrXfXvXnXBXMXMXMXNXkXvXaXpXfXjXjXjXsXhXsXyXpXdXMXAXBXfXvXsXfXnXMXnXfXvXsX6X4X5X2X;XaX6X6XsXsXpXpXsX6XrX$X.X2X:X$X7X>X3X5XpX7XXX XaX7X6X,X:X3X5XdXaXpXaXgXfXzXzXHXxXcXxXxXxXmXVXxXmXaXxXaXpXCXPXxXxXVXVXCXmXSXzXcXbX6XdXSXmXxXmXbXzXxXzXaXcXzXzXVXmXfXCXxXxXBXnXgXcXaXxXmXpXfXpXzXbXmXmXmXaX8XaXsX0XcXmX2XaX5X6XfXyX8XsX5X5XaXCXmXsX7XfXhX;X X#X+..X;X4X;X.X;X#.k ] 3X5XyX>X5X4X X..O.tX>X@. ..X X.X2X1X7X5XyXaX",
".X6X2X5XpX5X4X6X8XaX6X8XgXgXaXzXgXpXpX5XpXvXaX2X7X2X2X8XaX0X8X5XpXxXzXgXsXrX:X4X4XpX5X8X7XpX4X:X4X:X:X;X5X0XmX;X;XxX8X4X5X5XzXfXpXaXfXpXfX;X4X6XwX6X.X:X:X;X4X6X6X2X0XmXnX7XfX7XzXvXdXxXvXxXgX5X;X2X5XnXNXMXzXfXgXnXhXpX5X7X7X5X0XVXzXyXpX5X2X:XaXaX5X6X7XiX5XpXzXpXsXfXpXpXpX8X0XsXpXpX5XpXsXrX6XsXzXaXpX6XaXvXiX5XpX5X3X6X5X:X6X4X3XiX5XaX5XrXhXsXfXsXpXpXhXfXfXpXiX4X,X>X-X>X,X-X#X:X;X;X:X6X1X2X7XyXaX,X:X;X:X:X5X3X:X.X;X#X#X#X5XpXzXzXkX;XpXrX<X<X4XiXsXhXgXpXpXpX5X5X6XiX;X-X-XgXyX:X-X-X;X:X;X.X#X$.#X,X>X5X7X1XcX6X5XvX5XsX;X4XyX4X6X1XyXtX>X4X5XsX;X3X5XfX#X3XvX6X5XdX5XrXfXgX6X:X5XzXbXpX4X7XaX6X6XsX8X7XsX5X5X6X4X5XrX6X6X5XyX6X6XsXdXzXdX5X5X4X4X6XnXfXzXpX6X;XgXpXyXfXsXhXvXpXrXyXaX7X5XyXpX5X5XiX3XzXfXaXyXpX5XpX6X4X;X X;X;X$X;XyX4X3X+.+.4X3X.X;XXX;X2X2X;X<X$X3XzXcXxXCXbX0XzXCXnXCXbXzXNXMXcXzXmXCXVXCXnXmXMXbX7XmXMXpXxX5X6XyXsXaXfX4X5X4XpXfXgXMXzXpXpXxXCXCXCXmXmXnXbXCXGXHXHXSXNXVXCXmXPXHXmXPXCXzXmXcXVXcXzXzXgX8XaXMXsXpXpX6XyX4X6XaXaX.X$X5XiX;X2XqX6X6X6X:X$X@...#X$X:X.X:X6X4X;X;X2X;X;X;X5X;X6X4X6X4X;X4X4X",
"#.2X2X2X4X4X5X6X6XpXpX2X6X5X7XpXpX6X6X5X5X4X4X0XgX8X1X8XaXxXzXpXsXpXdX6X>X:X;X4X;X5XaX7X2X2XpX:X;X;X;X:X-X6X5X,X;X0X8XXX.X;X2X,X5X4XyX2X8X2XfXpX6X4X;X7X4X6X6XfX3X1X3X:X6X:X$X<XyXpXaXgXpXfXzXnXfXBXAXnXmXMXmXmXfXVXBXfXbXVXfX5XaXCXCX6X6X6X6X4XpX,XsXjXsXgXhXfXvXrX7XpXsXfXjXcXmXfXfXvXzXgXpXrX5XsXdXaX5XrX5XsXsXpXpXpXpX5X7XpXxXpXrXiXhXhXsXiXfXaXvXiXjXfXBXjXyXgXsXsXgXiXiXpXiX6X<XiX6X4XsX5X4X4X:X>X;X:X-X#X;X#X<X;X:X-X-X,X,X5XnXsX0XHXHXpX4XsXhXsXrXsXhXhXjXfXfXpXiXhXmXyXpXgXpXgXfXpXpXgXzX0XpXgXpX5XgXpX5XpXMXhX5X6XfXjX6X<X6XpX,X5X6X;X;X4XiX;X1X3X>X,X;X4X7X:X4X;X,X>X:X-X5XaXrXpXgXfXpXrX:X8X8X8X7X6X7X0X8X6XpX5X6XsXyX6X5X7X4X7XyXdX8X:X3XgX7X6XrX7X6X:XaXMXpX6XpXpXrXpX0XfXdXpX5XsXbXpX5X4X4X4X6X6XpXaX6X;XfXrX5XyX3XyX4X:X4X;X4X:X.X-X+.+.4X:X$X2XpXsX6X1X;X3X8XaXaXzXVXmXmXMXNXCXmXHXmX5XfXrXyXMXbXCXzXKXVX5XmXmXzXaXmXCXzXgXfXmXzXzXVXCX7XsXjXpXvXfXnXcXzXgXmXCXVXVXKXHXVXVXHXHXSXHXPXKXKXKXHXHXnXVXCXHXKXVXmXCXVXzXmXmXmXnXfXsXyXdXzXpXgX5X4X0X:X6X5X5X5X5XfXpXdXaXiX5XyX4XrX6X5X0XpX0XaX7X5X0XqXpXfXpXpXdX7X7X5X4X4X7X",
"2X2X0XaXgX0XcXzX0X0X0XaXxX8X0X6X6XaX2X0X7X8XaX0XcXaX5XgXrX6X:X:X6XpX2X5X5X5X2X2X:X;X6X:XpXpX6X2XaX6X8X6X;X5X4X2XaXaXzXaX8X4X:X:X;X6X;X2X.X8XpX6X2X8X6XaX$XX.-X;X-X.X( _ ) ) ` @.>XrXBXBXMXHXHXAXSXAXVXMXHXMXMXhXfXHXVXnXzXvXnXMXMXVXSX4XqXpX7X5X6X6XyX0X0XpXsXiX5X6XgXfXgXsXpXpXzXnXNXmXzXaX8X0X5X6XpXaXyXdXpX0XpXiXfXzXnXzXfXmXzX0XgXpX6XpXBXMXMXnXnXfXhXhXfXpXpXgXpXpXcXhXrXsXpXgXiX,X,X,X4X6X5XrXrXiXsXfXzXsX,X5X5XjXiXBXhXiXfXvXjXfXNXJXnXsXfXMXvXfXsXsXhXpXsXpXpXpXaXfXaXsXbXMXcXnXMXnXfXnXmXcXzXfXgXfXhXgXfXgXpXhX5XiXjXsXpXrX6X3X6XyXpXpXpXyX6XpXpXpXrX6XrX6X7XrXrX5XgXsXsXaXgXhXvXfX0XMXdXxXpXsX4X:X;X;X>X5X6X1XnXpX5X6X#X4XyX5X4XdX5X6X6X.X#XrXrX6X5X4X4X5X7XsXpXgXgX5XpXyXpXsXiX6X6XaXpXpX7XiX>XyXsX6X6X5X5X6X4X4X>X.X>X4XrX;X3X<X#XrX3X:X,XrXrX;X2X3X;X4X6X2X6XpXsXaXbXzXaXaXaXMXaXCXmXzXxXaXnXzXdXnXxXfXaXKXCXzXmXVXVXKXKXHXVXMXmXmXVXCXVXNXVXnXkXnXhXnXnXnXnXhXBXnXzXnXAXMXnXSXHXHXVXSXVXzXBXSXHXHXmXmXNXGXVXCXVXGXmXMXMXfXzXNXmXsXvXzXpXsXpXpXiXsX6XiX6XyXjXnXAXBXfXMXgX5XpXfXfX5XpXsXmXzXpXpXjX6X3XfXnXsXrXpX6X6X4X;X<X>X",
"5XpX0XcXzXVXVXCXVXNXmXmXmXmXmXaXxXVXzXcXzX6XzXxXaX4X2X0X6X6X;X;X7XpXsX0X0XmXgXpXpXpX5XaXyX6X0X0X7X0XaXpXdX7X6X;X6X5XaXcXmXcXzXaXxXzXcX6X2XVXxXxXxXcXzXzX;X.X2X6XpXBX>X_  .) ) / / o.W ) { +.#X@.#X.X3X6X:X,X4X4X6XrXrXnXSXNXMXNXNXHXyX7XVXbXgXfXgXpXpX0XfXdXsXrX5XfXBXHXMXnXHXHXVXSXHXHXKXKXHXVXHXNXgXsXpXxXMXgXnXmXCXGXVXCXCXxXxXZXCXCXCXBXnXnXNXfXsXBXmXBXNXBXnXnXnXMXcXcXzXfXpX5X6X.X.X;X6XsXpXpXfXfXiXiXxXbXfXjXkX6XtXiXrXgXSXvXnXNXnXNXMXfXnXMXnXhXqXgXnXzXgXzXgXpXvXsXaXzXmXNXnXnXvXhXnXMXHXGXHXMXvXhXsXsXvXnXBXjXsXrXpXBXfX5XaXzX0XMXgXgXrXvXzXaXnXnXfXnXfXhXgXpXfXpX5XsXrXyXvXnXHXMXcXSXMX4XpXpXpX,X<X:X:X#X-X.X$.#X:X<X.X X.XX.+..X#X;X,X>X6X;X;X4X2XpXrX5XpXpXnXMXzX5XfXgXpX5XqX;X6XpX5XaX5X5XqX5XiXrXiXfXfXmXaXsXjXiXaXgXsX5X6XqX:X;X2X5X>X,XrX5X5X,XrXmXnXzXmXnXzXgXgXsX6XcXxXdXfXzXxXMXcXCXnXnXcXbXVXCXMXNXVXVXCXHXmXVXCXmXMXVXNXNXVXHXHXHXHXVXVXHXSXnXMXNXNXNXVXNXmXMXMXnXBXvXnXSXHXHXmXVXSXKXKXHXHXHXHXVXVXPXHXVXMXmXnXBXVXzXsXfXpXvXfXjXpXnXBXvXnXhXhXMXVXHXVXVXSXNXfX0XzXpX6X5XsXiXvXnXHXtX@ . o <XiXiXiX,X-XrX6X5X4XgX",
"qX6X6X0XpX5XxXfX0X8XaXpX5X0XmXzXgXpX6X4X8X2X6X5XqXqX2X6X5X7X6X5X7X6X5XaXzX0X7XqX5X5X0X5X5XaXgXsXaXmXzXzXxXxXBXCXzXfXMXNXBXmXmXmXCXmXbX..qXVXVXCXzXpX6X:X#X:XrX-X#XO.^ ^ ) _ ' Y 4 $ h h 6 + # 3 2 C c z 7 j ^ [.v G 6 Q #X$XrXdXzXHXMX;XgXCXxXCXcXaX0XxXzXcXGXMXVXKXHXnXHXLXSX5X$X:X3X6XsX>X+.$X8XSXSXMXHXKXHXHXHXHXxXzXKXSXNXpXxX0XxXxXsXBXnXLXLXLXLXHXMXNXfXjXkXsXsXjXfXzX7X7X0X0X0XzXfXpX5X4X;X6X6XaXpXpXsXjXkXBXsX6XnXnXfXsXkXkXfXjXrXsXMXnXfXHXSXNXmXnXnXzXxXgXzXcXVXmXcXmXmXmXgXhXfXfXsXrX>X>X>X;X:X$X;X+..X:X<X4X,X>XsXjXMXmXzXcXCXMXGXHXHXGXHXHXKXHXGXGXHXNXNXVXVXcXMXnXnXnXBXmXVXfXGXHXHXhXgXzXfXrXtXrXsXrX:X.X-X-X;X;X4X;X;XqX;XrX4X4X5X6XtXrXsXrX6X6XsX5XpXjXhXnXfXfXgXfXnXcXmXNXMXpXaXdXpXfXsXgXgXgXsXMXnXNXmXbXnXBXNXMXMXvXBXnXkXxXaXrXpX;X;X6X6XsX6XxXGXHXHXPXHXCXSXVXmXHXVXxXmXVXVXNXVXCXVXCXCXVXHXVXCXVXHXVXGXGXHXHXHXSXHXHXMXHXHXHXHXHXHXHXHXHXVXGXVXSXNXVXHXVXGXHXMXNXVXNXMXVXHXVXHXHXNXCXKXKXVXnXVXGXGXHXHXNXVXVXNXnXvXMXVXnXnXMXMXnXBXBXNXhXfXfXyX7XxXmXSXVXHXHXKXHXVXHXHXJXNXAXJXAXW o ..:XR c 6XhXsXiXjXhXjXsXfXjX",
"cXnXMXMXfX0XgXpXpXfXzXnXzXaXpXfXnXMXzXcXnXfX5X5XpXfXfXpXqX;X4X0XpXpXzXvXzXfXxXzX0X0XgXfXpXfXqXfXnXbXcXVXGXGXVXVXGXSXSXMXmXMXnXdXmX5X:X#X0XMXvX4XO.W ` ` W W v h 2 5 S 4 ^ ~ ' P 2 j # $ 6 W x c x.x.2 # 6 @ 5 C C A 0 5 4 K L v.H G W c .._ #.tX%X#X-X.X:X6X6XdXMXbX>Xc X.;X|.|.f.m.|.K D P L V y.b.OXv.oX X+.<X<X<X} v O. .@.+.o.+.%.) j ) $.%X;XyX$X} { { E E ) Q E W o.{ ! x ` +.#X#X;X,X,XrX6X6XyXsXnXAXkXBXBXBXiXBXBXBXAXnXBXjXBXNXBXHXNXLXAXHXLXLXKXVXNXNXzXaX7X;X;X:X#X#X.X$.+.$.+.W 2 h # ) ! E @ 2 k G ] 2 2 ( ^ k #X#X:X3X<X.X3X:X.X#X#X<X@.#X>XtXdXMXSXKXKXLXLXLXLXLXLXLXKXKXKXpXHXKXHXSXGXHXNXhXkXNXMXMXnXfXfXzXzXfXnX5X5X5XpXpXpXpXzXnXrX,XiXfXgXsXpXjXsXfXdXjXzXMXnXnXnXmXMXNXMXmXvXvXhXhXhXnXMXnXMXNXnXSXNXSXnXnXMXhXhXnXnXpXaXMXnXzXpX0X7XyX5X6X,XmXHXVXPXHXVXVXCXzXxXVXVXHXHXVXVXNXHXHXKXKXHXHXCXGXPXHXHXHXKXHXVXHXHXKXKXKXKXKXHXKXKXKXHXHXHXHXHXHXHXVXVXSXHXVXHXSXHXHXHXHXHXHXHXBXVXHXGXKXHXGXVXfXcXKXKXHXHXHXVXVXHXHXNXHXHXHXSXSXMXyXyX;X2X8X2X6X1XaXfXSXKXVXVX-X3XjXHXHX:X+.rX,X<XE O I &X1XXXoX1X XX.1XyX4X;XpX4X:X",
"hXjXgXnXBXhXpX5XaXyXyXpXhXhXhXtX#X4X4X:X>XgXcXmXcXbXmXfXgXpXcXNXHXVXnXfXfXMXJXSXNXNXNXjXnXCXMXHXHXSXHXmXdXsXmXyXsX:X.XrXdX,X3X .;X<X..+.-XfX#X:X.X2 b o._ ) 2 2 m x.P 4 7 3 9 2 # o.E # $ c Q P x.Z 4 ` ^ 5 Z y.p.u.t.c.c.m.m.c.p., u p.x.[ z $ j o.{ E Q W ^ Q h ^ 2 Y v.x.y.2.x.<.y.r * Z u p <.1., b.t.w x E E k 1 }.v.m c Q o.) Q W W 6 # 0 C u.Z e 5 # # # # $ $ # 6 # j j j E h ` H U ' ] O.O.$X4XyXtXsXfXBXMXHXAXkXkXAXJXAXAXAXBXHXLXJXHXMXHXSXyXpX-XO. .` W E $ $ $ j + % X X X X + + $ x $ j { @ x 6 h 2 3 3 @ 6 # @ 7 h k 6 $ z x z # k n # 6 h x G v ^ #X#Xo.) O.,X%X>XsXjX6X,XBXNXSXSXrXnXnXsXAXNXsXnXMXMXMXnXgXzXVXnXcXnXgXpXsXgXsXnXfXfXfXnXhXnXnXfXnXMXnXMXMXNXnXMXBXMXVXSXMXnXAXhXjXkXnXBXNXnXhXfXgXjXvXrXjXSXNXNXMXnXBXMXnXnXMXMXnXnXnXMXBXsXMXHXHXGXVXPXKXKXHXKXKXPXCXVXGXHXmXCXVXVXHXVXSXHXHXKXKXKXKXKXKXKXKXKXLXKXLXLXBX3XVXLXLXLXLXLXLXLXLXLXLXLXLXLXLXLXLXKXJXHXHXHXHXNXSXHXHXKXKXHXmXKXPXxXMXVXKXKXKXKXHXGXKXHXHXKXKXHXMXSXbX;X6X#X#X;X6X6X;X5X.X#X#X>X<XW . 6 @ v z 3 6 # 3 2 J Y K q M M 4 M K C K U ' '.1X.X}.",
";X2X4X4X>X#X$.@.+.` b _ x  ..Xx 7 n ` x h ;XMXMXMXyX5XmXVXnXjX6X3X3X;X;X#X.X+.#X+..X:X$X2XdX$X$XO.W ) x c c ` x E z x x j 6 W ) #X#X X#X;X;X@.;X X3 I b v v ^ ^ q Z 5 1 @ 1 9 # + $ E # # 8 ~ x.u.x.L 9 1 a y.u.u.c.<.p.c.f.b.b.T.E.c.R.R.P D 1 3 8 # x E 3 7 3 N x.m.c.c.u.p y.p.y.p a u a ; t f.1.t t n.u.Y v v a p p 5.t i.x.3 c k W ) 6 e c.y.p i <.C e e K 4 e q N D l # # $ 7 9 9 Z i.Z S ` +.} X. X..#X#X>X#X%X$.<X#X>XrXtXtX6X5XsX6X6X>X:XzX>X.X;Xb $ h h 7 x x + X   X X %     X X @ E x 6 + # + X X 8 $       . @ Q # X % X # 6 3 # ) # 6 W 6 # h o o @ c x 6 @ $ j @ + # ) x +.AXAXhXAX$.rX,X) $.%.^ #XzXMXvXNXMXVXVXmXVXVXmXNXMXbXmXmXmXnXAXNXNXnXnXAXVXVXNXNXSXAXNXAXnXhXAXHXHXNX.X>XMXMXNXBXnXjXsXrXsXhXBXdXrXhXfXMXMXSXHXHXJXHXHXNXHXKXVXMXNXVXHXNXSXHXVXKXKXKXKXKXKXLXKXLXLXKXKXKXKXLXLXLXLXLXLXLXLXLXLXLXLXLXKXKXLXHX+.>Xx 2 ^  X#X3XyX9X9X8X$X$X1X3XyXMXCXSXHXLXLXLXLXLXKXKXKXKXHXLXCXcXVXKXLXKXLXKXPXKXLXLXLXLXLXLXLXHXHXHXVXyX.X#X+.` z O.#XO.Q Q k 5 o + # 1 H 3 k 1 9 G ` l U v.K ' m M L A q q = - m F S l D Y N ",
"6XyX5X.Xj v E { E ~ E Q W W ^ h G c ^ o.$.) W  .) ) ^ -X#XO.' ( ^ +.#XW k k F F g m F M M H 4 # 3 O   + # # @ $ 2 G l c h # + $ O.b -X#X.X<X+.@.$X3 b 5X+.6 6 3 4 x.q 0 4 5 s 5 + # # @ # $ S f.n.c.5.a v.5.y p f.].2.r.c.b.p.R.!.+Xc.R.R.c.n.'.` @ x W D x.Z p.U.g.U.c.p.y.Z i p.x.<.y u p <.y.p.i <.2.c.u.<.: ; * ; * ; p Y.T.c.P e 9 2 D p.u.u.5.1.u.p u i f.c.p.u.c.c.x.3 1 C r 1 4 Z L Z x.x.L Y [ ].'.K 9 6 $ h j # $ $ h h j x  . XsX,XI :XMX2XaXiXx j x ! W E @ X   X $ $ + 6 # # # + @ 6 6 + %   X X o +   X   o x k # X j ! # X # h j # h ..x # Q W 3 E h # 2 I ^  .) Q h _ W #XNXhXnXAX#XgXtXj 6 j x ) $.#X#X<X6XHXKXKXKXHXKXKXHXKXHXHXHXHXSXHXAXHXHXAXAXAXVXNXMX6XtXsXuX#X+.#X+.+..X+.) +. X` ..W c k x O.#X#X+.@.#X.X X;X6XtX4XsXuXtXjXhXrXrX$.#XsXnX>X#X<X%X#X>X3X5XdXbXxX6X<X-X>XmX6XsXrXzX,X4XbXyX4X3X:XbXbX+.O.` 3X.X) 6 c x W k v '.x.a.h.n.v.b.n.R.Y.n.L H [ G / O.$XdXKXLXLXLXLXLXLXKXKXKXLXHXKXLXLXCXbXhXjXyXsXrX6X#X+.O._ $ @ G 9 7 3 2 2 h z v 6 9 9 9 l ~ l 5 S k 9 9 4 4 S Y T K 4 3 e m.l.m - & o @ g ' m D 5 ",
"pX4X:X:X..[ ' l x c S J l z 8 8 E Q j x ) o.h n c W ` ( ` / ' [ H #XtX^ U F Y v.}.[ [ D M D L F U H c X % % X X v ' G v 6 *.j # # h 5X#X.X<X:X:X5Xx X b z   . 5 s C s 0 5 q a 0 5 D S 3 2 4 P f.f.5.p t x.a 2.2.2.p.f.u.u.c.y.j.+X+XR.R.R.R.c.y.A '.x H c.U.n.c.f.c.c.y.a t p 2.x.Z Z p y.c.y.2.a t 2.u.y f.c.p.c.p.y.t , y 1.u.c.j.c.f.2.<.2.V 2.2.r.Z y.u.i i 2.u.y.f.u.u.y.q Z u 4 4 a r p.f.c.x.u.2.c.c.a L 5 3 # # 6 # @ # n h # Q 6XBXhX;X2XmX5X6X6XW x ` x ! h k x Q W k h 6 h b h X X $ # $ 6 +     X + % 2 x # v E c 7 ^ #X$.E 8 6 x $ 3 ` ` j # @ # . # 6 # 2 c @.) o.$.! ) ) :XmXnXvXAXzXvXsX# 6 j 6 x Q Q ` o.$.$.$.+.) @.+.@.o._ ) ` O.$X#X#X3X>X$X;X:X#X#XO. .U L Y F ]  .3 @ 2 O._ n F oXY XX}.4 S 4 S K U [ ].x.b.n.m.'.v.L D U  X X].'. X' G O.%XX.l E # 3 x k H  X.X .`  .W .X:X XX.Y  X.XX..X.X+..X}.}.|.v.v c +.b c c O.b 6 J l.x.l.L l.l.b.s.R.E.J.E.a c.`.~.v.F 2 k  X` $XpX7X6X4XrX;XsXiX5XyXzXyXfX .j x 3 W x o # z ) 3 3 7 z o.` 9 E %.O.E 9 3 2 2 1 1 9 3 5 2 2 2 2 2 1 1 4 T q 0 0 & * q 1 D M & . o C g o & ",
"5X;X-X:X X[ [ U J H Y Y F 4 3 4 J W Q x b %.%.6 3 v ) ] U M F Y Y I z H F U K Y [ S U U ' H L K K U '.J @ X # c X.} H H J 7 h E x X.qX,X#X,X-X4X4X.Xc     % 4 r r a a = 5 w a t u.h.x.e D e y.y.u.1.2.p , 1.<.2.s a 5.u.u.c.j.f.Y.R.Y.Y.T.U.Y.R.R.n.m.].u.2.x.y.p p y.x.a i p u.c.2.x.c.f.u.i p t 2.y y <.f.u.R.].{.{.p ; <.<.2.1.f.T.U.f.y.i i 5.t t ; p p., t t i i y.y.r.2.> 0 m Z t 0 a p.b.u.<.Z i : c.b.{.c.|.X.k ^ j x # j z h x <XMXjX6XaXmXfX8X7X# @ j h j 6 b $.o... XG x 6 _ O.` j 3 v v 3 @ @ @ # . # b W G ^ x 3 j _ +.z x Q ! # 6 8 j Q Q { $.) h o 6 Q c ^ o.{ ! j E +.x ;XNXNXhXrXrXjXAXQ + + @ # Q ) ^ ^ W 6 # ) 6 Q ! # $ # 6 $ 6 6 2 _ +.c v H J / ( W I K K A v.'.oXX.[ ' O. XXX1X7Xv.q K m.m.].|.R.OXR.m.{.p.p v.].m.i.A b.R.R.~.m.m.OXm.L L m.OXv.m.Y [ [ m.v. X#XQ x W +. Xm.v.v.].}. X X&X&XOXm.m.R.T.L _ 7 c ( ..]  .2 L l.l.l.m.v.l.i.i =.s.H.J.J.Z.M.).`.!.v.] k n h .X>X>X:X>X;XBXpXpX4X#Xx W +.^ +.b ` ` O z o.^ #XQ 3 %Xo.^ k ~ O.2 3 2 1 9 2 2 7 1 k k 9 3 7 3 1 o o 1 9 o o 1 1 1     4 q M K 5 . . m H ",
"5X:X:X3XO.H [ K U U ' H L T U Y ' k 7 v c  .%Xo.Q o.W S Y v.U Y Y ' U D m D K K K C M M L M N K U ' K [ _ ` _ ] '.'.' '.' J @ $ j ( qX<X#X:X:X$X4X:X.X% . b v 0 s a y.y.q 5 * p 2.2.3.u.y.y.2.u.u.1.2.u.2.5.2.2.s ; y 2.s.n.f.f.g.U.j.c.R.Y.T.R.R.Y.R.R.x.5.i p p p 2.y.y.i u.c.].f.1.t 2.u.2.5.2.2.<.1.y u.n.n.{.y.2.y s p y 2.g.g.U.u.2.2.u.t s ; c.<.t p i u.5.y.r.y.v.c., Z 2 2 * e a : t i u.u.p , 2.f.Y.].u.x.H }...6 +.E 8 2 x +.:XMXnXMX4X4X4Xl  .n # @ 6 $ j b W @.@.+.tXQ ) ] c  .j @ S J 3 2 3 1 3 2 7 z E c E 9 2 W %.@.) ` k W 7 # # # E Q E O.) 3 x ` { $.{ ^ Q 6 x 2 :Xj :XHXVXgXrX<XhXAX) @ @ # Q z W 6 n  .+.b E ) ) O.Q $ 6 c n b .X.XJ S m H 4 m v.^ l Y g K v.v.v.v.'.$XoX}.@XoX&X'.q e C b.p.i.p.p.c.p.w e K C D v.b.m.R.Z c.~.R.R.m.m.R.R.R.m.Q.m.m.m.v.v.x.'..X` _ ) @._ x.m.m.v.i.|.oXv.R.!.R.m.m.OX+Xp.2 _ k _ O.+.X.I e A l.l.b.x.A B , s.g.J.J.J.1.C.).F.P.P.{.H ' O.;X5XrX.X;X4XsXyXpX4X#XE ^ { +.W #XW 3 3 7 W ^ { v c v 9 9 ^ j 7 2 5 2 | G 5 9 l 1 1 3 v 2 @ 3 o & & & o .         . 1 5 C C C 5 - l ` # ",
"5X>X#X:Xo.k U Y U I I K T [ S v / J U I k ` Y [ +.o.` H F K U D D K M K Y C D P D M Y L C M v.[ Y F Y / ~ I W W [ Y '.'.[ H 3 X # X.qX4X:X#X@.3X6X.X+.@ x ` 1 q w a i 5.s X & p u <.<.1.u.5.1.3.u.u.2.=.1.p , 1.y 2.1.1.t.1.g.c.c.U.c.n.Y.U.T.{.Y.Y.Y.p.1.u.2.p t y.y.y , y 5.2.c.<.m.].2.u.2.y 2.y 1.1.<.<.<.2.1.2.y ; ; q s i 1.1.f.2.p y t t y , t.p i Z i 5.a p y.2.].x.<.a s q & u <.<.p y p y.1.s.u.u.<.y.u.x.S [ I 6 E E $ $ h ) :XVXCXNXmXsX#Xv #..XO.W # + # ^ @.@.{ ` o.o._ .XW +.{ @ J E k 9 G ] k k z 2 S 9 k 9 ~ v b O.{ ^ x ) # # # E ` h x j E x Q ) Q +.8 { ! # W k +.+.#XMXAXsX6X#XnXBXQ + #  .E 3 c k ^ #XO.k 3 k x E 6 h 6 ...XXXX.W 5 e 4 5 m S q 0 3 m K C L v.v.v.L D K '.@XOX|.v.x.q Z i.p.p.i.Z w A D c ) '.&X@Xm.i.R.m.m.R.~.Y.V m.m.m.c.b.b.R.n.b.R.].'.[  X_ Q Q Q ` x.m.].m.m.m.R.m.R.R.c.b.b.p.n.~.4 ( b ` O.+.O.[ K i.b.p.b.b.p.p.t.s.M.V.d.F.Z.C.F.E.L.F.C.g.U.'.#X6X6X4X4XpXyXsXpXpXo.j E { #X@. .# o 9 7 } { c { { ` _ O.z 1 3 G 9 2 ^ ` J ~ l 4 5 o J 2 @ l 3 0 5 - . o - 1 . . 2 2 N N M q 5 ( $ % + ",
"5X:X-X;Xo.z M K K H '.L K U U D m U  X@.c G J /  .` ' P e D D m C K D U Y Y Y U D M K L M A v.' }.+.] / c I ' ' '.}.U U U K H 7  .+.5X6X4X;X-X5XgX4X@.k W l a a s y.u.2.r o 0 t ; <.3.3.1.2.2.u.<.1.u.2.<.y <.1.<.1.=.<.2.y 1.f.g.g.U.U.c.Y.Y.c.n.T.c.p f.c.m.v.p y y.i y y y 1.u.f.u.x.2.i p y 2.1.1.1.1.3.2.2.t y 5.; * t t ; ; y y t 5.r i i 2.y i * w ].e @ X r i y 2.i t ; s y.i 2.: y.a p.2.<.<.1.i 2.<.y.i l.K G v @ 1 k k x x W >XGXnXzXyXnXMX7X4X_ W +.c 7 G .X>Xz 3 G c #X.X_ .. X` 2 z z c k c 9 z W 3 O v 0 m ^ c c v z o.z v Q 2 z $ # x 9 3 x E Q E ) } x W @.Q # # Q #X.X( aXAXrXfX;XnXkXo.+ n ) j 3 c c X.$.k 1 @ k g 3 3 @ 2 X.^ k 5 5 m g 5 N C K w B M 5 A T T x.v.L v.v.L C x.v.m.x.v.K L v.i.l.L D  X}.|.[ H v.@X@Xm.i.b.{.R.n.n.b.b.m.m.R.m.z.R.@Xm.R.OXOX|.' ) O.` x E ' ].m.m.b.b.m.m.R.m.m.n.b.p.u.t.z.m.5 3 O...] ..#X1Xv.s.b.b.b.b.z.k.s.M.C.M.A.F.P.E.E.B.C.J.+X+XE.oX:XrX4XyXfXxX5X4X5X#X# h k _ #Xn 1 2 3 E ` { +.<Xx } o.E W v 2 9 G 9 c { v ] J J 9 5 5 3 h # 2 5 5 0 5 4 D K S 5 9 v S S D D k # + X + ",
"6X4X3XO.) }.M K U U / g K v.'.U F J J v l ^ I ^ ` ^ H F H D K K K K M Y Y Y '.[ H F D L A L K P ' [ U H H U '.}.'.oX X} H Y Y H  X..:X4X,X;X4X5X6X:X#XI +.J p p s t 2.t 1.2.a a <.2.3.3.2.2.u.1.<.1.f.5., <.x.2.=., <.<.y i 2.t h.U.R.c.f.c.c.a p.n.c.u.c.2.x.v.y y y y p <.<., t 1.<.y , i p , 1.4.3.3.4.1.1.1.y t 1.<.y.p o 5 t t a 2., 2.p i t p y s a s X X k q <.i ; a i r C i 2.y t t t 2.i u.i <.i 2.2.y.t i m.v.4 e a h z 7 6 x -XVXBXfX8XMXHXnX4X..O._ ^ ^ 6 W uXQ 3 1 +.@.` k G ` k c 6 3 v 9 7 k Q E 3 5 G e 5 l ^ k x E x j W $.9 9 j + O l v W E E j E O. .%.o.Q x x b +.@.6XVXNXrXsXpXnXBXo.n j j z k G v b v l 2 v l g 5 9 @ O 4 g g 4 m g v 4 N A A V i.T Y Y v.v.A C C L i.x.v.l.A l.v.x.K S v.v...@.^ OXn.m.m.R.b.b.m.p.b.m.OX+XOXR.m.m.b.R.n.R.b.n.Y.Y.R.~.OXR.OX[.+.( / ' v.b.m.b.Y.n.b.m.m.b.n.n.Y.n.l.i.y.j.p.> [ #Xv ..#X#X|.Z.j.l.p.b.R.V.V.Z.V.Z.Z.C.P.W.B.B.S.).+X*X).+XyXjX6X6XyX5X3X6XsX,Xh h j h ) z 2 1 3 c k z E 3 z { j 8 E ~ 7 k J c E E v ] 3 3 9 o @ o 6 3 l - 5 4 H S m e m m 4 J H K M g # X + # @ ",
"4X:X.XO.` [ K K M F / [ K [ [ H U J 9 S G c l .._ H F m F M K U M K K Y K Y L K ' K P Y A A M K K U '.v.L v.'.'.[ '. X X}.' '.}. X+.qXsX,X;X4X;X;X6Xh v #XS s a w t i y 1.u.2.i y 2.1.3.1.<.1.1.<.<.y 2.f.f.i u.1.<.<.u.<.2.c.2.p.{.Y.f.u.u.x.y.x.x.y.p a p <.2.y y y y 2.2.2.; s , 1.<.t y i y.2.1.3.3.3.3.<.4.4.2.1.u.x.e X 1 t : ; 2.1.p ; p 2.y 2., t & @ a K e b.r 5 w y.i.a Z y 3.y s u <.<.<.<.t t <.2.Z p a p.c.h.Y.p.J b j h x -XGXnXzXyXVXHXmX:X+.+.^ ^ ) j 2 v ' U l ..( v Q +.+.j Q 7 c c 9 c j 3 & 5 m 5 5 5 2 3 c Q k z z k o.c x  .G 9 v { 9 7 c j 7 ` .X@.) o.W ..) o.#XHXMXkXrXpX6XMXhXo.;Xx 3 v k k 2 4 l g g S 5 4 4 2 @ o O c S g g g 5 g M T A A A A Y A T v.A x.Z V i.V l.v.A p.m.l.oXv.m.'.' }.].m.a.v.C b.p.b.c.i l.b.i.{.n.b.m.n.n.m.j.R.m.h.Y.h.b.R.m.b.R.OX].L l m.m.n.m.Y.R.R.R.m.R.Y.Y.n.T.Y.h.i.u.H.V.n.v... X[ .XO.U j.Y.h.f.h.j.d.d.J.B.Z.T.C.N.6.4.6.M.S.).).L.R.3XpXpX4X#X#XpXpX5X5Xb 7 j 6 6 @ 3 @ 7 l G ^ ^ W k k E { { 6 2 ~ v E W 4 / ~ 9 2 _ 2 . 3 2 k v S m m 5 S S m S S e H U K F l 2 l c x 9 ",
"6X<X:X` 2 D J F D Y [ ] ~ / Y M / H 5 m G ^ ' oX_ J F M F m K 4 5 K K K C N A Y D Y L L L T x.C L U '.Y Y v.'.Y Y Y '. X[ U U '.X.I 5XvXpX;X;X;X0XNX+.@._ q w 5 q t 5.<.<.y 2.t y 2.1.<.2.2.<.<.2.2.<.1.=.u.<.2.1.:.=.<.2., 1.1.2.h.c.u.c.y.c.p.x.x.p i.u u y.i y 2.2.y y y t i s * f.t ; y 2.5.y <.1.;.=.4.4.4.M.4.=.y 2.; X & <.: o 5 u.r * y 2.<.y t p r o 0 t 0 4 2 D Z i 2.y.v.i h.: 0 s p <.t 2.<.2.p i v.P a y.f.f.f.u.|.x # # ! ,XHXmXfXpXNXKXMX$XO.+. .E W h 2 3 k S F ( #X` v +.O.W 6 7 ) ) c j o 4 N D 5 4 H [ m 9 W Q ` %.z 7 x o.^ ` ) k k z 7 # E E 6 h _ ` W O.2 _ x ` 2 fXnXiXrXjX4XbXBX) o.h 2 9 c k k k J l c g 5 l l 3 @ X X 3 3 5 5 5 4 m 4 Y Y N N K M A v.v.A i.l.i.i.i.b.v.i.x.m.i. Xl.b.b.m.m.b.m.m.b.i.c.n.h.n.m.p.p.b.m.m.k.n.n.j.h.R.n.m.c.f.u u R.~.R.OXOXOXb.v.v.m.b.c.Y.R.R.R.Y.Y.n.p.f.Y.Y.h.p.r.Y.R.T.OX|.}.oX2X#X Xp.p.p.l.b.p.s.d.C.d.d.W.+Xd.d.c.d.N.B.F.F.C.R.8XnXsX6X@..XzX;X4XgXW 3 h # o E ` 7 2 4 ' %X^  XO.+.j z Q 2 v W 2 3 9 G ^ ~ ~ 9 7 k 4 5 5 5 I F M M e F M m m m S D K U F J 4 J G 9 v ",
";X-X;X+.l S g K Y U F X.}.H U U l 4 F F ' X.' ' J S J S m D D m M F D A N C K K K Y L K K v.v.v.L L Y v.v.v.v.Y Y }.v.}.oX'.L ' '  .fXpX5X5X;X6XMXVX>X4XO.0 4 3 5 w i f.5.t 2.2., <.<.=.<.2.2.2.<.<.i 2.<.p y 2.u.<.<.<.1., ; 2.1.t.u.m.x.u.x.u.y.p p 5.y.b.y <.2.; 2.1.y ; q a p u 5.: <.y : ; y p =.=.;.4.=.3.4.3.3., y 0 d : 2.1.s w i ; 0 r : y y t '.].t o 0 & o $ 3 e 2.t t i y.y.<.t t y y.2.y 1.2.2.y p p p u.<.c.s.1.n.|.S j ) 4XKXMXxXxXzXKXBX+.O.:X+...^ 9 [ 3 @ X.J / O.` ` +.W h 7 1 z z E W S 4 4 U S 3 l H #.c o.{ ` z 3 3 2 { E Q E 5 2 6 # l W j x E Q ! ) ) G _  .h c fXkXhXfXsX,XnXAX .j 2 2 3 k k k k 2 J l g g l g & . o & 3 5 5 4 = 0 m 5 - M N 5 M C L v.l.l.A v.].x.i.l.l.i.x.i.l.Y b.b.m.m.m.m.R.R.b.h.m.n.a.n.b.z.p.p.n.n.Y.z.n.Y.Y.R.n.b.Z * * i.x.u x.{.~.m.R.m.i.n.b.b.Y.Y.Y.m.~.m.m.Y.Y.h.n.r.Z y.j.z.R.R.n.].> '.3X#XoXb.b.m.'.'.i s.8.M.Z.M.V.g.H.m.Z.N.B.A.M.B.].3XpXpXpX;X4XyX7XpX4XW j 2 v ~ ` +._ c ~ z 9 { ) { ) j k v 7 E Q 7 k 9 2 1 2 3 5 @ 3 ~ H 4 4 ^ ..I S D F S m m l 9 S m D F J / ] ] ^ k ",
" X-X:X+.I F M K Y ' K I / ( / D U Y '.J U [ S 4 l J S S F U S M K 5 S U M B M M w N K C T l.'.'.Y Y '.v.v.Y '.Y Y Y v.Y '.Y F K  XI gX5X6X;X5X5XcXHX6X0X#X@ @ @ 1 t 2.2.: i 1.2.<.<.1.1.1.<.<.2.1.i : , i r ; t y 1.<., t , =.1.<.2.5.x.y.u.u.x.p f.u.p 1.c.y y t y <.2.y u s r p ; * : y p t ; : <.=.1.=.:.=.;.3.3.3.; * & : , 1.<.; t ; , o X ; t p y.u.1.f.s X X X @ # X 0 C > p i t i 2.i y.p y.u.<.; y u.y.2.t y.i p.n.c.f.R.m.g ) iXHXnXpXpXfXKXjX+..X@.h _ G 9 S 2 ( }.S (  XO.{ ^ { E @ X 2 7 E ` l o 4 F H 3 3 / #X_ $ 3 z z x # @ ` ! k c 3 3 @ 9 h z E Q { E E j ) c l _ o.-XhXnXBXjXiX,XnXAX$.6 k k 2 k v l g 2 g g g g k J 2 X o 5 5 4 5 e 4 4 g M w C C q M C A B v.A C l.x.i.i.i.C i.x.p.i.K p.b.m.R.p.p.m.m.R.p.p.t.<.m.h.c.h.n.Y.T.R.Y.n.j.n.j.Y.Y.r.; y.p & - 0 a h.n.@Xm.b.].n.h.n.n.Y.R.R.R.Y.Y.R.p.j.x.S y.f.h.f.m.b.b.n.V [ .X+.L 9.c.b.C u k.Z.Z.d.M.N.M.U.R.C.Z.t.g.4.M.l.3XvXpX4X;X4X6XyXpX.X+.b ~ c 1 7 k z 7 ~ z 3 7 8 j W Q W ~ E 3 7 ~ ~ @ 3 9 9 3 1 5 5 9 v 4 l c ` [ g 5 4 4 e D S 9 J F H J F ' } ^ _ E ",
".X.X;X^ g J D K U [ Y U D }.[ M  X[ F H H U H M X.U m F F J g m m 4 M m S N M M m M L L L L v.'.' [ ' Y v.v.oXP Y v.v.P K F F 4 ~ k 4XpX5X5X:X5XfXGXzXgX%XX v e s a p y 2.u <.1.3.=.1.2.2.<.=.=.y , <.t = r ; s 2.1.2.y.s ; =.=.y p y.5.2.y.f.2.2.u.p , 2., , 1.<.2.1., y i u * w ; 0 * ; t t t y : : : :.: =.4.:.y : : y * ; i y , t : 2.1.i o 0 <.y 2.c.<.1.u.; & 1 1 3 X @ M e t p t p y.i p p a y.y y p p t i p r.i.<.c.b.b.n.p.[ $.sXVXMXpX6XnXHXjX:X.Xo.6 z 7 # 2 1 ' U S '..X.X_ c 2 1 c 3 @ k 3 2 O 1 F e U ] ^ W $X_ Q 3 c h k ` # h 6 3 ~ G 3 z E z k E Q W x o.E 7 { E o.o.+.pXBXsXjXnXpXnXHX-XE 9 G k c g v g g 4 2 5 g 3 J S 1 0 5 4 4 g m 5 5 5 m T C N q N M T B A T V A v.x.i.i.i.i.i.p.i.[ p.p.n.R.p.p.m.b.~.b.b.h.y.p.b.p.n.n.Y.H.Y.n.R.Y.n.H.h.Y.p.b.i * 0 & m.n.t.f.n.n.n.m.c.<.u.Y.m.n.m.R.n.n.R.b.Y.h.i.2.t.s.h.p.c.m.h.h.oX..` M 9.k.h.h.j.s.s.g.V.C.F.d.M.c.y.x.C C C t v.rXrX3XyX3X4X>X;X4X5X,X@.c 3 @ 9 7 1 3 E h # 7 7 Q 8 E } } ` z 7 9 3 2 z 2 4 4 9 9 9 9 9 4 5 l ^ ^ H / 5 e D F m J D H H l H } +.^ v ) ",
";X:X:X( 2 g m F K }.}.U U Y Y D Y ' K m ( ~ H U [ }.U / 3 @ # g D 9 l 5 5 M Y D 4 Y M Y v.'.v.[ U ' I Y v.'.'.[ Y '.|.P S U H 5 3 x 5XaX4X4X;X6X5XcXVXVX%XX M y.y.s u p u.2.<.2.3.<.1.1.<.y 2.c.2.1.t t a D ; t s <.5.0 @ r t ; y y > t y i 2.2.1.1.u.2.a s y <.<.<.t t s ; 0 q q 0 5 r : y : : <.<.: : =.:.:.1.=., ; ; ; y y , i y 3.1.<.: t ; s i : <.2.: 2.1.u.<.p.3 @ 1 1 1 @ & > : y t * r t t y y y t s ; y.<.1.y.y.y.p.i.u * c $.6XSXnXsX4XpXGXBX;X;X+.7 z 7 7 7 O ~ ~ 2 l ^ ^ ( ` 7 2 G ~ 3 $ ` 7 3 ' m e g J J 3 ] W j 8 c z G >XE 7 j 9 l J E 9 z W z ) j ^ o.W ^ Q { { ) $.( gXAXiX5XnXiXBXHX$.x h 2 l l G J J g S g 5 5 5 0 5 5 5 M m 4 4 4 4 5 5 q B N N w T M C B A i.i.Z w i.V Z p.l.p.i.D P p.y.j.m.n.n.n.b.R.b.h.u.i.z.V p.h.h.j.Y.n.j.u.r.h.p.m.Y.n.m., > * = c.R.Y.p.f.c.n.b.u.f.p.Y.j.n.b.R.R.z.h.j.z.j.r.p t.s.p.A x.x.x.x.}..X.. Xp.Y.H.V.V.Z.j.V.C.Z.N.6.f.v.l l ' oXJ 3 k 6XnXiX4X6XXX1X6X;X:XsX-Xx 7 z z ` 2 2 E 2 1 3 c ) 7 ` Q Q 8 z z 9 k 9 9 9 9 9 J ~ v 9 l l O.v k c J ~ 4 D H S m F J J ' J ~ } O.^ ` %.",
":X1X:X_ ( }.K 9 v }.[ F U K U S }.H m K S S = S F k 7 b ..# 3 U U 2 D Y K K U M A N D m K '.'.'.' ' U [ [ '.'.|.}.[ Y K Y [ S oX Xn 5XnX5X4X4X5XqXnXVXMX+.X w u.u.; > p p 2.<.<.1.<.1.3.3.y y f.3.y & t t = a r s i a 1 4 * t & s r D e t 2.y t y.2.2.u.u.y y <.=.1.<.r * q r r t r t <.y : : y 1.;.:.:.;.;.:.: : :.<.* 1 t y s & r y y y 2.; t t ; : 1.<.i 2.1.y i n.a 5 3 & o o X o : y t t r 2.y : 2.i ; u p 5.2.<.1.u.y.x.y.a q c o.yXHXvXyX4XpXHXnX:X6X$Xc 3 W j @ @ k G 3 X 3 3 $ $ x _ S 5 1 W / H g J F e 5 k ` 5 [ ] v 3 3 3 c ^ W h x k l 2 x k l c W Q v x W ) ` W ^ 7 `  XW rXMXjXfX5X5XBXBX+.) W c J U H ' S m m g 5 5 4 g g 5 g 4 m g 5 5 4 m g e q N N w T Y N A ].i.v.i.x.i.i.b.v.p.p.Z K x.h.l.y.m.R.R.l.y.i.p.h.n.n.f.OXb.f.h.t.p.n.n.> & Z 2.R.Y.n.h.p.S Y r.s.p.n.h.n.Y.Y.n.h.z.j.Y.Y.m.n.Y.{.R.s.R.m.t.t.t.t.C D i.P v.v.K l.|.|.h.u.k.H.R.u.d.d.C.C.C.A.N.C.q $ J oX|.D h ` yXmXrX>X-X;X5XpX6X4XhX#X# 3 7 9 E E c W E k 7 6 8 E ~ E c z 7 z 7 ^ z 7 ~ 2 v c 9 l 5 k v ^ v ^ v k k 4 4 D 4 S S D H ' ~ ~ O.^ G v Q ",
"-X:X.X..X.1 m l k S S F Y U ~ # l g U '.'.Y XX$Xk # #  .O.2 K 9 g J M F K K S K K N m N C Y '.' ' [ '.v.Y U Y '.[.[ [ Y }.] D }.^ b 0XdXpX4X;X6XpXpXNXnX+.0 M u.u.y r p i p i i 1.1.1.1.1.: p <.: ; * ; ; 5 q w r > r Z n.y t @ o # # g a t t s y y <.u.p.y.y y 1.<., : ; 0 ; ; t y r : : ; y y =.:.:.;.1.=.: : ; : : * 1 s y & X 5 ; i 2.r & t 2.* ; 1.1.: t u.<.=.: y p |.].C 5 1 o a t p 2.2.t t y t t t ; p u t r.1.p.y.y.u q N z ) MXVXfX4X5XaXSXBX;X6XX.v z W 6 # 1 X.` 3 $ # O X 3 ....v 3 3 4 5 4 l 3 9 5 2 5 5 J ' J / v 2 $ 6 2 ..^ 7 E 7 1 k v G c E x ~ E Q Q W o.%.%.Q %X} bXjXiXNXpXrXBXHX#XW %.h F ' H I I g S g 5 g g g 5 5 5 5 4 m F m 4 5 1 - 5 5 N C T v.K i.v.C i.i.Z i.b.m.C i.b.A U p.p.c.a p.p.y.b.b.p.y.p.r.r.h.j.u.p.i s.g.t.j.r.* : k.n.p.y.f.c.H v.s.t.j.j.Y.m.n.Y.j.p.h.h.f.z.h.j.Y.R.~.j.j.p.r.h.f.t.x.L Z y.v.v.K p.h.t.M.M.H.Y.n.j.Z.M.C.T.T.F.A.G.h.Z T.E.s.' c ` yXjXtX,X>X>X6XpX4X:XfX@.@ 2 9 z E $.%X+.o.Q 3 2 c E z 7 7 E c 6 E 7 ~ E 2 5 9 9 9 l ~ ~ ~ 5 5 l l k k J S S 4 1 5 4 S G J +.{ { ~ 3 ` ",
"-X:XO.U [ 2 k l S 4 F U U G # h F K }.U G m .XyXz # 3 2 l J S 5 7 c l 5 g S S D D K M m T K [ '.[ Y '.P D F ' '.'.[ [ '.} / U D # b 0XgX0X;X5XqXfXfXfX<Xv 0 q i 2.2.t a 2.i y <.1.1.1.<.2., t : : : 1., : 0 s > q r p y y t 0 o @ $ X X 4 ; a p 1.=.1.2.y 2.<., <.<., =., ; w s ; r ; ; ; r ; y 1.<.;.;.;.:.; : <.2.t * d t * - q s t <.<.; & & & 0 * t y.<.<.=.1.1.<.i y.y <.c.v.@ # o * s p t v.a u u t p y t ; r > i 1.<.i.a q S h x dXVXnXpX6XyXNXnX6X6XO.v 3 E j j 9 D G k ) c k x #.6X..c 3 4 1 4 5 4 3 5 g 4 4 4 F ` G H 9 J 9 8 1 z _ x h 3 1 9 9 G F c k ` W j E x +.` ! x x _ zXBXgXdXrX6XAXHX<Xh $.Q 5 J ` / l g D g g g 5 5 5 4 5 g g g g S g - = 5 N A T N A L B C i.y.|.p.i.i.i.b.w A y.K i.t.p.t.a.u B c.Y.Y.m.V u , u.z.h.f.h.p.k.Y.h.T.u.V c.c.p.b.n.f.z.c.x.u.<.h.j.Y.Y.m.c.Y.n.b.j.k.h.z.j.H.R.{.k.h.m.h.s.u.p.n.p.t.h.].m.x.p.a.t.H.V.j.n.j.C.Z.C.F.Z.C.N.6.M.d.7./.S.Z.Y G _ rX,X>X5X;X6X4X5X;X4XsX>X2 3 z W E %Xo.8 ^ 7 j 7 9 O.j 2 k x k E 9 v o.2 1 J S J G l v 2 2 2 1 2 9 9 l J 4 e g 5 5 5 5 9 J ` {  X+.j o.",
"#X;X X2 h z k c 3 5 F H ' l k [ F S [ U 5 5 }.1XE @ 5 Y v 2 5 3 3 + $ 1 @ 2 [ H N K M K Y M K ' [ v.Y M H H [ [ '.Y Y ' [ ' F M }.#.aXaXpXqXpX5XqXpXpX>XS r a t i i i i y.5.<.3.3.<.<.=.y y <.t 2.2.: y y.2.i r o o 0 t ; * 1 @ h j # @ 4 t y u.u.f.1.1.u.<.<.=.2.y y y y y t s ; ; t t : * * t 3.=.:.=.;.;.=.=.=.=.: ; ; t r s s r 2.1.<.t q w o X . & 0 y 1.=.<.1.1.y m.x.y.1.1.C l 1 5 & o 4 D e Z s a y 1.1.i u i i u.Z Z a r F $ ) MXVXfXfX5X6XBXnXpX6X] k @ k O.Q 3 J l / ( ^ b  .W ( / E k / v 4 g 9 F 9 9 4 J J 7 v / S 4 4 l 9 k 2 l _ Q c 9 1 l l 9 ^ ^ Q j 8 j O.j o o 2 x .XzXcXMX5X.XaXGXHX<XE Q E v 2 2 3 5 v D g m g 5 3 2 2 1 5 5 5 0 g 2 1 g 5 B a.B M K T A > V l.].b.x.y.Z p.y.p.i.oXT r.a.r.p.b.m.R.m.n.h.p.a.u y.V p.p.h.z.j.Y.H.H.h.u.r.r.h.Y.h.m.n.p.p.9.t.f.n.n.h.h.H.R.m.m.Y.Y.z.f.h.R.m.h.k.n.n.t.h.s.p.|.p.h.h.v.v.b.h.h.n.Y.H.h.j.V.Z.Z.B.C.C.F.B.N.A.B.0.w.w.G.P.E.b.7XiX:X3XfXrX3X5X:X;XrX5X( 7 ) v ~ %.Q c z 3 k 9 E } E E ^ { { 7 7 c v 2 @ 2 H } W ~ 9 1 3 2 2 - 0 4 S S S M m S 4 4 e S 4 ~ } $.%.O.E ",
":X:X:X^ 3 2 4 9 3 o 3 F H ' / U :X>Xl U }.I  X Xx 3 e D J 4 o O + @ + 6 o 0 S e m K C B [ P C K U ' '.Y U U U '.'.}.U U P M N }.1X:X7XfXpX5XpXpXgXzXzXyX' w p t u 2.<.a y y <.1.2.1.1.1.=., y t : 2.: , y > o 5 @ + X s * & 0 7 z n 7 2 s , 2.y.y 2.y <.t.;.=.=.y r 0 y y t ; ; : ; ; ; ; ; ; y y 1.:.:.1.=.:.;.:.:.:.:.y : r ; ; * ; <., : 0 c.s % X 1 o s 1.=., y 1.1., u.u.u.1.x.2 1 3 @ X o @ 9 y.P a t y u.u.x.u.<.t.y.u w 0 e # O.MXMXvXpXhXrXmXMX4X6X` k 2 c o.E 7 v 2 W _ ( ..j h 2 G l 7 k 2 5 I 2 S S 4 4 l 7 7 G S S 4 J 9 4 c k 4 l v E 5 & 1 1 7 z j E 6 2 E } 7 3 X # E >XNXMXfX5X5XfXAXHX-XQ )  .Q ( H M K g g g g 5 5 5 2 & S S e 0 - o & 1 l N N V C q M q C A Z A i.b.m.l.i.b.i.i.F U V l.i.h.p.p.h.n.h.n.n.n.j.t.k.p.j.n.h.f.j.Y.f.h.Y.j.h.f.h.j.h.t.h.i.c.h.t.k.Y.c.n.n.c.Y.T.@Xj.T.n.j.H.n.n.j.H.k.k.k.k.<.i y.j.h.n.h.n.m.n.p.p.b.n.z.h.h.V.C.L.B.B.F.B.N.w.w.D.D.N.F.G.).!.6XhX6X.X4X4X;X4X5X4XpXrX[ G o.c ~ +.` E 6 3 1 2 h 7 z z ) Q { 3 9 9 3 7 7 ~ ` E c k 3 2 k 7 9 5 9 l 9 S m S 4 l 5 5 5 S J ~ { o.z E Q ",
"-X-X-XO.^ ' S F ' 2 2 I 5 I H F pXjX' U [ [ ] G ..J m m S 4 1 n $ # $ # 2 5 e e 4 F K K '.'.Y '.' U Y Y [ Y F '.[ Y L K U K T oX.X6 :XfXfX5X4XpXpXNXfX6X[ 5 s a t t i t y 2.u.2.: 1.3.<., , y t p 2.:.& 5 0 X o @ o o 5 r * 0 9 9 7 3 a 1.y 2.<., : t <.3.3.4.=.t q r y * t 0 a r & ; y 1.y t a : 3.;.:.:.:.:.:.:.:.:.:.:.: ; y * 0 t ; r y ; t 0 % @ 0 3 o t 2., <.1.<.i 2.1.y : y.5 6 3 2 h 1 X 5 Y D 0 t , x.y.y a p y.i v.N 5 K 8  .BXAXjX6XaX8XNXnX5X3X{ 6 7 x Q ) 7 1 3 G z W .X` ^ .XU 7 3 ^ 4 l v 9 9 0 5 m 5 4 2 v c 9 9 c ~ 9 2 c l 5 k 9 5 5 9 0 3 c k W z j 8 o @ 7 2 7 6 #XnXnXSXpX6XgXBXAX6X! ) $.j 2 U F U m m 5 g g g 3 5 D l 4 5 5 = 5 * 1 2 m B w T N A N A v.C A l.m.b.b.v.v.b.m.C B p.n.m.b.z.m.h.Y.Y.Y.n.n.n.k.c.h.h.h.h.h.j.j.j.u.t.h.h.h.k.Y.s.j.k.t.OXz.k.f.t.f.Y.h.f.j.Y.j.H.Y.j.Y.Y.Y.n.j.z.j.T.k.j.K.k.s.H.h.z.n.n.Y.n.h.i.x.b.h.h.V.V.Z.J.d.M.G.B.>.w.w.w.A.N.A.F.A.OX2XrX5X4X6XrX-X;X:X;X5X6X6 3 v 3 7 x @ 7 c j z 9 z 3 E j z 2 o 2 E 7 2 9 v ^ v 7 z l 9 9 7 9 2 S H l 5 S S J e l 9 9 4 k l J ` E 7 z ` ",
",X4X>Xo.h / S H [ G v U Y [ J :X$X[ Y '.S H Y J g J S D 4 5 3 h $ $ 8 $ v H ' J l J H ' '.'.[.U U Y '.' K [ U ' H F L K D K K XX3Xk -XgXjXpX5XpXaXvXhX;XG 5 t t t t u p i i 2.y : 1.1., : , y y p p * o X X X + X X 1 o a p r 7 7 4 a t 2.2.2.2.u.1.<.1.1.=.s.<.* t t ; ; s * y <.p.r ; : t t : y =.;.:.:.:.:.:.;.:.:.:.=.<.s t : ; t ; ; y , <.p o . > 1 . * t t : p y s ; , : ; t w v X X X h 3 5 0 C e w i i u r x.i 2.y.Z a C K n @.mXMXsXpXpXaXfXMXgX.Xc { h  .@.%.3 J S F J v ] ( v ( G z l k 2 ~ G 3 1 & 1 9 9 9 g 2 ^ v H 4 k v 3 o m e J 4 5 D D m 9 2 2 k x 2 3 + 7 8 %X+.Q +.NXvXBXpXsXnXhXHXrXj ) ) v n k l m M C 5 2 I J m U J J m 5 5 0 4 N o o = r.r.T M T v.N B C A C Z ].b.v.i.b.i.B i.h.p.b.m.m.n.c.Y.R.R.R.z.n.j.n.f.n.n.h.f.k.H.T.n.H.f.p.h.k.H.Y.E.R.Y.h.k.j.j.C.Z.R.j.h.Y.n.H.Y.Y.Y.R.R.Y.Y.n.Y.Y.H.j.H.k.H.z.k.h.j.n.n.n.n.z.p.i.r.k.f.V.M.Z.C.J.V.D.F.6.N.w.w.7.A.A.F.M.].2XdX4X5XvX6X,X;X.X4XpX,Xh ~ ~ l 3 @ 7 6 ~ O.&.x x 7 7 8 3 1 9 9 Q W c c ~ +.Q 9 9 G J 1 1 1 1 9 9 5 5 4 S 4 S 4 9 S l 3 v v 3 z Q 8 3 ",
"4X;X,X@.W G S Y ' l l J K D F #X#X'.U K v.v.v.Y }.D M D m 5 + # # $ E 6 3 ' ' 9 v ] ' K U [ U U D '.[.U [ Y Y '.U L Y K K U U XX8X X6XpXpXpXyX0XpXpXzX6X3 4 Z a i i y : ; u t y y <.y =.=.y , 2.y r . 5 q % X X + + % @ i a 1 + 9 a p i <.<.1.<.x.u.y y =.1.: y t : y ; ; 0 0 ; y 3.<.; ; : <.=.=.<.: :.:.:.:.:.:.:.: :.=.y ; t y : ; t t : u.2.y t p y 1 2 : 2.: ; 2.p * ; y t t a - ( X X X v F r 0 5 r > ; ; 2.2.t Z x.p i.y.Z x.9 #XNXnX6X5X0XxXnXAXaX+.` { Q o.` Q H F 4 M D ^ x ) _ h _ ] 4 5 3 z k 2 & = 0 @ @ 3 S k _ W G J k 7 3 @ 4 4 2 & 5 M e M 5 c j c @ h j x ) 8 { ` %X;XnXnXfXsXiXjXBXSX<X# { E 6 J S F g m F m 0 m g J F 4 F M m m 4 4 = 5 5 > 9.9.A L '.A A > B i.i.C v.b.x.l.b.b.w i.p.i.y.h.r.n.n.m.n.j.n.j.n.j.h.j.z.h.j.h.j.n.h.H.j.j.j.h.Y.Y.R.Y.c.R.R.z.Y.k.L.L.Y.b.Y.Y.H.Y.j.Y.Y.+X@XH.J.R.T.H.V.d.k.k.h.k.k.j.j.n.Y.n.z.z.h.b.k.j.V.Z.M.C.C.U.J.B.N.>.N.w.D.A.F.N.C.F.|.6XpX6X5XpXqX,X;X2XpXpXjXW v c ^ 9 c c { +.%X{ ~ Q E ! ! z 9 k E j c z 9 G ` E 2 9 k 2 9 9 3 1 1 1 5 4 4 4 4 S 4 9 J 4 5 v v 7 9 W 7 E ",
";X4X;X+.^ S K Y D H l g Y ' P S c J [ P v.v.v.v.oXK F M U k # + + $ 6 3 2 U G l 7 j ' [ U ' U Y [ ' U Y Y Y Y Y Y K Y [ ' [ [ XX9XXX2X0XpXrX4X6XpXrXgX6X2 5 a p t Z y.s ; t t t y <., =.t t t y y ; o o o X + X @ @ + o 5 1 X & t 1.r , 1.2.f.f.<.y t t , : y y : i y ; s q r * t , <.<., y i , :.1., =.3.;.:.;.:.:.=.:.:.y ; y : : ; r s ; y <.5.c.5.p 5 ; s t y : y ; s r 2.y.p - X 2 + + o / 5 r 0 5 2., ; <.i p t a Z V Z a i.Z 4 .XBXfXpX5XrX0XzXNX5Xo.` Q E Q ~ ^ k 4 D D S 3 _  ._ W ^ / J 5 1 3 1 9 l 5 4 @ # 9 4 4 ^ E 5 S ~ 3 # 7 k ^ 3 5 H q K J k Q k c Q %.! ^ { %.o.<X{ .XnXnXhXiX4XgXAXHX#X+ 8 x h M S K S D C m 5 0 g F U 4 M m 5 5 5 3 5 5 g N B V C N L T L A A i.i.l.l.m.v.m.i.p.L i.m.b.m.b.i.y.b.j.j.n.b.i.h.n.k.n.h.f.j.h.H.h.j.J.j.H.T.H.Y.R.z.Y.x.m.Y.~.R.j.H.R.Y.n.j.T.T.T.R.Y.H.R.R.Y.H.T.H.K.H.k.k.t.s.t.j.z.Y.Y.n.n.z.z.h.h.n.k.k.C.M.B.C.T.U.C.N.>.>.A.w.w.A.S.F.4.[ rXsX6X5XsX4X#X:X4XpXjX6Xc ^ 7 c E k / %.%.$.! { { ^ ) x x 9 c E 2 7 9 9 W E j z h 1 @ 1 5 5 1 1 2 5 5 4 l l 4 e 9 5 l S S k 1 3 c 3 E ",
";X6X;X+.v | F Y v.[ K F / U K J ~ J H U U Y |.|.Y M 5 N 4 # # $ # # # 3 G ] G 2 + # [ [ '.[.[ U H U Y Y [ '.'.Y U K D [ '.'.[  X2XXX2XiXpXsX2XgXsXtXpX$X3 1 w s i p a a ; ; t : : =., : ; q t t t t t X X 1 0 s ; * * & . & * p 1.i y.2.2.i 2.3.<.y : <.<.<., t p r u ; t =.y s r y : i 1.2.y 1.1.: =.;.;.;.:.:.:.:.=.: r t * ; t <.: & 0 5.2.i , p 2.y.a s t ; t y ; ; 2.t t > y 0 & r M o @ @ 0 s f.p.p 1.2.y Z e u Z Z Z C a p t q .XnXsXpXdX6XdXfXNXpX+.9 7 ` E c Q 6 2 4 2 l J W _ c 9 / G S 9 3 # o / +.4 l # k v 3 4 9 J ' J 2 l W 3 @ 3 2 & 4 F / z 7 # z E ^ ) %.W { h h { E ] hXAXsX6XrXsXjXHX#X@ $ c Y Y M H H m M M g S m D g N m H m M 4 5 0 5 5 N > w q N C L A A A i.A p.m.v.l.m.b.p.L i.m.b.b.p.c.b.OXY.R.R.z.Z p.n.m.H.z.z.R.H.n.h.j.Y.Y.H.T.n.m.n.Y.~.OXm.m.Y.k.T.n.n.R.n.c.j.Y.Y.R.R.T.R.Y.z.z.Y.T.J.j.h.s.s.d.f.j.H.H.Y.n.Y.z.n.n.j.V.j.j.M.B.C.V.L.L.M.B.w.D.,.>.S.N.F.S.M.v.5XdXrXpXsX5X<X.X:XpXnX-Xh ) 2 3 k o.%.z %.o.j v ` %.3 2 c j z E 2 9 v k E E 3 3 @ o & 1 9 7 1 2 2 4 5 5 J v 4 e 9 c 9 4 e 4 3 3 7 z 3 ",
":X;X2XW W ` m Y '.U U U U U [ '.H H ' H J H Y '.L e 1 M l 3 $ # # O v v ` ] ' 7 % 1 I [ '  X'.[ ' U Y U Y v.Y '.[ U v.'.'.'.[ XX1X}.1XpXpX4XaXpX4X5XpX;X3 5 C y.i p p a * 0 > : y : t * & 0 t r r <.a o 0 p <.2.i ; : : : i p.u.s.u.5.=.s ; t <.<.; y : ; y t <.t * 0 ; : : u.y : : : y y =.=.:.1.=.=.=.3.:.:.:.;.:.:.=.r =., : s , : r & 5 r t 5.t t r p =.2.t s ; ; y <.2.t r r t 2.2.y * X k w 2.u.2.t t 1.<.t a y.y.p Z Z u y.r.D -XpXfXmXBXsX5XzXSX6X/ 9 9 9 G l E 3 3 4 1 e U 3 4 7 l } 2 1 m U v 9 J J D S l ~ 2 2 9 v ^ c 4 2 2 z j # @ 1 m D e j E k 7 z z W x %.c } Q k 6 k ' yXBXiX>X5XyXfXHX-X@ h v F K H m m F F m 5 F l 5 S D N N F g 5 5 5 5 g m N > = K L A T v.L i.p.l.b.v.b.b.b.b.A C p.b.h.a.p.m.OXm.R.R.Y.j.n.R.Y.T.Y.h.h.z.n.R.H.m.j.<.r.j.h.h.c.R.n.R.Y.T.k.t.Y.R.j.n.z.H.n.n.R.m.E.Y.H.z.n.Y.R.H.k.k.s.s.s.s.k.z.j.Y.Y.Y.h.z.h.OXY.s.t.Z.F.J.J.C.T.H.0.D.A.M.-.>.N.G.F.F.m.;XdXsXpXfX5XaX8X;XsXnX>Xh 3 k k k +.%.Q Q E o.o.o.W # 7 ~ ` 7 6 2 7 2 z ` Q 9 v o 5 5 3 v G 9 5 v 5 9 l J l 9 5 3 3 3 9 k 9 2 h z 2 7 ",
"1X:X6X^ W ` F ' H F J I [ U Y  XH U ' H | F D D e & m K H J k 7 4 5 k k ] } ~ l 6 h J ' ] }.}.'. X'.Y U U U Y v.[ [ [ '.' U '.XX1XXX3XrXpXyX6X0XaXpXfX5Xz 0 H L t p 5.t o & * : y , : s 1 * q r r t * & s : j.f.i y.t , <.p <.<.y.y.<.1.t s a t y y t q t ; 0 t ; * 0 ; : : <.y <.; * ; : =.=.:.y 1.=.;.=.:.:.;.:.:.;.:.: y : : s y : y & X o ; 0 ; y * s t y , ].].t t 2.t p 2.p 2.u.y 2.i & w y.2.<.<.: 2.: , i t Z p p q q a u.y.5 :XzXdXhXjX3X5XMXMXdX) 9 H ~ z z 7 2 3 4 2 5 J 9 l 2 v G 2 G S 4 e 5 & 9 2 4 9 9 l 3 k k 3 k I v 2 W x + 1 M m 4 5 k Q h E Q c E Q %.) E z 8 3 z ` rXBXiX;X6X7XkXSX:X$ # z J q 4 5 m S F 5 5 F l 4 5 m V C F 4 5 5 5 4 m m e > w K C A T A T v.l.v.b.b.m.b.m.m.h.N p.c.m.b.b.b.b.n.Y.Y.R.Y.R.T.T.j.p.h.b.h.j.f.z.h.h.9.A j.n.m.R.].n.OXOXn.n.p.~.Y.j.R.H.V.c.c.b.m.E.T.H.Y.J.E.H.J.k.s.h.h.s.p.A f.j.k.R.n.n.h.j.OXR.j.s.V.C.L.Z.;.j.n.C.G.G.S.M.B.R.F.D.M.D ;XMXfXpXfXiX4XsX:XpXMX6X6 # 3 S v ) E %.lX$.` $.%.7 2 v ` E z 3 7 9 c 7 9 z 3 1 1 1 1 7 l J v 9 2 2 v 9 9 9 2 5 9 2 2 2 2 v z 7 j 2 # ",
";X.X;X` k G G ` ^ J F H ' ' U I k / [ [ | H F q 5 l }.J S S F H [ l 6 H _ ^ ` / x h G [ [ '.[.[ ] [ [ ' U '.' '.v.' K Y L Y v.oX8X8X;X5X6X5X5X5XiX4XgXtX3 2 ' oXp a 5.y q r ; t t ; 2.e o = s t * s i i , 2.1.i y <.i 2.<., <.i y 1.1.f.<.y i 1.y t 2.2.y 2.a : t t r t =.=.: <.=.; ; ; :.=.:.:.: : :.;.;.:.:.=.: :.:.: : y ; ; & ; : :.p ; & * * 0 p * * s : : r x.a p ; r <.<.s r i u.y.x.u.<.f.f.<.u.1.1.<.1.u.2.y.u.p 0 D a a t 5 O.fX0XfXpX5X0XpXBXsX) E J O.E 8 5 2 5 1 1 @ 1 5 D ' 9 o z c S 4 e N H 5 1 o 4 J g 2 9 1 o 2 ~ J c +.` + 3 K N 4 H ] c E j ^ Q ! E { lX{ j @ 3 x +.dXNXjX4X5XpXfXJX-X$ x 3 / N F g g = N g m M g S 5 Y C N m q 5 g 4 5 S F M = C T w B V V B i.p.b.m.m.n.n.b.b.b.A v.h.m.{.n.m.m.Y.Y.~.R.Y.H.j.R.m.f.Y.n.n.m.j.Y.z.t.k.Y.j.n.m.m.n.Y.Y.OXb.b.h.Y.n.n.n.n.u.j.n.m.Y.Y.R.T.T.T.H.H.J.s.1.s.t.t.L ` P V h.H.Y.n.z.h.k.T.k.k.Z.C.C.J.B.C.E.F.w.w.w.N.N.W.F.P.t.S 5XhXhXhXsXpX5X;X>XsXGX-X@ z v H v c +.E ~ %.Q ` ) j ^ o.z c z z 8 7 c 9 9 6 O 1 l 3 @ 3 E 1 1 9 2 2 9 2 5 9 9 e l v 2 2 3 3 2 +.x 7 3 ",
":X.X-XX.H U l k x c J I ( ' U z k I } ' ' | U K g k j 3 g I G ` 9 6 7 l l v c v c x H [ [ }.}.[.[ [ ' [.}.'.'.[ '.U '.v.v.v.Y }.8X3X4X5X5X5X5X4XgXpXpXzX6 # X.}.t u 2.p : y i t s ; t a 1 & 0 * > & a p i 5.2.y t , p t : y <.y : <.1.<.1., 2.<.y y s s ; t i y t ; ; ; : :.=.:.< * t ; :.: : :.: : :.:.:.:.:.< : : : t t ; ; 0 . * 2.=.<.<.y t 0 . * a a ; y <.; : : : : t 2.; * & ].].: x.p c.u.u.<.<., y y 2., i u.c.2.0 H 0 & w > ..pX5XiX5XmXnX6XhXgX) E v ^ ) 2 9 l 9 2 k 3 o 4 F S # # # 9 4 3 5 m D m - 2 5 D U 2 ^ 3 5 0 g l k W x k 2 4 4 5 / O.k ^ E E o.E E lXlX%.{ 3 7 ^ .XnXNXjX:X6X5XfXHX<Xh 6 h S K U g m A K D g F g 4 = g - q m e g g 4 5 m S M = N A C B i.i.B a.i.l.OXm.b.b.m.b.m.v.L h.b.h.b.n.m.Y.R.~.R.Y.OXm.~.m.z.Y.n.n.R.H.Y.m.z.R.Y.n.n.R.R.Y.Y.T.Y.n.p., , p.h.c.n.b.p.m.Y.R.R.~.j.j.j.T.Y.z.k.s.t.=.p.U b ` O.v.h.z.h.a.a.p.h.h.j.U.U.V.R.R.T.F.F.A.A.A.0.N.A.F.+XL v pXBXrXfX5XsXiX:X3XdXVX6X3 7 4 k 2 2 W `  X{ %.) E c { { Q E j z 7 z k k ~ 3 1 2 7 1 o 5 2 1 2 9 9 2 9 9 5 9 l v v c 9 3 o . 3 { 2 o 1 ",
"1X:X:XO./ G 2 3 3 k z v G J ' G z v } [.' U Y [ l l 9 7 7 W o.{ z j 8 v G G 9 z / [ '.}.}.'.}.oX] U Y [.'.'.'.v.[ v.v.v.v.v.Y oX2X$X:X5X6X7X6X2X0XpXpXpX8 3 2X$Xt i i <.r i <.t ; : : <.<.- & = r * : i v.p i , y y s * t =.y : <.2.=.:.1.2.1.t : <.y p r s t y y t ; ; y , 2.: : ; y : =.:.=.=.; ; ; ; :.:.* ; ; ; : , : : :.: r t : , =.2.2.t ; & * t r ; t 5.; * y 1.2.y 1.y > p t y 2.s <.1.1.p i y y : y t , y 2.y.y a 0 & 0 Z q XX7X5XpXrXaXpXrXMXfX@.j / G _ l 5 2 k l 5 J m [ H & 1 _ 7 2 1 1 2 9 J K m S 5 F K 9 z v U m 4 2 9 c 9 S 5 m 4 m / ) z 3 E &.E { { %X<XlXo.o.h _ ;XMXAXsX6XfX5XsXHX<X$ # x 3 N C N U v.K F g g 4 M L N - q S 4 m g g g m m m q w A C C L A A x.x.V b.m.v.v.m.b.m.b.C p.p.b.b.m.m.m.m.Y.R.m.R.Y.Y.~.R.n.R.Y.Y.Y.n.n.Y.j.Y.R.Y.R.~.n.Y.R.Y.n.b.k.k.p.j.p.y.p.x.p.n.R.!.R.j.s.H.T.H.Y.k.k.1.r.x.c.v.}.` / y.r.w l.l.b.m.p.Y.].R.R.{.R.@XU.F.W.A.A.q.N.S.F.R.v.] aXBXdXfXrXkXrX5XrXaXVXpXh @ 3 2 # c +.^ #X$.{ Q 9 %X$.{ z j z 7 7 z 7 2 2 8 3 2 2 3 9 9 v J 9 J 9 5 1 1 e 4 9 4 2 3 . . o & . . 5 1 h ",
":X;X:Xc v G l l 3 k k h x ~ G J G / ' ' ' ] H J 9 k v z k k v E c z 6 G G ~ v G } } '.}.[.}.'.}. X[ }.'.v.}.[.'.'.Y '.U Y U [ U XX1X2XsX5X7XyX4X5XfXzX@.# X ( }.p p i t s y y t ; : y <.1.t & & * t y <.i i x.r , 1.s s s =.t t i <.<.i t y =.t 2.y t a t u.y ; , <.: t =.: : ; ; < <.: :.:., ; ; ; s ; : < ; s ; : =.:., : :., y : : <.1.: <.2.t o ; 2.t ; s ; : ; ; a : : u.<.u t p p <.a v.: p s s 2.2.y , i 2.i i r.i Z Z w p j.p.1X5X4X5X5XpX1X5XnXgX#XE 9 9 '.XXo 2 G }.}.X.rX' e K H S m S ' e N 5 m q e & 9 9 S 9 o k D 4 9 4 H k 9 ~ ^ ` 5 N D c j 2 { &.E ^ ! j ! ^ { o.E O.;XnXhXBX6XaX5XsXHX>Xj $ $ 3 M K M F K g K l q A B C v.K 5 m 5 5 5 g g g m M 4 M B C B B > u i l.L x.m.b.].Q.m.h.l.v.b.k.l.x.h.~.n.n.Y.R.m.m.n.m.R.@Xm.m.h.~.m.h.k.Y.~.j.Y.n.H.T.Y.R.OXR.m.n.H.H.h.p.p.i.x.x.y.h.T.R.R.n.k.H.T.H.V.k.f.t.f.y.r.s.Y.m.x.L m.n.h.n.j.j.g.c.U.U.V.{.OXb.t.Z.F.S.A.0.F.F.N.+X1XI fXhXpXhX5XrX6X5X;XdXmXjXx X 2 k $ 6 z z $.Q z ^ Q { %Xo.Q 3 z E Q 9 7 k 7 @ @ 3 2 1 2 9 ~ G 9 ~ 3 1 o o 3 9 3 1 . . o o o * * v 2 3 x ",
"3X6X$Xc k c ^ ^ 9 k k 6 b / z k / ~ v v ~ ' ' J 9 k c c v v ~ c c k h k l l v / _ [ '.}.'.' [ [. X[.'.}.[.[.[.[ Y U ' U U F U U XX$X:X4X5X0XrX2XpXfXgX#XE # X e t t <.t t t ; t : t y c.2.y ; & o r y t ; u i * * 2.y 0 o & r 0 o s y y s a t 2.p.s a q s 2.<.t : : ; ; y.2.<.: : : :.:.:.:.; ; : =.y , : : ; ; y :.:.:.<.: : , ; : =.1.y t y t & o s p a r t : y 2.* * & * ; m.FX5.<.<.y 0 0 q t s , p t 2.<.p 5.p r.i y.c.c.u.f.h.R.1X6XzXsXzXfX6X5XkXfX%Xj 9 4 D H 9 7 ~ _ ^ ( $.9 5 9 _ H H D S e D K q 5 q m 2 9 v ' _ 2 F 5 S v 9 5 2 3 E v 5 D e 2 6 o.) j { Q z o.%.h ) %.7 G 6XAXBXjX4X6X4XpXnX4Xj + $ l K F e 5 m 4 S g q l.A F m 5 4 4 4 5 5 g J D g m 4 C K w q w A N > T v.y.v.b.b.m.n.b.b.L b.n.p.1Xm.m.m.R.~.n.Y.n.b.n.m.m.n.n.n.OXb.n.R.m.n.~.R.n.Y.m.Y.~.OXj.Y.m.n.n.f.r.Y [ x.i.y.h.R.J.H.j.H.Y.H.V.M.H.j.k.h.c.p.t.s.V.k.j.j.h.j.m.R.k.f.Y.Y.U.Y.OX+Xj.V.B.F.S.A.N.N.V.M.Y.v. XnXhXsXnXiX5XyX6X;XfXNXnX .X 1 ^ E j @ k W E 2 ) E z o.o.! 2 x ^ c z 7 2 9 @ @ @ 3 1 5 v E 9 v 2 & o 1 9 o X . . 1 9 9 7 7 & e h 3 o v ",
"1X1X$X7 S J I j @ 1 h x x c 7 k W c k c / ' ~ v 2 9 c c v v c k z ~ c z J ~ c J | / ' [ [.[ '.}. X[ ' '.Y Y Y Y [ [ [ ] P L P H XX;X6X4XaXpX5X5X5XfXfX;XQ x 6 5 t u y t y i i t y.m.y u.t t : : & * r w * * : t t a r o X % o e o r y p a w p 2., r C x.5., y t : t ; s t : ; <.=., : : , : ; y : : : y : =.<.: =.=.:.: =.: < , p y 1.: t s t : & * p p s ; t <.2.5.& & o * , ].9X2.=.y t i * 3 A p ; p p y u.y y i x.p ; x.u.f.z.n.Q.xX4XfX5XpXfX;X4XgXnX#Xv ~ ] ~ v l 4 5 5 l 1 1 k @ o l S 4 m 4 0 4 m 5 e K - 2 z k v +.k 2 e 5 5 F J 2 2 k S 4 5 9 8 k %.Q Q Q E 6 $ z W o.#X} F 6XNXjXrXsX;XyXfXMX<Xj 6 6 v F M B M m B m M > V F M 5 - 5 5 5 4 4 5 g m m m g m M N B w i.V B A x.p.w i.p.b.b.h.n.V b.c.p.v.p.b.b.n.n.b.m.b.m.n.Y.R.m.R.R.Y.m.Y.Y.R.n.OXR.R.R.h.n.Y.m.Y.R.R.j.j.h.p.].X.x.x.i.h.Y.Y.R.H.h.h.h.V.L.d.j.V.j.h.f.s.k.z.j.j.k.b.h.h.Y.n.j.Y.{.R.@X&XR.W.F.F.N.A.A.w.q.*XR.k.|.1XaXhXsXvXiXpXaX6X5XaXVXBX@.h o 2 l v 6 @ 7 ^ z E Q ) { { ! 7 ^ ) O.E z 7 7 2 7 # 2 2 1 2 k ~ v v 9 4 9 g 2 1 5 v 9 v 9 k E 3 1 2 2 k O.",
";X2X+.g m 9 / j X X X 6 W W h k c h v k v ^ ~ v k 9 G / J l G k z ^ G ~ v z l v ~ ` ` [ '.[ [ } ` ' | | '.'.[ [ [ } / G P L F F XX:X;X6X2X6X;X5XpXsXpX4X#Xj $ s r u i y u p p p 2.x.y t ; : 2.=.; o 1 & 0 t : ; p & - q 1 + o a r p p ; t u i p <.t t t y y ; ; p , ; 0 * * ; : t : , <.: : : : y * ; : :.:.=.=.:.: : y : =.y t , : =.y t 2.: : s s * ; : t : <.c.y.s 0 * ; p ; <.1.y ; t f.f.> L p ; s t <.2.y p p ; p.y.y r.i.b.n.Q.9X7XnXyX;XrX:X;XBXMX#X9 } { E o.` H K m S e D 7 3 3 0 D 4 5 5 M 5 2 4 D  XM 5 5 9 2 _ 2 0 5 9 5 H 7 3 9 6 c M M v c 7 E { Q Q Q E $ 8 E z %.~ ' 1XHXnXzX5X6XfXvXAX#X# $ 2 g 4 B N F F T C M A B M 5 5 5 g 4 m m m g 5 m g M m 5 g V A C i.i.A i.i.r.b.Z v.p.c.n.k.i.b.z.b.r.p.h.h.n.h.m.m.y.p.R.R.R.n.Y.n.m.h.n.n.R.H.H.R.R.R.Y.R.R.R.R.R.~.Y.j.j.p.p.'.].|.x.t.h.J.Y.c.b.p.t.V.Z.V.Y.T.V.h.f.t.f.n.j.d.n.m.h.h.Y.R.R.T.R.R.OX@XR.E.F.C.B.w.w.D.A.S.E.W.m.:XfXjXiXnX5XaXsX4X;XpXnXnXb # . o k O @ o 8 W @ 7 W E +.%X! ~ O.o.Q { Q j 3 9 7 @ 7 9 5 0 7 7 2 1 ~ c 2 4 9 1 9 k 9 9 7 z c z 3 z ~ ^ _ ",
"4X3XO.^ / l J 8 6 v # X z ^ ^ 9 2 h k k c ] O.` 9 k v _ G 2 G c 2 9 / ~ E 9 z l k k / ' Y / I ' ^ G H [ '.'.'.[.~ [ | m M K H U X..X2XpX5X8X5X0XfX6XrX%X{ j 1 C w w i r t p t : t : t t y 2.: , 0 X X X - p t t & & * w S 2 & u p t a ; t 2.=.y : , t y , 2.t t t =.y : ; * ; ; ; : : ; ; ; ; t <.: ; ; : :.:.:.:.: : y : : y y : <.1.: : y ; ; y s 5 2.=.y , y 1.t * t : & ; y y =.u.t ; <.y r t t t t 2.<.y y 2.y.t y.Z i b.Z r.a.OXoX6XsX5XrX5X$X3XfXBX:X9 c 7 7 ` E 9 M / 2 4 J 1 G ] - 0 S 5 1 2 0 c J 4 4 S 5 5 0 1 7 S K 5 1 2 9 9 1 9 3 v D N x $ 8 x Q Q E ~ E 6 X 2 7 { z v .XnXMXAX6XnXkXtXvX#X# # 4 S C T C / m M F F A B q 5 m 4 5 N m m 4 g g m g M N N M N B i.i.x.A p.A A b.b.i.A m.c.h.e p.n.h.p.b.n.R.OXY.R.m.p.V z.n.Y.z.n.m.n.j.OXh.Y.R.R.R.R.R.~.Y.R.R.Y.R.Y.n.T.n.t.c.].'.'.p.p.n.j.u.y.x.u.t.t.g.V.j.T.V.d.h.h.h.j.n.k.n.Y.R.n.n.{.H.V.T.R.{.R.E.E.C.N.A.A.w.A.A.F.W.+Xn.}.nXnXpXMXfXhXiX6X1XyXnXpX#.o o o o ` 8 1 9 _ ) E { o.{ Q ) { { Q E o.W E 8 7 9 1 1 3 J G k 2 9 J c J ~ ~ k S c 8 7 3 k 8 k 8 `  .@.3 z ",
"$X:X#X .+.' G k v k 8 3 o g }./ k l k k ~ / _ ~ c z z _ ' v I ~ J 9 G ^ c z v 9 k c / ' [ ' ' [ _ G ' } ' '.oX$X+.] P M C Y K v.Y X.,X6X0X0X5XaXnXvX6X^ x Q 9 p s q r s t > y.2.i t t t u t : y & X 3 3 e p i y r r r a a 5 ; p : t y t <.2.<.t ; y i ; <., 1.y , =.<.2.: 5.y : : , t : ; ; s , ; ; * * : : :.=.: * * t : , s : y y <.: : : * ; t p 0 s 2.p 5.: 2.<.; : <.t ; , y ; ; ; , 2.y.r y s t y u.1.p i t t y i u p.l.w V r.z.l.:XpX5X6X6X#X;XsXhX>XJ l l ^ Q E h ..} l l 0 g / } 5 0 1 1 @ 1 9 K l m 2 9 5 5 0 0 5 e M F ` 7 9 9 1 9 k W e q 3 @ k ` z Q { k { o.@ @ %.%.h k :XHXmXsXsXmXpX,XnX<Xk k l F A A g m m g S J w B q g F g g m 4 4 q g 5 4 m m m A T q T l.i.i.Z V i.i.n.p.x.b.|.L S G V p.t.h.z.n.n.n.Y.n.b.y.h.OXh.j.n.n.n.j.j.R.OXR.Y.Y.J.R.R.Y.!.R.Y.m.Y.n.Y.T.n.h.c.v.}.x.p.n.k.f.h.i i.p.u.f.j.f.V.H.H.V.V.k.j.m.Y.R.R.R.Y.n.j.R.T.T.R.U.+XR.Y.T.C.6.7.A.0.w.D.A.B.U.p.U dXBXhXMXfXvXpX;X6XsXpX3XsX3 o o O j @ v O.~ .X{ } { z o.{ { { o.$.E { %.E E 2 1 9 ^ c ~ c 7 2 9 9 ~ ~ c ~ ] E 9 9 3 7 j 7 ~ { ~ ~ k 3 ",
" X-X:X@._ ` ~ ~ G l 2 g 9 @ c ~ z ^ ~ G ~ ~ G ~ ^ E ~ ' / J J / ~ H ' ` k k c z k ~ / U [ | [. X XO.} ' }  XXX X} / Y K N M N L L Y #X5X6X0X7X5XqXgX#X` ..~ C p a ; t p t p p y.p : r u s q p t ; * 5 0 0 0 r s > ; ; r t > ; y <.2.<.y y : * r r s 5.t r : =.y <.=., ; ; t : : : ; : :.: r s s * t y * ; :.: : ; & t ; : : t , : , : t : : * ; ; 5.a * ; : u.a y 1.<.1.1.y * ; ; & & a y., u.2.s r ; t , 2.y a s t y.r.y.r., V Z B b.@X3X6X8XxXpX:X;XfXfX>XH S S J o.z $ 8 9 m e 9 G l S J 4 2 3 3 3 5 & @.{ X 2 5 & 5 1 3 4 4 D J 9 9 9 5 2 Q 9 4 w e 2 { Q Q W $.{ E o.%.o.%.! 6 z 6XJXzXsX5X8X7XiXhX-Xh k l S F M m F U F g g m T M M m F m 4 g 5 ( J 5 5 4 5 m K A C B B A A v.|.V V h.a.p.p.p.V L K v.p.j.c.n.n.j.j.h.Y.H.s.n.@XY.Y.n.z.k.j.Y.k.V.m.n.Y.T.R.R.n.Y.OXR.Y.Y.R.Y.H.T.R.R.n.h.h.y.h.j.h.u.p.f.p.p.t.k.Y.n.H.H.Y.j.j.Y.j.H.T.R.j.Y.n.n.Y.T.E.R.{.{.R.Y.T.C.V.G.w.,.D.A.A.+Xx.2 H cXnXjXNX5XaXfX6X5XsXyXpX-X# O 3 1 @ X E $.o.$X{ { o.Q Q %.{ E &.j 7 E E 9 O.z o o 3 c 7 7 k 9 c ` E 2 2 v ~ h 7 7 9 7 z j Q { v ~ W ^ ",
"#.;X;X` x ) ` ~ | G l 9 G 7 o o @ v ~ z v v l l E 9 z / ] J J J G ~ c ~ v k v h k 9 H U [ [ ' }. X X[ ' ] [.'.} / U K C M M g M v. XXX0XpXfX4X8X6X5X4X( }.x.Z y.s ; t q 0 a t - * ; ; r 0 w Z 2.y * 0 y ; * C s q ; s > <.y s i s.<.y y y , & o - ; : t t , : : y , s ; y y ; , : : : : , ; 0 * ; ; t s * : : : ; =.:.; , =.y ; ; , , : 1.<.; s p t a a y y : : t 2.<.<.<.y ; o 0 a i s a i 1.t : i 5.t p y.i 5.t t p i r.p.y.V B l.T 9X3X6XpXfXgX;X;XgXNX:XJ J 5 9 j z @ 2 J S 5 5 S 3 9 3 5 3 3 2 / J 5 5 @ & 5 5 4 4 4 3 J D m S S 1 9 D k 2 5 H F _ 7 j Q ` ~ %.Q 8 8 ) ` $.E j j 7XNXnXaX5X8XzX5XnX-Xk J g l g m D F l J D S K m g q 4 M S F m g m M m g 5 5 m M M C C B V A Z Z r.V a.p.p.p.h.z.c.y.x.h.Y.z.j.n.n.j.h.b.R.j.Y.n.j.Y.z.z.H.H.z.R.H.k.Y.j.H.R.!.V.j.R.R.T.R.~.H.H.H.T.T.T.j.j.c.t.n.n.h.f.j.h.u.f.j.Y.R.Y.Y.Y.j.n.h.j.k.H.Y.k.Y.R.Y.V.R.R.T.{.+XOXR.E.C.N.A.P.E.S.A.A.+X'.6 / zXnXnXnX5X5XiXfXpX5XpXgX4X( X o o o o 9 { %.O.Q { E ` E 8 j Q x W j 6 3 E Q ` ` k 7 c 7 v v 9 z k 7 2 9 9 k z c 7 z W E o.o.7 7 _ ^ k ",
":X5X:X2 # ^ ] ] ' G l 9 k v l 9 v ~ G v G _ _ ~ k k 7 c _ | G ~ c x j ~ z 9 9 k k 9 ' U U [ ] +._ ' ~ ^ O.' [ X.[ H N D S K D U 1X#X6XyX4XaX6X5XaX5XpX{ Y v.L a i y.p r @ o 0 - & 0 a * * t r ; ; * r i p ; a r r ; s s t t t p u.<.=.t t * & 5 r 2.: y 1.1.y ; ; , s s 2., =.t t =.: : =.; r ; : * * > * : =.:.: 3.<.: y <.: : ; : =.<.1.y : ; t s 5 0 s t : <.p i 1.1.1.1.; & 0 * q s * s y 2.<.p s t 2.p Z y.2.2.<.p.p.Z u V i.i.a.|.6X7XsXqXbX;X:XpXMX#Xv J 0 k E E o.{ / 4 m }.2 2 J 0 1 5 J ` 7 1 2 - 0 e 5 m C M 5 5 e D S F E k 9 4 v 9 m M g 2 @ z 6 E z o.Q Q 6 j +.$.z 8 E yXBXMXMX7XaXgXiXpX#X3 I I m g 5 l g m m 4 g M m g m m M m g m m m m 4 g q 4 D K N N N A A C A t u p.p.i.p.u.p.h.t.p.b.f.h.t.k.n.n.T.j.z.m.u.h.Y.j.n.j.j.z.z.H.H.J.Y.Y.Y.j.Y.H.R.R.Y.T.T.Y.R.H.V.H.H.T.T.H.n.h.y.k.k.h.n.b.h.k.V.k.Y.T.n.n.Y.Y.z.z.n.Y.T.T.Y.R.R.].R.R.R.R.{.+XR.C.W.C.N.,.*X@X0.S.G.T.J h ..zXBXnXcXfX5X6XpXyXpX6XfXfX+.j     @ X / %X^ W ! Q 2 Q Q ! E o.&.{ Q Q j } %X<XE E 9 z c c W 2 5 9 v ~ ^ v c z E z { o.` ) E E 2 c _ ~ ",
";X4X#Xk 9 c / } } G J 9 9 l c v / ` [ _ / v W ~ v E j k ~ ~ G / / z 6 k 9 h v c z v / U U [.] } ~ z v /  X} }. XX.F K m D v.M Y :X:X;XpXaXpX7X;X0XaXcX#XM p.c.5.i <.y t * 1 0 r 0 5 r a i * ; L P : t ; y ; = ; : : i r a q r t i ;.=.t ; & & r r ; i 2.y 2., y : 1.x.; : < : 2.i : : : : : <.t : ; ; ; t : , :.: :.:.=.=.=.: p t : 2.3.1.t y : <.2.; o r t ; 0 r Z ; , 5., p a & o . @ 0 * t <.: : ; t y t Z e p i t i C u , p.n.r.V XX6XyXvXpXzX3X:XpXMX#X9 J D 4 +.O.+.O.l 5 5 m 4 l S l 2 2 1 J 4 1 1 o 0 4 S m m 5 0 = 4 S 4 4 v 2 1 l 9 2 ' D e 0 1 { E ~ +.$.{ { { # 3 z 8 6 ! yXMXfXpX4XyXaXvXfX>X3 I G l F D 5 c m m g m F M m g M m 4 m m 4 e 4 5 m m q = M V C w B C V Z p.p.r.a.p.t.p.a.t.t.v.v.c.h.f.f.n.H.n.Y.j.z.k.h.h.j.n.H.z.j.T.T.Y.j.V.Y.n.Y.Y.j.T.Y.R.T.T.J.Y.k.V.T.j.H.H.T.H.f.u.h.k.j.h.n.n.h.V.j.n.Y.Y.n.Y.Y.Y.Y.Y.c.z.T.T.Y.Y.R.R.R.E.{.+X+XR.T.W.F.A.G.G.D.G.+Xb.5 # 3 X.MXjXvXSXgX,XsXxXxXpXyXhX;Xb _ W   . 1 7 } O.{ { o.{ 6 ! { ) &.Q { W $.E 3 +.%X^ 9 7 7 z 9 _ ~ l z E c c c E c 9 E Q { 8 E ` $.%.7 } ] ",
"#..X.X~ k ^ G ^ ` ~ c v v c G / _ ~ ` ` ~ l l c k j j k J k H } ' J 6 z v k c ~ } _ v U Y } ` } W h [ X.'  X X} ~ S C K C M P X.>X.XfXpXpX6X8X2XgXfXnX;XC p x.p t y , i u.t r = q 0 & ; t y s M a t & & * r r a 2.p t r r * & = : 3.=.=.: * r y p & t t , , 1.i =.=.y r ; ; ; : y ; t y < : 2.<.y : : : t : , : =.=.=.=.<.<.t : t : y y p t t : , t ; d * t y t * t p y 1.<.u.Z & o - 4 s * ; 2.p.<.<.i i t 2.5 L p , p u r.9.a.a.r.C 8XmXrX5X6X0XyX;XpXnX;X^ '.U l  .) 8 9 9 3 S ' ~ ` z 2 F F S D 4 4 4 v 5 1 4 4 0 N S m 1 4 q l 9 ~ J M 0 3 F F S 5 3 # 3 3 %X<X) # z j # 3 3 j E 7XNX6XzX6X5X2X5XzX,X6 k 9 J M U l I m M F D F F m g g F m M m m 4 m N M M N 5 M B B V B B r.r.Z p.y.u.t.f.n.z.f.z.x.m.s.k.n.n.j.j.j.j.j.V.h.u.s.H.Y.k.Y.Y.Y.V.j.z.H.T.j.Y.R.R.Y.n.k.T.R.H.k.k.K.H.z.H.T.j.k.Y.z.k.k.f.f.h.u.c.m.j.c.n.Y.j.R.R.T.Y.h.h.n.R.R.R.j.Y.Y.R.+X+XE.+XE.C.C.C.A.A.w.w.D.m.2 # . o X.VXzXMXNX5X;XsXaX5X5XpXpX;X;Xx W   . X o ] o.z %.%.! E o.{ $.j 8 %.} ) x %.o.) 8 9 ^ z 7 2 v ~ v 2 9 ~ ^ ~ E 7 7 7 ^ { { W %X%X{ 6 J U ",
"#.-X:X_ k G _ E l c x ~ k k G G _ ] } } ` ~ l ~ E z c c v c G ' } ' G / _ ~ ~ ~ } ] G / ] ^ c ` v k _  X X} ^ G z J M 4 m M F X.;X:XpXrX7X4X2X7XpXzXnX3Xp w a u : Z u.t a r > * o 1 r s t t s r * & o 1 . * = Z t a ; a r 0 5 0 : <.<.f.1.: , y y e t p c.1.y ; <.2.: ; & ; ; ; : t : y ; : : t * p <.<., t : ; : , <.1.: y y : : , y : i ; ; 2.: p y., t ; t <.y ; ; t <.1.: ; ; u u.u.2.t > t s y 2.2.t y ; a a x.h.y.i.V y.V i.l.T 7X7XrXsXdXsX4X1X6XgX4XE J J W 8 h ` _ k v l G 2 7 2 4 D m S 9 0 m L m 5 = 4 m m C U l 3 0 F 9 1 ^ S C N 4 F D M 4 @ 6 6 8 3 <X$.z ` %.x 7 6 ! Q :XJXfXyX3X5XsXpXgX<Xx x 2 S F H K 1 l S g m F M m g g F m 5 g 4 4 N M m 4 m 5 q N N B i.i.V Z Z V y.p.h.h.h.z.h.l.y.f.j.k.h.Y.H.j.j.H.Y.z.k.k.h.n.j.n.Y.z.z.Y.H.H.Y.j.T.j.Y.Y.j.j.H.T.T.T.V.H.J.H.k.k.n.z.H.j.b.h.k.u.c.h.f.j.m.j.s.h.j.Y.m.Y.H.T.H.j.T.OX+XT.T.j.T.+X+X{.E.+X+XL.L.F.N.w.w.w./.m.v C v.S O.BXzXMXnXsX;X4XfX7X5XzX;X3XiX( ^ %   . 1 o.Q E ) E ) ` E j o.6 ! ! E O.%X<XlX{ 1 9 ` k 9 E ] ` 9 9 ~ ~ ~ c E 7 6 E ! { } c %.%.%X%Xx 3 ",
";X4X#X .9 c ] ` x z j z c h 9 l ~ ] ^ ] _ W v v c ~ c c c _ ^ c  X#X+.+.} / _ ' [ [ ' ] / ^ x c ~ c k (  X] / ' c J F 2 g K U [ .X>X#X:XfX4X:X1XiXfXnX$Xb.x.w Z 5.q e p > * = o X o 0 q s & > r ; ; r ; o * * 0 t r ; ; t 0 s * * ; ; t 2.<.u.u.<.x.t : 2.y ; r t u.2.; ; :.; ; ; s 2.: ; y y t i x.p y =.: : <.: t , y t : : y , <.2.y.p ; 2.y t 2.p <.; & r y <.<.: ; ; <.<.<.<.5.<.<.p p 2.; ; y <.<.t p u r s i i , , > i V B i.B 2XgX6X6X6XdX7X6X7XcX.X9 v 9 k 3 ) Q k v 9 0 2 3 3 J m = 5 3 1 5 4 q 5 1 4 H m S F [.m m 5 H 3 9 c S F 5 5 e m S ' 3 # 8 8 @ . E %.` } W ` j j j O.HXjX6X;X4XgX6XdX,Xj j 6 g g S K F H J H m F F K M D M M g m m 4 N m g m m q q N B A A y.V A Z V i.r.y.r.p.b.p.r.p.h.f.f.f.H.Y.j.H.H.K.H.H.j.j.H.j.R.R.R.m.j.R.Y.j.H.T.n.H.H.J.Y.T.T.R.H.R.j.H.V.j.k.J.T.Y.f.s.u.j.h.f.h.f.j.j.n.h.k.J.R.Y.m.Y.T.T.n.m.b.m.R.V.K.R.E.E.E.E.Y.T.L.F.B.F.A.w.w.(.OXXXOXOX[  XVXnXMXNXhX6X6XvX5X5XfX4X7XsX@. .n   . @ } E h j %X$.6 %X<X8 %.%..X%X%X%X) { $.} E ~ E 9 c E E J ~ ~ c ~ E ~ 7 1 8 E E ] @ ~ %.%X%Xo.6 ",
":X;X-X` c ^ } / G x h z c W ~ c @ X 3 W ^ c k k c ~ E v c ~ ` ^ }.$X%X X X' v ^ ~ U } | G ~ z ^ ~ x z E ] [ }.[.~ J 9 7 9 J U ( ( .X<X-X5X2X1X;X6XpXVX$Xa C a a y.0 & y : ; 0 o X q a e & 3 i : r r r t t ; * * u ; s * & 1 * : t y ; ; t <.5.t i x.a <.=.y ; : ; y <.2.r : y : : y {.1.:.<., , t : t 2.y , y : t * 0 2.y ; * ; t : y i s ; y ; t t r ; ; 5 5 t =.<.:.t ; =.2.3.1.<.1.a * y 1.<.y 2.p y a Z p 0 0 t t.i.t V u <.a.r.> 6XpXsXrX7XfX3X-XrXcX.X2 H c ` ) ) x k J 4 D H 2 3 9 9 = 0 0 D 4 m 0 3 3 5 l 4 4 F F J 3 m S 1 c W v H 9 5 v ^ ) c ) 7 6 @ @ . j Q z E %.6 6 8 { o.jXjXiXrX6XmXrXpX;X$ $ ' M g S F 4 5 D L m g m F F S m g 4 4 m q q 5 g g m N > B w B V V y.V V y.y.V V V V p.p.p.b.n.h.h.j.n.n.h.H.H.H.R.z.H.j.k.V.H.Y.~.n.n.n.Y.H.H.R.H.H.T.T.f.R.T.H.T.T.H.V.V.H.Y.R.T.T.h.c.t.s.c.f.s.k.H.k.j.Y.Y.T.T.m.n.Y.R.Y.n.b.b.c.{.n.Y.R.R.T.R.Y.T.J.T.F.F.A.N.A.w./.c.'.R.m.'  XSXhXvXVXfX5XsXdXpX5XaXfXsXjXQ 6 ) X   X G %Xj %.%X%Xz { %X8 E %X,XtX$.! j z _ E 7 ` ^ ~ z 3 2 9 c 7 9 7 E z E 7 3 Q o.%.# o 3 O.$.! j ",
":X4X;X/ O.} ' F F / G c ^ ' } ] 7 1 l k v # 9 2 7 x W z c v ` ^ _ $X$X} ] _ ^ x v ' } [ H / v G j E E v _ [ / ] ~ c k m H v F Y }.;X5X,X0XyX$X4XnXaXHX&XZ r s Z y.a r a * : ; & 5 y.y q r s a ; t i * r y <.t t t ; * 5 0 e 0 : y : , ; * p <.=.2.y a y.<.t p i , 2.=.t s ; 5.u.: y y : =.: ; t * * ; y y y y 0 @ e r r t > r 0 o o & * : : p t u ; : : : * * : 2.f.3.<.<., 1.f.1.<.y r t 2.3.f.2.; s 2.p p s 2 o - p.y.r.f.p.p.p.V q 9XxXsXsXaXyX;X;X:XfX#X3 l k ` ` 7 E G 0 5 D S 2 @ 4 3 5 M K D D 5 e O.~ 5 e 4 M 5 4 J 5 S c 3 J 2 5 5 l 5 2 $.{ 7 3 3 7 o @ X X @ 7 z E 3 3 E ) #XgXAX5X4XsX8X3XfXrX6 6 J U / S F J g K L m 4 F F 4 m g 5 5 q N q 4 4 M N M M N B N B V i.i.y.i.a.p.c.i.w u.j.t.Z c.n.f.h.h.h.m.n.Y.Y.H.Y.V.H.V.j.j.V.H.H.z.T.T.Y.T.z.;.OX~.T.j.u T.Y.H.Y.j.J.T.H.H.z.Y.Y.z.h.s.h.p.f.s.j.Y.T.j.j.m.n.n.Y.m.R.R.R.Y.n.b.c.f.c.j.R.+XR.R.E.V.Z.M.W.F.N.M.Z.w.A.`.F.|.H F k O.VXsXdXMXhX5X4XMXpX;XpX6XsXnX#.6 x # X . } %X%.%.E z ) z Q E E %X$.$.$.+.%.Q +.{ 9 } { ~ k 1 3 o @ 1 7 z z W 6 2 ` E E E 2 o 1 } Q E Q ",
".X,X>X] ] } ' F ' [ ' / H [ } _ W _ ' 3 X   o @ 1 ^ z h W z c ` c O.+.~ ^ ` _ v I }.} ' ~ } ] ^ z z k c G x k ' ~ v S g H H K Y .X;X>X;X0X5X.X;XzXgXVX.XA L q s p p.i i t y t s ; > a t > & 0 r t y r t y.r ; y s & 0 0 ; r * t i i 1.u u 2.2.f.1.2.u.t r , y p 2.2.<.; 0 * * ; : , , : , * . * : D 0 t y : : * 1 a M 5 s t ; * o . X 5 a y 2.y : 1.5.x.2.y ; , <.1.1.c.1.=.<.2.5.1.1.t.t.y u.].; ; t ; ; u s a r C 2.p r.a.V A A V T 8X7XsX6X4X5X;X;XpXhX:X$ h J H l  .z ' 0 l 9 g l k F 9 ] [ D S g 5 e J J l 4 l g m l 5 D 5 4 9 9 e e S ' F _ W G c G Q @ o . o @ @ 6 z 7 7 3 x Q +.MXHXpX3X5XqX3XpXiX) h S S S g g g g m N N M D m m S g 5 5 N N D m m 5 N M M C N > A i.l.i.x.V p.p.y.p ; p.n.f.P c.h.f.s.f.h.h.H.R.T.H.j.H.j.z.H.V.H.H.Y.T.K.~.n.j.k.V.R.R.Y.H.j.j.Y.n.Y.Y.T.H.T.z.k.k.j.f.s.h.h.u.i f.V.V.V.T.R.Y.Y.Y.Y.R.{.R.R.V.k.p.f.j.c.j.Y.R.R.E.E.C.V.Z.E.W.F.7.0.D.D.).D.d.3 # 3 ` mXnXfXSXnXsX6XsX5X6X:XpXsXMX;X..^ k X % @ 7 o.$.{ o.{ { ` { { %.$.! %.<X%.o.) W { E ~ E z 3 2 9 2 1 c j 3 { E x x z ) @ o + k { 7 ` E ",
"-X-X+.O. X[ [ K U K U [ ' H / _ v ` } 8 @ @ X 1 & 3 @ 3 ` ` J G k 6 z ~ / ] [ ~ / ' / [ ~ ^ ^ ' c z z E z x ` ' ' | 4 m [ ' K Y }.#X-X;X5X6X:X;X7XcXNX#Xw w t t 2.p a r t t i p t a * a 0 1 o 0 s p t t y.s * : * 0 0 1 * * * t p 5.2.; * 2.1.f.f.<.<., y y : ; ; 2.t u e * y : : : y : ; d ; ; , > = t , 1.y 2., p a p 0 a : - # 1 1 0 * a ; y : y u p t 2.<.t <.<.1.1.1.1., 2.1.1.1.1.5.<.y r t <.1.y ; t p 2.u p V y.i y.i.V i r.T 5X4XvXpX,X6X:X6XyXhX#X# # k 2 3 o.h 5 g H S K M S v k 9 9 1 S U N M 4 4 S 4 4 m 4 +.9 5 m 4 3 4 J m H / ] _ l ` 6 O.%.@ 1 . o @ o 2 3 c 7 9 x ) h 4XHXgX2XcXpX5XzXiX` 2 S F m g m 5 m g m N 5 - 5 g m m m N g m m m g q N m N N > T i.p.p.V a.p.p.u.u p V r.h.j.c.b.h.h.h.h.h.c.z.Y.H.Y.T.n.n.j.V.j.j.j.j.T.H.Y.r.V.R.R.V.H.T.H.V.Y.H.T.R.Y.H.J.J.H.h.s.t.j.h.h.s.h.f.j.k.H.T.Y.T.Y.R.Y.Y.z.m.R.+XT.j.j.J.Z.n.n.j.V.R.E.R.T.R.R.E.B.B.P.D./.D.G.A.N.a 6 2 ( hXMXMXAXNXpX5XpX5X5X:XhXrXnX:X^ 6 h $   X @ E %XE %.! ! ` z 3 Q h ~ +.%.E Q ) { ! 7 ~ ` ^ W c v v W 3 3 9 ~ %X{ ~ { x @ X % Q o.$.%.! ",
".X:X#X X] } ' U '.' ' [ [ [ [ ` ] ' ] ` 7 7 @ 3 9 . o @ c ) / ~ G k 9 / } ]  XO.} ] ' $X/ ~ ^ ' ~ E z ^ ` / ' / ' U H Y U U U K }.-X,XpX8X5X:X:XaXnXzXXXa r s a a 0 r a r t t s ; s r & 0 4 X   e x.: : ; ; * * o 1 r ; a C r a r t , , : y <.c.u.1.2.2.<.t ; ; <.y : t ; t <.f.t t : : t s 5.:.<.a ; r <.2.1., y y y : ; ; ; r 1 e 0 t 0 s y r ; : ; 2.=.p ; , y y 5.y 1.2.<.<.2.2.<.<.<.t y r p i p p i t 2.y.p Z y i > u r.r.a.V N 8XmXpXhX6X3X;XyX6XfX<X$ + 3 2 h j E c 9 S U l q K H S 3 2 l XXU q P 3 5 m S m S 9 l 4 M m 3 8 k 2 5 M 3 x k G  .2 7 6 1 6 # o o @ h 7 k I _ Q W G $XAXfXpXaXaX7XaX5Xx k U H g S g g g 5 g g C > m g g g m 4 4 5 g m q e m m N e > p.i.p.p.y.b.p.l.a.r.h.V y.m.<.].v.j.j.z.Y.R.R.T.Y.Y.R.Y.T.j.k.H.H.H.J.E.H.V.j.k.R.R.V.H.R.OXV.z.H.T.R.R.H.H.J.H.n.p.u.u.u.u.f.k.h.t.p.j.T.H.j.H.Y.R.k.n.n.c.{.R.T.Y.j.E.n.c.c.K.V.C.E.T.T.R.j.U.M.6.W.G.w.D./.G.A.u.9 c c fXMXNXVXVXfX4XaX4X6X5X5XfXcX-X+.b z x + . k E Q 8 { E } $.&.# j 9 E Q + # o.%X) j E k E ` ~ 9 E ` ^ 1 2 E 9 ^ ) E %.k 1 # + @ ` { ` { ",
":X;X;X@.' [ ] U ' ' '.} ' ' U c ` } { ~ 9 9 3 X 3 l 9 3 3 ^ } ' ' H G ' }. X X X X X' ' ' ^ [ [ / c 9 c [ [ [ ' '.U K [ K Y v.K }.;X;X5XaX1X X8XzXcXsX/ C p w > D o o q t ; r t s * 5.* o X X % O 0 s i r * ; ; o & y ; Z x.: s s t p y 2.2.<.y t <.2.y , i t ; p t ; i 2.i : <.: ; , , y y i r.<.p ; ; t 2.p y t t u.: : t ; ; 0 5 0 * s y : t , i a 2.<.; ; i y : i 1.<.<.1.2.2.2.2.2., y 2.: : y t t q r ; Z y.<.y.i.t i t.V B i.N 2XfXpXpX6X3X7XdX4XmX<Xj j E E ) W ) v 0 S S q S F P Y 4 2 e }.S L v.l 9 G D D S S S K J v 7 3 k k v F v v 2 l ^ v c ~ c 3 7 @ @ 3 # 2 E c @.o.~ :X5XsXpX0XnXmXaX5XaX.Xk G S S S I g g 4 q 5 M F Y m g N m 4 5 4 4 q m q N M C M B V p.p.p.p.p.x.l.OXb.f.f.v.v.b.'.i.n.n.n.p.R.!.R.n.~.R.H.Y.Y.H.H.H.J.J.Y.Y.f.j.H.T.R.j.h.R.+XH.z.H.Y.T.T.J.T.J.Y.R.p.u.c.c.c.h.h.s.c.f.c.n.Y.Y.R.Y.k.k.f.f.m.@X{.Y.n.V.n.m.c.j.H.H.V.J.L.R.OXV.V.Z.N.B././././.D.A.;.5 z ` vXBXMXmXMXfX5XzXpX:X6X:XzXBX-Xo.^ E W j . 1 3 z z 3 E +.E $ j { z E # . 1 E Q E 8 9 $X_ } W 7 v ~ c E W 7 c c ` +.{ 6 3 6 j W E O.W %.",
":X.X-X-XoXI ] ' S U I H U K U ~ E } ` v 5 7 7 + 1 J ~ G / X. X[.} [ '.U '. X X X+. X[  X[ / [ './ c k c / [ ' / ' H K Y U L v.'.}.4X4X4X0X5X:X;X5XgX6X( 5 D y.2.Z % X > p t s t t = q 0 X @ + o & o & 5 * ; : : ; t ; t 2.<.x.s : : t i t y u.c.p t : , <.f.<.; ; <.<.p r t y ; s y ; : ; ; x.oX2.: <.> : t i y i > y <.<.r * o X X e s : f.1.: <.x.t t t ; q t ; t i i <., <.y y y <.p =.2.<.2.y p y.y.: 2.t Z p p b.|.p.p.i.; w T A XXpXhXiXiXpX7X;X6XsX>XE 6 # O.) ) E / F D e D D K K F S F m 4 H K J l 3 7 S F 4 q [ J 2 ` j . 3 z # v 9 3 k l 9 x z k E k 7 2 1 7 k 3 c +..X..$XsX3XgXnXrXfXpX8XxXaX_ J I F 4 m F H S g [ m M S K F m N q 5 5 5 M M 4 N M M N N B v.T p.p.y.p.m.m.m.b.p.m.{.b.R.b.c.n.i c.u.Y.R.OXh.j.Y.n.k.V.H.T.T.E.T.H.T.V.z.m.j.H.j.j.Y.T.T.Y.Y.R.R.T.V.V.H.Y.R.j.j.n.m.c.c.n.h.n.m.m.c.k.H.H.{.{.n.c.p.c.R.m.{.R.J.m.].Y.V.j.Y.Y.j.L.T.OXU.F.R.C.A.w.D././.G.G.A.t.J I yXnXnXNXBXpX6XsX5X#XaX:X6XNX-X .( x E # X h 2 8 E @ @ / $.# 2 E E E # @ 7 ~ ) o.z E } z c E 7 ~ E z { ) 8 2 3 { %X` v 2 @ E { k o.) ) ",
";X;X..#X#X] ' U H ' ' K Y U } ` ^ +. XO.J J +./ ] _ } } } }  X} }  X] '. X X.X+._ ' U }. X} [.'.| z z x G ' ~ I / ~ ' K Y v.v.Y oX5X5X5X6X;X;X2X0XfX5X_ X 3 p i s o 0 u w r * r p ; o X X X 0 ; r y t & * ; <.y i t : , y t 2.p t 2.y y r ; t p r s t a i 1.: * r ; ; s * a y * ; : ; : : ; <.i i t i s t y <.y t ; ; 1.y 0 3 + # @ & 0 r 3.1., <.c.y ; : <.: t =.y p p y : : y 2.y s , 1.y.5.y u t <.u.<.t ; a t t Z V , A a.N M q o XX7XpXsX4X5X2X4X;XgX4X8 + @ _ ^ O.W ` ~ H J 4 q L H S U D U A C N M [ } v l 7 3 J [ 4 & k 7 1 3 I k # G W 2 k x 7 2 3 Q 8 9 k h 8 2  .x ( +.#.-XpX5XiXiX;X4XpX7XzXsX) v ' U g 4 [ S g m S S m m N m D m 5 q m m e m 5 5 N N M > > i.i.y.b.p.b.p.h.h.n.h.h.f.u.c.p.x.y.<.h.h.n.n.h.Y.OXY.h.n.Y.V.K.T.g.j.V.R.T.H.j.j.c.H.H.H.T.Y.n.Y.T.T.H.H.R.H.H.n.n.Y.R.h.c.c.n.h.h.m.p.u.U.j.s.Y.OXR.n.j.V.R.m.{.!.Y.{.{.Y.Y.V.C.E.L.C.T.V.V.Z.C.C.A.A.A.D.D.I.F.L.=.N ( yXAXnXAXMXsX6XpX0X:X5XpX5XcX;X .j j 6 + + @ ` 7 { @ @ 7 7 Q 8 $ @ @ z 8 Q { ` Q 7 j z 3 8 @ @ E o.{ 9 z Q E ) c ~ E E 3 X o 1 E { %.+.",
";X4X.X.XO.' } ' / / }. XY J G ` ` #X$X#X+.+. X XO.` ` +.} ]  X_ / _ ] [. X$X} H c ~ / [.'.[ [ [ / v k k ` } _ / ' G U U Y F Y XX1X5X5X;X4X-X:X;XpXpXaX{ 6 # w <.; > r > p s a y u p 0 & r = a t ; i s r y m.2.y t i p * r t ; 0 0 2.; ; t ; t 2.y t : r y u.<.<.r ; , t o 5 q t t t ; t , <.1.<.; y 2.; t y y p t * : =.r o @ # 6 # X o ; <.2.<.1.f.2.y <.n.<.y p ; 2.y y t y 2.: t y <.5.2.y <.: : =.u.y p w s i , w q w , l.l.V q 1 ;X5XaXfX3X1X;X5X;XpX>X$ # o ) ) _ $.%.J ] G e M M K M F D [ Y C Y D ~ %.c x c k ) k 4 D 3 # o 3 ) E 7 W v 8 h 3 3 z ! Q 8 9 @ 7 z c X.$.b W #X-XnXnXrXfX:X3X7XdXvXtXQ J M F m 4 / I F F 5 g M S M 5 1 2 4 5 5 5 e M m N m M N A V B l.p.b.p.p.p.b.b.h.h.l.t.u.t.k.p.L R.c.<.c.p.h.R.+XY.Y.j.n.c.h.V.s.t.Y.R.R.T.K.J.j.n.T.R.H.H.H.H.Y.Y.Y.H.Y.H.H.j.u.n.Y.j.h.j.h.h.f.c.c.p.c.j.j.n.{.R.Y.H.R.OXm.c.h.m.m.m.n.R.Y.V.L.L.B.C.J.Z.B.C.N.G.D.D.w.0.B.N.j.u.A c 3XBXNXNXnXgX4XpX5X;XpX6XvXgX<X) 6 6 j 3 . . k 7 6 6 8 3 E 8 @ @ 8 z z E %.{ z 3 h E z @ @ @ @ ` %X{ 3 } ~ l ` W z 6 E j z 3 7 7 Q o.$.",
"4X-X#.;X+.' / ' '.K K v.Y H c ` ^ O. X X X X[ } O.+.} +.+. X X/ c X.[. X[.[.' ] E k ' ' '.Y [ [ ] / c G [  X} [ / ~ ' '.U [ [ XX;X:X6X2X7X2XXX:X2X0XyX{ 6 # q i 2.p a q a ; : t r q ; t p t u u a x.; i p y.5.2.: y t & 0 ; & 2 a Z : t t : p : i a t y y <.y : t y <.y * 0 A r ; : : , y u.: , : : <., , y a y.y.y , p.* @ $ 6 h # X o p y a y 1.<.b.].: t 2.<.a * y.y a t t 2.t t <., y , =.2.2.p y 2.2.p y.b.a r.Z a q C V C B C 5 5X7XsXsX6X2X6X;X6XfX<X8 { E + ) %X{ v S ^ ~ 0 D I H F F m 4 9 m D m ~ W ` ` $.{ j 3 z m 4 2 O @ k c 2 h 8 8 6 3 6 7 E c E 7 k 9 ` O.o.} +.+.-X#XAXhXpXpX.X5X;XaXfXrXG U U F / J M J g F F 5 4 g F 1   X . . . - q N N m M N w i.b.l.A l.p.b.@Xb.n.c.f.h.p.h.f.U.J.c.U Y P u.h.R.R.H.Y.R.n.z.c.x.<.s.@XR.R.Y.Y.Y.R.R.Y.Y.h.k.H.T.T.j.n.T.Y.s.V.K.H.h.=.n.n.h.h.n.Y.Y.j.n.b.m.n.V.H.c.n.{.n.{.OXY.u.h.m.OXm.c.n.m.T.J.J.E.C.B.Z.C.C.F.F.F.D.w.w.w.w.M.t e 4 G 3XNXnXHXcXpX6X6XrX:X6XsXvXpX:X# # 6 @ @ X 1 7 @ @ ` j 9 / z @ @ 6 @ z j 3 6 + # ^ z X o 3 3 2 z { j 7 ' F M ~ { E z E W j 7 3 z { o.Q ",
"4X:X.X;X] I / H }.[ M L Y '.G W ^ c I } ] ' / ^ ` O.O.+.] } ] W W }.}.}.' P / Q x h k F Y Y U [ [ ^ ' / '.[ '.'./ ^ / '.}.[ '.oX X;X6X6X0X6X2X;X;XxX5X` 2 1 r i p u y.i ; w * r 1 * t t Z ; t t p y ; r <.t y y y ; , ; ; t t : s a y t r ; , a y i i 1.t 1.t : : y y y x.r r r y r a t y t s t ; 5., y y r q r p p : u.; # h 7 9 3 o r y , y : <.y 5.p t t y y y s ; t t y y 2.2.y s s p : y : <.5.y y a a <.p.V b.m.t B > r.N Z = 3 #XfXdX8XpXrX6X1X8X6X#XO.{ $ # ..%XQ k l ` g g J l c H X.G S / e l ' ^ c #X{ W ) E k ^ G J 2 9 1 # 6 k G E x v ^ W z c ^ _ E { z k ^ ) x #X<X$X>XsXrXpXjX4X6XsX5XfXsX^ U H C }.J U g g m F l 1 5 g 5 O 5 5 4 w w 5 D N M M M N B l.m.V i.p.y.p.h.j.f.n.z.b.z.j.j.j.y.D  XX.t.s.Y.H.H.n.m.j.n.m.Y.T.d.Y.T.Y.{.Y.H.Y.T.j.j.T.Y.j.Y.Y.m.h.H.T.K.H.H.t.h.m.t.h.p.c.R.R.n.h.b.c.m.m.Z.k.m.{.{.c.R.OXV.V.R.R.].].m.b.n.j.J.T.E.C.C.C.Z.F.F.F.A.G.G.D.G.S.Z.e 4 0 ~ 3XMXVXVXBXfX6X7XpX6XpXfXzXjX@.x j # % X X . o 1 E { k v G E # X 3 3 ^ E k + j j 2 @ @ # 8 3 7 ~ ) j k H J P S { o.) ^ ] { W z W E 9 z ",
";X:X:X3X/ l I / H U M F U '.^ W ] c k / ] ` / z x ] } .X.X XO.E G [ '.}.v.K ~ j j E E / '.v.Y '.[ } ] } [.'.Y v.}.] ' [ '.Y }.XXX.;X5X2XaX:X:X8X0XpX8X^ # @ r a t i p p y.e r o o C a y s 0 t s u i t : <.p t t p y., y : y 1.1.* r * t t i t 0 r t ; p , , s w 5.: i p m.t t a 5 y.2.r t r t s : 5.t t t 3 2 2 - : : : * # n 3 p 0 o y : , t s t p : p t u t u 2.t t t p i y y p 5.q r , y ; y <.y y t p u i.i p y.i > , > B A A N M I 4XpX6X1X4X6X5X5X5X,X@.j # E ) o.o.%.` O.9 S W ] ~ _ +.E E J 2 c l ~ E z E ^ 7 z Q 2 o.x 3 @ o 2 c h _ @.Q j E E z 6 7 E ) o.%.) +.%Xo.@.O.#X,XrX3XrXsX3X3XpX6X7XsXX.F 5 T |.M m 4 5 S g S = 5 1 5 g 5 m m u a.m M q m m m > A i.v.l.p.p.p.v.b.z.z.R.h.Y.Y.H.H.b.C x.[.].k.R.j.T.H.Y.c.R.n.z.n.Y.j.J.T.T.~.n.h.k.H.Y.R.R.V.h.s.n.n.z.H.T.V.j.R.m.T.n.t.p.f.b.Y.j.c.u.t.m.n.Y.V.J.R.{.+XR.U.c.V.T.{.OXm.n.n.n.R.z.H.V.U.Z.k.Z.F.F.F.S.S.F.N.A.G.W.V.p u.p 9 $XMXSXSXgXpXpXpX7X6XpXfXhXhX@.b E h $ 7 @     7 E ^ Q k j 7 2 8 8 @ v ` ~ h Q ! + @ 7 2 3 3 7 v 8 h 8 4 K L U E E 6 3 { %.o.o.9 E E %X",
":X<X:X3X[ U U $X'.J F S Y '.^ c c ~ z ` +.} [ c x /  X+..X%X X~ / [ }.} | J o.Q h { j / [ '. X X[ ' ] '.[ ] Y }. X}.'.[ Y Y }.oX&X6XpX2X0X1X.X;X5X;X1Xc 3 O w p y y y p x.5 1 o 1 5 : ; * ; t t t <., : <.* & * , u.2.2.=.: =.<.: : * <.u.t ; p p t a q p p r r r t y.s t i p t r y.u.i i y t y t * ; t : q q r o & s : r 1 3 l Z r 0 ; r s ; ; r t a y : ; ; s : y q t t t y : t y x.r t ; t <.y y ; ; i t p u r.V r.y.p.V > V f f V [ 7XpXmX7X7XyX;XfX4X:XE h o @ o.h O.@.%.{ 9 1 2 ) { x ` c 3 z l J } 7 @ z c z E ^ E 8 E W o . 2 2 O.E 6 @.h 8 @ E 7 2 z c Q Q h ) { $.%Xo.%.%X>XkXpX3X7X4X6XnXsX7XvXD }.4 B A A K m g m m m m K 0 o g 5 g 0 5 B g m q 4 m N N N A A i.l.p.h.m.m.n.n.R.h.j.Y.Y.Y.u.2.p.c.h.Y.n.k.T.T.H.H.R.j.j.j.j.H.V.Y.H.H.j.j.j.z.n.j.k.OX{.Y.n.j.Y.H.j.z.j.R.+XV.f.h.c.p.c.c.j.c.j.n.m.n.n.V.Y.R.R.Y.f.i , u.n.{.m.m.R.Y.R.c.n.V.M.C.k.s.Z.E.F.F.G.F.A.B.A.S.B.Z.x.p.j.Z .XhXNXVXfXsXrXzX7X5X7XmXnXfX>XW x j ! j 8 k .     . k W @ # 3 8 $ X X o . 6 # $ @ / W 7 # 9 W 8 j 8 7 h J J _ o.j E Q W { { Q ` $.o.6 ",
":X#X.X;X} H / [ } U }.Y v.[ G c E ~ c ~ ] ' ~ c _ } } { ] +. X` ~ [ U ' ' 2 j E ) E x #X} }  X}.} U [ ] I ^ / Y ' [ [ [ v.Y Y }.XXpXaX7X7X8X1X;X:X2X7XD q 4 a y y i t s q 1 X # 5 * t ; * t i ; ; 2.<.: : * o & y 2.y.2., <.<.t , , ; y a r i p s p p y.p t > s : y.5.; t s : <.<.y t i i i i s t y.t t y , i t = 1 @ = w P 5 e u.; & o & * 0 r t t u a y i y t y u.p s ; t : : t t v.C r y t t t y t i y t u t p <.i , Z A i.= a.p.> XXsXxXcXyX0X2XxXdX;X>X8 X @ @ j x W O.W o.c 1 2 7 +.! j 3 3 6 c S ^ E Q j 7 E v c W Q 8 z 6 X l ) 6 j 6 c ^ ^ j @ k k ! { 2 o.%.o.&._ o.E %.o.-XuXsX2X;X6XsX4XsXvX6X'.[ [ v.D m F J g M F J m 5 4 & 1 5 M 2 & w 5 D M m q N q > B Z p.p.c.h.n.Y.m.Y.Y.n.n.n.Y.m.h.j.b.b.n.c.n.k.T.H.H.V.H.K.k.j.k.k.h.j.H.j.k.k.Y.j.j.H.j.R.R.m.h.j.j.T.n.n.j.U.Y.j.p.c.c.p.c.n.j.c.Y.n.{.R.T.T.Y.R.R.y.C s e V c.m.b.n.OXY.j.R.V.V.V.V.Z.s.V.W.F.F.P.P.S.F.G.A.A.h.M Z J.m.:XhXSXVXhXjX>XyXaX2XpXMXNXmX@.W @.x j j $ 7 2 o .     . X + % . # 6 # .   . . X z z 3 1 ^ ) ` j # 3 2 E ^ ) Q E 6 8 E } Q 8 z E } o.8 ",
"#X+...3X} H ' H H U [ U L U I ^ c v c ~ [ } } _ ` +.~ z E ~ ~ c ~ U D U Y l 2 x ! Q ^ ` / [ '.[ [ [ '._ ~ ^ / / [ Y ' K K M U U X.qX0X5X7X2X2X2X;X8X;XK a 5 w y r r t 0 5 @ X X 0 t ; t y i 2.t t i y i : : ; * t : y y y , y ; ; ; : y q > r s p u : <.p y.r t 1.y y ; > r ; 5.p i y s : t t r t 2.2.2.; ; , & o + 3 0 5 U 9 q y.t ; o 1 0 a y r r s s t u.1.2.t u t ; r t , t i y Z Z r y t r t t y y p i r.m.p y , , > V r.w B , , XXzXmXxXdX1XyXyX5X.X-Xj 6 3 @ n ^ ^ ) ) x 7 $ 3 9 6 # h 8 $ # 7 c c c x z v } E ` 8 x E E W 9 k ` j # 3 z 7 c ^ z z x E j { { { o.lX%.@.%X%X%.<XAX6X6X7X5X2X1XpX4X.X[ K F D g m U M M S H l M 4 5 e - q w 5 1 > w 5 g C N N A v.b.x.i.l.p.h.m.b.m.Y.n.n.h.c.c.b.f.n.L C b.h.Y.Y.J.Y.H.H.H.H.H.j.j.j.k.h.h.U.j.j.j.j.j.j.h.j.Y.Y.m.Y.T.H.T.Y.H.Y.j.Y.n.h.h.c.b.c.n.n.Y.{.m.R.R.H.T.+X@X].v.D C : u.m.m.Y.R.z.Y.m.Y.V.V.V.J.V.V.E.P.P.(.G.P.P.G.A.S.x.U V.E.oX4XnXVXHXMXpXpXaX7X8XpXxXSXVX;X^ o.j $ 6 $ $ # 9 k O o o 2 # o . X @ 8 @ # @ @ X @ @ o 7 z E x ` z E E E c ` Q ` ) z W ` j k E W { E c ",
":X#...#XX.[ ' G S H I J Y L g c E G _ ^ / ' [.} ] O.` ^ ^ ] ~ v ~ I K F [ k # b ) _ ` v U '.Y v.'.'.[ / J v ~ [ ' H S F m K Y U  X4XpX0X5X1X6X;X6X5X$XC Z u t t t t y t o X o q r * a p 2.2.<.1.2.<., y y , y ; t t s ; y y t <.y ; r r Z e 5 y 1.t y y <.u.f.s.3.s s > r y 2.t y i t t 2.y y 2.t ; t w & 5 s @ X X 1 5 e 4 e p p t r 3 @ & a a e m s y.t p a p y.p t t t s i y y r a C t ; a t y y i t t y., @Xb., t.r.9.a.f r.V , f XXcXmXzXfXaX6XfX4X;X+.&.Q 6 8 x %X{ k @.$.E 7 x ) Q j ^ W # 6 8 ^ z ^ E E ` { ~ E h Q E # ^ ^ ^ ` E E x E @ l { W z 8 ` ] ) %.%.%X%.%.uX$.o.%X-XkX-XpXsX;X;X5X5X6X>XF U g 5 M l F B N g J g D m m 5 ' C L e & = w m m N A A l.w C C a.p.p.n.b.b.Y.z.n.p.h.j.j.h.j.c.i.L m.b.j.j.H.k.H.H.H.j.H.V.K.V.j.k.j.H.T.z.Y.Y.U.V.n.Y.H.T.n.Y.E.R.R.R.T.R.Y.H.k.d.n.b.c.b.Y.Y.Y.R.Y.Y.R.OX+X{.R.@X].p R.t.n.m.c.n.n.n.R.Y.Y.H.V.j.J.J.C.L.P.G.G.(.P.(.P.G.C.L ].L.d.[ 7XMXSXHXhXrXyX0X0X8XpXfXMXVXpXb $ ! j $ $ h 3 1 3 2 3 1 9 9 1 o . .   . X X 1 1 X o o 3 E Q Q %.j # # E o.E W o.^ z z 7 z v c { %.%.o.",
":X.XX.#X} H / / G F [ ' F Y H ~ | v 7 l ~ c ' ] ^ ` _ W G ^ c ~ / ' F F F k v J / [ | G ~ ' Y v.v.'.Y J G G 2 l G l l H K Y U U I .X5X6X5X3X-X1XaX6X'.y.p t 5.t t i p 0 1 0 w i t r t 2.<.<.<.1.y y =.=.=.2.t y y s : : <.y y 2.t * r 5 5 * s y 2.2.2.t u.c.E.U.<.y = > a p u.t i i p p <.a y : t y r q e 1 3 @ X @ 3 a A q e r > Z e 5 @ + s Z K L i.u > t 0 a p p i u s > t t : ; e C t y p t r t y y a r ; OX@X, i V i.L f r.r.f V XXzXmXmXCXmXyXMX4X<XO.$.%X6 # k +.) z o.Q 8 E Q j Q $ $.o.@ { k E z j 7 b x x ) k 9 E E W v k ^ { x j E j k 9 c z k v 1 o.^ %.&.Q { E %.$.<XlX+.jX:XzXsXrX#X;X0XBX.XK U 2 2 D F H M F g 5 M M m m m M U N q 0 = = 0 q C M A l.B M D x.p.p.h.h.b.n.h.j.t.r.R.Y.j.b.v.Y '.m.j.h.n.T.T.H.V.j.V.H.Y.j.j.j.j.H.H.j.H.R.Y.j.H.T.n.j.H.T.J.R.R.R.T.R.H.H.Y.j.V.n.b.b.].n.j.n.R.R.n.{.@XR.j.Y.@X|.<.T.J.R.m.n.k.j.R.R.H.Y.V.Z.T.C.F.F.F.P.(.(.(.).P.).).P.H.Y.N., v sXnXMXSXfXaXfXfXxX7X0XbXvXmXnXW # j 6 X v %Xh j 3 h @ 2 3 @ 1 @ 3 o .   X @ 3 @ o o 2 k 3 { x ! + % # E %.z E { ^ z z 3 3 ~ { Q ~ { %.",
"2X$X[ _ ` l H _ ` [ } S F ' ] ] ] / ~ ~ 3 h / [ G c ~ ^ W z z ~ / ] F H U ' K K Y P D l c U v.v.T P U H U ( _ _ / l m H F U U K J 2X6X;X6X.X.X;XpX3X'.|.p a p t t t y.5 1 r 2.r s > i y 2.y <.y <.y <.2.<.2.: y , t t ; t : t x.p y y t t i t 1.c.<.<.<.x.2.u.y.r s q s q y u.c.<.<.i t i * r t 2.y Z m p 5 @ @ + 3 4 D 4 5 S q r u r 2 2 0 q w A L C r i t > i r i y 5.i t u i.t p F r > t t t , : p y t ; , y.p.i.V f i., f r.B > B 1XzXMXmXKXVXxXvXaX.X+. .%.) # Q $.{ h z W 6 j E j ! $ j x 6 8 E z z @ # Q ) ~ W ` ^ j h c { 6 3 @ W Q # 7 7 7 o . @ 7 %.j _ $.%.j %.Q E jX%XjXDXrX4XvX7XyXX..XaXsX.Xm I 2 5 F I I S J F K K M F M m m [ v.v.L C $Xv * A K v.A l.C L x.i.r.h.m.b.Y.p.f.h.y.n.n.n.c.v.F  X|.m.z.z.E.E.T.Y.V.V.R.@Xt.V.V.V.V.j.z.h.h.c.h.n.s.n.n.z.Y.H.T.R.R.R.T.T.T.H.V.j.n.n.c.n.n.n.R.m.{.OXR.{.R.k.+XOXj.s.H.OX{.m.p.p.n.R.Y.j.n.Y.J.J.E.+XL.W.P.).).(.).(.).).(.U.r.s.i U dXBXMXSXfX5XpXzXfX5XaX0XzXVXMXo.# $ # X 7 %.$.tXO.%X%.` z 3 # @ o 7 9 o o $ o X o 3 E 7 @ ~ k 6 $ x E ) W ~ { { ^ ) E 7 E z j x ~ ` j ",
";X.X( b E I U I _ c 2 G ] ' ' / ( ' / } O.c ~ / / J ~ _ _ c J ' ' ` / S D K K K Y K ' K K Y Y Y '.U U U Y [ ] O.' U U [ Y K U U X.;X7XaX5X..( :X7X3X}.|.y.Z y y u V @Xy.: p a t a t y t t y y <.2.y =.=.<.<.: 2.: <.2.: 1.i s x.p , t.5.y.<.y.c.2.y , <.y i t r e 4 s p a i y.f.u.x.2.y i p t t a y i.v.a a 4 e 3 9 5 9 9 2 s 0 4 p a D D w 0 N 5 X @ 2 0 o 0 * * r t t i t u p i Z v.p t , t i p <.i t t , <.y.r.V r.f f r.=.V u V A XXbXmXMXNX7X4XpXsX4X` #XQ o.h W o.! ` O.c 8 z h h j 6 $ 6 E { 8 z E k 6 3 E Q E Q ` Q ! E ` 8 # v z j W W W ^ v z j z %X{ $.6 ^ &.%.%.c lX%.o.lX#X<XaX7X;X X-XpXaX:XK 2 g M M D M m M U F m F J g M M m B |.i.&XJX[ q M M A v.V A A p.b.m.p.h.n.n.z.h.c.h.n.j.R.n.x.b.[.oXb.j.Y.n.H.T.j.T.J.R.OXs.T.H.T.Y.j.z.n.m.m.R.{.j.j.j.Y.Y.T.!.E.Y.R.J.E.J.V.g.j.n.n.j.n.Y.OXm.Y.R.Y.R.OX@Xj.R.R.j.s.Y.].OXY.m.v.m.{.Y.Y.Y.n.V.J.E.!.P.W.W.).).).).).).).).L.V.V.y U pXMXMXHXnX6XyXaXfX7XaXfXvXVXBXo.# h + + @ Q %X$.%X%X$.) z h 3 v 7 8 6 o . o o . . @ ~ +.3 7 @ 3 j j + 7 %.7 O.+.7 c { o.! j E { %X$.Q ",
":X-X4X+.) ~ H G k ~ c W _ X.'.[ } ' U Y } ] v _  X] c x ^ ] } } / ` ' U ' [ '.P L ' _ H S U L D U [ ' '.U K F U ' '.U U Y U K U X.4X;X;X;X.X.X4XpX.X'.|.y.t t i i p m.i i a y 2.p t , y y y y i y : : =.<.y <.1.m.x., t 2.u : i y.u n.m.x.i x.p.1.1.u.<.: i s - F 3 q q s p a x.5.t y i i a a > u p x.i.5 e 4 4 # $ 3 9 7 # S 2 e V y.s C y.Z p.L # @ 2 e 1 & > q > , t u t p t w a C > p t ; t r i t i r.i y i r.p <., f f V Z > Q.v.XX6XNXpXfXaXaXxX5XaXc x o.! $ ` c O.^ 7 ! Q z h h h # j $ j ^ 3 _ { E z 7 3 c %.` ` E Q z 3 # @ ` { 7 7 ` o.O.` o.j 3 E Q $.%X$.%.{ %X$.! E 6 c :X3XxX9X2X#X.X5XsX1XM 5 4 F F U U m 5 D U m M M g S F m T l.p.OXxXC w C Y L l.i.Y v.p.b.n.l.b.n.n.Y.j.R.Y.H.Y.n.n.Y.n.m.k 3 b.T.R.R.T.T.T.R.H.T.J.j.T.h.c.n.m.m.Y.R.R.Y.R.R.K.H.H.T.R.R.R.J.T.R.R.H.f.h.n.n.j.Y.T.H.Y.c.c.Y.R.{.OXY.f.n.c.j.Y.R.OXR.Y.n.{.OXn.Y.n.n.V.T.T.P.L.E.E.).E.).).).).).).E.P.B.r l aXSXMXVXnXpXrXMXzXaXcXmXnXNXtXj 6 7 E X o h # 3 z %.o.x + 2 W } E 3 7 E # . X 2 @ @ 7 %X8 E ` z 6 h + # ` 8 $.$.Q E ~ +.` { j E %.%X%.",
";X;X2X+.c I ' H H _ ~ k v ' ' ] ' } ' Y U ' ~ k k x E ! Q ^ ' ' ] [ }.` c ' S F U [ ' J ' ' P K F K ' [.[ ' P Y ' U F D M U U J @.;X5XaX3X.X:X5X7X X&XoXp t i y t x.OX, <.i y y i 2.y <.y y t y ; , y 1.<.y t <.x.y.t t a : u Z a r y.p u.c.2.1.<.<.1.1.<.p p u M 4 a q q r C A Z u 2.5.a a p i u p y.p t e 1 # l m 7 2 2 # 9 5 Z Z C 4 N C y u w 9 5 e a Z a i w w a w u p Z y.u w C Z u , , - 5 a y =.p V , > i.V i i.y.f t.V r.B A 1XaXzXNXNXnXMXfXpXyX@.$ 7 $ j  .$.O.v k Q ! z k j W x E $ j +.} E Q Q c 3 +.) ~ #X%Xc E 7 j 9 7 7 7 ^ E Q Q _ o.{ 7 9 3 { E uXlX%XlXlXh # E ) x .X6X7X@X:X+..X.X;X$X4 5 1 F U C  X[ e m I S F M F J S J Y '.L h.a.w M B T A T l.L x.p.b.n.b.h.z.z.Y.m.n.H.T.Y.n.Y.Y.n.R.v X 5 R.T.J.R.T.z.1.j.Y.j.3.z.n.c.H.Y.m.z.n.n.f.b.R.H.j.T.R.R.E.T.T.J.T.R.J.T.y.j.j.j.T.H.V.U.R.j.Y.R.OXm.V.n.n.c.n.H.R.R.OXm.z.m.].m.k.m.c.Y.J.F.E.E.E.E.E.P.).`.E.).E.E.!.C.Z.0 H aXNXMXMXNXgX4X7XyX7XbXvXaXNXpXx 6 2 k E @ j x ) W ) ! o.h @ @ X o @ 6 { Q @ @ 1 7 E @ } ) Q o.E Q h 3 + 8 2 E Q W ~ ~ z ~ E 7 ` $.%Xo.",
".X:X:X} ` ^ X.[ G W G ^ / ' / ' | ' X.' ' J 3 %   @ + h ! Q ` / ' ' X.+.j Q v v J ' ' G ~ J H [ [ ~ l F [ '.'.[ Y U Y U S l H g #.:X6XpX5X..@.6X6X.X1XoXu u y.p p x.].y 1.1.2.2.5.p i y t * o o & t =.<.<.<., s ; t q ; r t u u s ; p i y.x.<.t.t.=., <.i 2.a w q 0 Z w 0 a C Z v.e u.2.q q a Z V y.C w p.u 3 $ @ w 4 2 3 4 i.e 1 1 o 1 4 5 e e 5 q 5 @ & 0 = > w = q u t u a u u w 5 B V u s 2 4 5 i.p., u u , r.u , V A u B B f , Q.4XNXCXCXVXnXVXnX7X7X` ) ^ W 6 @.lX! x x E E 8 6 $ h ! ! 6 E +.%.Q E c c _ } c W Q _ W 6 7 k k 3 @ 9 z c k j { { ) ` ) $.! x $.$.$.{ <XlXh # j x ( :XyX2X$XO..X..+.G 4 4 C D D N '.[ 5 S F 5 D M [ D 5 F K U A z.l.C N q C T i.r.b.b.b.n.n.m.b.b.n.Y.n.j.H.Y.Y.Y.Y.z.Y.m.v W 2 c.E.E.!.R.j.s.h.t q C j.T.T.H.H.Y.n.j.Y.j.n.c.V.H.J.R.R.Y.R.Y.Y.T.J.H.j.u.h.k.T.R.R.Y.V.+XR.Y.n.OXR.j.Y.Y.s.U.U.R.R.OXj.h.c.Y.n.f.j.R.T.C.L.E.).E.E.E.P.).`.E.J.Z.L.J.L.j.5 F 7XSXBXnXMXzXgXvXmXVXzXmX7XvXNX@.# X X W X   8 c  .` ` { ) 8 @ @ k 9 1 1 3 X @ # # z . %.{ 8 E x Q 6 2 @ X 3 7 Q Q c c E v x j E %.$.o.",
"_ :X2XW b ` ' U J k k v ^ ^ W ' ' }./ # + @ # $ + + j Q j o.O.( ( / ` o.! x E k J } / k k v ~ ' [ G 3 S H K ' ' [ [ [ ` z 6 / U ...X2X8X1X.X.X7X6X:X6X[.B i y i u a a t <.=.y r 0 & o . .   X X % & y y.i y t i r t a s a p ; * t 2.p i.y.p i i i <.y u y u q w a y.u C 5 a u w w a u.p p i.i V e N M 5 Z m 2 # + + # # # 1 3 4 3 @ X 5 5 3 4 w w i.5 % 1 q * * = * q i t i u p w q @ o 0 w w 3 1 0 i , , > > , > > V w = = 5 w V V N #.zXCXVXGXSXvXnXmXrX6 Q 8 ! j %.%.6 x x j j $ # # h j $ j j j z ` W W ~ ` O.+.z 8 E { E 9 ~ ^ z $ 7 2 Q W W E E Q %.%X8 3 W %.{ j lXlX<X) o.6 & c X.xX5X+.` ..+..X_ 2 M A F C K N N m M M C F F m m g S M m }.Q.|.Y C K T l.l.p.v.v.p.b.n.n.n.Y.Y.T.Y.n.Y.Y.Y.Y.n.n.R.x.v O.W 0 C c.Y.b.p.; = L |.v.n.H.H.j.H.Y.m.j.j.H.n.n.J.T.T.!.E.R.~.Y.T.R.J.j.h.s.j.j.V.j.H.J.H.H.H.K.R.Y.n.k.{.{.k.V.V.R.R.R.j.j.c.Y.Y.j.f.Y.j.L.E.E.).).C.I.).P.I.E.J.J.L.C.L.p.3 7 3XNXMXcXmXaXhXMXVXVXzXCX0XyXmX@.6 h X 2 3 @ j @ E o.O.{ Q c h k c z h 3 3 x j @ X @ . 3 j c { j 6 k 6 @ X 1 z ~ ~ j 3 v ^ E z z } $.o.",
"3 #.#Xj n 2 ` / F v k v W E W ` G l x $ $ x b +.j j j Q ! Q E j Q ) E Q j $ ! E g H ~ l G G k ^ | | l J G v U H H G 2 2 9 j ) H I  X;XfXpX.X.X;X1X#.+.F 0 * t t t i t t , y ; .         % @ # # @ X r i t y t y.y.a A r * i i t t s <.x.y.2.i i <., u.r.<.w & q u Z w i.M e L C Z f.u.u r.u u N g 4 m a w S k @ D 5 5 @ 4 w q u 5 2 5 y.V y.y., > w Z - * r.<.i i > = u V r.q u y.u D 0 X - q N y.y.i r.i.V u C B > w V B = 5 B T B N XXCXmXmXMXnX:XfXzXO.6 6 x j n $.E 6 Q x j $ + 6 E h 6 k 3 j &.6 Q o.) { k ` j 1 { W ^ { z $ 6 7 6 h x j ^ %.8 8 # o X 3 @ X # o.X 6 $.W o k 3 g b O.;XyX@.# 6 x ) Q 2 T L F v.K 5 N N M N K J m F ' m m m F U F U M C L l.l.i.p.v.m.b.x.h.m.Y.Y.T.R.R.T.R.H.z.Y.H.Y.Y.m.G / _ 6 6 v.N [ OXc.].m.R.{.n.R.H.T.H.H.H.Y.j.j.H.Y.T.R.R.R.E.!.Y.R.E.E.H.f.h.t.V.H.Y.z.H.T.V.H.J.T.Y.T.T.K.{.R.k.f.j.J.R.Y.T.T.H.T.Y.m.h.h.p.J.P.I.I.E.L.L.I.).E.E.E.*XE.B.C.y.5 7 #XVXMXBXvXpXxXMXVXHXzXCXnX5XfXO.# v 3 @ 2 o 1 6 X { Q E c G 7 E v k E k E E # 3       . @ ~ %.$ # 7 # . 1 2 k c ^ 7 3 k { { ~ v ) %X$.",
"x .X) h ( ~ ^ O./ 3 6 8 6 h x E Q @.o.o.) ! x ! Q ! *.Q ! Q ! j E E ! j $ n E Q W ' / G v k 9 J H H ' | 7 g I J l h 3 3 h $ j k ..#X.X8X4XO...-X.X] O.c 3 D : t i p i , > * & . X X # o 3 @ # # b 6 * i p u ; t p u r t u y p c.Z > m.p.b.r.<.; > q u i.q 5 N K 5 4 L l.C v k m C i.r.p u u e 1 4 m l w Z C Z V p.x.Z A Z u.p.V w w q y.r.p.r.i.V > V y.Z V y.y.* 5 5 > u , * * & * * 5 0 M V p.u a C B V u > > , w q > N - 5 N l.N N +.pXCXBXpX2X;X#X:X3X) x j $ $.o.# h x x 6 + + @ #  .E j h 8 j k  .o.^ E ` o.} ` x ` o._ } 6 6 E ^ { z z ) $.^ 2 @ . o @ . . . c # X   O # O o X 6 x O c # X X + x E 3 K N q m 1 J F L v.M N m m m l 5 m D T Y U K A M T v.v.V i x.x.i.l.b.n.b.m.R.R.R.T.Y.c.p.c.R.H.R.x.~  XO.x e OX' ' R.T.Y.j.E.R.m.Y.T.T.T.J.E.E.H.H.H.J.J.V.U.T.J.E.R.R.R.Y.n.C C b.j.T.J.T.H.J.J.H.T.R.H.K.V.H.H.V.j.i.y.L.J.K.K.J.K.R.H.K.K.h.i.V.V.L.L.P.P.F.L.P.J.M.M.J.C.K.k.r 1 6 ;XMXnXvXiX5XmXMXVXnXfXMXmX7XpX@.# v 3 # k @ X 6 j @ E 6 k ~ z E ` k h j 6 . ~ E     o o o { { 7 6 $ 2 @ 3 9 9 ~ ` k 9 k 7 9 9 1 _  .Q ",
"b :X@.Q ..` k c 3 X X 6 # X + Q $.-X%.%.o.! ! ) %.%.Q @.o.j $ h ! ! j j + *.$ $ j 6 h k 3 v H S l l S l k l c E h + $ 6 k W j h .X.X_ I ..b ( .X.X..g O 6 J i u a u t * & o . X 6 # o k h # $ $ # 6 k M r a t r r i u.i y.x.i c.c.p.@Xx.m.i a 0 q 2 m N e e w N 4 M i.v.F k H U C Z Z w r m @ & & * o o C y.a.a.r.x.x.p.i.p.y.u u A 5 V a.t.b.oXt y.i i V r.Z & o 0 1 - q > * 5 B w = 0 5 V A l.v.w N u w u B B V B 5 q - 5 5 N T m g W x :X2X0XCX:X#.HXzXo.` E # $.E # j h 6 3 Q 8 # j b n h E 7 E %XE j c W c %X@.+.%._ %.%X$.E x ) ) ` @.%X#X#X` ^ 1 9 7 . . .   X X     . X o k X h >X,X:X>X+.W k 6 @.2 w i.M 4 g c G ] ' 2 3 N q M - m q Y Y U Y K K K v.v.M A p.B B i.r.p.m.n.n.R.T.R.T.j.c.a 5 p h.c.3 ' ^ _ G a R.~.@X{.J.j.j.Y.J.c.c.H.Y.R.T.T.E.E.E.T.H.J.J.j.T.E.!.!.R.R.R.H.Y 3 K p.T.J.T.H.J.J.j.V.J.H.V.j.j.V.V.V.Y.H.J.H.V.T.!.V.J.J.J.K.T.V.J.s.k.L.L.L.B.Z.s.=.b.b.<.k.H.p.w o 6 .XvXfXfXpXpXgXzXnXfXgXnXaX7XrX-Xh x 3 . 6 ! # j { o.h E { { 9 2 z W 7 3 # 3 c z 3 3 0 o @ @ E 7 j 6 # # 1 2 c c ^ v G ^ c l 4 5 L }.4 ",
"-X6X,X@....XG 3 k I  .( c b 3 *.! ! o.o.Q ! j ) o.%.%.o.j $ $ $ + % Q &.6 $ *.j # $ # # # k 9 3 2 3 O # k v j 3 6 + j ) .X+.W b #XO.( O.#Xx ) #.:X;X.XG j # C q 4 0 X X 1 o # j ) ^ ^ _ j x E # X % n ^ S p Z Z a t 2.u a x.u.y.x.x.x.x.i u 5 2 A N D N C w > q m C i.K S / }.4 0 e g & 4 2 l U v.N g h o B r.p.p.y.A V y.p.r.V V u q , h.p.V v.V i > > > > 5 o & - O 5 5 = Z A - 5 N 5 * , r.w L , > q K C w C e 3 O 2 6 h 2 3 H l c 6 j _ 0XLXKXpXmXKXsX{ ^ x 6 h n h 7 6 $ x ) h n n W j h ^ z @ # 1 9 W o.$.<X) @ { <X%XO.W #X:XO.W O.:XtX<X.Xx O.( @.` 2 k O.h X o # W c @ v 2XW ) %X#XAXkX<Xo.@.-X@.W ~ h W c v E 6 j x W 3 N M q Y }.* .XtXD F M K D N C q b.i.v.L Z p.y.r.z.b.Y.n.R.Y.j.p.F ` 2 1 1 # ] _ ^ '.D v.v.].R.E.J.T.j.H.Y.R.R.c.j.n.T.E.E.T.L.J.j.V.V.s.Y.E.Y.!.Y.n.b.v 6 3 3 e b.H.T.T.H.j.k.V.V.Z.s.g.V.V.J.H.J.T.T.T.h.R.H.J.J.K.V.V.V.H.J.J.J.L.L.!.T.r.M v c 6 K v.v.5 @ h +.pX7XpXxXzX,X6XzXzX0XnXfX4X$X#X^ 7 x O @ j $ Q E 8 2 3 8 c z x h E ^ 7 1 ~ E E +.%X3 o 6 3 2 o o @ 6 + X 3 z E ) c / ` k c 7 9 X.F 4 ",
"X..X X.X.X.X.X-X;X;X:X:X;XXX#..X.X..W # j o.! o.%.o.o.$ X j x j + X $ ` z x O.z # # 6 j j @ @ o X X X X # # # k x b ....^ _ ..^ ^ ) I X.c h b ...X_ ( b Q &.h 2 h x j $ 6 6 ) Q 6 ) ! j `  .@.! j n X + # 5 Z Z a 0 r a s e x.a w y.Z a y.L e C b.x.i.i.C i.C M 3 D M 4 }. X.Xk 3 x b ~ v J c ) c J ` c 3 = i.p.p.v.L y.V y.a.r.r.V t a.r.> B > V > a u w 5 & o 2 z x v 2 J K M 2 1 l 4 4 e > , > q k S C K A N 4 c j b 6 # j 6 6 $ 6 6 b ( aXKXKXnXVXdX$.W #. .o.j x / v ) ) Q W  . ._ +.) ) o.+.^ b o.-X#X .:Xo.W ^ c $.<X#X#X:X4X4X#X@.#X:X#X:XrXdXjX5X.X4X6X,X4X,X4X,X#X#X X#X@._ Q Q O.4X,X@. .#..X) c ..) b k b +.@.+.^ O. XY Y F U .Xx G [ M A Y [ U }.T V M J b ~ k H D q 4 M e q p.n.h.x.D U '.[ ^ h 3 ( k 3 G v 3 9 n.R.H.j.s.j.T.R.E.{.p.f.V.H.T.j.j.Y.Z.j.p.K L b.n.Y.R.A O 3 2 o @ 6 '.p.H.H.J.h.A t.V.V.t.f.j.B.H.H.K.H.k.H.].j.J.J.J.J.J.V.k.@XJ.J.Z.E.d.v.X.k # @ h 6 c G / / k h ..5XpX4XaXpX.X.XbXxXzXCXBX<X@. X .k W x + j $ 6 6 6 7 # @ z b E ^ c W E ` Q 9 E <XlX&.@ # 3 @ 2 9 & o # $ 7 3 k ` ^ G k z v k l ] J m ",
"gXfXnXmXnXfXfXnXfXgXgXcXnXmXcXcXcXzX6X#X+.#X.X-X>X-X#X#XO.( ( x .X#X( ( 2 -XpX7X$Xb I ^ 2 X . 3 n 3 ..;X5X#X;X4X5XpX6XpX6X:X6XfX5X5XgXmXzX7XpX5X;X:X#X.X.X.X+.^ b G # o # @ % 3 X # h # b +.) o.+.O.E j @ % o 1 @ X o & . X 0 1 X & l M Z P i.b.m.m.n.h.h.v.I v k D K K F ( O. ._ z E x W 6 @ # 3 o o X 3 ( H M U U K N D w N w V N q u 5 5 A 9 B w N 5 3 5 o # ^ W E x b _ @....XX...O.] S 2 m M v ^ X.}.}.X.Y X.@....X.Xo.o.O.+.o.+.#.8XcXVXHXHXSXmXsXyXtX,X.X+.#X] _ W ) _ O. .) ) +.+...#X+.]  X#Xo.@.>X#X:X#X.X,X$X.X$XyX;X:X4X;X3X-X#X.X:XrXrXyXpX3X;XnXhXsXsXBXAXHXAXhXhXhXfXfXnXzXnXHXNXMXvXBXhXgXvXMXvXdXpXaXfXpXsX;X#X:X;XpXsX5XjXiX-XF |.|.|.}.C v.|.}.Q n j k W W W W j W x E 4 p.D l k J [ [ ..) ..+.b E G +.) c K h.j.j.T.Y.T.Y.T.!.u., V.J.J.j.x.C x.v.I G c c J m K x @ v +.^ 6 X 1 S y.H.H.v...r.j.V.V.s.V.J.J.C.J.c.f.V.H.T.J.L.E.T.T.K.d.R.m.T.k.=.M c j # # ^ Q n $ # X k ` v ..gXpXfXfX:X.X:XyXnXxXzXBX@.+.O.+.` E $ X 6 x + 3 # # 3 3 z v b ` o.{ E ) Q 9 E $.%.Q 2 o @ & 9 7 1 3 2 1 1 1 7 ~ W c k z # k l 5 2 @ ",
"kXBXNXGXSXNXBXfXnXgXpXpXhXfXGXHXHXHXHXMX;XXX:X;X;X.X;X4X3X2XpX,X;XaX5X;X-X6XiXsXnXiX6X6X5X;X#X0XmXnXNXMXdXfXnXnXMXnXMXMXMXfXBXBXHXAXSXHXKXJXKXKXKXHXLXHXMXzXfXzXxXfX0X0XaX:X2X0X2X;X2X;X.X#X-X#X_ h j # # 3 o # X @ # X 3 8 @ + h 6 # # 2 9 5 # o 0 L T v.S W b ^ ..O.] ^ b x 2 k ( I I c 6 h k ^ j n _ +.O.+... .x k n b W 7 3 2 6 # # h 6 k h 3 5 0 @ 2 c I +.O.O.` X.:X:X5X:X4X4X;X6XyX7X:X2X2X:X.X:X2X2X6X4X5XqXgXnXzXnXsXsXnXjXnXKXKXKXLXKXHXHXHXHXHXaXdX7X:X;X X.X#X.X.X;X:X X#X:X+.#X;X:X...X,X_ .XaX6X7X0X;X6XpXpX8X4XsXpX6X1X6X5X1X:X5XyX8X2X6X2X1XaX2X4XfXpXcXdXbXzXzXpXhXfXHXSXJXJXKXLXJXJXJXJXSXJXMXNXSXSXBXhXsXrXfXfXzXMXnXfXhXmXnX;X}.XX.X}.}.XXrX#XQ j O.:X:X6XtX6XpX;X.X.Xx 1 ] +.>X3X3X-X%X+.+. .#X@.#X>X#Xo.$.' x.A L b.i.b.p.c.v.I L i.5 1 o # # # 7 k h # 7 6 X k  .6 ^ @.O.+.) Q 2 C v.}.oXe n.n.s.1.t.u.Z r.u.x.Z f.J.Y.J.E.E.H.z.K.V.&X}.' [.U # h 3 3 ( ^ W W j c h O 3 v .XzX7XpXnX2X6X6X5XvX5X5XpX6X X^ _ ( h X X + 6 + @ @ # X 3 h W { O.W E o.z W j o.$.$.E 2 v 2 5 2 7 0 5 2 5 o & @ z c c v 2 + 2 # # h $ ",
"pXiXqXiXqXsX5X6X5XpX6X;X5X4XcXHXvXhXfXrX6X6X4X>X$X+.+..X.X:X5X,X.X-X<X,X#X;X5X5XiXpXfXpXgXfXnXzXgXnXvX7X4XpXpX5X4X5XrX6X5X5X6X6XsXfXMXGXvXgXHXVXVXMXvXhXvXMXnXnXNXGXKXVXNXNXGXGXPXGXVXGXGXmXmXhX6X;X;X:X:X;X:X.X..b v j k h 3 3 ( I ..I 1 3 I ..( b F F ..U I I g g I I X.X. XXX1X0XgXcX0X8X6X5X.X...X.X:X:X1X2X8X8X8X1X.X XI J I }.Y Y X. X.X.X......:X7XaXpX6X5X4X;X2X5XiXaX6X6X6X,X8XaXpXhXmXzXzXBXMXpXqXvXjXnXnXzXjXzXvXgXpXpXsX6XMXVXmXHXLXLXHXHXzXzXmXzXVXnXaX5XyXsXrXrX6X:X1X:X;X<X.X$X6X;X6X4X#.7XaX7XxX7X1XsXgX8XpXfXfX6XfX .6XzXzXpXsXvXfX5XsX7XxXgX6XaXfXzXzXmXcXbXrXpXcXzXdXfXfXHXNXHXHXHXMXzXfXhXfXaXgXsXnXhXaXaXfXyXSXnXvXMXMXmXmXBXhX5XdXpXsXpX#X .@.X.6XcX;X6XfXHXSXVXVXNXnX#X;XpX4XpX4X#X<X;X#X#X.X#X.X .o.o.)  .x x ( ..O...` W _  .x 8 h b W _ n v ( b b ........#XO.) +.<X>X`  . .h v ..O.h @ 3 5 2 9 c c 7 v I 2 ^ g * p.T.Y.T.K.j.Z.v.W k 2 ] .XI k .X.X.X#X#.#..X$X#X..I ( / X..X$X;X5X6X4XyXpXpX6X#XfX,Xx G +.b n 6 j ^ n X O x # X 2 2 E o.c _ $.%.&.j %.lXE 1 5 4 k 2 3 k S 9 k 2 o o X . 3 k 3 X X + + j 3 @ ",
"5X:X;X:X2X6X2X4X6X$X.X-X6XpX6XqX5X5X4X;X;X4X>X<X@._ O....X-X>X.X:X#X.X#X@.#X4X6XqXrX5XrX5XrX6X6X5X6X5X5X5X6X2X5X5X6X4X:X;XpX>X:X6X5XgXnX5XxXmXzXzXbX5X6XpX5XgXnXnXmXgXfXvXnXmXnXfXkXMXGXHXSXNXnXfXzXNXNXVXSXSXmXfXsX7X0XxXmXxX0XxXZXZXCXxXxXCXPXPXPXCXZXCXZXZXPXCXPXPXKXKXKXKXLXKXGXVXGXKXLXKXKXVXmXCXVXcXGXVXVXHXMXmXVXNXcXxXZXZXZXZXPXPXHXLXKXKXKXSXnXpX5X5X4X4X#X#X4X3X4X4X6X6X4X4X2X7X5X5X3X5XpX6X7X5X,X6X5X6XpX6X5X7X5X7X0XnX7X5XHXmXmXCXVXVXxXzXVXmXbXdXVXSXvXzXfXhX7X5X6X6X4X4X;X5XpX2X4X6XnXrX6XsXfXsXsX6X7XpX7X6X2XMXbXaXvXO.fXgXvXaXzXgX7XpXBXzXmXbXvXzXcXSXdXVXzXmXgXzXNXbX6XyXyXvXVXNXNXnX0XaXaXdXNXzXbXcXzXvXvXmXfXgXfXzXvXaXMXNXSXMXSXnXhXsXbXnXMXgXsXpX7XsXpXfXhXhXAXNXnXfXSXJXHXAXVXHXNXMXMXMXMXAXNXnXfXgX5X5XiX4X1XfX5X$X>X#X#X$X#..X.X.X.X;X4XrXhXNXMXNXHXHXAXNXAXMXSXJXHXHXAXNXMXMXyXgXfX5X6X6X;X:X .` ...X<XX... . ..XI 3 5 U v.l.b.|.[ #.;X:X;X2XzXVXHXmXVXGXNXHXSXNXnXmXVXNXNXzX:X X4X:XoXXXXX X.X.Xv ..+..XX...O.+. .h x +.k @ 3 ( W 6 z W W { %.%.Q ^ 9 k ) $ 7 7 1 @ 3 7 x j 3 o o X . . X o 1 3 o 3 o o 6 # + ",
"4X;X;X4X;X;X:X2X;X@..X:X6XaX6X6X0XaX4X8X6X#X@.;X:X:X:X#Xo.+.-X>X:X:X$X@.)  .-X;X6X5X;X.X-X3X;X2X5X4X0X7X4X;X6X:X8X7X8XrX6X6X:X:X0XxX5X0XmXzX7X7X0XcX7X5X4X6X2X6X6XfXaXyXgXnXfXvXpXzXjXpXxXaXfXaXaXfXzXBXBXBXVXVXPXHXPXKXHXKXKXPXGXPXPXKXKXKXKXKXKXKXKXKXKXHXGXKXKXKXKXLXHXGXHXHXHXKXGXHXHXGXHXHXHXnXhXMXNXBXMXnXMXnXnXvXgXpXpXpXpXzXMXNXMXmXcXgXnXsXpX2X6X5X:X:XO.X.@.;X8X8XaX8XyX;X5X6X7XaX5X5X2X6X5X7X5X6XpX0XfXrX0XdXyX8X5XzXzX8XzXVXNXVXHXCXmXMXCXGXMXvXaXmXNXfXaXaXvXzXgXyX6X2XaX6X6XpXyX0X;X6XmXvXfXrX6XpXyXpX7XaXdXNXsXmXSXfX:XmXnXmXzXzXCXnXzXmXzXxXaXaXmXmXxXSXMXxXcXCXmXcXaX7X8XfXrXfXdXhXhXpXpX1XbXfXSXBXaXxXNXhXnXnXbXmXaXbXfXdXpXsXpXfXNXSXpXmXHXfXnXMXvXMXdXbXsXzXfXzXaX5XbXHXnXVXHXJXKXJXHXHXHXNXMXNXNXNXHXHXAXNXJXKXHXHXKXHXGXHXHXJXJXJXHXKXJXKXHXHXHXJXJXHXHXJXJXHXAXHXHXHXSXHXKXKXKXJXHXLXLXLXLXKXKXSXHXSXHXHXfXvXfX6XCX6X.X5X;X#X:XXX#X7XHXHXHXHXHXHXJXJXKXJXHXHXJXHXHXHXAXHXJXHXLXLXLXLXKXHXHXHXGXcXmXcX4X8XVXMX2XaXaXmXgX.X.X7X3X..v k 6 3 c W n @ @ $ X X 2 # 7 3 @ X . o @ 7 + . o o X @ o # 3 h h x 2 O 1 6 # 6 ",
"2XqX6X7X;X;X2X#X$.%..X6X0XmXfX5X0XaX5X2X5X.X;X5X6X5X2X#X@.( .X-X;X;X-X.X#..X.X2XpX5XpX2X2X1X8XaX2X8XaXsXaX7X1X1X0XaXpXrX6XaX1X0X5XaXsX0XxX0XaXxXcXpX6X8X2XgX4X2X2X7X7XaXaXzX0XaX0XxXgX5X7X2X7XxXiX4XgXnXgXnXVXMXVXSXNXSXHXHXCXmXCXCXVXNXVXVXHXHXGXVXNXMXBXmXhXnXnXzXnXfXpXpXgXaXaXgXxXyXhXBXMXnXnXjXgXzXgXpX5X7XzXaXgXaXpXpXaX0X7XaXqX6X5XsX:X;X6X5X4X.X:X:X:X#X X;X:X2X2XyX5XpXrX;X4X;XaXdX7X4XXXaX5XaXzXfXfX7XvXaXgXfX5XiXgXaXpXyXzXzXmXCXSXHXPXcXVXmXzXsXaXnXnXgXsXaXpXpXbXaXaXyX7XrX5X6X6XhX8XyXnXdX4X5X6X5X.X2XsXdXpXgX8XpXjXnXMXxXmXaXmXVXzXaXVXVXmXaXzXzXzXcXmXVXMXaXxXMXcXzX8XaXxXmXMXzXfXzXyXnX8X1XcXzXcXnXnXnXmXVXbXhXfXNXvXzXmXmXvX7XMXdXpXbX7XzXmXzXmXmXCXgXyXCXmXzXmXmXzXpXpXzXxXzXHXSXAXSXSXSXfXzXsXhXnXNXMXAXAXAXAXBXAXNXBXAXSXSXVXSXSXJXHXJXNXAXJXHXKXHXJXLXLXKXHXJXKXJXHXKXLXLXLXHXHXHXKXHXKXKXKXKXHXKXKXJXHXHXHXHXJXKXKXKXKXHXHXHXHXHXHXHXSXAXAXSXHXJXHXKXHXAXHXHXJXJXHXHXHXMXnXMXAXNXMXNXHXJXJXKXLXLXHXHXHXHXNXNXVXnXMXNXAXHXnXmXVXVXsX.XXXb X   . o o . O O X % .     . X # X . 1 @ o v  X X#.^ 2 ] .X@.@.# k I (  .",
"8X0X8X1XXX;X2X#XW  .;X2X5XmXzX5X5XpXdX6X5XpX5X6X3X:X2X.X;X;X8X3X.X;X;X.X2X5X5X0XyX2X7XaXpX8X8X2X0X2X4X6X0XxXaXaX6X8XdX5X4X5X8XfX7X5XaX0XzXaXaXaXcXzXaX7X8XrX-X8XzXdX7X0XfX7XzXcXmXmXcXnXzX8X0XnXcXzX7X0X7X5XgXpX5XpXfXNXMXMXcXzXzXcXnXmXcXHXHXVXNXNXmXmXMXmXzXaXfXgXyXaXjXrXcXxX9X8X6X5X;X4X5XqXaX8X5XpXpXfXfXfXxXfXpXaXsXnXzXzXvX7X7XpX2XaXpX5X5X7XpX1X:X2X$X6X1X;X:X:X.X;X5XpX;X:XyXpXpX0X0X0X3XaXdX0XmXxX6XaXcXfXgX8XxXaXzXMXsX2XzXVXMXmXmXdXmXMXdXmXbXvXMXNXNXmXMXzXzXMXVXMXmXpX6XgXfXpXxXmXfXpXfXsX5X7XxX>XrX5XzXpXpX2XzX7XsXCXmXVXHXzXmXmXzXgXxXHXMXxXHXmXcXmXmXMXNXmXhXcXVXVXmXdXVXmXmXVXzXzXmXmXCXVXgXzXfXzXfXvXmXbXzXfXMXMXdXzXMXnXnXnXxXCX8XxXNXvXpXaXmXsXfXnXfXmXHXVX5XzXHXMXBXvXfXmXvXxXmXsXvX6X3X6X5XdXpXpX5X6XiXpXpXAXMXzXpXyX6XpXhXsXhXAXSXNXNXHXHXHXHXSXJXHXJXSXBXjXmXMXBXmXvXNXnXnXSXHXHXNXVXMXNXBXBXAXfXzXmXnXzXnXMXmXMXnXSXMXNXSXSXHXnXjXiXaXzXhXgXsXfXfXaXvXpXaXfXnXcXbXbXvXVXhXMXaXzXMXNXVXHXSXHXVXHXVXVXMXhXfXmXzXdXsXsXNXHXSXNXHXNXHXKXNX#.G XXaXpX1XzXaX>X#X$X:XXX.XI -X#.#.:X:XXX$XXX.X-X:X X X Xb c .XpXgXpX6X",
"aX8X8X:X;X:X.X:X.X5XaX6X4X;X2X5X7XpX0X8X5XpXaX;XaXfXyX7X7XyX6X5X:X;X7X:X-X;X2X7X4X1X6XpX7XaXaX7XaXdXpXaX6XpXaXpXgXaX8XpX7X5X7X8X0XaXyX0XxXxXxX0XaXaXaX7X6X6X4X0XzX5X5XaX7XpXfXpXpX7X5X8XfXnX7XgXfXzXpXfXaXaXzXpX6X7X2X2X2XgXnXxXaXdXxXbXzXcXCXbXxXxXcXxXcXcXxXzX8XaX0X0XxX0XxXmX@X@XcXfXaXaXaXpX4X8XfXxXfXgXsXxXzXfXpXzXbX7XgXzXpXaX5X2XfXnXpX7X7X0X8X1X6X;X X;XrX6X:X;X4X5X0XyX1X1X7XfXaXzXaXzXxX7X5XpXxXxXyXgXaXmXCX2XcXnXmXMXzXcXmXMXhXVXCXCXmXVXMXMXnXvXSXBX7XvXaXmXHXbXVXNX7XdXaXgXpX5XxXCXmXfXBXjXsXzXxXaXfXgX0XaXxX8X0XxXxXMXxXxXbXzXdXxXVXxXxXxXMXzXCXbXbXMXNXzXxXCXzXaXCXMXzX3XpXmXBXrX6XsXpXVXmXmXxXCXNXCXmXzXxXVXmXbXNXMXmXmXVXAXmXCXBXbXbXmXmXaXaXnXVXnXyXxXbXdXMXnXfXVXCXCXMXCXMXmXMXMXBXzXnXsXpXpXpXsXpXsXpX2X;X6X7XAXsXvXaXfX0XfXgX2XaXrXfXfXvXgXdXaXvXaXyXhXsX3X1X6X5X6XpXdX3X6XgXfXvX7XnXfXxXfXgXzX8XaXxXxXzXmXzXMXnXMXmXpXnXaX4XrXaXpXpXbXpXyXnXfXzXzXsXiXbXnXvXgXaXxX0X5XzXmXzXzXMXvXMXfXzXmXmXMXmXmXMXMXnXzXxXpXCXvX8XxXdXsXsXgXpXgXgXfXpXsXsXaXhXnXMXBXnXmXHXHXNXMXMXfX:X6XaXgXhXcXpX6X:X-X:X;X;X.X$X;X4XfXvXAXBXBX",
";X8X6X;X6X;X;X4X:X:X4X:X>X4X;X2X2X7X6X5X5X5X5X4X;X6X4X;X8X;X;X4X4X:X7X6X4X5XpX6X2X5X5X0X8X4X2XaX6X:X5XaXaXyXpXbXvXdXaXfXbXaXgXzXaXpX1X1X8XgX5X8XxXaX2X6X2X:X4X-X;XyX4XfXxXgX6X5X6X4XzXyX6XgX7X4X5XpXaXpXgXgXaX7X5X7X4X<XpXaXaXgXpX5X0XaXpXMXfXxXCXaXgXzXcXmXKXxXCXcXxXmXmXVXzXzX8XeXmXdXaXaXaX;X-XcXcXSXmXzX0XCXyXpXaXxXpXcXzXgXvXaXaXfX5XpX5XgXxXdX6X7X5X5X6X6XpX;X5XvX6X4X;XpXpX7XzXpXaXpXzXNXaXaXpXpX4XaX5X:X:XaXpXaXpXaX2XpXdX7XsXdXpXfXVXMXsXzXmXjXrXAXsXsXNXVXaXJXMXMXNXvXpXvXBXpXfXvXzXVXMXvXBXnX;XpXdXnXsXfXzXdX7X8XaXaXzXmXMXaX7X;X7XzXKXVXbXNXmXxXVXHXSXMXVXzXMXmXVXcXVXpX5XzX5X6X6XrX5X;XaXpXaXaXcXMXsX7XCXVXNXHXKXSXSXGXMXfXnXvXVXxXaXcXyXxXCXVXmXbXfXMXMXmXaXaXxXVXVXnXmXVXmXbXMXMXnXyX6X4XtX.X$X:X#X,X4X$X:X3X$X;XpX-X,X;XyX4X5X5XaX6X7X4X7X6X7XaXaXhXfX5X4X<XXX|.v..X5X3X7XxXpX7XsXpXpXmXNXMXVXSXVXVXxXmXNXVXVXMXSXKXMXMXBXdXfXnX6XzXNXfXmXCXSXsXnXNXMXvXMXmXmXnXzXNX0X8XgXaXzXnXfXaXzXyXvXzXzXmXpXfXmXVXfXxXcXmXVXmXmXzX.XMXzXpXfXaXzXvXfXpXpXpXnXhXNXNXnXnXBXNXSXBXvXMXMXzXfXpXhXpXpXpXhXfXpXiX6X5X;X@.#XsXnXfXpXnXBXBX",
".X:X:X#.qX4X:X;X.X-X4X5X4X4X0XpX6X:X:X-X2X;X1X2X2X7X2X8X5X6X4XqXpXaXqXpX0XpX7X0XpXgXpX0XgX5X1X6X7X6X6X4X2X;X:X8X5X5X7XyX;X7X6X5X2X0XxXyX6X8XgXaX0X7X3X4X6X6XaXaXpXfXzXzXzXfXzX5XpX5XHXpX5X6XnXbXpX0XmXfX7XaXaXrX5XrXpX6X6XhXfXxXpXfX0XgX0XpX6X;X6X5X4X5X;X0XzXvXpX5XaXzXBXmXdXxXnXnX7XVXaXpX7XcXcXmXzXcXzX8X0XMXfXfXfXxXgXvXzXiXjXhXpX7X5X2XcXsX0XaX6X0X5X4X0X8X0X7X5XxX1X5X5XvXsX4XpX4X6X;X5X5X;X6X7X5X6XjX5XaXpXsXsXyX6XpXpXvXyX5XpXpX5X6X5XpXrXhXsXpX5XhXyX6XdXdX7XgXrXyX6XpX5XfXNXvXsXzXpXvXdXpXnX6X3XsXhXaXrXyXMX6X:XyXcXaXnXmX7XpXpX5X;X7X4XzXMXSXnXxXMXxXxXdXvXvXbXxXaXxXzX7XdXMXbX8XmXCXxXxXsXfX7XNXsX6X5X5XfX6XyXfXaXhX4XhXBXpX6XpXxX6X6XyXcXzXMXMXdXsXmXgXAXMXmXMXxXKXSXrXpXhXsXMXiXrX6X6X;XsXrX:X.X..+.<X:X#X` #X:X:X:X+..X_ .X .]  X.X3X6XsX7X0X:X;X6XaX7X5XfX4XXX9X|.&X7XyXzXmXVXfXfXxXbXnXcXmXzXCXCXvXfXMXMXNXxXnXnXVXVXHXnXvXAXmXNXmXVXnXMXbXMXnXmXMXmXaXvXaXzXdXvXmXVXzXNXvXzXsXvXrX6X5X;XnX5XaXnX5XmXzX7XyXCXcXzXmXzXnXyXmXVXmXCXCXSXfXzXzXnXzXnXhXMXBXnXNXfXaXzXvXnXNXzXaXvX5X5X7X6XdX5X2X5X2X2X4X-X4X5X5XpXfXfXnXgXnX",
"4X:X-X-X2X;X-X:X:X8X4X6X0X2X4X4X2X6X4X;X4X6X4X;X2X4XpX5X7X0XpXgXgXnXfXgXpXfX0XgXcXbXcXxXaX0XaXaX0X0X0X6XaXaX8X7X5X5X6X6X4X0X6X5X7XpXfXgXcX6X8XpXaXfXpX5XaXcXmXMXzXaXpXnXMXfXfXMXaX5XnXaXpX5X0XCXMXnXfXMXzXBXMXvXzXmXmXVXnXcXnXNXfXfXzXMXzXpXfXvXvX5XzXdXpXxXgXzXdXyXpX6XgXpX5X8X0XsX1XaXzXpXxXmX0XmXMXpXVXmXzXmXMXNXmXmX0X1XvXdX:X2XgX7X4XfXVXmXaXsX7X7X0XxXdXfXsX>X@.;X1X2X4X6X;X;X6X5X5XpXrXrXqXpXpXsXnXnXfXNXSXcXxXpXMXCXzXfXnXNXNXmXxXnXdXCXfXzXmXzXMXMXcXMXrXaXsXyXbXvXpXpXsX,X5XgXyXfXzXdXaXvXaX6X6X;XdXfXrXgXhX5X>X7X7X7XbXyX7XvXzXfX8X5X8X7XfXnXaXzXfXmXmXyXfXvXMXCXHXnXNXCXzXNXCXKXVXmXVXGXCXCXbXBXMXnXiXfXpX4XnXgX6XsXtX6X5XrXfX4XpXpX-X;XmX6XO.o..X-X:X4X>X:X;X.X:X;XyXwX3X:XXX3X4X;X;XrXfXpX5XrX.X.X#X+.-X.X^ $XrX:X.X3X:X#X#X.X..:X5X5X5XrXrX7XvXgXpXgXfXgXdXxXfXcXpX7X7XpXfXpXmXVXMXbXHXCXKXKXHXCXmXMXmXCXPXLXGXVXcXmXbXCXzXMXMXcXaXmXfXfX7XfXHXzXvXsXfXaXvXbXmXnXxXcXmXVXnXpXnXsX#XO.<X;X3XvXrX>XsXpXgX;XyXxXNXmXVXHXHXVXnXgXmXfXzXaX6XyXfXaX5XyXaXxXzXrXyXxXCXzXbXnXpX7X5X0X4XyXpX2X8X5X5X2X7XpX2X;XfX7XfXgX0X5X6X5X5XpX",
"5X4X;X;X1X4X4X8X4X-X;X2X:XaXxX2X7X7X6XgXzX5X6X6X0X8X7XgXnXaXcXVXnXgXzXzXnXnXcXmXmXnXfXzXxXxXzXzXzXfXNXxX0X0XzXaXsX4XpX5XfX6X0XaXzXzXMXCXVXcXmXnXgXfXaXMXNXMXHXNXvX3X#X;XmXmXnXAXzXVXfXfX7XBXHXPXCXmXCXVXHXHXHXVXNXHXMXVXVXHXHXmXMXVXVXCXSXmXVXzX0XpXVXmXmXCXbXzXmXzXcXfXpXnXNXMXfXmXMXmXmXzXMXzXzXdX6XaXpX6X4XiX,X5X2XrX7X7XzXfXpXpX5XgXnXaXfXfXsXpX;X>XrX3X,X>X;X,X,X;X2X5XyX5XpXdX7XpX0X4XaXpXzXzXmXHXmXMXnXfXnXMXVXHXMXmXVXxXVXVXmXVXHXVXVXmXmXSXPXHXVXVXNXmXmXmXCXcXzXVXSXnXMXMXgXnXVXNXNXbXnXMXVXmXBXnXMXnXgXvXpXaXaXnXaXaXxXbXfXgXnXyXcXVXMXxXnXNXGXSXCXVXnXNXHXmXmXmXmXVXmXVXHXzXHXHXNXCXVXVXVXVXCXmXCXVXVXmXbXNXSXpXvX7XcXmXrX5XrXfXmXmX:X.XpXiX$.+.x 6 h @.6X4X;X-X3XpX5X8XaX0XaX;X7XfXsXpXnXvXnXsXyXrXgX5X6X5X4X,X5XpX;XyX5XsXsXpXiXgXgXsXnXjXfXmXmXVXMXzXgXzXVXnXmXzXmXzXbXmXnXzXzXvXnXbXMXKXKXSXHXKXNXsXfXmXHXLXVXMXHXKXVXKXKXVXKXHXCXHXVXVXHXgXnXmXMXxXSXzXgXzXSXCXVXaXpXMXnXvXvXpX4X;X;X.X:X6X;X.X<X;X;X,X:X;X:X5XfXzX6X7X;XpX6X5X4X5X4X5X4XpX6XpX5X8X5XaXaX7XrX:X3XcX;X2X2X1X4X6X5X;X3X7X5X6X;XhX6X:XyXsXrX5X;X4X@.+.#X>X",
";X6X0X0X0X5X2X7X;X4X5X0X5X4XqXqXxXmXnXaXcXzXpXcXmXzXnXdXfXBXVXVXmXCXMXcXmXmXCXMXmXnXmXmXCXCXNXzXzXzXfXfXgX5X2XxXxXaX8X5XaXfXmXzXnXcXzXzXCXHXGXVXzXGXNXnXcXcXVXVXgX3X X.XmXSXVXNXCXHXvXNXhXnXNXLXHXHXHXHXnXnXmXSXHXVXMXcXSXVXVXHXVXCXVXVXVXCXCXVXVXHXVXKXKXKXKXKXKXGXHXMXhXmXVXHXHXGXCXVXVXmXMXnXBXMXVXMXnXbXfXzXmXzXvXpX5X6XrX3XpXsX;X6X7X7X,XrXgXNXNXsX6XpXrXpXsX7XsX7XpX7XaXzXfXaXfXnXVXcXMXCXCXVXMXHXSXVXCXHXVXSXVXHXVXGXHXpXnXGXHXHXHXGXGXmXVXVXHXHXHXHXHXCXCXVXKXKXVXKXHXSXmXCXVXNXHXHXCXHXKXHXHXVXNXHXVXnXVXHXNXVXmXHXmXVXNXzXMXHXSXNXVXmXVXVXCXHXGXmXnXCXCXCXSXKXHXHXVXHXVXnXVXPXKXHXHXVXHXKXLXKXLXKXVXHXKXHXVXHXMXmXKXmXVXCXmXaXfXdXnXLX:X$ ) j ) o.# + X X E >XfXgXsXnXnXnXvXMXzXCXVXVXnXcXnXbXBXnXzXmXfXfXBXmXMXgXjXpXpXpXpXaXaXnXhXjXsXgXsXvXNXVXSXVXVXVXSXCXnXNXNXVXVXVXVXmXmXmXVXMXVXHXVXnXVXnX;XaXaXpXcXfXaXxXaX7XpXsXhXzXzXmXMXfXiXfXvXiXMXbXNXHXVXfX4X4XMXhXhXaX5X;X;X:X3X5X:X4X>X4X4X6X5X;X6X:X3X5X;XyX7X6X7X5X5X8X;X6XpXpXpXpXdXpX8X8X0XpXxXpX6X4X4X0XaXsXaX8X2XzX2X6X0XpX5X7XxX3X;X4X6X4X;X4X:X,X;X5X6X#X:X:X#X.X#X@.",
"6X8X2X5XgXaX0X0X5XaX0X0XfXgXmXzXcXCXMXcXmXCXzXgXzXzXnXpX6XgXnXmXHXHXNXVXNXNXmXmXmXmXNXmXVXcXcXmXnXmXmXgXmXxX.XxXzXMXSXMXmXmXnXzX0XaX7XmXSXaXfXCXVXVXVXNXHXHXMXMX6X;XcXmXnXVXHXVXHXHXBXnXMXnXKXKXVXmXVXVXmXGXHXHXHXKXKXHXVXHXKXHXHXVXGXGXNXmXmXCXGXKXKXKXVXLXLXHXGXHXSXNXAXmXhXhXsXHXHXLXKXJXHXHXKXHXHXVXHXHXHXHXKXHXHXNXCXnXNXnXhXdXaX6XaXMXMXfXzXzXmXfXVXfXfXnXzXfXfXxXpXnXgXyXzXrXiXpXMXVXMXVXKXVXMXmXVXVXVXVXVXMXNXSXMXfXBXgXnXVXHXHXHXKXKXKXGXKXVXHXzXVXGXCXGXHXSXHXVXVXGXKXHXHXHXHXHXSXMXjXjXzXnXfXfXhXhXdXzXyXhX6XrXBXNXnXHXHXHXVXVXKXHXCXKXKXKXHXKXKXLXLXHXKXKXLXKXLXKXKXKXLXLXKXVXVXBXnXnX4XrXrX4XdXzXyXsXrXsXjXvXAXnXhXBXSXMXGXHXjXsXBX$Xo     @ ^  .$ # 6 $ W :X,X4XrXjXBXBXnXHXHXVXmXVXmXMXCXVXmXVXMXMXVXCXHXHXVXVXmXvXfXpXMXmXpX6XrXiXpXnXVXHXSXVXBXvXNXHXMXVXVXVXVXVXVXVXVXVXmXMXzXCXVXCXVXmXHX6X5XmXVXVXVXVXMXVXNXNXBXbXnXMXgXfXfXcX7X4X4X;X6X:X;X4X#..X.X:X:X:X4X4X7XpX5X5X6X;X:X>X;XrXpXaXaXvXzXzXgXpXfXgX0X7XaX5X7X5X6XaXpXsX5X4XpXzXxXaX0XpX5X8X5X;X2XpXpXfXfXgX0XxXxXgXfX5X;XyXaX5XpXaX5X5X;X;X#X.X.X.X..#X@.+.) +.o.",
"0X0X0X6XcXcXcXcXxXmXmXmXmXcXmXcXnXMXnXMXMXmXmXzXmXnX5X.XqXMXMXMXnXMXgXnXpXgXhXzXcXfXmXmXmXCXmXmXMXmXNXVXVXVXCXmXVXCXmXCXmXVXmXmXVXxXzXzXnXCXmXmX;X6XgXKXGXVXGXVXVX2X0XKXHXHXGXHXnXHXVXVXNXVXHXHXNXmXmXKXKXKXLXKXKXKXLXLXHXKXLXLXLXKXKXHXVXVXfXnXMXnXfXfX5X;X-X+..X;XpXpXMXyXx O I @.( :X.X5XNXBXhXyXhXBXHXSXNXfXnXSXSXzXKXCXmXMXNXCXNXVXKXNXBX,XsXzX<X:X<XvXzXaXzXgXgXmXfXpXiXaXnXgXfXjXgXsXsXkXAXHXnXfXnXfXhXfXAXnXfXNXvX6XnXNXVXKXKXKXKXHXSXHXHXKXVXcXVXHXHXKXKXKXKXKXKXHXHXSXNXnXhXhXjXsXtX,X,X-X,X>X>X#X.X:X$.o. .O.o.) @.@.@.#X.X#X<XMXBXhX4XrX>X#X-X%X$X>X#X6XdX;XVXrXfXKXKX5X$X X#X-Xj E j $ $ # $ Q Q ! x c Q j { o.E +.>XtXiXsXtX,X,X>X .W X     c @.@ o # # 6 h @.#X$X>X>X;XfXHXHXHXHXVXHXHXHXKXKXHXHXKXLXLXLXLXLXLXLXLXKXHXVXBXfXyXpXpXaXSXGXHXKXHXVXVXVXVXmXVXVXSXVXSXHXVXVXVXmXmXCXPXmXmXVXVXGX>X3XVXmXVXzXBXBXvXNXHXnXBXvXbXzXnXnXhXpX5X5X7XpX7XpXiXzXfXiXsXmXnXfXzXmXmXBXMXmXfXpXpXgXzXnXnXbXCXVXcXxXzXzXpXaX0XpXaXgX0X0X0X4X4XyXfXzXxXfXpX7XaXaX0X7XaX7X6X2X;X6X4XaXzX6X6X;X5X6X4XyX5X2X:X5X;X;X.X:X2X8XpX4X-X;X;X:X#X#X",
"qX0XcX0XmXcXxXmXCXVXCXGXKXHXVXVXmXMXMXMXmXCXGXCXzXmXaX#X2XfXfXrX;X6X,X:X;XyX6XpXgXfXCXVXVXmXCXCXmXMXMXHXHXHXKXKXKXLXbXxXLXLXHXHXKXKXmXVXVXHXLXKXcX5X4XzXdXpXNXMXVXPXmXbXpX4XVXVXVXHXSXHXLXVXHXHXhX7XmXKXLXLXJXKXKXHXNXVXSXHXmXdXrX>X,X.X>X#X..7X,X@.Q ...X4X7X:X.. X2X6X4X#X[ .X;X>X4X$X|.v.Y v.( +..X}.XXXX5X-X) #X,X<X3XzXVXaXnX,X#X5XpXvX5X<X..4Xk +.o.,XMXfXpXiXrXbXcXzXaXCXbXhXgXrXiX6X4XpXhXBXhXBXfXSXVXMXAXkXjXNXHXHXjXjXJXHXHXJXjXNXJXMXaXLXKXKXHXAXNXbXhXhXrX>X%Xo.@.6XjXtX-X>X:X$X&X8X1XXX9X8X8X%X%X$.O. .O.@.@.Q ) ) Q E b W x W @.o.j x ) Q E x 6 $ E W ! E W 3 _ .X&XY b.m.q S G j E 6 6 $ k 7 9 P b.Y.b.v.Y U H $ E Q o.o.j 6 +.<X) x     % _ +.( $X X#..X( W #X@.#X#X$X6X4X5XaX5X,XyXsXfXsXvXgX6XtX$X:X>X3X,X>X4XsXMXVXHX5X7XaXmXzXVXVXHXVXCXCXHXSXHXGXVXCXcXCXVXSXMXVXmXfXmXNXMXNXmXVXfXsXVX5X3XmXNXgX3X4X4XtX6X5XrX6XpXAXfXsXzXnXmXnXmXmXMXmXMXMXzXMXzXCXVXVXVXVXHXmXgXgXfXnXnXnXnXnXMXMXVXzXzXGXmXVXcXcXzXxX8X2XxXxXxXcXaX5X:X:X6XaXgXzXzXbXzXzXxXaXzX0X6X8XaX0X5X4X8XpX7XaX2X5X;X2X7X6X2X8X7X4XpXnXgX2XzXBXfXnXfXqXcX",
"0XCXVXmXmXCXCXmXGXMXfXaXNXPXHXKXSXMXNXMXzXCXVXmXnXnXvXo.-XhXsXBXnXrX,XrXnXhX6X4X#X>XpX,X6XmXLXLXKXHXHXVXKXKXKXVXHXSXVXCXCX;X2XKXCXmX:X@..X#X;X,X@.@. .+.+.o.Q ) ) ;X@.@..XwX;XaXmXVXnXaXmXcXHXAXrX:XzX0XaX;X}.oX1X.X.XxXyXO.) +.) O.) E +.:X@. X#XW .X0XzXpXvX;X.X1X1X4X>X#X X#X,X@.-X%Xv.~.Q.v.@.+.O.}.Y |.oX_ ( G E ) c b ) c W x h b X.XXVXtX_ o.c ..4X<X,XjXhXnXMXBXnXHXHXVXNXNXSXjXtXjXBXAXHXHXHXHXsX6XfXBXnXjXnXsX,XtX#X) #X3X6X#X$X+.>X,XfXsX-X@..X1X9X@X}.c ) ..}.Y I U  X[ m.OX@X&XeXeXeXeXeXeX0X0X&X#X$.#X@.) Q Q +. XO..X+..Xx j O.o.Q Q c G l ] U S 2 n x c ` .Xo.l m.].].].m.p.R.m.' W 8 P v.b.OXR.~.OXR.R.n.i.M 2 3 ) c ^ E 6 +.<X$X-X$   v #X@. X:X:X1X5X4Xo.Q { o.! E .X#X@.@.O.o.$.#X+.b k h h X X $ x x j 6 c h k z ` ....c +.#X .O.>X4X5XMXsX,XvX7X5XMXfX4X>X@.-X@.+.@.^ 6XfXzXcXCXVXVXVXKXmXmXMXmXVXmXcXbXvXyXzXmXpXhXnXsXvXSXVXNXNXNXVXVXKXKXKXKXHXHXKXKXHXMXnXVXNXMXHXHXNXVXSXSXVXVXnXyXxXVXaXaXmXfX0X7XxXZX0X8X7X8X:XyX4X3X4X6XvXnXzX8X2X2XzX0X2X7XpXCXVXmXaX0XcXgXxXgX8XaXaX0XaXmXVXfXnXvXnX0X5X6XMXnX5XBXpXcXfX",
"PX4X#.-X.X1X1X.X;X#X#. X6XmXmXzX0XpXaX4X#X#X.Xb X..X) n #.$. .@.#X .E x j W x h n + + @ O X.7X:X#X@.@.#..X..o.x I I }.OXm.F x +.:XGX.Xn ^ h 6 7 b W 6 o.E $ 3 2 6 @.$.%.XX0X3X.XcXnXfXnXaXCXHXhXtXx ;X$XU v.|.l.OX|.oXwX.XY Y }.:X) { o.o.$.o.$.$.$. X0XfX4X4X$X-X-X8X6X@.( #X) ) ..W o.Y m.|. .o.c W O.+.#.}.oX}.Q.[ h 6 ! ! $ # # n -XHXHXHX6X<X_ ) Q Q '  Xo.o.@.@.%X .@.>X<XfXsXiX>X<X<X#X#X$.$.,Xo.@. .+. .#.#X;XX.v X.oX}.XX9X|.XX9X9X1X6X1X&X$XO.X.9XZXFXOXK [ |.9X@X+X+XOX+X+XR.+X+X@X@X9X9X9XOX@XeX@X` ) W # x Q ] }.+XOX@X#XO..Xj   E Q c |.@Xc.b.R.Y.OX}.( $X+.) J m.b.y.f.V.Y.R.R.+XR.].x.m.h.b.b.p.p.m.n.Y.x.S i.C L x.R.OX4 j #X-X>XkX-X( rX-X#X#X..z c O.#X@.o.{ { ) O.) Q ! E E W ] _ 6 h W j ) E k j E z v l x ` c G ( -X>X+.6 E ! E ) @.o.o.Q ! ) Q 3 $ n $ X $ E h x x ) pXhXVXHXVXfX5XdXNXfXSXVXVXHXVXHXHXCXPXKXPXHXHXPXmXHXKXHXHXJXNXBXvXrX;X-X#X#X.X.Xo.+.@.@.@.-X>X4X,X>X>X#X#X4X6X6XsXrX,XrXrX,X:X.X#.:X X$X#.X. X..+.+.$X<X5X4X;X6XCXcXaXzX0XxXzXpXyX;X3XzXzX7X2X>X+.1XfXfXaXmXrX-X@.4XsXiXsXsXjXnXsXpXrX-X#Xo.",
"zX.Xb ] U v.v.X.I oXXXv..X5X2X9X9XXXXXY N m F F U l D D I U m M U 7 # o O 2 - M g 1 o = v.x.N & . X X X O & - N V A a.t.k.l.k     3 ) W 3 F x.e Y '.1 h 3 1 e 5 3 Q )  .XXwX8XO.:XiXnXnXsXmXMXjX,X#Xh x ^ I I U l.X..X+.+.Q.~.~.T E ^ c k 3 M O.) _ }.:X..:X:X.XO. .@.>X+.@.o.! Q W x  . .U I W ` ^ ) o. .O.O. X XoXm.I x j E 2 h j 6 >XHXSXSX6X#X$.j Q c y.n.P # X @ + @ + + # j ! # X 6 3 D L Y v l ^ J X.XX.X9X8X&X9XeX9XeXeXFX=X9XeXeXeXOXOXeXeX=X@X+X@XxXeXOXB |.OXY.T.OXOX~.+XR.R.Y.R.Y.R.R.R.R.m.R.+X'.x @.x ) E '.@X~.Y.n.v.k x ..) # h 8 '.OXY.T.n.R.j.n.R.|.oXXX|.{.m.m.b.j.Y.n.R.n.m.R.{.b.h.j.u.p.m.i.c.h.s.H ' v.Z m.R.T.E.Z 6 >XsXrXsX-X,XhX#X:X+.j # 3 8 E o.+.{ ] H ' { o.o.W H I K X.+.W n $ ) >X$. .` G ' ' ] ] [ ' D O.O.c _ W j h h  .{ W j x ! E W 3 # h 6 # X # @ 6 #XBXMXVXVXNXsX) 4XnX .>X<X>X-X4X6XpXMXVXsXjXsXhXvXnXrX#X#X#Xo.G ^ ^ x E x x Q h h c ^ ) ) W ` ) ` x h h c O.x k v _ +.@.+.+.O.) b W W b h 6 6 # h b $ c @. ..X.X.X.XyXrX4X5X4X4X:X6X#X.X#X.X+... .O.) ) .X:X@.O.#X6XbXjXyXzXyX9X1X;X<X X}.O.j ",
"}.v.m F T v.v.v.v.v.|.}./ U v.@XoXb.|.v.l.l.A A C i.l.l.u T v.l.b.v.T K v.m.m.z.A v.|.i.|.p.b.Q.L L C N V v.|.b.p.p.p.b.m.R.4 @ # X # b v a.b.A q C e 4 4 5 3 # # z x ^ X.XX8Xc .XpXpXiX7XnXnXnXiX#X) c  .)  . .X.@.@.$.#.v.b.Q.v.l m |.T v.K H / U F O.O.-X.X+. . .h  .@.^ W b b Q b ) ^  . .+.) W b  ._ ..+.O.X.+.Y N U v.m v.Y n h zXJXNXsX4X;X@.+.W + 4 Z e 5 v.'.7 X # + # @ 6 1 4 2 A Y.R.@X9X|.@X9XeXeX9XeX&X'.eXZXeXZXZXeXeXeXeXxX9X+XR.+X@XOX+X!.OXOX+XY.n.OX+XY.Y.j.Y.OX+XY.Y.Y.Y.E.+XR.E.{.{.+Xm.v E #X#X..'.m.m.~.n.z.m.2 $ ` +.@.@ 1 OXm.H.j.m.m.Y.n.n.n.Y.R.i.c.p.x.V f.Y.m.p.p.m.b.n.f.j.Y.s.Y.b.p.j.m.x.@ h $ U +XE.J.V.b.G 6XkXfX>X .4X4XO.-Xo.h # k 6 z W _ ^ ' F e | D [ O.S m D L O.<X@.h  X+.x x / / ' ' ' [ ' ' ' 4 W _ x W h 6 6 ^ o.) Q +.o.Q ` @.#X+.o.) c k ) G ) pXgXNXNXBXhX@.:XgX .k ^ o.+.@._ @.#X$X.X%X@.) o.) x $ h x 6 2 h h x  .+._ b 2 7 j z x x _ ` h k ^ c 2 / }.H '.v.Y }.) ) ) W W x n j h 6 k # # h j x 6 # + 3 x o.o.#X$.#X-X@.@.` #X@..X#.@.#X-X-X$X#X.X$X:X3X3X8XbXaX&X@X].@X@X|.@X}.v.x.4 ) ",
"M C N C A v.m.b.l.T v.m.L M m.b.b.p.l.a.i.p.V B A b.m.i.V i.A p.m.|.m.L T p.p.a.a.|.v.l.b.b.i.|.oXL i.b.m.v.m.m.l.p.p.a.R.~.C 2 $ h h $ 5 z.b.p.1 3 1 g 3 3 # # $ $ $ $ $ n b $ .XVXBX>X;XfXiXGX>XW o.` O.O. .+.%X$.+.@.@.X.v.Q.v.M b.|.|.L 3 g 2 ] .X#X-X@.o.@.@. .h ) o.x j o.o.x b ` W ) ^  .x v W ) )  . .( ..O.[ l.m.~.OXv.D  X@.hXSX#X_ fX>X6X>X( @ X w [.m.Y.j.Z & 4 5 C m.b.m.OXOX@XOXR.OXOX@X@X=X+XOXm.R.+XY.~.@X@X+X=X@X=X@X9X9X@X+XR.Y.R.{.!.R.!.R.Y.{.E.R.+XY.f.j.p.c.n.c.Y.R.T.T.{.R.Y.R.{.+Xx.E j <X3XoXm.m.m.b.v.R.R.D # $ Q o.) H h.c.j.V.Y.j.;.s.n.b.h.OXx.B c.x.L i 1.<.Z y.h.r.u.j.H.f.s.c.m.c.h.Y.].e X x |.R.+XR.T.+XX.>XgX8XpX+.#X:X@.,X@.Q # v 7 G / G F | U P Y Y Y '.U P M m H .X>X#Xo.c / S c G ' ] '.Y [.[ }.H k ^ x E +.c # 8 o.{ %.@.O.Q @ j ) @.o._ ;X#X@. .^ ,XmXmXVXAXNX<X>X5X.XO.#X-X#XO.^ W x _ ^ ^ W 6 h c x 2 9 z 2 v k 5 S ` Q E b c h h z 6 x k 2 9 9 v 7 2 S e v.].].Y [.U ' o.Q c k h h h 6 # # # 2 O.o.) j k ^  .{ ] #X X$X6X$X#X.XxX$XW +.$XX.o.} '.[ [ &XeX9XXX8XxXyX&X|.v.x.|.m.m.m.b.i.] { ",
"q B A T A l.l.b.h.i.z.l.i.A l.i.b.z.a.h.p.r.a.z.z.l.h.Z N l.b.i.l.v.v.l.r.h.a.9.9.l.i.B h.z.b.l.l.p.a.l.i.x.p.l.z.z.p.a.m.n.z.4 6 h E j m Y.h.l.2 + + + + # @ @ # 3 4 k #     X :XNXjX<X4XpXnXHXtXx j v  .o.+.@.#X@. .@.@.` .. XQ.Q.Q.v.Q.m.m ^ ^ O.@.+.@. . ..X@.E 7 v h x k W Q h h W  .o.W Q W k b  . .)  .( G _ X.b.Q.~.Q.b.F I +.6X:X. 3 nXrXsXjXo.o C b.R.n.s.c.p.h.R.OX+Xm.p.n.f.n.OXR.OXc.Y.n.R.b.Y.n.Y.R.~.R.Y.!.R.E.E.E.!.R.!.R.+X+XR.!.~.Y.+X+XE.E.E.+X!.E.+XR.u.w J U h.c.Y.Y.T.R.|.OXn.R.R.R.Y l G ` $Xb.b.m.m.v.K b.m.m.C 3 $ 6 j k Z Z i.j.u.<.n.b.i j.u.x.<.i.y.n.].p t.u.p.h.H.j.p.c.f.p.i.u <.h.h.j.U.b.X F n.z.R.n.s.@X6X>XfXnXpX6X.X>X:X,XE ) h v ^ ' c ' U 4 J  X'.P A Y P M K P L ' ` / k v H / H J U Y '.' U Y [ U m J _  ... .# 6 E j j W Q Q z k 6 h x @.%XO.+.#X.X@ $XJXHXSXNX6XyXHX>X@.$XO.[ v.e U 4 D H v 2 2 2 2 9 4 e ' F e P a P ` Q ^ O.h  .) | l j 2 3 5 H e 4 e e D C x.[ P Y Z '.] E x k h h # 8 c ..v c ^ ` _ ^ ' ' P Y Y '.P ].oX&X8X8XxXoXoX$X&XXX.X X'.G  Xv.|.].1X8XyXyXXXv.XXl.l.p.b.A T b.'.F ",
"C B w B h.b.z.h.l.a.b.l.i.r.V b.p.z.p.l.h.f l.h.h.h.p.V > l.l.a.a.i.r.t.9.k.k.h.a.a.i.B b.p.a.i.b.h.p.h.i.i.n.h.k.a.a.r.b.n.l.p.2 6 j # A h.a.B C L 1 + $ # K D 4 i.p.M 6 ) x n 4XnXrX>X2XpXjXBXrX! ! c .. .@.@.@.#X . .@.) o.+.Y v.m.Q.l.b.F ) ) _ O.@.@.{ ) O.o.) x ^ j x W j k k k h ^ ) E `  .)  . .$.W I ( c ^ G v.~.m.L v.U K ( cXtXo b pXaX5XsXO.D b.n.Y.Y.R.Y.z.z.m.z.R.b.r.f.2.j.R.m.j.R.m.Y.R.m.OX@XR.T.R.Y.Y.R.Y.R.E.!.!.R.!.+X+X!.T.R.R.m.OXR.E.E.!.!.!.E.E.x.P ~ E U u.f.c.H.T.m.U P i.].m.m.F K +Xx.J v.m.|.l.m.l.z.n.R.R.Z 3 # 7 3 3 5 u h.y., =X9Xa i.p q > h.f.f.u.p.m.Z p.n.j.R.c.f.u.j.u.a y.t.j.Y.j.m.M x.b.m.OXT.U.R.|.rXAXnXdXsXrX6X6XrX..W z I ~ H [ ' / 6 $ [ [.F D K Y L L K T D k ^ I K ' | P [ P [  X} ' '.K Y H D 4 S  XO.# E E # # ^ 6 ! ^ / k z 6 W  .o.) _ ;X+.3XmXHXHXKXgXyXKXgX@.E x H p.C C 5 5 5 e 5 @ 5 e q s a ].'.a x.L H z j 8 U / ] ^ 4 S 9 e M a a C m w C Z i.Z a A Z y.x.C c x k h # # k c ^ ..^ J F H H D D i.y.Z Z v.].v.].oXXX].|.oXoX|.oXoX}.}.X.}.'.v.i.v.XX&X&XXX|.|.v.a.|.m.> Z m.v.Y ",
"> V q > l.z.l.p.l.z.l.i.a.f m.@Xp.a.a.a.k.a.a.l.z.z.h.a.i.A V h.z.a.a.9.a.k.z.k.a.p.b.b.m.m.p.p.z.k.a.z.n.n.h.k.a.a.V i.a.a.h.z.a.2 $ # C r.h.n.Y.m.p.0 # g Q.m.m.l.C q @ o.#X#XpXfXrX4X;X7XfXBXsX! x 2 b ^ .X$. . .+.@.+.o.@.l J .XU U X.I b o.O. .) o.E W _ _ ) x E x x x h h x 2 k x ^ ) c ^  .O.o.W  .c ( ] ` I ( }.m.v.H [ ' L }.KXNX+.XX7XvX>XsX] x.n.n.c.T.Y.Y.Y.h.j.{.c.u.r.g.t.j.j.j.n.Y.m.m.Y.Y.R.R.R.j.R.+XY.Y.n.Y.R.E.E.n.~.!.R.~.R.E.R.R.!.E.!.!.R.E.E.E.R.u.].[.[.'.x.g.n.Y.T.u.m.P v.{.{.].6 v.R.m.U m m.m.C p.n.Y.m.R.R.Y.b.4 m L # # m w p.: y.v.o c eXI O Z s.f.1., Z v.b.k.p.f.j.u.h.Y.n.u.u.h.p.m.h.j.OXOXm.r.m.s.i t.m.rXnXBXkX6XpX5X6X#X@.b # ~ | ~ ' H 9 $ 6 / }.}.v.L A L K L T K P J H Y [ ' '.[.L M  X XH K x.v.D K U K H I Q ! $ 6 + 2 6 # # ' J 2 v k x E E O.gX#XrXSXHXVXSXBXyXVXgXX @ k 4 V x.C e a q P a e D a Z e s ].P a i.e k x ^ k '.Z Z e 4 5 = e a a t w C N C y.b.Z i.Z Z Z Z P J z 9 h 3 # 3 k k c S D C P C P s p y.a Z v.x.v.m.].'.L v.c.].].x.'.|.|. X[ v.].v.l.|.v.Q.[ '.Q.v.l.m.b.h.b.m.b.x.",
"> V u B l.a.p.i.l.b.b.l.b.p.r.a.a.a.a.a.h.p.a.l.p.h.a.a.b.u B a.p.V V a.a.k.z.k.k.h.h.z.b.l.i.h.k.k.k.V.H.n.h.r.f a.h.h.f.h.z.t.z.x.8 6 w r.t.t.p.b.n.h.C p.h.p.a.A i.q X @ W @.6XfXpX5X4X4X5XBXjXQ j k I O.O. .+.+.@.@.o.o.o.) @.@.E @.+.@.W  .o.W ) W 6 x _ o.) h j x x k c W x 2 2 1 n W c W ) _  .) ^ G ( ] o.c +.+.[ K H X.D l.K gXNX6X.X:X4X5XsXO.i.|.p.p.b.m.R.j.h.h.n.y.i g.V.j.V.s.8.j.U.s.f.j.R.R.V.Y.Y.R.OXn.n.Y.x.i.T.E.Y.T.!.Y.!.R.E.!.+X!.E.~.E.R.U.R.T.Y.Y.n.{.{.c.c.f.c.J.V.f.n.m.m.R.E.L $ 9 v.[ 2 5 x.n.l.z.R.z.h.R.R.R.R.p.l.c.5 # # e p o 1 l # ^  X3 @ 4 c.=.c.c.j.c.h.j.h.h.h.h.h.n.j.j.n.g.s.n.h.p.R.z.p.y.p.b.y.u.Y <XpXrX,X$X1X7X4Xo.;X .# 7 H G H J 7 + j 7 F '.'.v.i.C M L L B A L K ' ' P '.Y v.v.v.Y A A l.T w K F F D D I j $ # # X # j 6 # $ h k ' G 7 x .X6X_ 7XHXHXVXHXHXpXnXNXb x c C V C C x.x.y.x.x.Z Z Z Z Z p L L 5.p 3 # ] XX' } }.y.p C C K e r p p a a a C p x.y.Z Y L y.A C C k j 3 2 2 3 k v e e P v.Z x.x.a s y a C x.x.x.m.v.'.'.v.x.m.v.x.x.v.'.[ }.P '.v.l.l.A v.l.a.OX}.v.a.z.m.n.h.c.b.",
"h.l.B B r.a.b.b.z.b.h.p.z.a.A a.r.r.p.h.a.a.a.a.p.h.9.V a.u B a.p.r.f a.a.h.k.k.k.z.a.h.k.z.a.a.r.k.k.H.Z.k.t.> t k.z.k.h.z.z.k.k.n.0 # C t.t.t.r.y.p.p.p.h.k.t.t.i.y.0 O 6 6 ) ;XgXaXsX4X7X8XnXuXo.x n I x .._ +. .( @.+.o.o.o._ +.) #.#X .b +. .) ` W k x ^ c E 6 j W b k k x 2 3 3 3 g v x k c ) ) ^ ( ....+.@.( ( _ +.O.[ ] S b.Y pXKXiXyX4X6X6XtXo.L m.c.h.t.f.n.h.p.h.f.t.f.f.V.k.V.j.s.h.j.n.j.n.c.n.Y.V.c.n.h.p 0 C 2 1 p.z.T.Y.R.T.J.R.!.R.Y.R.!.E.E.E.V.H.T.H.U.Y.n.n.c.n.c.f.V.j.R.b.m.n.R.E.p.8 + + o. XC m.!.R.~.j.a.k.n.Y.!.f.a.Y.j.x.o X @ 1 X # 6 3 H 5 L S P m.C eXm.u.j.h.c.j.f.u.j.h.g.g.n.n.V.j.Y.n.m.n.h.h.t.> a.p.u.}.iXNXhXrX2X6X6X@.c 0XW # # k H F 2 # 6 j 8 1 S U D i.v.C K C C C i.K D D P [ [ ' U L L P Y L T L P H D D g m 2 + @ h $ 2 g S 6 6 c $ 7 H H k ..:XrXKXVXVXHXSXnXnXmXHX+.c F w x.x.x.p Z x.Z y.y.p y.y.Z p x.L 5.p S # oX@X Xl yX].y.A P _ ' L p p Z A C C Z y.x.a Z Z Z D w D ^ ) h 6 7 3 D C Z v.v.'.L L Z C q e s x.Z Z x.x.m.i.v.'.x.x.].'.'.'.'.P '.Y C V A v.z.p.r.a.a.v.Y f r.H.b.p.i.Z ",
"i.r.> B V z.l.b.l.b.p.a.l.r.r.V V a.a.p.9.a.a.f a.a.a.a.b.p.y.a.a.r.r.h.k.k.h.t.a.a.a.z.z.z.p.p.r.h.k.z.V.9.9.i t.k.k.a.k.z.z.n.h.p.5 # C a.p 9.i r.k.k.k.p.z.Y.f.h.m.a $ # # W #XaXfX4X4XcXdXsXsX<Xj # b ` ` O.o.o. .o.+.Q @.$. .o._ o.#X$._ ..+.O.+.) h x b x 7 2 j j W E x k 3 2 v X.( k x W E ) _ ) I +.` ^ W ...X] X.X.[ G U i.}.BXBXyXVXyX4X;X6X_ Z j.n.m.R.j.T.b.p.U.j.V.s.d.d.g.h.s.u.<.t.V.n.c.h.j.j.T.n.c.t.u @ X 1 o Z j.k.t.Y.K.n.Y.E.Y.T.T.T.T.R.~.V.Y.Y.+XT.Y.m.x.x.b.Y.n.U.J.R.i.~.R.R.+XZ 3 $ + # P A OXY.a.R.n.z.T.Y.R.R.R.~.~.~.b.C - # # # X o oX@Xf.m.U s b.oXc.y.b.k.h.k.j.s.y.t.s.j.h.3.f.U.n.Y.R.h.j.n.m.p.* y r.y.}.iXkXfXfX4X,X6X.X X1X6 Q ) h h h 7 ) j $ j j h J K i.L L L L L l.A C C C '.v.'.Y Y v.A L ' K C A v.[ H D 4 S 4 2 ( l m e Y '.J o # z 2 S U G .X-X( VXHXHXAXAXnXfXSXmXo.H Z C q a A a p y.x.u.u.u.u.f.2.i y.a p y.U 3 G [.&X' oX'.].H x.Y K y.p a a a Z y.y.y.y.x.y.Z a 5 a D +.%.Q 6 8 S p a Z i.x.x.x.e x.p Z '.Y x.x.x.x.x.v.v.Z v.v.x.'.].'.v.'.].Y v.A A p.l.h.b.z.h.k.z.l.v.N p.b.b.V i.",
"V a.V u N l.h.i.p.p.r.a.V N V a.a.a.a.9.9.r.a.V f a.z.a.p.l.y.B r.V r.a.z.k.a.9.k.a.p.z.z.p.a.l.t.t.a.a.k.k.t.t.= > 9.9.k.k.h.p.h.9.q X.a.t.r.y.y.b.n.j.p.a.h.m.~.n.x.p.D # $ x .XzXzX4X7XzX7X6XkXrX6 6 I  X_ O. .+.@. .o. . .-X$.@.o.) @..XO.o.O.+.o.o.E b x h z k 6 x b x k 2 3 G I _ W h ) ) k k ) ) v ` ) ` ^ +.#X+.` ( ' L v.v.|.nXsX4XbXBXhXrXrX' u.h.c.m.n.c.Y.c.u.f.j.h.s.V.V.U.c.j.1.t.d.g.n.f.H.Y.j.n.k.m.h.c.y.i.R.OXb.k.s.z.H.Y.~.R.z.Y.T.T.R.R.R.!.R.U.j.n.T.H.OXn.c.n.n.Y.T.E.Y.y.p.Y.+XR.t a @ X ` 9Xh.i.i.z.H.K.H.K.Y.~.~.OXR.~.R.y.b.i.& k 2 2 b.].c.t 1 2 1 y.t.1.t b.V.Z.k.V.k.t.k.k.c.t.s.t.d.d.j.n.j.H.OXp.h.h.q Z Z }.nXjXpXaX5X4X6X:XpX:X+ 6 6 6 v j $ E @ $ x $ h H K P Y A x.A w i.T v.V K i.v.v.'.[ Y v.v.U L L A T  X[ F S l S m v.v.L w Y v.Y 2 6 D l U K k o.+...fXVXSXNXNXNXNXHXnX_ 4 C v.M D Z a s p y.u.f.x.u.f.5.2.y.Z a x.x.g k H 9X[ P x.].'  X'.K p a t a p y.Z Z u.2.y.y.p Z a Z C _ +.O.$ # F Z x.A Z x.x.Z C v.Z v.v.C y.x.y.y.5.v.P Z x.x.x.x.x.].v.v.v.v.L i.i.x.i.l.p.h.h.z.h.k.~.l., p.r.p.b.",
"i.l.a.V V a.a.A i.A y.f r.i.V f a.r.a.9.9.a.a.V V l.i.i.r.r.r.V V V r.a.V 9.a.9.t.a.r.a.p.k.a.r.t.V V a.a.a.p.k.> > 9.9.k.t.t.h.t.9.|.yXZ a., u p.u.a.f.t.t.f.y.p.z.p.h.L $ k K XXgXgXrX4XaX0XfXBXuXz x ^ O.^ ( O.@.+.O.o.o._ +.O.$.@.O..X@.o.o.W  . .) ) Q x x x b h k h h v 2 3 k ( x z x b ! h x ^ c k W `  .W o.#X X[ [ H v.b.a.wXMXkX5X6XpXfX6X;XoXh.h.u.k.f.u.n.h.b.u.j.j.f.f.H.H.t.s.s.j.c.j.n.V.j.H.Y.n.j.b.u.j.T.m.s.Y.Y.V.k.h.H.J.z.R.R.T.J.R.T.H.T.R.R.c.U.j.Y.Y.H.R.{.n.H.R.R.E.E.Y.R.R.E.Y.s.d.q 3 7 $Xh.u.r.H.K.K.J.K.T.R.h.c.p.b.R.x.i.v.q v.x.c.c.<.* @ % X X C j.d.t p.u.t.h.j.s.s.V.j.j.j.h.n.3.s.j.n.u.m.Y.j.m.Y.r o e [ nXgXaXzX6X;X4X4X7X.X# 6 $ 6 G ] # # 8 # j E # 9 K F C N C D C v.v.v.m.T C K T }.] [ '.Y '.[ A T v.[.[ U H J D q B C m C L T v.5 M v.4 J D k c +.:XVXHXHXNXNXAXNXKXJX .2 N N M a w s u a x.5.5.5.5.2.1.5.1.p p L H a y.].oX' r p ].].'.P a Z C a p C x.L x.y.u.p.Z 5.y.y.p C / O._ E v D r x.y.Z y.i.p Z p p Z P C x.y.x.Z x.L v.x.Z y.x.v.v.'.v.x.x.v.L A i.p.p.i.a.a.l.a.9.k.z.a.r.h.p.b.p.",
"i.l.l.a.V a.i.a.V A l.i.m.p.B > > a.h.a.r.a.a.f f i.B C Z r.p.i r.p.r.a.h.a.r.r.9.r.p.r.V a.p.t.t.r.t.t.a.t.f.k.t.9.t.k.k.a.a.t.9.a.v.oXy.r.p.p V t.h.r.r.t.t.f.t.t.a.p.w @ 3 b.XX0XfX5X-X0X5XpXsXtX$ $ c x O.+.Q  .o.o.) _ _ +.o.@.@.#X#X+.+.+.o.o.+.) ) Q W W W j k x v v v 2 3 3 x x G W x k k x k x c ^ G  . .O.@.O.Y ' G F v.a.9XHXhX6X4X5X0XMXyX' m.b., f.h.s.j.h.k.1.n.j.n.g.Y.n.j.j.h.h.j.j.H.J.Y.Y.H.Y.j.u.<.s.Y.Y.1., p.Y.j.r.z.~.Y.H.T.R.R.m.j.R.H.T.T.V.V.j.Y.R.R.R.R.H.R.U.Y.E.Y.!.T.E.T.H.t.k.u.a @ o h.j.k.j.J.K.T.J.T.Y.n.s.r.r.n.u u.p.m.Y.Y.Y.c.f.* o o @ 5 y.m.j.h.u.t.t.a a r.s.h.h.u.c.c.j.n.j.j.H.j.t.R.j.h.k.T.a 1  XHXnXzXpX5X4X5X2X;X X3 E j $ 6 W $ # $ 6 j j # 7 H K L L P L C C l.w v.i.i.l.L v.[ U U [.X.[.U K H [ [.[ ' l S D T L 4 e m e x.B l.v.M ' 4 l O.6X3XVXBXkXvXMXnXvXHXBX^ C i.N B a a p u.5.5.<.2.y 2.1.3.1.2.p p J S 5.f.u.s | L p x.[.' L Y v.v.a w L '.v.'.y.t.p.y.u.i p p K ` ` J / Y x.p y.Z y.].x.y.y.x.L p s Z A y.x.x.x.v.v.v.Z x.x.x.L Z Z x.x.C M M T i.i.A f V l.a.a.a.h.f a.h.p.b.p.",
"T l.p.a.a.f f f V p.a.l.l.b.l.V , 9.a.a.h.h.a.a.V C v.w B B w > B q C B r.a.y.V B , a.t.a.a.r.r.t.1.u f r.9.r.t.9.9.p.h.k.k.a.k.h.a.9.f p.p.i.t.r.t.h.h.r.a.t.t.h.u.=.t.f.5 @ F :XpXgXiX6XaX5XgXhXtX$ # W ^ ) { j h  .$. .o.` ( O.o.+.o.$.+.+.+.o.X.#Xo.o.o.Q ) c c h x k c v 2 2 2 2 E W 2  .` W 7 k x x ) _ o.@.( +.W Y ' l F b.~.9XHXnX5X3X:X7XfXdXXXn.m.9Xn.t.h.b.h.s.s.r.p.u.h.j.c.j.h.h.j.n.h.n.R.n.n.n.f.t.: r.V.Y.R.Y.c.<., =.f.m.Y.E.~.R.n.n.h.=.k.E.E.T.U.Y.j.n.R.U.T.T.R.U.Y.T.V.c.R.E.T.E.c.j.u.h.s.A e j.H.K.J.K.J.R.T.Y.R.R.n.a.t.z.k.d.j.j.j.n.m.n.s.j.=.1.h.U.f.R.g.u.u f.i 5 9 p.u.c.s.t.f.j.k.s.h.i h.s.t.b.n.c.V.T.c.o $XAXBXzXyXpX5XhX6X2X^ W W # # # @ # $ $ $ 6 6 # 8 9 K K U Y K C B L v.i.B Z v.i.L [ M P F | / ~ [ ' [ '.[.[ F S P L v.k # 4 N b.l.C C m D ' k z  X5XzXMXgXfXmXMXnXMXBXb 1 Z a Z Z p y.1.1.5.1.2.u.1.1.3.<.2.t p P x.y.y.y.r a 5.p v.v.p v.[ '.L a p Z L L ' v.y.y.x.c.f.C S ' c 8 4 D C P D p y.y.v.x.y.Z Z D y.x.y.x.y.Z v.L v.].].L x.x.C A x.Z A L i.M 1 N A B B B V V 9.a.9.a.r.r.h.p.b.V ",
"> A T V a., f A r.p., A l.b.l.i.r.i.r.9.k.h.p.p.r.4 }.A T 5 & 5 1 # k > , 9.r.B , , u f 9.r.b.a.a.h., * * > r.a.a.9.r.t., V a.r.r.a.r.A a.m.y.r.t.r.9.h.s.t.s.t.r.r.t.r.y.y.& k 4X5XzX,X;X0X5XiXsXsXj j ( +. .E h x Q _ O.b  ._ +.+. . .+.o.o.@.) @.%Xo.+.o.W ) ) ^ h 2 v ` k k 7 3 x h ( ^ ) E h x 3 3 o x  .O.` ^ ) H g G J K b.m.wXmXNXbX$X6XpX6XfX&Xs.m.1Xc.h.u.f.s.f.1.<.f.p.h.g.s.u.s.j.s.u.i <.Y.h.p.f.s.t.j.H.T.j.z.Y.+X+Xj.1.<.f.;.k.n.h.f.p.n.Y.j.R.E.R.c.j.Y.c.Y.R.E.E.T.T.R.E.g.j.Y.Y.E.R.i r.f.Y.J.Y.c.j.J.L.H.H.J.J.Y.z.k.k.k.K.k.k.k.f.T.E.R.p.a h.s.u.s.c.n.n.h.u.f.p a y.2.e 5 y.<.s.s.k.j.k.n.t.r.V p.j.d.s.j.n.Y.s.q X ;XSXBXfXbXrX5XpX5XfX.._ x j $ $ # # # $ 6 ^ $ $ j k D D U Y K A L T V A B C Y l.v.' K K H D ~ / }.}.' '.Y U F D Y T l.T 3 3 4 L v.C K @ 3 m # h ` 4XHXvXCXfXfXnXhXnXSXo.X 5 V Z p 5.i u.1.1.2.u.1.1.1.1.<.y y 5.C p y.5.p s t t y u.x.5.x.x.A L C C Z a L XX}.i y.y.y.x.v.' }.[ c $X} Y oX' w p p Z x.x.y.y.e a y.x.x.x.a x.y.y.x.y.a C y.Z A Z L C i.T B 5 M B V V B i.V f a.z.a.a.a.h.h.h.a.",
"> r.i.u > V v.N V i.v.A l.l.a.> > > , a.a.a.r.A r.q 1 q M 3 4 3 @ g 4 0 w q > w C = u u u V i.p.p.r.r.i * > r.r.r.r.a.r.r.r.f r.t.9.t.V r.t.r.r.r.h.t.t.t.t.t.t.t.B w p.R.a O x ,XfXzX6X;XpX5XpXjXtXE h O.O.^ h h h x ) +.Q o.@.o.@.#X$.@.o.o.o.x  .o.@.Q E Q  .o.` x 3 2 b x x 7 2 c k @.+.x x 2 k 3 0 1 W ) _ ` X.O.J g 2 l K b.z.9XMXvXsX4X5X7X6X;XH u.i y.2.t.<.1.u.t.f.f.h.<.t.1.u.p.j.j.t.<., ;.h.j.f.z.n.n.H.n.Y.j.h.n.m.Y.n.h.t.u.b.y.r.t.h.y.a.R.j.H.J.H.H.H.R.p.n.R.R.E.+XE.T.E.E.E.L.V.E.c.o 1 x.c.+XY.c.H.J.K.K.H.k.K.k.k.k.V.Y.H.z.u w u.Y.R.Y.c.h.j.g.c.c.c.H.p.c.p.Z 5 y.D u i.e r f.s.t.u.s.k.h.y.= q t.t.1.h.h.n.p.y.o # aXHXnXrXgX4XpX5XfXBX .6 j h 8 6 + + 2 7 + E E $ 6 E l H [ v.v.L K T B B C 4 H L Y F N M K H } [.} J | P M M D m N C A i.C # 2 m _ 3 2 @ + m 2 j +.:XmXnXfXzXfXhXpXNXSX#.+ 3 r.y.x.u.i 5.u.2.1.<.<.1.<.2.2.y ; y v.x.1.5.p a a p y x.x.y.c.y.p Z [.[ U P v.oXv.i.y.y.V y.v. XW E ` .X$X X X}.D C p a a x.Z y.x.a y.y.x.y.p v.x.x.a 5.Z M Z P K L L L C A a.i.B V l.T A A i.f a.a.a.9.a.h.h.h.a.",
"w f V u > B w = l.l.].B V v.r.> u u i a.h.a.p.a.V w 4 V V N 3 o 4 L 5 o X X o . X o q o o = B a.V r.a.p.y., , : ; , <.r.i.t.9.r.r.f 9., > u t.a.h.h.;.=.r.r.<.y u Z i.b.{.w 3 ! @.xXfXpXbXyX2X6XzXsX6 X  .+.] c k ^ W x ) Q +.@.+.@.o.+.@.o.o.) W Q b ` W x ) O.o.b ^ 3 @ b x k 2 g x k W ` Q z k 3 5 5 v ^ b +.o.+. .c G 2 J L m.OX8XBXsX4X6X0XaX6X5X1 p p.Z i.i 1.u.t.f.f.u.u.u.f.1.t.s.s.h.t.=.-.j.9.z.z.z.h.b.z.b.n.b.p.h.h.n.h.h.p.h.m.z.b.n.h.p.l.m.n.j.J.T.T.T.V.Y.c.R.E.J.E.E.E.+XE.!.E.E.E.x.+ X i.Y.Y.Y.j.K.J.H.K.z.k.V.k.H.H.z.h.x.9 . X 0 u.n.z.t.h.z.f.f.p.h.<.t a R.x.i p.e C e e 5 i.u.<.d.d.h.j.f.C r i <.<.b.h.f.<.B + c MXSXhX7XmX6X5XpXfXBX .+ $ 6 v J @ 6 k # + @ + $ x 8 7 3 J Y L v.Y v.x.C B N M C D L C C C m [  X[ ' [.K q e C N N u u V A N i.q 3 S g v 6 l H b Q #XMXhXhXfXzXvXsXNXHX .6 # C Z p p i i 2.1.1.2.1.1.y <.2.y y : ].x.2.5.a a p y.5.x.'.L y.y.p Z '.X.` ' v.v.i.i.y.x.y.i.].] 6 3 U oX}.[.}.oX'.L p y.C Z Z Z x.x.x.x.x.Z a x.L Z p x.i.C Z a C K A L L i.i.p.r.A B A B V r.A l.a.p.a.a.a.a.a.a.",
"m , u f T K > f r.B > T Z i.V r.r.9.a.k.k.t.V , = 4 5 5 q 5 1 O 3 @ X # + X # 1 X X X & 5 N i.V , t.9.r.=.p.y.t , , , y.r.f , , , r.t.i ; u r.r.9.u.u.t.s.=.t.V 0 N p.u.p.1 @ n  .pXpX5X7X8X8X7XjXtXh j ) +.+.) v ) ..` W )  .O.#X#X+..X#X+. .o.o.h c ) ) @.) )  .) _ 7 + @ k c 2 2 x h 2 2 x 7 k k G 3 k k n E Q W _ U ' 9 D v.~.OXZXBXgXpXxX8XbXyXO.F c.f.y.y.p.h.f.t.r.<.i 1.s.U.r.f.j.t.h.s.-.Z.j.j.z.k.p.p.p.p.a.l.b.h.a.r.l.z.l.V b.z.l.h.l.b.p.b.y.b.z.H.J.T.Y.V.E.R.T.E.E.E.P.L.E.E.E.+X*XE.R.C m c.H.j.f.T.E.J.K.Z.H.H.H.z.z.k.z.p.a Z & X o 0 h.k.p.h.t.<.; , s.s., u.R.p.f.n.x.<.t q 1 C q i j.j.k.R.c.h.u.f.<.t.m.c.r.c.b.3 ` MXHXhXsX0X5X;XrXgXnX) 6 j 2 J ~ @ ) x % @ c x 3 $ + x @.5 5 K v.U P K A C C e & & 5 5 o 5 L v.'. X}.'.F N 5 q w N B u V a.l.l.L L m.b.4 7 7 S [ }..XbXSXMXBXnXvXdXmXHX+.$ X 0 w s a y 5.5.y 1.5.1.<.y y y y =.y p y y 2.a s a x.x.x.v.x.'.v.x.Z v.'.'.'.y.x.'.[.i.Z i.L }._ 2 / XXoXY Y '.L x.Z y.i.i.A A Z y.x.p y.y.y.p p y.x.p x.x.L Z u w Z x.C V A A i.A B A r.V B V f V q > l.a.a.f V f ",
"3 q > V }.4 > l.a., B l.Z w B a.a.r.a.a.a.a.V q 1 o 5 # # @ 5 e 3 + + 6 ( U e v.A > u V r.V i.V , 9.r., =.t.y.u V Z V i > > , 9.V r.k.t.r.p.f.r.r.V i <.t.t.p.t.4 3 p.u 9 + + 6 @.cXaXaXpXgX5XpXfX6X8  .W b @.) G ^ +.) E x ) O..X@.@.#X-X$.$.o.W 6 W ) W +.` W ) x +.Q 1 = 2 c 1 2 c E x x _ 2 2  X$X2 2 1 o O h n c [ J l M z.K.|.6XHXdX7XaX6XrXiX+.x.1.s.p.y.b.p.h.u.t.<.i t.t.j.f.t.U.h.f.8.L.T.h.m.m.h.h.f.t.p.a.p.l.Z V h.z.b.l.V p.p.l.z.z.p.m.b.h.f.j.c.h.H.Y.j.H.E.L.R.t.s.L.L.E.H.H.R.+XR.H.E.m.H.R.j.T.R.E.k.k.K.K.z.f.k.8.J.K.h.t.k.w 2 # X N z.h.Y.t.s.j.m.V.j.k.k.R.j.z.z.s.R.n.u.t w 5 Z h.j.d.t.h.s.k.t.u.t.s.s.r.1.p.l  .sXrXiXpX0X6X;XpXpXnXQ $ j v [ ~ @ G G @ h W ) $ # @ z $XO.g = m D U C L 5 o @ 3 2 # # @ o q v.U '.'.m & q q q q q A C Z l.v.C C B l.v.v.T 1 # U ;X6XmXVXBXvXpXpXnXnXMX.Xc X 1 A a y.u.1.1.<.2.=.=.1.2.=., , :.<.t ; ; y y p 5.p Z p 2.Z / ^ ].|.Y D L Z Z v.$X}.v.i.' ] }.+.b }.XXXX}. X' u y.p x.v.Y w N Z x.a & a p p 5.p y.p p y.y.x.Z Z C A B T B V a.V T B C i.V > > , > o o C a.a.r.> f ",
"@ & > V B = > B N A r.r.u > f t.a.a.a.a.a.a.p.V N e @ @ # @ @ 2 2 l k 7 U m.Z V V V V B r.y.i , r., = r r.y.> > t > V r.r , r., 9.r.9.t.a.f.t.p.t.r.y.r.r.i V i q C <.- + @ # J ;XpX5X5X6X0X5XhXhXrX6 b z b @.+. .I  . .Q x ^ O.#X@.O.@.$.@.$.) x k Q Q 7 7 E Q  . .@.) j k G 2 o n h h j k E 2 k h .. X9 2 5 o o # b I v 5 B z.~.Q..XNXhX5XyX7X6X<X] a t.s.r.x.h.c.c.u.p.t , u.h.p.c.n.f.j.h.-.V.h.h.z.l.l.h.h.t.h.z.p.p.V z.b.b.z.l.y.r.a.h.z.z.p.i.m.n.h.p.h.j.n.H.n.j.T.H.Y.t.f.J.L.L.H.Y.T.H.R.T.Y.u.<.p.OX!.J.J.9.V.K.H.K.z.h.H.H.V.z.k.k.i 5 5 o % 5 C m.s.t.H.j.H.f.h.K.s.d.H.k.t.R.Y.j.p.y.Z 0 S x.<.s.f.k.f.j.k.h.k.u.s.8.p.3 +.MXNXgX6XpX4X5XpXhXNX) X $ J J @ l U M U v H H @ @ # 6 ) ) o.c 2 k 5 4 4 k $ # e q 5 # @ 7 1 5 F } [ M M 5 5 q = 0 Y P C A A M A A L l.|.b.i.# x .X$XNXmXMXfXpXnXnXnXnX.Xx $ 5 C Z 2.2.2.2.<.3.1., y y 2.<.: : : ; ; y y y 5.2.oX'.5.p y.l k $X}.C S J C L '.'.i.v.x.}.&X2X;X#X:X:X$XoXoX'.y.i.y.C y.'.C a p p ; * p a a L y.y.p Z x.5.y.Z x.M A A v.B i.r.A V B A T B w w w f , C B r.p.9.f r.",
"3 3 5 B a.a.B > V p.V , > , f a.p.p.r.a.a.l.i.i.A A 3 3 # 3 0 3 K b.l.i.B C B > > , , , , u , > * & X o 1 D * & > > - u <.y.u V r., h.u.r.p.t.k.h.r., t.s.a.p.p.r.p.y.0 @ # 5 b.wXgX5X6XaX6X7XpXfX,X6 n x b @.@.+.o. .c Q W h  .-X@.+.@.#X@.o.) ) W W Q x b )  .@.o.o.! x j 6 @ 3 k k b x x W c c 6 # G J l ^ v 0 5 ^ I v m a.z.~.}..XCXsXpXaX7X4X:Xl p t.y.p.x.p.m.n.j.m.t t x.u.t.f.u.s.h.j.k.n.z.b.b.z.h.l.c.h.b.h.u.a.V a.n.z.i.v.i.; a.z.z.h.h.l.v.b.y.h.k.j.K.H.T.R.J.J.V.j.H.V.E.T.T.j.E.R.Y.E.J.s.u.Y.R.E.T.H.K.J.H.H.H.z.z.h.t.k.j.a.z.f., c.Z o X o e u t.Z.k.k.n.j.K.J.V.k.u r.f.m.k.f.u.<.].J e Z r.r.h.h.c.b.t.h.p.h.h.0 + +.nXNXrX3XfX;XyXiXjXAXO.+ $ 9 D v '.' e D Y '.'.v.5 2 3 x E h x h h ' g k Q 6 m P w N 4 3 2 l 3 3 2 1 & q 5 e 0 o o c U w i.Z D A A A l.l.l.x.m k k ;XzXfXnXpXzXfXnXhXsX..j 3 0 5 a 2.y <.1.2.y 1.<.t t y , =.:.y : y : y y 5.p x.x.2.x.p U  XX.m v.m.' C |.oXA i.].y.L '.XX.XO.:X#X.XoXoX'.A Z r u x.Z C Z a t : p y.Z Z '.y.y.p y.Z p p a Z V Z A B , V V V A T A A w L L V , p.i.V a.l.r.a.V ",
"q 5 4 f r.f V V V B V , , , 9.9.a.r.a.a.a.i.i.w Z = 1 D v.i.N N N C V V u , , , f , > > > B > > o % X % + # K p & + X > i u p r.r.t.h., u p.p.t.p.m.t.t.k.p.i r.y i t.w 0 Z i.v.8XzX7XpX5X6X4XpXBX-X$ + X . ) o.O.o.x 3 k x  .o.-X$.-X#X.X+.O.Q Q k x k W  . .@.@.@.o.x ^ @ O x Q b ) Q b o._ W ^ c 3 g XX/ G ~ M v c v v g l.z.z.m.1XMXpX7XaXpX5X,XH , <.v.v.i r.p.y.r.y.> = i.<.r.a.t.h.f.k.i p.n.p.z.z.z.z.t.n.a.t.<., a.p.z.b.l.a.i.XXm.b.z.z.n.p.b.h.p.c.J.J.K.L.J.H.J.J.J.R.V.C.J.j.H.E.T.T.H.E.T.<.h.J.Y.Y.Y.H.J.T.K.k.k.k.z.z.r.k.p.5 D C h.R.p.u o 1 a i.k.K.K.k.j.k.K.Z.K.t.r.0 i n.j.t.c.h.@X'.M e i.Z c.h.b.b.y., > c.a X # #XNXhX5X5XpX6XyX7XjXBX) # h l [.[ U U N M D Y U '.L Z C @ $ x j $ 9 9 4 ` 9 l D K N B N N 5 D K 2 4 S k 2 9 3 # @   2 F q i.> C A V T b.p.i.l.Y A '.6XnXHXMXhXdXnXfXfXgX_ 6 5 4 2 a 2.<.2.1.2.2.<.: t 5.y <.: :.: : y t : : y 5.p y Z x.v.v.b.x.C v.m.].p ].oXx.oX'.p.Z Z [.XX4X-X X X X Xx.u t a p i.Z a a a a <.y.b.Z A C a t p y.y.v.a a y.V Z B B B f f V B A N V B i.B B B V > > r.V r.9.f ",
"e N w > B f , r.V A r.V u Z 9.9.r.p.p.r.r.V i.i.a.e 5 C A C N B V A A Z r.9.a.a.a.V a.> > w 5 & o X + + # + # C e X % m c.Z V r.p.t.z.- w r.i.r.t.a.r.p.j.r.u r.r.t.r.a.Z b.x.J 2XcXnXrX7XfX6XpXhX,Xj # . . I @.$.W k ^ _ x o. .@.#X$.@.@.<X-X) h b h x ^ W  .@.@.o.{ E h 3 x b c x )  .W @.O.^ ) b ) G H [ 4 l g x c ^ l 4 z.z.z.|.:XmXdXnX5XpXrX,XD 1.<.i y.p.i.= : ; ; = A y., ; r t.t.h.f.; r.h.z.z.j.Y.z.a.l.p.p.r.9.k.k.h.l.b.r.|.CX|.a.z.z.h.z.n.z.H.z.H.K.H.J.L.J.R.H.V.J.V.J.T.H.E.L.L.L.!.E.T.H.Y.J.H.n.z.Y.J.K.K.k.Z.V.k.z.p.p.p 3 @ X Z H.k.h.t y.z.B k.9.k.p.r.s.K.k.V.H.f.s i u.j.t.f.j.k.r.Z x.e e p.H.Y.z.h.q + e 5 X # :XMXvXvXpXsX6XrX5XvXhXj 6 6 F '.[ ' H H M M K K Y Y C q & @ h $ 4 F 4 4 F l 2 N N M q C N 5 K g 4 L q 2 k z 6 E l - > 5 M A N M D Y T l.i.i.A q L oX4XvXBXMXfXyXNXgXmXhX .h m e 5 p i f.1.<.1.<.y : 2.y y 2.: : : t : : : y 5.x.x.a Z v.|.].x.v.Z p ].v.x.A v.x.&XoXa u u v.&X;X:X}.v.'.K C q * p i.Z V Z x.5.5.y.p.v.a C L t p Z Z y.v.y.x.Z A V V B B r.r.V L C > V V i.B > w V B , V f V f V ",
"5 u > w u f l.t.r.V V , B M B 9.p.h.r.y.i.V i.p.a.L A i.Z B B p.r.Z A V r.r.r.a.a.r.V , > & * > l.u @ $ # + + 3 2 X + @ Z r.V > V r.h., > r.a.p.p.a.r.t.t.y.r.y.i k.p.w b.x.e F 2XpXhXrX-XpXxXpX,XrXz O 5 Y +.+.@.Q v @.o.o.o.#.@.#X+. . .@.$.o.W c k 7 ) ) +.o.o. . .z j W ` x ^ E h ) _ o.@.c W c o.) 2 4 K m v b ) ( m a.z.z.~.].XXGXhX4X6X5X7X3XS y.p.p p p.Z , =.<.: r.h.y.=.z.u > r.<.t.i y p.k.z.z.z.y.i r.t.b.> a.k.z.Y.n.p.V Z h.a.z.k.h.k.j.h.z.z.n.H.H.J.J.T.j.j.k.J.V.J.E.R.T.T.E.T.L.E.!.~.Y.R.H.z.z.Y.n.R.E.K.k.H.k.z.h.b.p.Z 1 + 1 u.V.k.Y.m.> e 3 x.a & a 0 i k.u.s.H.c.<.Z u.n.h.s.g.t.y.V c.C P p.H.H.k.u.5 @ @ # # $ 6XGXgXsXpX5XpX;XrXsXgXE # # H  XY ' ' K K K D N C A K N q 4 g m m.K 5 @ m M 2 K M N A A N l 3 2 U L 0 k k . + 2 @ e v.e 5 B u K P }.K a.r.i.x.T v.[ ;XvXnXvXzXdXmXMXMXnX.XJ m e s a p 2.5.2.<.y : ; y y y y <., <.2.p 5.y y P ].5.a Z x.oXoXoXoXi.p C x.x.p.x.y.&X'.x.L p Z oX XoX|.v.v.m 1 2 0 Z Z m.x.Z y.a p 2.y.p.y.a Y x.y.y.y.p 5.c.b.i.r.i.v.V V r.V B C N B A V N A A N , V f V f V f f ",
"C u B a.r.r.r.9.t.a.Z u A w f i.r.r.V l.x.i.A p.p.Z B y.A A V i.i.y.<.i 9., > p.t.r., , r., V p.p.p.0 + @ + + + # + + X u ; & > ; u Y.t.> t.t.r.h.r.z.h.p.u.s.b.n.E.Y.o 4 C 1 g 2XpX5XyX3X6XzXsX>XjXj 3 S U #XtXo.Q )  .)  .o.O.#XO.o.+..X#X#XO.n x E 6 ) v b  .+.^  .E ) ` ` W Q h x ) ( ` .X#X@.o.+.` G D v.A F ) ^ ` M z.z.l.~.b.1XHX6X5X6XrXrX;XG C Z Z i.p.<.i <.R.y.r.t.r.r.t.t.t ; V b.t.y r.h.z.z.s.: : t.y.: i y.r.a.k.k.a., y.Y.z.h.k.z.z.z.z.H.H.H.H.K.K.H.n.z.u.h.J.E.J.E.E.L.J.Y.V.L.J.J.T.R.R.T.H.k.V.s.H.R.T.H.k.t.V Z V Z A 3 @ e j.Z.9.r.z.q . 3 Z u., s.k.9.h.XXm.s.u.h.r.j.s.r.t.t.f.c.n.s.p.OXR.j.n.k.> @ x + $ $ h <XnXmXyXfXvX6X4XsXjXnXb # # H }.' ' } | | P N C w A Y M w B V V q 5 4 3 4 N m K Y 4 5 A N 4 2 7 M C 5 5 5 1 - M 9 g D 4 w B i.C P }.L i.l.i.C A v.[ 6XNXSXvXaXvXNXfXVXcX#.v.A m 0 a p 2.2.2.<.: : t : y 2.: : , :.y y.5.p '.v.y.5.'.v.].oX$XXX[.x.y.y.a Z i.i.V m.v.Z w C U x +.oXv.v.'.q l _ h 3 C y.y.Z w C x.y.Z y.y.C A p.i.Z p.y.m.x.y.i.p.A T T N B i.A * & B B C > > C B B i., r.V f V V ",
"i.Z V f , r.t.r.r.r.A w B B , V a.i.C Z Z i.x.l.l.A C A B V B > V r.V > r.r.V a.a.t., , r.r.u , w > q o X + X @ # # + & i * * , r.V h.k.r.t.h.h.a.r.=.s.f.n.n.R.].u.r.X + + @ x ;XfXfXrX;X4X0XdX6X4X$ @ 5 ( #X<Xo.) o. . .x  .+.@.<X .$.,X<X$._ ^ x x x x c ^ ) @. .^ `  . . .@.) j b x W x o.@.%.@.@.G g K 5 m D H c 4 A k.z.b.R.l.2XsXjXpX4X,X,X>X^ C x.p.c.t.=.m.y.u.i , t.i 0 t.n.@X<.y.p r.t.9.u.t.k., r.g.u.u , p.p.t.h.h.t.p.<.t.p.z.k.k.z.t.t.h.Y.Y.K.K.z.H.z.n.H.Y.U.H.T.V.W.T.E.R.Z.L.L.J.B.R.OXT.R.n.y.V.k.K.+XT.K.z.u.i.b.C w Z @ e c.V.Y.V.j.t.p.C i.r.s.9.8.d.k.j.n.v.e V p.h.h.t.f.r.u.h.j.j.h.Z z.j.u.f.r.& x +.c 3 7 ^ ;XMXMXsX6XpX6X8XsXhXfXE # 3 F Y [ ' } } | H D C N C Y A w w B w 0 5 4 2 g C e m C e 4 w N M g 3 m 4 5 m q C L H H S 5 e M A r.V A A v.B A i.A i.Y X.aXzXhXmXvXvXvXrXmXMX[ N x.C 0 a p 2.y y y <., y 2.2.y y y , =.2.5.2.5.x.2.p x.].x.].oX$XoX'.p y.a L a Z x.i.i.x.C B A [.+.+.L '.v.x.L '..X X7 D A B u y.x.i.x.p.V Z w i.v.Z Z y.a.p.a.y.a.V A A V w f V V w 0 C B B A q N B B V f V , f f i.",
"i.Z p , B r.a.a.9.p.a.A a.i.u r.Z M D N M L i.p.A N 5 N w r.u B N > > i 9.r.y.f V a.t.r.a.y.i f , > = u 0 o o 5 1 + & OXx.<.u.r.p., f z.u.u.n.u.t.r.<.h.c.c.k.t.r., u.0 + + h k -XsXrX5X3X;X5XpX,XrX6 + v I +.@.+.W W  .+.+.#XO.+.@.$.O.@.@.( G  .) +.x 6 b  ._ +.#X@.@.@.)  .o.x 2 x E h  .W c n X._ 4 - D 1 + # l 2 4 w z.b.b.~.l.wXgX4X6XfX6X6X$Xl i.c.h.f.1.d.1.i i r.r.y i u u.h.n.=.<.; > > , ; i , ; = > q 5 e C r.r.z.a.y.V V z.9.a.z.k.k.a.a.z.j.k.j.z.k.H.K.K.j.H.V.H.j.V.T.E.H.T.B.J.E.V.H.T.J.J.H.Y.Y.H.J.K.J.T.k.r.a.p.p.b.n.a = R.y s.K.H.V.h.V p.a.h.d.k.k.k.a.t.k.z.x.y.t.f.V Z t.y.y.h.h.r.i.Z p.p.Z p.t 3 ^ ` z j ~ J 2XnXpX5XpX7X:XgXpXsXfXh # 6 5 D [ J ~ '.U S K T C D M M N w B > 4 2 5 7 k A K 5 w N m 4 m 5 9 $ + @ S A A D e L m 9 M L w Z V r.A B B C A i.A v.L }.MXNXnXaXpXpX5XgXmXfX}.u Z Z x.Z p i , p y y : y <.t y i y y <.<.<.2.5.y x.].v.y.].'.oXXX[ D x.a u L Y Z P '.l.v.Z L u v.#X.XY ].L L v.[ .X&X XI e a a x.D K i.V V Z Z A i.V V V r.r.a.V V V B T T B V i.T N N B > > > q > > B B f f V r.f r.",
"V V r.9.f a.a.a.a.a.a.p.r.i.B B C 5 4 5 # # 3 e o o # 2 N u q q N w q > , r.r.> a.a.a.9.k.h.r.9.9.=., i y.Z w y.a * > v.x.p.y.x.i.p.f.k.f p.p.t.t.y.r.f.c.h.s.1.=.<.h.p.M 4 H [ 2XsXaXyX;X#X4XqXqXrX6 O 6 2 m ` E @ n $.#X#X$.+.^ .X+._ @.+.U T ..#X@.! + j ) W _ +.@.@.o.) o.o.W 3 x h # k b ^ ^  . .N v.J B 0 1 3 g m q h.z.K.!.+XxXcXyXxXyX2X4X$.4 u r.h.r.t.1.s.t.y.p.u.r.i t.f.u.t.=.t., , y.i <.t * V 1 # o X g N u Z k.k.p.V > V a.r.=.r.t.> V b.h.k.k.z.k.H.Y.K.K.V.H.Y.t., r.g.d.C.J.T.J.J.J.j.h.j.s.f.h.H.V.j.=.t.f.V z.m.n.z.c.r p.R.r.H.K.k.k.p.k o V k.V.h.k.k.h.r.p.i.l.v.x.h.a Z j.k.f.h.Y.c.y.n.u.u q 5 D _ 2XX.# 6 ~ l 1XnXpX0X0X6X5XhX5XpXhXx X $ 6 5 S k | [ H e U K P K M D K > C V w k 7 6 m w A C v.M N M m 5 3 S 4 N M A L C C V A w K L C V A A V i.N a x.i.q S L oXmXmXMXdXpXzXaXfXhXjX[ u.i p Z i y 2.i a a t y : y y y y : y <.<.y 5.5.p x.[.L y.].].x.'.}.v.2.r Z |.oXv.L '.A C y.Z p C c _ K x.L F [ '.] XX.X_ 7 s Z C N C i.L v.T V V i p.V V V r.9.V V V B > N B T T B > N C N C A q N B , u V , V T r.V ",
"a.r.a.9.V a.t.9.a.p.r.V w 4 5 4 4 X # 2 # X   % X # 7 9 2 0 N e N N N q > a., > r., 9.a.t.a.a., r.9.V a w a w w > u i , V p.a.t.v.m.k.k., , r.r.t.r.r.u.t.n.f.h.h.1.t.i f.C l ( wX4X0XpX;X:X4X6XqXrX6 6 # o 5 ^ E X -  .+..X-X-X+.#X+.+.-X+.[ U O.W ( ) x ) x  . ._ O.)  .b W Q x 7 h k 3 3 b -X%X@.#XK m 3 q A L @ 2 S N l.a.z.wX9X0XzXfXzX6XsXrX#X4 = t i , t.r.<.t.a.A p.p.r.t.h.1.t.<.<.V w q - q & 5 5 $ W 2 3 K m.N > h.m.h.r.> , , p.p ; * q Z y.k.h.h.z.H.V.z.V.H.V.Y.t.p.y.=.=.=.j.H.T.J.J.T.f.t p.t.2.i k.j.h.p.u j.b.t.u.p.n.f.j.Y.h.k.K.J.q.k.r.o @ & a.s.s.j.k.Y ^ X.[.oXY c.T.H.k.h.j.n.f.Y.n.f.t.u 1 k c 6 k 2XaX6 3 / [ 1XVXpXyXpX5X5XpXnXmXnXx + # 2 # 1 @ 9 ~ 4 5 Y P K K F D C B B A A D g 4 L l.A i.v.q q q M 2 3 L x.A C N C N B V B N D D 5 i.a.V w w w e i.l.L A N oXmXhXfXfXvXpXhXsXBXsXK r.i p p <.<.p t P K : ; t : y : s : 5.<.<.2.5.p 2.x.'.v.v.v.].x.x.|.v.5.].[.|.'.'.i.m.U m i.y.y.M ^ _ J K [ I c ` W ` _ ^ z D x.T A l.A A B V B u A f V r.V V V V V V r.B w B l.i.B w w w A l.K N N B , B > V > f r.f ",
"V f t.t.f 9.f r.a.r.i w & # + X X # 2 x h $ # % X + # 3 @ 3 q N Z y.B q w f , V > , f 9.9.9.t.r.r.r.V i y w q r > t , t.y.r.9.t.a.r.s.V.<.; , , u i r.u.t.u.m.c.y.i u.<.u.0 o I 1X5XaX5X;X:XpX,X,XrX6 3 2 # b ) ) 2 I x b @.#X-X#X...X.X$.)  X#X.X .@.@.) x k ( #.) O.)  .j c ^ x h x h x W W #XO.+.$.F o X 1 0 3 # 2 k 2 V a.b.@X9XxXsXqXnXyX4XpX#XD u i , t.k.t.<.t.t.i 9.t.u.r.f.f.k.<.t.> X & & & 4 0 o X + 3 T M N D A p.a.a.z.V p.r.a.u * r M A V z.Y.z.k.H.k.k.V.z.k.r.e m.b.s.1.y.m.H.H.L.J.H.V.p t y.i.V T.H.K.H.h.k.k.r.t.<.j.p.T.Y.s.k.k.k.8.8.V 7 k X & r.d.j.z.oXXXm.R.z.h.H.H.K.V.h.h.s.k.T.Y.H.h.4 8 O..X# 2 / .Xc v ( U 0XHXaXrXgX7X4XrXpXnXaX6 @ + @ 3 J k 3 3 3 5 K Y H D U K C A u B N C B K A N A Z C e 5 q Z 5 5 A B C A L B C N V r.V T M 5 Z V i.a.i.B B p.v.A i.w oXbX7XzXnXaXyX0XiXnX6XD u.<.5.Z 2.i y t x.y.t s : y y y y y y y <.2.5.2.2.2.x.x.x.].].].x.].v.v.].oX'.v.i.y.l. XI A i.y.L O.G ' c ' ] k j E j ` ^ o e i.i.r.i.r.Z V V V V i.v.r.a.r.f A A L V p.|.}.N f B w w N w C v.M N B T C B > V , , V , ",
"V f a.a.r.; > a.r.> q 1 X + X   X # 4 J $ *.! j # + 1 N e 5 N w A i.V V B f 9.> V u f , , 9.a.t.9.r.f r.t q w t i <.t.c.r.9.t.a.r.y.9.s.=.r.r., a p y.r.r.s.t.r.<.t.r.u.h.c.C I 2X2X0XpX1X:X:XpX5XjX@ 1 4 v b ) @.@.@.@ v +.#X>X,X#X.XO.O.@.#X.X.X@.-X-X+.W W #.O.x W ) W 6 b  .) b ^ k c k k @.:X+.o.k X X 4 5 @ @ 4 G 4 A r.l.9XeXZXMXpXpXyX0XqX+.e v.m.t.h.k.j.s.s.h.t.s.h.p.t.h.f.t.i , 0 4 0 A r.j.5 + # @ @ D g X 3 l.z.b.n.m.p.p.k.h.i q C 3 L r.h.h.k.k.k.V.k.H.j.f.L 1Xh.j.f.t.h.Y.T.J.E.R.R.H.K i.n.n.~.Y.K.J.B.q.Z.V.j.V Z V w m.R.H.j.k.s., t.p.i.y.S X 1 e <.k.Y.R.J.k.k.k.k.k.j.h.s.j.s.s.h.s.k.j.b.k @.<Xx z k 6 2 J U I ZXNXsX5X7XnX6XrX6XsXfX# + # X 6 b k k v 9 m m H | H ' L N C M w w C C C L w B i.C M q m L q 3 e C C 4 D C A A V B B A B e U U A l.p.A Z v.'.l.L 5 '.6XMXhXrXaXSXfXpXmXrXM y.u.5.p p p s p 5.u.5.2.y <., y y y 2.2.2.5.5.5.y 5.5.5.x.x.|.oXv.v.XXXX'.|.|.x.r.x.].}.v.p.i.T Y +./ O.c ` ` x j j 8 j x # q i.A a.a.i.i.V A B B i.T , i.r.l.V l.B , i.|.l.N N B B q q w C A C C Y L T i.V V f f f > ",
"r.f 9.t.r., f r.u = & X % % + @ @ 1 4 S h $ j Q ! 8 M q q q N N A A i.Z , , V V u r., 9.9.a.t.9.r.a.f r.: q * > V i.p V r., t.9.f i =.=.r.<.i.a.0 e p <.<., <.t.t.u.s.1.h.H.u F ;XpXaX2X;X4X8XzX6X$.5 H 4 I  . .O.#X#Xc ...X#X-X>X#X@. .o.@.<X#X#X@.@..X@.@. .@.+.j b h 2 2 x W c ) k x k 4 l ....@.@.k X X = & # A g k k M M C 9XeXZXcX5XiXyXgX6Xo.e i.u.t.n.t.h.t.t.j.k.k.h.p.r.h.t.i <.= @ 4 r.j.i.w 1 @ 3 # X 6 + o @ 3 B = > l.p.n.h.k.p.y.b.5 K p.n.s.k.k.k.k.z.j.r.p v.|.f.d.s.s.h.R.J.J.T.K.E.T.!.+XR.+XR.t.k.J.8.8.K.K.V.b.Z M e y.Y.H.k.k.t.o C f.k.H.z.5 1 5 f.k.K.J.j.k.j.k.Z.Y.t.b.OXh.h.k.s.k.H.k.T.x.z W $ n # X + ] ( ( ZXMXaX;X6X6X;X,X5XnXsXj @ h @ + $ $ # l J M N M M U v.K C q S w w Z C C A a C B T C 4 q C 5 X 5 B e 3 5 K K i.V w w w w w e H q C a.r.B v.|.L C N K :XmXzXzXzXmXsXsXMXrXM y.u u p 2.p a 5.5.2.5.1.2.y 2.2.y 2.2.<.u.5.u.p 2.2.p p y.].oXoX].].oX[.'.[.}.i.r.a.].m.b.i.v.y.'  .^ / ^ ` ) E ) W b 6 9 P Z B V y.V r.i.i.> i.l.u r.A f p.oX, A V l.i.m.m.T B u B C 5 C B B V V L A B B B > > V B B ",
"a.f V a.V r.V u * = 2 X X $ 6 + + m M D H # 6 j $ h e > 5 = m D B w p.y.f i V u > f 9.a.9.9.a.r.9.a.r.p.t.: > * = V i t , , =.9., p r.=., <.t.p.& o B V r.p.u.f.i t i t.s.h.i.Y 2X2X5X7X6X:X2X0XsX` = ..#X_ `  . .@.@.^ -X-X-X$.O.-X#XO. .@.:X+..X@.+.-X+.@..X@. .j b j k 2 c x x ` b k c e 5 #.+.@.@.c 0 1 o - T Q.( v c 2 S K l.eXcXsXrXyXvXrX6X$.l r.t.t.1.t.p.t.h.p.t.h.p.t u.r.i r.t o @ w j.r.1 o 3 2 K 3 @ # k ( # o 4 M 1 & > a.r.k.s.p j.h.M B k.k.k.V.p.r.h.t.y.Z x.y.<.s.h.j.j.J.J.T.H.L.J.T.E.R.H.j.s.k.V.H.8.H.J.K.J.Y.{.{.OXn.j.h.n.k.u 4 m i h.V.k.k.Z.V.K.z.K.V.s.t.h.k.k.j.f.C v.t.h.j.k.V.V.J.H.b.9 7 # # 6 j h Q c ( cXxXzX5X6X7XrX6X5XjXiX! # z # + + 6 8 h k M C A 4 P v.L L m 3 w N C i.L N w A w q M K q B M o 4 5 @ X 5 M v.L C C N C M M U M L q w A > T }.Y A u Y $XCXfXMXfXnXfX5XMXrXe 2.a w 5.2.y.p 2.2.2.2.2.<.5.2.<.y p t p 5.5.5.y y y : t <.v.}.].'.oX'.'.oXU Y A i.Z i.c.p.i.p.i.|.:X[ ' / / ^ G +.Q k j Y b.a.i.V y.a.a.V V p.l.A , v.v.f r.V V V B i.T v.|.v.N > q q q q w u u A T N & > > > , > f r.",
"9.f 9.a.r.f u * = w 1 X X + + X 3 L i.A M 6 j E j 9 u w = = N M Z B p.V B w B q = V r.r.9., t.9.9.a.p., OX{.t > w i.p.y.y.9.9.=., l.v., , r.u.i C w t.t.<.c.t.t.u.r.i t.k.r.r.[ 2XxX2XgX2X2X3X:X6X+.v @.<X$.+. .Q Q @. .@.#X-X<X,X-XO.+.#..X-X@.@.#X+.#X#X.X@.@.@.) 3 # k ` c W  .I ( +.+.^ I ..+..X....O.e & 5 Y Y O.+.` v [ [ T wX7XpXpX7XdXrX6X$.9 y.c.u., =.p.a.b.p.t.r.* ; y.r., r o X 4 r.r.V 3 5 I k # + X # ( X.U v.x.Q.i.= r r.V p.r.p.y.<.i w i t.k.V.k.t.t.Z y.b.u.u.f.u.Y.H.k.V.T.H.V.J.J.E.T.H.j.s.k.d.V.j.E.K.Z.K.H.H.m.{.m.i.C L 1 & - Y S y.k.d.k.q.Z.Z.K.k.V.k.y.Y p.k.k.t.h.l.Y A j.k.k.H.K.H.k.p.H S 9 # $ 6 $ # # ^ mXNXjX;XaXfX4X;XnXhXgXo.# c 6 @ @ # $ $ z S B K H v.Y L T m e 4 e K M C w e C L 5  X..4 V N o o 3 X X 4 M Y Y C C C ' ' ] '.'.'.Y M B Z i.Y Y v.x.}. XHXfXaXfXfXpXhXhX6Xl a p t 2.i p a 2.5.<.y y y <.<.2.y 2.p y x.p y 2.2.y y y p x.v.].'.[ [.}.L ].}.l.l.C L b.y.p.p.x.'.XX'.'.[ Y Y v...n # 2 A A i.i.a.r.V i.f , r.i.V f l.v.i., V V C N B B i.|.'.N B q q q q = N C i.v.T B > > B > i f f ",
"f 9.r.a.r.r.B > > - % + + % + + S L Z V C S j ! 3 m w = q w w V p.p Z V u * > , r.h.r.r.r.9.9.9.a.a.t.p.@Xv., * 5 v.* > a.r.9.t.i r.V t y.p.b.y.A r.=.r.s.f.<., t.f.u.u.t.y.b.v.2XaX4X7X6X6X5X2X4X+.x :X#X$.+. .) b +.@.#X-X#X,X>X<X@.o.@.#.@.@.+.@.@..X@.$.@..X$.o.W 1 o b ) o.` ( @.j 3 @.:X@.#.X...o.Q 3 3 m v b ..+.O.~ X.oXQ.@X2X6X3X5XyXpX>X:Xc r y.<.s.t.t.h.p.t.p.V y t.r., t.&   3 p.q 5 y.q X x c @ @ + 2 }.}.}.L t.f a.k.k.V.r.r , z.b.h.t.<.a.h.k.k.k.r.r.r.p.v.c.j.h.s.k.k.s.j.V.J.J.H.T.V.V.j.s.k.H.K.J.K.L.H.V.K.K.H.R.m.H ( @ X X + 1 p.p.s.M.Z.8.8.B.d.k.z.h.h.v.x.h.k.d.t.y.c.Y D j.j.z.j.H.V.z.u.L Z c.e 9 6 $ $ # ..HXfX5XyXyX5X<X3XpXhXhXQ # W x z # $ $ # z l e D Y v.i.A A C e D M N C B N e C K 9 `  .4 Z C X + k # 3 M K Y L K M L U ' [ '.[ [ '.M C x.m.v.L v.|.|.$XfXBXcXgXnXrXhXnX,Xh e x.p y 2.p 5.2.2.p t y 2.y : y y y p t 5.p t t p <.p x.Z 5.y.x.'.'.].v.Z ].|.x.L A l.p.a.p.i.i.oXXXv.oXoXl.v.v.U ' S M C B V Z r.r.V V V B V N V f m.l.f f f u C N N C B T N w = 5 m q 5 5 C N A M m m.v.> B V V V f ",
"r.r.a.a.f A r.B B 1 @ @ @ X X 1 L v.x.x.C 2 # $ 2 q w 5 w w w i a.y.V r.9.a.V a.t.t.r.r.9.9.9.9.9.9.8.b.p.<.=.r.0 o & i t., =.t., <.t.f.h.u.p.r.r.p.y t.t.t.f.f.f.Y.j.s.<.k.n.v.;XgXpXxX7X1X-X7X7X+.v .X-X#X@.+.+.x b @.@.#X.X<X>X-X@.) @.+.#X#X#X#X@.#X#X$. .^ .X#Xg = 3 2 ^ ..b .X@.6 3  .@... .( ^ ) c +   h b ( _ ^ O.^ I XX|.eXpX4X5XpXsXpX>X;X..N p.p.k.s.1.t.t.p.i t.h.f.t.=.t.= - p.<.0 w h.y.5 l  Xz z h c |.|.}.u t.k.H.K.H.k.t.y.r.p.k.k.k.s.h.h.a.r.> > d.k.f.s i.h.t.u.n.k.d.k.H.T.H.H.j.H.Y.p t.H.H.H.L.J.J.J.k.B.K.L.Y.m.|.] z h h l x.s.s.8.k.V.d.d.k.k.H.k.z.i.Y b.z.c.k.j.h.f.A e k.z.Y.J.V.Y.H.2.c.h.Y.m.p Z I # 3 X.mXjX4X5XyX3X3XpX6XyXsXx # c +.) E 2 $ 6 h l D Y v.L x.B B C C i.v.i.C B C L A e 2 k ..k N 0 X # z # - C M '.Y D S | v.Y '.[ [ '.'.K C '.'.|.K v.v.v. XzXvXnXfX5X6XjXnXtXj 3 4 Z 5.2.y t ; t p p C a y t y p t p t p 2.y y t y x.x.].x.5.x.x.v.Y x.x.b.v.}.].m.y.a.p.r.p.x.|.v.A |.Q.v.Q.|.x.i.x.v.Z i.Z V a.a.a.9.V V i.A V a.a.V V V f B B A C C v.N N B > 4 g M M > > C C M A v.}.B = N r.f V ",
"9.9.a.a.9.V > > i.Z w 0 0 5 q N Z p.a.A 2 @ $ 3 3 q u > > q N Z u V a.r., f V r.a.V i V f a.9.9.9.9.9.a.a.t.u.t.u * , V i.p r.i ; i t.p.r.1.=.f.u.r.p.n.3.1.t.p u.h.h.t.s.j.u.g ;XfXaXdXaX1X8X4X,X:XW b #X-X#X-X%X^ ..#X#..X#X:X>X,X@.I o.+.@.#X#X.X.X@..X.X@.o..X#X4 q C I +.:X#X#Xx b W b .X%X@.@...b 3 # o ^ ` X.$.$...' H 1XXX8X6X6XpXsX5X6X6X4X_ P r.s.f.k.h.=., k.h.r.t.h.t.p.u.t.k.h.=.k.z.h.h.b.v.X.7 @ $ l OX|.|.V k.K.H.H.k.t.h.k.h.h.<.t.k.j.z.h.h.r.; i K.z.k.w u.h.t.=.u.k.k.d.h.c.V.K.j.j.Y.j.j.j.k.V.T.T.J.K.V.Z.K.j.s.m.Y.K U Y L c.j.h.p.k.k.k.V.s., t.V.n.h.a.b.z.i.@ y.j.j.j.f.p.j.H.H.T.h.t.h.j.n.c.y.].m.j.].@ #  XMXhXpX5XsX;X3XyX5XiXsX# # h _ ) W 6 8 z 7 z v Y L Y A A i.T i.i.L x.L A w B w N 4 G  Xx X % X % % X 4 0 D U Y P l S L L [ } e D '.'.A v.v.L A L N m.X.pXMXnX5XhX6XsXsXpXb 3 9 Z p i p t s t t 2.a 0 t p y y.p p p t p a t 2.<.u.x.y.p p Z x.oX'.].].m.].v.m.m.p.i.a.l.r.a.a.i.i.m.b.b.|.}.b.b.x.l.l.V V f f p.a.f B B B , V i.V r.V V f V A V A B w q B C A v.F g e > q N q V b.l.b.T V > B f > ",
"f 9.9.a.a.r.> u Z l.b.r.= w i.Z Z B i.C @ 3 5 5 5 q q = w C C w w 9.h.r.=., i.V u , h.f 9.9.a.k.k.9.t.9.t.y.a.r.m.A C V > , u > * > V r.> r.t.k.i i h.b.f.1.h.c.y.f.p.p.j.f.<.F 6XiX4X2X7X:X0X6X>X>XO.( X.#X-X-X$.` ..@.#X#X#X,X>X:X-X-X@.O..X<X#X+.@.@.@.@..X@.$.+.2 = A #X+.@. .j 6 W W k ) ) ) ) x 6 k +.#.#.#X+.+.#X.X XG oX|.}.sXiX5X7X5XrX6X:X^ F i c.h.t.=.t.t.r.y.r.=.k.c.p.h.9.z.f.k.h.z.n.h.a.L J 5 & & p.b.v.v.b.n.k.z.n.H.k.h.b.p.f.y.k.J.Y.H.h.p.V.j.f.J.H.H.Z h.n.u.s.u.h.k.s.y.c.c.j.V.H.k.J.j.H.V.j.E.H.J.L.K.B.V.8.s.R.H.h.p.b.b.s.1.j.s.k.d.j.k.i y.f.k.z.c.c.m.n.5 @ b.H.f.k.j.k.H.H.H.j.y.C x.p.c.x.e p.U.f.f.K 3 ( mXNXsX<X6X5X3XrX6X5X+.# $ # c G H h j j c k 9 H M C C C i.Z l.l.L A L L N A m D M # h k & & & @ 1 m C C D K [ [ | F K L '. X[ Y [.[ P v.v.C L L v.OX:XrXMXbXpX5X5XpXvXjXj @ 2 P C a t y p y y y 0 1 t p a a t p t t 5.p p y 2.p p a t x.x.y.].$X'.v.x.l.p.b.b.b.T l.l.V p.a.i.l.p.b.m.Q.v.l.v.l.i.v.V V f i a.a.a.f B i.r.V r.V B V V A V l.A B Z C N w = M oXY S q m 5 q N B a.r.a.p.z.Q.N > > ",
", , f r.r.r., y.y.B l.m.V V p.p.V q t C 4 q w e 5 0 = = q C C q B r.r.r.r.9.a.9.9.a.k.t.f 9.8.a.f a.9.f , , i f b.Z q q = r > * & ; : p u.u > i y r., , s.f.d.1.r.t.u.s.k.f.i 2 ,XtX;XaX7X2X8XxX3X:X+.+...:X>X$.@.b h ( #X#X#X:X,X<X<X-X@. X@.#X#X#Xo.#X#X$.@.O.#X#XS g ^ o. .( Q n k ) _ o.^ k b b n x ..-X+.#X#Xo._  .+.} l [ OX@XpXrX6XpX5X;X3X;X` D a h.s.f.s.k.s.r.t., u.p.R.r.<.t.h.h.z.p.p.h.h.u.V u m.n.n.p.p.p.V m.b.t.H.z.H.z.p.i.r.b.m.k.z.~.Z.8.8.K.J.h.Y.J.K.a p.l.u.t.p.z.8.d.d.d.j.Y.H.V.Y.C.V.K.d.V.L.J.H.J.B.J.J.V.j.H.H.V.h.m.n.i * w j.s.j.k.h.i.x.R.T.j.i.x.b.n.5 2 Y.j.t.h.Y.n.H.V.j.j.p.x.K D i.y.P L c.f.b.C a '.fXgX6X;XrX;X1X;X7XrXj $ # # G K L g $ j ` W J S K C T N C v.v.L l.A A M C A D C w 5 2 H K M m e D C q D C L Y ' F K Y A Y [ '.Y Y Y v.].'.L m M v.@XyXrXgXpXvXpX2XpXnXiXn 3 5 e M C s y p y y ; l e p p a a x.a t p 5.p p t p p x.c.5.x.y.y.].v.v.v.i.x.m.p.b.b.b.m.b.l.p.r.V V l.i.b.b.l.i.i.T V V V f f f a.r.t.a.T f f V i.i.f f V A f V T v.L K M M 5 N U I m 4 S 5 0 N C N a.r.t.z.V q > > ",
"i , > , V r.f l.b.y.V T u r B C V r.h.i.w q C s 4 q t = > B C A V , f > > V a.p.l.a.9.n.r., f , > > f , > =.r.r.t.t.y 5 1 & = & & : , r.h.i , <.<.y t <.t.s.V.u q r.u.t.p C 0 n :X5X8X0XxX5X7X6XaX#X..#X-X#X#X-X-X{ 3 x  .@.-X:X<X-X-X-X@.+.@.#X-X@.-X-X+.o.@.) +.#Xc ..@.) )  .+.x b ) O.E 2 x k x x ...X.X#..X$.@.+.O.X.` v U OX|.xXjX6X4X5XyX6X,XX.x.t i f.@Xn.j.h.1.<.<.<.t.m.r., 9.z.z.h.t.t.9.j.r.i k.n.n.b.n.b.z.k.u.k.r.a.z.z.z.s.i i.a.d.k.h.n.k.8.k.K.K.Y.m.J.H.r.h.h.k.j.k.J.V.s.g.s.s.d.g.d.g.k.j.V.V.k.B.d.k.K.M.J.L.B.Z.V.K.H.k.k.Y.q . A n.j.k.d.Y.b.p.n.n.Z L n.m.u 4 e n.H.T.m.j.z.H.j.H.k.j.b.v.x.x.p.y.Z t t.p.u i '.fXhXsX;X5X6X6X2X;XfX) # k c ' K D J # c  Xv H v U C A M M x.v.A C L x.w C C C A N N q q K P K K S F 4 K L L Y Y Y K C A v.'.P Y L v.l.Y '.U Y v.A oX6X5XdXzXvXfX6X6XsXnXx @ 2 P X.Y p p y p t Z D p y p t p Z p u i y t a p p 5.5.m.5.y.p x.v.Z ].x.i.x.b.l.p.h.p.> l.b.a.i.L '.}.v.l.l.v.v.i.A A u V f V f 9.f f a.f , , 9.V V V B r.V r.A f i.B C K g q M q 5 5 5 - 5 > w N V A A r.z.a.B , , ",
"> > u , V 9.f a.a.a.r.u w w N q N A p w K v.i q 5 u w & q w N B N > A 9XA f p.p.p.r.a.a.r.> u r.<.; =., , V > > Z V , 5 1 5 q o & > u r.V r.t.<.r.y , , 2.t.s.u.r V l.y.5 3 + x ;X6X5X2XxXpX0X7XfXO.v #.:X#X+.-X<XO.k h  .+.#X:X:X-X<X#X#X$.#X.X.X#X:X@.>X@.@.@..X ._ .X@. . .` ..x W  .$.j c z # n ` @.:X>X#.@.@.:X-X+.G c l C |.Q.xXiX5X;X;XgX4X;XO.9 y.i r.l.h.t.h.t.t.t.=.V i 9.OXp.k.k.h.p.<.<.=.r.p.h.p.z.n.m.b.b.R.p.f.z.=.9.k.j.f.<.h.a.8.k.H.Y.k.k.V.H.k.Y.p.E.h.i z.H.n.V.k.T.H.k.j.t.s.Z.g.g.j.d.d.Z.K.V.B.q.k.K.Z.J.J.Z.Z.J.J.V.k.s.j.Z o p.n.k.V.j.r.b.b.h.p.K [ Y.b.C q b.z.y.h.k.h.j.H.j.H.J.j.p.h.c.m.c.y.y.a h.h.j.i K zXhXpX4XvX5X3X6XsXnXW 6 h  .~ ' [ ^ E 6 } / J v F C C C K C L K D P A A A K C K C M N U ' [ [ } H K D L L Y v.v.[ P L A A L K A A x.v.v. X[ v.'.L '.2XdXvXnXaX5X2X5XnXiXb e K P H Y Z 5.y t y 5.5.p p i p p p y.a 2.5.C p p p 5.y.p 2.L a y.v.v.v.'.}.Y b.v.V p.p.v.oXv.a.oX1X$X}.v.v.].v.v.l.i.i.a.r.r.a.f f r.f r.9.V f f f u , V a.9.V V V f A q m M C 5 4 5 4 4 5 q > w N V B f a.a.a.B > B ",
"> > > , i , B B r.r.V V p.x.C 5 5 q = > }.v.r.A - q w w > > N N N w B m.i.f f V B , r.k.k.u V z.t.t.r.r.f Z & o - 5 > ; 0 - o X * q y.i 9.=.y.i t.<.r.h.r.i y.p.h.i r.p.Z e # x ;X6X8X8X2X8XxX0X0X.Xk ( ,X%.^ o.+.@.^ ` @.+.-X,X<X,X4X#X#X@.#.:X#X-X#X.X#X+.@.$.+. . .) +.+._ ....)  .:X#X{ W 3 3 v  .+.>X<X#X.X-X:X#X.X..O.J N Q.Q.oX5XpX0X6X,X,X;Xx + C c.p.=.s.s.f.f.t.r., w u h.OXc.<.r.t.p.r.s.y.y.h.t.h.z.b.a.p.p.R.z.r.z.H.k.z.k.k.s.9.t.8.k.~.Y.V.k.K.h.t.n.p.y.i i.T.H.j.d.V.z.j.H.h.h.j.V.U.j.V.j.V.C.k.j.B.B.q.B.K.V.V.s.K.J.J.j.s.k.s.u.w y.f.t.s.9.f.b.p.V.t.[ [.i.V b.b.b.C 5 h.j.u.t.k.z.T.k.t.n.n.u.c.n.m.V P y.a p.t U aXjX6X4XfXpX4XrX4XfX) $ 6 j ` ] ' ` $ h  X' v 9 F L L K A L C T C C C A A K C P C L Y [ ' G _ } } [ U K Y v.[ U K K L x.L Y K N B Y oXY '. XY v.v.}.aXBXzXnX5X#X;XpXMXzXb 9 D D ' v.x.p y y y y t p t p u y.y.y.a i p D y.5.p p x.y.p C Z v.].v.l.oXoXi.v.v.A p.V v.$X[ K XX:X|.v.x.oXXXX.'.i.i.i.l.A r.V V r.r.f a.i.f r.f V q f 9.a.a.9.r.V B N N q Y F D S 5 e 5 = > > N N C w C V a.r.B > w ",
"> > > , , f f V u , V B l.].w * > q w q w > l.v.5 N 5 w B w C A Z u , , , f w > B f 9.a.p.V f r.9.t.9.9.9.> w w 4 0 r ; & X o o o = V r.9.f.p r.t.<.p.l.u > w t.V.p.u.u.V w O ) 4X8X6X0X7X2XxXcXaXX.l b <X$.G J o.$.Q )  . .o.#X-X<X<X#X.X+.-X:X>X-X-X.X$.o.+.o.o...+.@.#X#Xo. .@.@.+.@.+.o.b c 2 ) O.o.-X>X-X@.<XrX>X#X.X+.~ S OX9X&X5XiXcX5X4X<X,Xx 6 e y.p.=.s.j.j.f.p.i , , V h.9., <.9.h.j.j.f.y.u.n.j.k.b.l.k.h.h.z.H.t.h.z.z.j.s.k.k.t.9.8.K.~.z.K.H.k.b.].m.u., c.h.z.R.H.j.k.V.R.V.j.u.f.j.V.V.V.R.V.Z.M.d.d.B.q.M.Z.V.J.R.d.K.H.H.k.d.d.s.u.u i ;.t.t.r.s.j.z.A oXm.p.C p.R.p.e i.j.j.j.k.j.H.J.k.t.h.p.a u.f.R.b.c.y.9 L ; ' nXfXrX4X6X4X6X0X5XMX#X@ W ) ` ' / x # _ #X( v J l D F L A C K K C L i.L P ' v.D K P } [.' / / [ [ ' [ [.' H [ / D L P Y '.K M N C K A v.|.}.'.v.T oXvXnXMX7XaX3X;XfXzXpXj l L Y '.x.p p 2.y y y t i y a a p y.p K P p y.Z y p a p p 5.p y.x.x.Z y.].v.v.i.v.v.N # # X.|.v.oX|.l.v.v.oXoX.X}.i.i.A V A V V f V r.f r.V f 9.> > f 9.f f r.f , V B N N w N F m g 3 5 m q 5 > = N N w B f V V B > u ",
"> , , , A v.f , = = V > 4 N q B , > w 5 w i.u M i.V = N i.A B C V , , w , f > > r.p., r.r.t.a.9.9.9.9.k.k.V i.V C q w r o @ 4 3 X > u B t.h.i , u.h.|.B w u r.u.j.n.h.u.<.t 1 ..2XxX6X7XpXzXaX8X4X.X.Xc 5 I ] K ..o.Q )  .O..X:X>X<X>X:X@.+..X.X<X<X@.+.+. .W  ...b .X@.$._ O.$. . ...@.+.o.W j n  .@.o.-X>X#X@.<XiX<X-X#.#X~ 0 |.eX0X5XsXpX4X6X;X4X) h Y y.r.t.f.s.t.p.y., 9.i i t.<., , i k.k.k.p.y.y.k.k.k.h.t.z.k.h.m.n.i * = z.k.a.k.k.k.k.a.k.E.K.H.H.K.z.b.n.p i ~.m.z.Y.H.k.k.V.H.V.j.d.j.j.T.T.T.T.V.k.M.Z.Z.Z.B.q.Z.d.k.k.Z.B.V.V.k.t.8.j.s.y i g.<.t.r.s.j.k.L OXT.R.i.m.c.n.L p.R.Y.h.h.k.Y.z.K.Y.b.p w y.j.c.h.j.2.9 4 - X.nXfX;X6XfX;XyXpX5XMX@.+ O.+.` G / k # W ` ( G l k k m L K D M K A L A K v.Y P K [ ' [ ' [ [ U Y [ [ [.[ ' K U [ D H '.U ' U Y A D D A v.v.U '.Y T v.aXfXnX4X5XiX;XpXNXiXv x.x.p.c.y.i p p p y y y y y 5.p p y.x.'.a i p a 5.y.x.x.p p p Z Z Z y.m.v.].].Y '.m.H k G } v.b.v.i.i.p.p.v.[ }.v.l.V r., f r.r.a.r.r.9.r.f f 9.f f 9.a.f , f u , V f N > q w N 5 5 3 + S q q > > > > N w > B B > u , ",
"V V f > |.$Xu , > w , > w q > p i u B e 1 5 B V i p , V i.A B w q w > , 9.9.r.z.A B r., V p.a.9.9.f p.k.a.t.9.f u = w * 1 3 2 2 1 w u w r.t.n.f.i a.].w r.r.<.s.f.k.n.K.V.u.v..X;XxXaXaX7X7XcXxX3X4X#X` N q l Y +.o.W ( +._ .X.X<X>X-X-X.X#..X.X@.@. .#.@.] ....W x  .@.+._ +..X#. .#X@.-X+.) # n (  .O.@.E ( #X,X<X#X#X%XO./ 2 |.eXxXsXrX0XyX5X3X;X` 6 ( ].<.h.s.k.s.Z w i , , > t.a.r., f.k.k.t.p.t , z.h.k.k.n.j.h.t.n.z.a.; & > z.k.i t.k.a.t.k.K.K.k.k.H.z.p.r.> Z Z m.Y.R.H.Y.K.V.k.j.V.j.k.V.C.T.j.j.J.H.C.V.k.V.K.B.L.J.=.;.B.B.H.V.k.s.d.k.k.k.V.f.t.d.h.j.V.t.D ].m.x.p.b.b.C m.u.j.R.Y.j.n.h.H.V.c.m.p.c.u.<.u.h.u.i c.9 X :XaXfXrX6XpXdX6XyXiXhX@.@ W o.] ' ' J c G ~ c G v 9 c J C B F K K B v.v.U U ' K ' '.[ ` | v.v.'.Y [ [ '.'.[ U Y Y K J ' } ' U U Y Y U A v.'.K v.v.L XXxXvXnXsX5XpX;X5XAXrXK x.x.x.V y.y.y.5.y i i y t a u p p y.p.x.y.p Z 5.2.2.y.x.y.p Z y.y.x.l.i.L v.x.C v.V Y $XoX'.i.i.v.v.p.v.|.U U |.v.v.i.r.a.r.a.l.a.r.r.r.a.r.r.r.9.9.9.9.9., , f r.V f w N = w N = 5 2 # v e C B Z L C L 1Xq > > > > > ",
"V > , , B > > 9., > w > B w * 0 5 5 4 5 X o B Z r.y.r.r.V V C = w w > f 9.9.a.a.B > , , V r.h.a.9.V a.k.t.p.k.t.V w - o 5 3 O 2 5 w w > , u V t.t.t., r.s.Y.c.=.h.u.t.V.j.c.p.oX0X0XxXaXpX6X2XpX;X>XO.k N T > U @._ ( ( ..#..X..#X-X.X:X$..X#X-X#...) ^ ..( @.z # n  .@.@.#X-X.X+.O..X-X-X_ b 6 n b ..O.W 1 N I @.<X#X#X>X..` 3 K 9X1XsXpXvXzX5X,X:Xh h [ p.t.t.d.j.a.l.a.r.: , V t.r.u , n.t.s.k.t.; V h.k.h.h.V.z.m.h.k.z.k.k.y.> k.K.9.9.t.r.=.a.m.H.Z.k.z.s.t.h.L p u.k.T.H.H.H.T.H.p.p.h.s.s.d.Y.n.* i W.L.J.j.k.B.L.B.M.V.V.B.B.M.k.Z.8.k.k.j.k.Z.k.h.j.k.k.j.s.h.p.m.x.a V p c.u.j.m.n.Y.R.p.p.r.h.p.w b.Y.x.L x.i.n.v.y.R.F # 1X5XpX4X3X5XxX6X1XaXNX-X# k W ' ' ' ' J k I l v J F x k m L D F m M L i.Y | F U [ ' / ` U Z L Y ' P P Y [ ' U [ Y [ [ '.}.'.Y U v.1XF A v.v.v.v.v.Y }.yXnXzX5XpX6X6XaXBXtXK x.i.Z i.Z 5.p i i <.<.i t y i u a y.i.L Z 5.5.i 2.2.p Z p x.i.i.Z y.v.v.'.A y.i.Z C [ XXoXv.i.a.v.|.v.L |.v.|.v.v.v.i.h.l.a.a.l.a.r.9.9.r.a.r.r.a.r.9.a.r.t.9., r.r.f > w N B N m M 5 3 4 F N K N M C C }.A V V > B u ",
"a.p., f , > > V w q > > = - o X X X o X X e V > r.r.r.r.w w > = C > = > r.9., f V > > b.b.r.r.9., a.k.k.h.k.h.t.> q 0 & 0 o & A 5 N 0 o 5 i r.=.t.u.<.h.g.~.OX2.t.f.t.k.c.m.b.wXaXxX6X8X;X0XxXvX3X#X+./ B l.B ( +.b .X+.....+.O..X<X#X-X.X#X+..X.X@.` b b 6 # O # k  ...O.$.o..X.X+.o.#.#XO.6 7 v  .O.) O - i.[ #X#X#X@.$.o.G 2 K XX;XfXpXzX6X,XpX$X7 k U f.t.9.k.V.k.r.r.u ; > t.a.V t t.z.k.k.k.t.w i.k.V.Y.Y.z.R.|.b.k.z.H.k.p.a s.J.k.* > Z t l.i.n.H.k.z.y.t.b.x.s p u.j.H.R.k.H.h.p.y.r.k.d.j.j.u.m.].V.B.V.V.J.J.B.B.B.M.H.K.K.M.8.M.k.d.k.V.k.j.s.s.j.k.H.z.t.n.Y.R.L x.b.x.n.Y.{.m.V.T.h.p.A , f.e 3 p.m.c F u.Z p y.p.T.t z 5X,X4X4XpXaXaXsX4XfXBX#X# x _ ' | ' U H 9 G G z k F H h 9 C S F F K L A L Y U | K | / | L T B K C U U H ] / '.[.[ [ [ '.v.v.Y 1XoXY A L ' L [ '.Y Y |.$X5XzX6X5XsX;XpXnXrXi.p.i.i.u a p t t i 2.2.2.p u t Z Z Z Z v.L r y.p u.y.x.x.p a x.y.y.i.p.|.v.l.i.V V a.v.U I v.L A v.l.v.Y v.x.m.v.v.}.i.z.l.a.a.r.a.r.9.a.r.r.f r.a.9.a.a.9.V 9.f f 9.f > > A A A m 5 S 4 m F m D M N N C B N > B B > > ",
"9.a.9.9.9.V B r.> , f > 5 o X + 3 3 3 X o B V u r.r.V p.y > - 5 > > 5 > r.r.9.f f q > f a.r.9.9.f 9.a.8.8.k.k.p.> = 3 & & X 5 p.V w o + 5 i.y.i p.t.t.p.f.n.c.<.r.h.p.r.t.b.p.wX6XaXaX8X;XqXpXxXfX;X+.v > A v.+..XW  .#X+...( @.#X#X-X#X X@.@..X..+.^ @ X   X n (  .) ^ Q Q .X#X+...) ..:X$.o 3 b  .-X .k I I #.#X#X#X@.@.O.` 5 Q.9XXXxXsX7X4X,XsX;XE h C k.f.i s.k.9.u , ; > B t.k.u.p.k.k.k.k.t.9.L Z k.z.z.V.j.z.n.h.z.z.z.K.t.i t.z.k.r.q 5 4 8Xb.z.k.V.k.<.p r.i r.u u i H.T.j.h.t.c.a <.g.9.h.h.f.m.@Xx.H.C.J.Z.V.C.J.K.H.V.B.Z.M.s.s.k.z.Z.d.d.j.s.8.V.s.H.t.k.T.n.p.n.{.Z 1 q c.h.Y.T.J.j.t.w 4 5 9 j 2 | F C y.y.5 M n.z.y.J 5X5XyX>X-X;X;X4X:XpXpX-X6 z O._ ~ ' ' H l J v k k H S h ' U m K F q C L L H ' U H F U K C i.V C U k 3 | [ ' '.[ '.[ Y v.v.Y '. XY K D K K K Y '.L XXXX#XyXAXpX4X,X4X5XnXyXi.i.y.y.y.i i 5.t t p i y t s w i.y.c.v.P ].D w Z 5.5.y.y.i.a y.y.y.y.l.v.'.v.v.x.B u N F c H }.v.V p.m.v.v.v.].x.v.v.i.r.f a.a.a.V 9.a.f r.a.9.V 9.9.a.9.a.9.r.r.f f f > > N V w m m M m m e m L M w N B B B > B B N > ",
"r.9.9.a.f u B a.r.f f u w 0 3 # h J 9 1 o - u B V V z.p.t q 5 & = q 0 = , r.9.9.f = q > V r.i 9.k.9.9.8.8.8.k.V > * @ % . & r > y.Z # @ w , , i.b.a.h.=.p.b.u.r.s.<.p t.t.<.a.oX#X7X0X0X5X8X1X7XxX7X..- > N A ..#X+. .@.+.%XO.#X#X#X>X@....X.X . .b o X   o o 6 .. X . ._ x b @. XW 6  .#XE - g Q  .@.@. X.X@.o.#X#X-X-X@.+.^ w ~.oX.XpXsXXXaX5X7X>X6 + e s.s.r.t.9.9.=.> * N p.t.t.k.k.z.k.j.z.t.t.v.p.k.k.z.H.h.t.z.n.k.k.V.H.t.z.z.s.k.H.V & q |.h.8.s.k.t.y 0 y.p.h.a.p.y h.H.j.f.p u > t.s.s.t.p.h.j.s.f.V.V.J.V.Z.J.C.J.B.d.Z.B.B.k.k.k.k.8.8.V.k.j.k.V.k.s.t.h.j.n.h.h.i.5 o o V Y.{.j.J.J.j.'.[ # $ | 7 D u.u.u.c.x.x.j.x.1 F yXcX5X;X:X6X3X6X5X7XfX#X6 x ) O.] ' ' ~ 9 S 9 k J Y F 9 Y Y F K S D L K Y ' D K ' M K Y P A B L c   X J H H U ' [ ' U Y K K Y P v.L L K D L S L v.T XX6XyXhXsX7X6X7XiXBXyXA M L y.Z y.y.p t t t i <.y > a x.y.x.Z x.b.}.H p y.i p i p.Z y y.r.V K '.'.l.v.v.v.Y C C A Y L oXv.V i.x.v.v.|.l.v.p.i.v.V V a.A V , h.a.f r.a.a.f 9.9.9.9.a.9.f a.a.f B > q C N e I 5 H S D K v.Y C w L B B B w B B > ",
"B f V , r., > V r., > q 4 5 5 v G l J l 5 3 N > u V a.V = & 0 o = = 0 * > w B B = 3 3 1 - > > , 9.k.9.a.9.k.k., , & X 2 > > : , , 5 # o 1 * V r.r.p.y.<.p.m.h.f.h.<.u h.1.<.v.+.-XxX0XaX2X7XxXxXaXaXO.5 B N f U @.@.@.$.@.#X.X@.$.>X<X@.+.#X#.@.@.# . . & 3 h x ^ ( ^ ^ b b _ @.+.) 3 )  .6 5 ( b  .@..X.X#X$.+.#X` +. XO.+./ C b.F ..iX0X:X5XnX6X;Xj % = s.t.r.r.8.t.0 @ @ 0 h.k.k.8.d.k.k.k.k.=.t.y.a.k.z.Y.a.a.h.u.y.k.k.H.H.t.z.H.k., > * 4 u k.8.8.9.r.> ; 3 o r.n.b.T.j.u.h.f.p., : i <.j.n.s.n.c.t.j.Z.V.V.J.V.J.C.B.B.H.H.K.L.Z.8.V.V.k.M.B.q.k.k.H.V.j.k.h.n.n.n.h.h.= 1 M 4 q |.|.1.H.J.n.F .X_ k 9 6 2 x.c.R.m.n.m.Z K o U 5XpX5X4X.X7X;X7XpXaXVX;X# x ) } } | ^ H 3 J 6 7 Y v.K K K F F K l K L K U H e K v.Y L L Y A V v.F 2 $ z _ ' ' [ ]  X[ K D D M C L L T T T v.S M L l.&XaXpXrXpXpXrX3X6XMXyXT 1 e p.y.y.y.i t i , i i <.i Z y.y.p p p.i.v.C p r.i y.y.y.r.Z y.y.i.H ' '.x.l.p.x.i.Y }.v.i.p.m.b.v.l.x.l.v.m.z.l.l.i.v.A V T V p.a.B V , f 9.9.r.f , 9.9.f 9.r.r.9.V V B > N q 5 g g 5 g m M K Y Y N A N B B > w B , ",
", f V V r.r., > f , w e 1 2 g m ' h 2 5 e J @ 5 r.i , B D 5 & o 5 * 5 5 > - - 1 3 3 2 $ + - , 9.9.9.9.9.9.a.a.f r.& & i.m.p.y a.Z - Q $ o = V , r.t.t.t.t.b.m.p.<.<.<.y.r.t.C j ;X0XxX0XaX7X4X2X7X<X+.g m N A B U @.( #X$.$..X.X-X-X-X#X+.@. ...x   - I k 3 ^ k b b b Q x  ..X#X@.@.o...+.2 g ) @.@.+.#.+.#X#X-X#X..+.' N [ ~ M l.N v.0XpXpX6XsX5XtXv $ 4 s.<.t., , =.q 2 e p s.8.k.8.Z.V.k.Z.k.t.k.h.h.t.k.m.a.m.OX, i k.k.k.z.k.H.H.n.* U ( q a.h.k.r.p.i <.q # 9 r.t.h.n.H.h.t.f.r.1.& * y.b.c.t.p.i.h.V.Z.J.J.V.J.J.J.J.J.H.K.V.K.k.q.B.K.d.q.K.k.k.h.n.H.t., h.n.H.h.g.k.c.x.i.Z p.m.c.t.n.n.b.Y ( ^ 7 G k 3 C <.p.L y.x.a x.0 I gXpX4X5X$X8X3X7X;X5XvX,X6 ^ )  X} H J | l ] z l L v.Y '.' v.K S S D L L K H F Y v.L v.Y L A B L D ~ c ~ [ ] X.X.'.}. X'.Y P w A A C A L K N L l.C r.@XyXsXfXfXsX>X;X7XBX0XS l C p.h.p.y.<.<.i i <.i i Z Z x.Z Z Z p y.m.y.y.y.r.y.V i y.Z p.p.v.|.Q.l.x.x.l.x.v.v.v.v.i.p.l.p.b.b.p.p.p.h.l.l.p.b.l.i.i.l.a.V V B r.f 9.9.9.V , f 9.9.f f a.i.i.V B N w C C m e D g m M D F C Y > w w w > f V B f ",
"f f V V B 9.> * > V i B S 7 g 4 H c 2 1 5 4 # m r.i > v. X> > * = = = = w - 1 + @ 3 v 6 $ 3 u , 9.9.=.9.9.9.9.r.V > * r.i.A > wX}.- z # - C r.p.r.r.h.c.p.r.p.m.t.s.r.Z t.p.5 6 ;XcXaXxXaX7X1X0X0X4XQ 3 m N N = m I  .#X$.+.#..X@.@.#X#X@.o.( ` k I I  .( k  .b k (  . .)  .)  .#.@.#X@.@.^ v W  .@.+.+.O.+.+.+.+.+.+.( ( ] z 4 B u i.gX5X4X0XmX5XrXW 6 e h.t., =., s.i.m A k.k.a.k.k.k.k.8.k.k.s.j.k.k.j.z.k.k.j.k.n.s.z.j.j.z.K.H.R.z.> |...7 Z j.k.k.f.r.h.5 Z c.h.s.k.J.j.H.h.i f.c.C 5 * p i f.p.c.d.V.j.H.V.V.V.C.J.J.C.J.J.K.V.H.B.V.B.B.B.H.H.k.h.V.k.<.Z b.z.j.h.k.t.r.n.|.m.j.OXm.k.Y.n.c.L +.] c J ..` e m.m.a a a c.b.& ] nX4X4X5X4X5X6X;X3X8XfX,X6  .O..X+./ | H F ~ k H Y Y v.'.' L L g g e Y Y U [ U Y [ v.v.Y L L L K D ' ' _ [.[.[  X[. X}.[ P L i.Z Z A i.M 9 m i.p.l.i.|.6XyXvX5X6X>X3X6XvXiXk H i.p.h.p.u.r.r.y i , i y p y.u.r.y.i.y.y.m.y.r.y.r.r.y.y.p.p.p.v.v.m.v.V x.b.v.l.i.l.v.l.v.i.l.l.b.b.p.a.i.a.v.|.p.p.a.r.r.p.r.i.T r.a.f V r.a.r.f r.r.V f a.A f N B N w N K M m m F U S }.H M M N B w B u B A A N w ",
"> f V V > , , , , , > w m 3 3 S D 2 n g B w q a.V , , T T , , u w = q 5 = o 6 @ @ 7 S I E 3 > r.k.9.9., , 9.a.t.V , > p.r., , Z = q 0 m 1 o m v., y r., A x.y.r.d.s.f.=.a.r.1  .pXaX6X8X0X2X2X5X5XpXO.m v.N > * N N .X$.o. . ..X#X#X.X#X@.) ^ W b +.o. . .b k c b #._  . .W 3 h I #.#.o...( b ) ..+.@...#. .+.@..Xo.G +..X .k 5 A l.|.dX5X7XpXbXfXpX^ # D p.k.9.k.V.d.i.0 Z k.8.k.k.8.k.z.k.t.t.k.k.t.k.Z.k.z.z.z.a.b.z.z.Z.k.k.~.k.a.n.z.t.S + X y.k.Z.k.f.h., t.r.t.t.H.K.k.H.u.t.Y.c.z.|.2 & Z c.h.V.Z.Z.k.V.j.n.s.T.V.H.K.J.J.j.z.J.B.H.Z.H.Z.K.K.V.f.V.k.w 4 b.f.H.j.u.Z y.c.b.m.j.n.j.Y.n.n.R.b.[ [ X.` Q ~ y.j.OXy.a C i.N o ..nX6XpX5X4X4X4X3X4X5XpX:Xx O.+.#Xo.c | ' U v v H L Y '.U M A L 4 e D | / U | '.'.' '.L K L L K Y L D F J ' [ [ F '.'.[ [ K K v.L L l.C K S q i.i.b.i.}.7XzX5X5XyX2X6X6XMXkXW I L x.t.H.z.r.<.i r.i i i i u.i p i.p.y.y.u.p.y.r.y.p.p.u.r.h.p.v.v.x.|.A a.v.b.l.v.v.i.i.v.v.a.a.l.p.l.i.l.A l.m.l.l.f i.p.a.p.a.r.V 9.a.V 9.f V f f f f , r.V V B > w B N q L M M m U U F M D N w A w w B B B B N w ",
"f , > , , , , , u u = q > 1 @ q m k G D V i u , t a.r.> > - > p w N > = & 3 2 6 3 z H J k 5 u i t.k.k.9., f a.r., > > p.r.9.r.V p u B 0 0 O 2 1 = t > 4 L i.i 1.<.h.u.t.z.b.K #.4XzXdX5X5X0X7X6X#X:X^ = l.U Y B A F ) h x $.X.>X-X#X+.O.W  .x 6 h x  .b  .^ 2 2 k b W b Q j o @ h  .@...c W  .+..X.X.X .( O.o.@.-X@.$.+.o.o.^ k T Q.2XzX7X6X7XaXvXsXO.3 T p.p.k.k.k.V.z.t.t.k.9.8.k.k.a.k.h.9.s.h.h.t.j.Z.V.z.a.V i , p.H.H.z.k.H.s.k.k.z.J.b.5 _ H k.K.k.f.U.OXh.k.k.k.J.T.H.k.f.d.H.Y.b.A 7 @ C x.p s.V.d.t.h.t.<.j.T.K.j.J.K.J.k.s.k.H.k.j.k.d.B.J.V.k.j.k.a 4 i.c.T.y.@ o u Y.h.h.Y.T.j.Y.Y.T.Y.h.p.v.XX[ ^ 2 x.h.n.R.R.m.q 2 # ..jX<XrXyX6X6X7X6X3X,XpX,Xj ) E  .Q c ~ ' U H F Y K L C U Y L L m e D | ` / [ [ [ '.'.Y L U v.'.Y K K | J / '.U D '.] ' [ U Y L K K L K v.L C B i.l.l.XXdXkXfXyXpX2X5X5XfXNXo.j l m.h.z.n.a.r.r.y.r.i <.r.r.y.i y.i.p.f.u.p.p.y.y.r.t.r.=.9.y.p.l.p.v.T l.|.].l.].|.m.|.v.p.z.h.a.p.p.r.i.i.a.a.l.l.f l.b.a.r.f r.a.9.9.a.a.r.f f f 9.V f V V V V A N > q 4 4 5 5 5 S 4 S U m N q w w w w B B B B > ",
", > , f r., , > > q > > w 5 4 w N H D C B u > u i f , V u & > V e T Z w = w 4 # $ z 4 1 e a.V V , 8.9.9.a.r.f f w & B u.9.r.V Z w > a.& m 5 q 5 X 5 4 3 V C p.n.u.p.t.t.t.b.'..X8X0XzXaX5XaXaX1X8X:X3 N K .X XD g 2 & & & k k k O.@.) I ....^ k I  .) W _ ` c h x k # h x o o 3 @ 3 ..I I x +.#X+.#X@.W ) @.O.+.o._ @.o.o.+./ z N OX5XnXfX6X7XxXgXpX` ^ D e p.t.k.k.k.k.k.a.t.t.9.8.a.9.t.h.t.9.a.a.t.k.k.h.r.=.s.> V j.k.H.k.k.Z.t.h.k.k.H.V.h.F w y.t.k.r.h.OXn.H.K.k.Y.J.H.k.s.H.Y.h.p.r.I _ Y u <.1.k.k.V.j.j.n.j.j.V.j.f.V.K.J.Y.s.V.H.8.M.M.B.J.n.k.k.V v.v.p.J.k.0 $ + w U.h.h.b.h.Y.T.R.Y.H.Y.Y.{.m.b.'.^ a h.V.U.p.b.w $ 3 .XBXtX3XrX6XpX:X4X6XpXsXo.# n Q ` W ~ / ' U ~ 9 x.L L L D L L C e e D | ] [.[ U '.'.K Y ' H v.'.[ U ' ' [ U K D 9 | } '.U P Y [.' U U K L A i.B i.l.L XXbXsXfX6X3X6X:X3XMXnXQ # X N t.k.z.r.t.u.y.t.i i i r.y.u.y.x.p.c.p.a.p.a.y.t.h.t.a., r.i.r.p.v.A T }.v.x.i.m.|.|.l.h.p.a.9.p.a.b.l.a.p.z.p.b.l.a.r.l.a.a.a.a.a.a.a.9.r.f V r.f V f V A f V A B v.q = = m 5 4 K S 5 K K M q = > N B B B > B N ",
", f f f , * > > B w > , w B y.B B B B B u w B B i f w V 5 # q e w Z K w > V w 3 2 N w w p u f h.r.r., , r.a.9.r.> = > f , f A A * > <.* - A r.5 @ # @ @ S v.i.f.p.t.r.k.h.z.U .XcXaXpX5XpX0X5X7X;X:X3 & m @..X9   o m * m & o 5 .X.X+...) ( #.` +.@.o.h ) o.x x b ` c k h 1 2 k x +.^ c c )  ... .) X...@.) +.+.) ) o.+.{ 0 A l v.wX0XgX7XyX5X5XrX6XE # X X N z.a.k.9.8.k.9.8.8.8.8.s.t.p.b.s.s.k.k.k.H.9.r.a.r.a.n.l.n.V.k.k.k.s.s.9.h.t.8.H.T.k.<.i S l r.k.k.k.Z.d.B.K.K.H.f.d.k.T.V.k.V.b.'.C i 1.s.k.d.M.V.V.J.j.s.s.n.k.k.H.K.n.t.Z.J.Z.Z.B.J.H.V.V.k.L '.m.Z h.y.5 1 C h.y.Z p.h.V p.R.{.Y.j.j.h.p.a p.].m.h.H.j.h.j.u.w 6 7 :XmXsX3X5X4X5X;X>X6X4X6XW # 6 ^ ) W ~ | | P D S A x.v.' D K P L D F H [ ' [ [.U [.' K v.Y H Y K [ [ [ [ H U ' '.l U [.Y D U [.'.| U [ K Y v.i.i.Z v.w }.zXnXiX5XpX4X;X6XdXmX` # @ 4 a.t.h.t.t.h.r.r.i i i > r.y.C v.Z p.p.p.z.h.u.r.r.t.r.> V Z a.p.l.p.v.v.x.i.i.l.b.v.l.b.h.a.p.i.p.b.l.p.p.p.l.}.v.t.l.z.a.a.z.a.k.a.r.f r.r.f f f f f f f f V u B v.w = w m 5 l H D e q M M N L q > > Z i.V B B ",
", > f B > > > > A v.C w V Z C w w u N w w B A B B r.r.u 1 3 N N w > > N i.w q - > = > V u > , , , r.V V V V B q 0 O = f , > M p.> C p.r.> M 2 X + @ 5 1 3 L x.u.p.1.=.h.b.p.l .X8XfX5X4X8X8X:X.X;X4X..2 l @.#X~ = M ` M Q.v.T }.:X#X.X@. ._ #.+.+..X$. ....X . .E o. .+.+.Q _ @.#X+.b ^  .W W $. . .o.W ^  .+.+.O.) _ _ g N K m }.8XaXiX:XaXpXpX6XjXQ 1 G + 3 h.s.9.9.9.t.8.t.8.k.t.k.a.n.V.t.z.H.k.k.t.h.f.k.k.j.b.B z.V.k.k.k.k.k.k.j.k.9.Z.R.H.k.A v j A k.8.8.k.H.J.K.H.K.j.d.k.V.H.j.K.t.x.2.c.<.1.<.s.d.j.f.s.s.s.U.R.V.V.V.Y.g.d.J.B.Z.V.H.j.k.k.k.k.' { v.u e Y.Y.n.n.A 4 1 e C K q m.n.c.c.p.h.q X Z R.R.Y.j.n.Y.h.u.C 7 z ;XvX5XaXvXrX1X7X4X5X3XpX.X# 8 _ ^ W H ~ ~ ' K U Y L P H D [ [ Y D | ] | ' [ [ ' U H F Y Y Y L [ '.U G ' H H [ K S F [ ' D P P U [ U U U v.v.L i.i.L A Y 7XnX7X7XsX4X1X4XvXpX! 8 $ 4 , r.p.t.t.t.t.r.y.> > y y.y.C C C p.c.h.h.h.p.9.u.f f Z r.p.p.h.l.i.l.x.l.p.p.l.v.v.i.a.b.i.l.p.p.p.i.p.z.k.z.l.A l.z.8.9.a.a.a.a.a.9.9.r.f f a.9.r.a.r.f f B B B > w M m 5 J g 5 0 4 m m q U v.w B > B V A A A ",
"> > > , > , > > N m q C L w 0 5 q B B > B a.V A i.r.r.e 2 3 4 Z w C B V 5 = q N B > > = > f , w B r.a.a.r.B V 5 1 # O > V C 5 5 q > r.a.p.L j 6 6 + 3 q 1 m x.r.y.<.t.r.p.A I wXaX0XsX4X5X6XX..X2X;X_ 2 g I  X#X..g G F B K K I .X<X#X..#X@.+.$.@.-X<X-X$..XO.@.O.W b #.@. .-X>X#X$...I  .W ...Xo.( c o O n  .o.O.O.@.+.F Q.C g ] 8X0X4XrX6XfX7X6XyX! @ L 1 5 u.f.r.9.9.t.t.9.k.h.t.k.h.OXh.z.h.k.k.t.<.V a.h.<.r.t.t.k.k.s.k.H.k.k.k.K.k.k.K.J.V.r.- w G N t.k.k.k.R.H.V.J.K.z.s.t.k.k.H.k.t.y.<.V w t t f.k.s.t.r.i i f.h.j.Z.k.j.Y.Z.B.K.L.J.H.k.k.s.d.h.E $ D Y.b.Y.T.T.5 X l U S v.].D w c.Y.c.h.c.0 2 i.i.h.H.H.T.Y.m.b.3 h j .XBX5X7XrX6X5X7X7XaX3XpX@.@ $ ^ ^ / ' J ~ ' K Y '.v.P U U Y Y K D ' ' | ] '.[ H D | H U Y v.v.'.v.L F U Y K F D D C v.v.P v.L K ' ' D Y v.v.v.A T K q '.dXzXyX5X7XrX:X,XfXsXQ j $ l t i.r.t.t.k.9., r.y u y.u e C i.p.i.l.l.i.i.a.p.r.a.r.t.a.p.a.r.p.a.x.l.l.a.a.p.b.h.r.r.i.l.i.p.a.a.i.a.a.a.a.i.L i.a.a.t.a.a.a.a.a.r.r.r., f r.f r.f B V a.f f B B q q m m I 4 M 4 5 5 4 e M M w C B B u u V i.",
", , , f > > > > > = = w A m J 3 3 w V > V p.a.a.a.V B M c # 5 w w N N N & - & O 0 q f , V r.B 5 N , 9.9.9.A r.> 5 3 X 3 - m e 0 C e 2 q Z g # I v 6 1 @ 5 q g L i r.p.p.r.i.|..X8XpX5X6X0X7X.X:X;X.X8 o O O #.-X) - & = J )  .@.-X,X#X+.-X-X.X.X%X<X#X:X-X$.o.-X-X+.#.#X@. . .#X<X$. ..X@.W ` -X+. .2 5 o X 3  .+.+.@.@.[ V Y v F 7XfX7XpX6XpX0X5X4XE + 4 5 e u.t.9.a.9.t.9.a.9.9.9.k.s.i.p.z.n.h.k.t.i.y.p i u.V r.k.t.k.k.k.f.t.h.z.K.V.k.k.k.k.q q r.5 C 8.k.k.H.h.k.z.z.K.k.t.r.k.k.j.1.r.i y.u 4 C i t.d.8.b.v.m.m.r.s.s.k.k.s.d.d.V.K.J.T.j.s.s.r.Z D $ # D R.j.Y.J.H.= X S m.i.x.m.{.e c.n.h.n.c.c.L e p p.a.h.k.K.R.L 7 6 X ..nX4X7XxX7X7X5XfX5X4X6XO.# # x W / [ G ~ ' K [ '.L A Y [ Y ' H H [ [ [ }.' H J U K P [ '.v.D Y v.K ' ' U U U K H L D Y ' P ' H K U U v.v.v.v.i.L K q }.mX7XpXpX;X5X;X;XMXjXW O.h 5 p.> > r.a.9.a.p.h.f.p.y.V S L l.y.x.l.v.l.a.r.p.r.V a.t.r.r.V p.l.p.b.v.r.a.i.l.p.a.p.p.p.l.a.n.b.9.f f i.l.r.l.H M a.a.a.p.l.a.a.a.9.a.f V f > , 9.f f f a.f f f B A 5 m M g m M g m 4 5 4 m C > N A B B B N B ",
"V V , , , , > > > > w V B N q 3 3 w V V r.a.r.t.r.B B m 9 3 + m D q > & & 5 3 # X o N q 5 q w q 5 w 9.9.9.y.B q 5 + + o X m i.y.u 5 o 0 w 5 J P 3 N a & A r.y.c.A r.y.u.r.p.v..X;X4X5X5X6X7X2X#X.X4X` X X o Y F 2 - > N ( O.$.#X-X>X@. . .@.@.@.-X-X,X:X#X#X.X$.$.$.-X#X$.o.W ` o.O. .@.$. .x ..#X .x b l o 3 n .X-X#Xo.S N ( z U 8XnXaX7XyXnX4X2X;X) # % & x.a.r.j.t.t.9.k.9.8.9.t.t.u.Z j.p.p.a.h.f.i.p.h.y.t.r.r.t.t.f.t.z.f.f.n.n.z.k.8.k.k.k.V B p.0 N H.t.r.k.k.8.d.K.J.J.k.y.t.t.t.s.f.y.r.t u y.<.<.s.d.1.].'.].].p.V.j.s.g.d.k.h.k.V.T.j.V.t.N 4 S 7 h '.m.n.j.j.H.e 2 v.n.n.n.b.R.i.x.c.h.c.c.h.e S ].y.y.b.V.J.f.5 j W @ .XBXpXaXNXzXzXxXzX6X;X:Xo.x k 6 6 v U ~ | | U Y [.P Y [.[ U [ U | ] | [ } ' | H 4 K v.L U L T A v.K ' ' ' F '.'.Y P H Y K U ' U U K U '.[ [ v.l.v.v.q '.mX5X;XsX4X6X;X6XzXtXj k k S l.i.u > t.t.r.p.r.r.a.r.V l.i.x.A v.x.v.b.b.r.V i.'.i.V r.f i.r.].i.l.l.p.a.i.l.a.V z.b.l.z.l.z.l.a.a.r.r.r.V p.' l.a.9.9.a.a.k.a.a.a.a.r.f f f V , V f f B B f f B B q m F F F F m m 4 M g 5 T N > B i.V w > > ",
", > > > > u > B > > f i > = w 5 m V B f 9.9.t.r.Z B r.Z 4 3 X S S 5 0 o 3 G j 8 + X X + # q > > - B a.9.9.a.A N & X + X @ v.v.p.u B q w V 2 7 2 h C a V h.i.l.v.S 5 y.* C r.S ( 2XaX6X2X6X2X:X:X.X:XO.& 4 . o N q = N m  .O.@.-X#X#X@.x x #X-X..X.<X-X<X<X,X,X$.-X-X<X%.#X .O.O. ._ ) @.@.@.x +.@.@.x 6 I 5 & o n @.#Xo.q B  X2 }.mXzXpX6XaXdX5XaXpXW W j X 0 r.t.z.k.p.t.k.9.t.9.h.t.w M p.x.p.p.k.r.r.u p.t.t.y.x.r.f.V B h.h.z.j.j.k.k.Z.d.k.k.k.k.p.u.Z a.r.w r.k.Z.Z.H.H.J.h.Z Z i s.s.d.u.<.<.r.t.1.r.d.3.1.|.'.[ [ b.h.s.<.j.j.h.k.Z.V.H.h.j.f.V 2 U ' ' [ ].b.b.b.p.w x.R.n.j.n.c.n.b.b.{.OXn.c.u 3 # 5 h.Z x.Y.U.w # o h $ +.hX6X0XaXpXfX6XaX6X4X4X .z x x $ h H ~ / J H Y '.'.[.}.[.[.[ ' [ [ ' ' }.}.F S | Y D K U K Y M N Y U Y ' ' Y ' ' U ' [.P v.'.U U U [ Y H U L v.].L w '.yXsXpX4XsXpX8XpX5XyXE # $ 2 w i.V Z Z t.i r.V <.r.r., y.i.i.Y v.p.v.v.].i.Z ].+.Y p.y.a.i.l.v.i.x.l.p.p.z.l.a.i.l.b.l.h.a.r.a.a.a.A A T , i.' A 9.a.a.a.a.h.a.a.r.V r.V B f V > V a.r., , , B B > q m D J m M m 5 5 m D M N > > N r.a., > > ",
"u > > > = = * > , u , > = = > B u > w V 9.a.t.r.> N r.V w 5 # S m q - + # k k 9 @ + X X + 5 = = , 9.9.k.a.z.h.V - @ + X + 5 a.r.u i u N C 5 S j E 2 5 M b.m 9 l v # K a N 5 D I 0X5X6X2X7X4X:X:X#. X..4 M 5 & - 5 m K J o.@.$.W $.@.o. .@.<X<XU Y O.@.lXtX<X-X%.$.o.#X#X) # @.o.o.%.) o. .x h #X-X:X#XQ  .X.F 0 . ( #X@.A A ) 1 .XzXaX8XyXbXxXmXzXxX@.E 6 X 5 V f.p.p.h.k.t.9.V a.a.z.p.Z i.Z i.z.k.k.f.p a.h.t.r.p.h.h.A Z p.h.h.H.z.k.R.k.k.k.Z.t.t.t.k.r.v.x.r.r.k.H.8.k.V.J.h.w x.Z Z s.t.u.1.1.<.=.t.<.d.d.x.oX|.oX~ y.f.u., t.f.j.M.B.Z.H.h.v.i.= 3 H l l v.'.Y c v ' m.b.h.c.Y.n.Z Z b.c.p.n.n.y.m.y.y.x.h.n.h.j.w X + j j $ _ sXsX6XpXyXsX7XfX6XaX4XO.k j h # 2 G c / H F [ [.'.[.'.'.}.'.' [.| / J m D 2 9 ' [ m F L '.Y Y '.Y L v.v.U H [ [ ' [ }.'.'.'.U Y P D w Y ' L v.v.A N '.fXzXaX5XrXaXzX:X7XzX) 6 j $ + 3 x.b.w N i.r.t.r.r.r., Z l.i.b.m.b.i.v.i.b.l.v...C a.a.r.B A A A i.l.r.t.p.p.i.i.i.b.z.a.A i.B A l.m.l.l.l.T K b.9.a.9.9.9.9.r.a.9.f r.A e B f B A V f B , , B > > N F m F F M m m q m q M N q > B V B > > > ",
"q = = = > > o * f , > q > > i V u > w a.a.a.a.V & = V V u e 3 4 M 4 3 # 3 g B r.> o X + @ * , a.k.a.9.8.h.a.r.B & # E j # # Z V A r.a.C M B v.k 6 # 2 1 k 2 2 7 3 @ @ 3 4 S 2 v 8X6XyX6XaX6X;X#.X. X+.l B w C 4 & 5 5 ] .X#X#X+.#X$.@.<X<X<XtXO.U @.o.@.%X$.) ^ +.Q j o.o.E j j h b  .W ` j ` @.-X#X@.o.$X:X+.e = g ,X$.M F x 1 .XcXmXbX7XxXxXxXmXfX#Xx # X 5 p.R.t.i b.z.h.t.h.z.h.Z C C x.p.a.p.a.k.k.h.z.f.p.b.a.p.p.l.p.r.t.k.h.k.k.k.k.k.8.k.k.t.t.t.s.U v.9.=.k.V.k.k.H.z.A C p.v.Z t.s.i > <.<.1.1.2.r.g.x. X].OX[.y.s.].].t.s.k.d.s.d.k.n.w o o 4 K v.D L y.v.J _ [ m.p.h.j.j.h.u u h.y.p.c.u.w L u.n.R.h.j.j.u.3 6 x ) j z $XfXpX5XsXaXsXpX7XbX7X6X#Xh @.x # 2 H v l v U F ' / [.[.K '. X+.[.H 4 5 2 9 5 e U K D m P Y v.v.}.v.v.v.L Y U ' [ [.[ [ }.[.Y Y U K P C T ' K q N A e }.xXfXxXyXsXfXgX;XaXgXQ E h j # # J L - S i.i.r.V r.9., A C A m.m.b.b.v.L l.v.v.v.Z V a.i.V i.l.p.l.l.l.a.9.i.l.a.a.b.m.a.q i.v.l.i.l.i.v.v.l.v.r.f f 9.a.r., f r.9.9.9.r.B r.r.a.l.A f V V , V > > K Y U U A K M M N m D M N w B V B C B B N ",
"> > = > > * o = > f f , 5 4 > r.r.> > a.k.t.w 3 3 Z V , V - 7 3 0 F z 7 c J V a.r.Z w , r.a.a.z.p.r.a.a.9.a.u - X # ! E 6 @ 4 y.r.V r.T v.p.Z 1 $ # 2 7 @ J J # # + + + # 3 3 #.7X7X7X8X5X#X.X#.$X:X+.o A i.m A C 5 4 ( #X#X#X#X@.#X$.<X-X-X,X#X_  .) #X .) h h ) j X # E x _ j j x Q b c k O.$.@.W b +.%.$.+.4 C S  .( F U 2 5 XX5XmXJXfX0XfXaXzXaX-Xx ..h @ C @Xa.s.h.h.z.n.j.n.p.V L v.b.z.p.p.a.p.a.m.p.b.p.].v.p.m.b.m.b.h.f.t.r.h.k.k.8.k.s.8.p.i.t.k.i = a.z.s.k.k.k.k.p.i.x.p.x.c.u.u.s * <.<.u.1.<.i u.u.[ ].j.c.u.1.p.p.t.t.t.9.1.t.t.k.9Xj * x.x.R.b.v.b.p.[. X' m.h.h.h.p.t.u.u.y.Z i.h.Z p.c.m.0 1 p f.h.p.k h x  .j ` 1X0XpX5XjXsXgX8X1XyXaX6X.Xk W h # 3 J v G 9 F H | } } J S S J J G [ [ ] ~ / J P L K U D K '.'.Y v.v.'.v.v.'.| X.} [ [ ' '.'.'.Y P D A C V v.S F D 5 5 }.5XaXSXrXsXgXfX6XpX,XQ $ @ 6 j j v N 2 H l.i.i.r.r.i , N S x.v.b.l.l.m.v.v.x.x.i.C V y.i.i.v.l.A i.v.l.p.A = a.a.a.b.m.a.- D m.l.|.}.v.H A a.r.f , B > , B > > , V r.r.r.r.a.V r.z.r.f r.f f , > M M U U U U K K M M N Y K C C B A l.V > w A ",
"> , > B w > f > > f V f w 4 N r.f V > > a.r.& + 5 > w r.B 3 # + # h 6 h ^ F a.z.i.i.a.k.z.t.a.b.y., a.z.b.a.- + X h j j j # # 5 w B 5 J v.l.M 1 # + 3 [ 3 J U X # $ # # + + # #.6X4X;X0X5X#X-X2X:X#X/ c F N N v.T 3 v  X<X#XlX$.<XtX%X$.$.#X,X<X^ ( +.$. .o.6 h 6 # # 7 x j h h k b b x W x o.Q x W z O.@.) b S }.g W _ X.[ 2 2 X.7XmXHXfX1XpXVXbXMX,Xx .X] # = @Xl.k.k.k.h.h.n.R.c.C D b.v.L i.l.p.C i.z.m.~.|.].v.m.OXOX|.n.p.f.k.v.Z k.8.k.k.k.k.h.p.p.r.m.v., h.t.j.p t.k.h.c.c.i.Z r.t.i p u r.2.r.p.w = r.h.x.v.h.f.u.f.t.r.1.p.p.t.t.<.<.b.LX] a p.x.c.h.n.m.x.U / F p.h.h.b.p.u.t.s.u.B D r.w i.Z M @ 6 2 c.h.N 6 E c _ 6 h :X0XdX7X:X)  XX.:X2X7X6X;XG ^ x x h k l J J J S v ] ~ e D ' S K U U '  X] ' [ ' Y [.'.Y '.'.U K K Y '.Y [ '.[ _ } '.'.Y K '.v.Y K N A v.A L 4 J T N A }.aXmXzXpX0XfXsXfXzX4XQ # 6 h j 6 v.L k '.i.p.i.r.r.i , C U L m.l.l.l.v.b.b.v.b.l.L A T v.v.'.T i.A v.l.l.V i.a.l.i.Q.l.a.Y I i.b.|.XX'.k 4 V V r.V q w , B f > 9.a.f V r.a.r.9.a.l.r., f i.f > w C K F H U [ F K M K N M q q N f A B B B N V ",
"= > > > > u f > f r.u B > > f V V f r.r.r.= # # 1 , i y.C 3 + 3 k # # # 3 C z.m.V , h.p.V V b.l.f r.i.a.V i 1 + j 8 j E j h + X 3 3 # @ 3 g # @ # # 2 9 + l k 3 6 6 6 @ # # 2  XaX;X:X8X6XO..X1X2X:X..W 3 C T l.K b v ( #Xo.$.tX$.$.-X$.o.$.%X_ Y A h o.$.o.` W x x 6 # k 7 h Q x Q W j 6 W j j x ) +.] +.c E v oXI j W # k j 3 G 0XaX0X5XyX5XCXxXzX;Xh :X$X..@ A h.h.k.z.k.z.m.m.b.i.i.p.m.v.l.b.n.x.b.l.|.OX|.|.Q.OX@X@X@Xm.p.V.V.x.' r.k.t.s.k.a.p.h.i.r.b.S q z.h.V.r.p.p.h.x.c.Z i.b.v.x.u.u.1.r.i.r.D 1 t L x.y.f.t.Z c.f.t.y.p.u.u.V Z p.v.6X4 r y.y.p.f.m.x.b.'.H |.x.r.C = i c.k.8.h.c.p.h.c.b.4 M k ~ ~ m.p.O 6 c ) ) # X ^ ;XyX.X#Xo.W E O..X0X1X+. ._ ^ x @ 2 9 J ' U U ' H F S ~ F | H ' [ U U ~ F U U ' ' Y F P F 4 3 g F | / [ X.}.' / [ Y Y Y [ ' U F K L v.A L C e 5 C m 3 6XVXBXzXdXsXdXCXaX4Xx 6 E 6 ) 6 K [ v '.L p.i.r.V , 9.N 6 9 b.p.l.v.v.T x.v.p.i.v.T x.m.v.i.v.v.v.v.v.l.a.r.l.l.l.v.l.a.i.v.i.V l.m.l.M N m A B > m B V B B > 9.9.f V r.9.9.a.V i.A a.a.l.i.f > M M F I U U F C L Y M > N N > l.i.V V B > > ",
"4 q > > > f f V > > > w w V V B f B f 9.w o + 2 e N q = # # @ X @ 6 h n 2 C l.Z > V a.l.p.i.z.y.f i.a.> = 0 # $ j 6 j $ # # + + + + o X X + X h E 8 # $ # # 3 F g 8 2 k 7 # h }.6X5X5X7X6X#.X.;X0X3X X2 g T i.T ..+.E x  .o.x $.+.-XtX%Xk  .o.c l.l.& j ) ) j + 6 @ X @ 6 $ n W j j x x 6 ) E h h 6 j W 6 j _ k G c ^ x o 2 6 2 g ;XmXaXgX3X;XzXKXVXzX#X+.;X4XW G Y i.h.h.h.n.z.h.Z T h.n.m.n.b.m.b.m.n.m.|.@XOX|.OX@X@X@X@Xm.u.k.j.i.v.Z t.s.9.t.t.i.r.b.p.u.4 @ A h.h.k.j.y.m.x.e x.v.Y U D x.c.h.r.u.t.y p t.v.'.c.<.p Z b.h.h.].m.m.].x.L y.e . q 1 C c.Z c.x.K Y ].9 Y A L 2 % # C z.h.u.u.j.n.V.V.i.p.m K J P e 3 k ) x ) E 6 6 O.rX+. .) Q ) .X XaX6XO.x c k c # 2 / H '.'.K Y S 4 e G ~ / l v x 6 k l 9 9 v / v H 5 4 3 2 1 $ 2 J U ] / ' U | F U ' Y J H F m D S K H K m 4 & 5   v rXfX7X5XzXaXgX6XxX@.n $ $ h j @ ^ ' D x.A i.i.i.V V r.M 8 6 N y.p.l.v.x.v.v.l.v.v.v.B i.v.v.m.m.v.v.b.l.l.i.N A b.v.v.l.T T T l.v.|.v.T p.K A l.B C r.a.r.B a.a.9.V i.r.9.V i.C p.z.a.l.r.V r.V N q K U U X.F m K  XM l.B C B T l.i.f V > > ",
"S 5 5 > q > > > > > > B N > f > > > q w 1 @ h z k 1 + X + j j $ X + h x 7 4 N V u N i.A A V B A > B u & X X # j j $ h 6 j j Q _ j + n W j # j Q 6 # # 6 6 n n 7 K Y k 3 # j k ..7X2X5XrX:X.X:X:X7X1X+.x Y l.A U ^ 3 5 4 H O.W b #X-X+.$.)  .$.c U l.q x +.! $ X X @ + @ h W ) k h 3 ) b @ j Q j h $.E @ # h 3 J m 3 ( b v j x v v  XzXdX6X:X7XaXMXmXvXrX:X#X6X#XO.W w B i.i.z.n.h.l.v.A x.m.v.b.n.m.v.n.z.OX9X@XOX@X@X@X|.XXoXh.b.c.c.L [ V 9.r.r.A i.V p.k.p.N o o w f.k.k.k.p.K l S S S U Y x.m.p.c.h.u M i.v.[.'.].Z M ].m.Y.m.].m.p.m.m.v.x.5 0 i.g 4 P '.p.x.Y ' '.P v.4 g l j E ^ x.p.j.j.j.h.V.Y.u.n.n.{.D # X 2 k x $ W c $ $ ) ,Xo.+.) o.@..X;XfX6X .7 j h G x k ' H S D m D D S 9 4 J c 2 2 j $ h 3 3 1 k E x x W x 6 3 2 # 7 S J ' ] [.[.[ ' [ U ' ~ ' U K U 2 0 1 1 X o 4 o . 3XBXxXmXVXVXfX6XmXmX>XW @ 6 8 + $ c v.U 4 v.A K Y A r.V M W v m A p.b.x.x.v.v.v.l.v.v.A T V T v.v.T v.v.l.v.l.l.l.l.v.|.m.L A v.v.v.oXQ.m.l.a.V r.V V r.i.f f r.r.9.r.i.f 9.i.i.a.l.z.a.9.r.V A B C N M U [ U N M M K A N M C T C V V V f B , ",
"5 5 0 - * = > > w - & w q q B > > B w 1 X j j n 6 $ j j E ) o.@.E 6 j x 6 # k C m w C q & 5 4 1 o O @ X + X + $ j j j j 6 6 *.o.+.E W ) h $ h o.%X+. .o.#X<X! 3 K Y 6 @ 6 h ( -X2X;X6XpX$X` .XwX6X:X7 X g m 5 2 x v 4 N m k 9 g  .%X@.) ) E ) x ` l M ..$.! # # o @ # 6 Q ) +.o.Q c ) Q 2 j E h 6 3 z 2 2 h h v.b.3 6 b W 6 6 $ b ;XCXxX6X2X1X1X2X5X0X;X@.:X>X6Xo.+ # 3 # @ 1 = q i.].' Y |.2 A m.R.R.OXOXm.|.@XwX9XwX@XoXXX@X|.|.m.m.D 2 L 9.k.a.u V a.y.b.i.P @ + @ Z t.h.y.M S k 9 v K H P P 2 o D P 3 # J  X^ G }.[.L ].n.A v.v.x.m.b.n.m.P * i.N P v.U v.x.e D l K v.v.L K U 6 7 W K h.z.j.j.n.U.Y.p.m.x.v.J @ 7 # 6 # 3 ) h X X n @._ _ .X3X;X#X+...( W ^ x G ) $ 3 S S 5 m M D D D e v $ X 2 k @ o O 3 2 4 3 3 6 7 x W z 3 h # j 2 G / ] } ' K U [ U H | [.' F 4 o & & . o o     o 4XrXgXCXVXKXnXvXSXVXgXQ $ h x 6 c 3 3 7 j U T K K A a.a.M c J K K l.v.v.v.v.|.XX}.m.v.l.T Y K v.'.Y '.v.l.b.r.l.b.l.l.}.}.l.Y m g S }.l.v.l.a.r.f V r.r.f f a.9.V r.r.f f f a.l.a.a.a.r.a.a.a.T C q e M F F F C N K Y Y A C B V A A A V f w w ",
"H I G [ U 2 D 5 m 2 # l 2 5 m M N 4 4 @ # x x j x  .$.$.#XQ W -X#XO.Q W  .` b v k g 3 2 ^ h 6 6 Q j # # + # 6 n j $ # + + X X + x _ O.O.Q Q E ! $.$.+.o.$.+.Q E x U k c / 6 @.;X4X:X:X6X..) ..XX:X.X2 $ 6 3 k h ) +.5 f N q B A 1 ^ <XE b j ) W h 6 I k n j E # @ # # 6 h ^ o.$.o.+.) 7 S 2 2 c 2 2 ^ l 3 3 c l oXk 6 h 6 z x z  .0XcXgXxXzX8XcX8X2XyX3X:X-X#X( @.4X#Xh # @ $ # # 2 c ^ ^ }.U |.m.C v.@X@X|.oXwX9X9XwX9X9X1X/ [ Y H v S 3 S f.t.u N K v.v.L v.7 # c $ + m i.5 3 Y  X..O.' K H ( E 6 j Q 6 W #X1X1X.X$X.XXX$X$X$X#XX.} }.[ [ [ 2 1 3 @ 3 U '.Y S @ 2 9 l l v.c.H 6 # Q Q I R.~.+X+X+X@XOX|.'.&X1X..^ ) 6 7 #X3XsXrX<X:X1X7XfXMXVXnXfX>X4X;Xc :X#X#.1X#Xx 2 G 2 1 H U K Y Y U l 6 # # j h x 1 l 4 - 2 9 x E E Q z j z # $ x G 7 G J U U '.U K K | ' K m O 1 5 & 1 1     @ x 6XrXsXHXVXHXHXSXHXHXVX .6 j x x  Xo.! ) o.X.( v.m.l.b.r.v.G 2 v J S U [ H Y ' }.v.v.v.v.T v.Y }.}.}.F v.l.B v.l.l.l.v.}.Y v.}.v.XX}.v.i.v.b.a.f , V p.V B i.i.A B u 9.f a.p.a.t.a.t.p.i.i.B , B > C = m K F F K N M K Y A B f B V V f B A B B ",
"..x n #. XW x ^ ( G I  .v (  X X.X] b X... .#.X.:X:X+..X..X..XwX:X;X;X4X;X:X<X#X.X3X3X.XI  .j ) ..:X$X.XO...O.x 3 # # 3 n n g #.-X0X6X6X$X#X+.) Q W E x j 6 j x z l J k I k ) @.-XiXzX6Xj W ^ I :X#X# # c c 2 # E o.A i.B T M 5 5 g J k x h b 2 W W 6 6 h W .X^ 6 # $ $ $ ) +.+.) x j k q 3 k 9 3 2 h 2 2 Q j ( .X^ x h h W o.W  .8X8XcXHX5XzXCXMXHXaX2X;X .)  .O.<X@.) @ # j j E x $ $ $ v 1XXXL X 3 XX@X9X9XwXOXQ.@X9X8X X) @.@.O.W j ^ _ D e J W O.' G E 6 # # 6 h 6 # k ] X.XX3XrXpX6X:X:X( .X;X$X.Xo.#X,X5X7X;X:X-X$.<X>X@.>X>XrXiXrX6X>X+.@.+.+.) W G v z x z v h l U m h h ^ ) j x '.OXOX&X9X|.|.XX.X#X;X5XyXW 1 ..nXHXhXJXJXJXLXKXHXHXNXKXJXHXHXHXHXVXMXnXNX;X .W l l @ v [ H G I v 7 7 _ _ ! j h 3 j ^ k 2 2 + j o.Q j $ v 9 9 ) c J G | [ [ U D Y | H | J 3 X S C M o     E  .x 4XjXBXSXnXHXSXSXHXKXmX.Xc +..X@.) Q o.+.+. X}.v.Q.|.OXOXl.Y U U G E x ` b c ' v.v.|.l.l.v.oX XoXX.X.G F T v.Y l.v.}.U '.oX}.v.@X@Xm.|.m.l.l.N A 9.V l.v.U [ v.L x.i.V 9.a.a.z.z.h.a.a.A > , > B V N 5 N M F F K N N M M N B V B V V i.B > B f ",
".XX....X.X.X.X.X.X.X.X-X....;X:X;X6X6XpX5X;X6XfXfX6X;X;X1X2X2XwX:XXXwX;X2X7X5XqXaXaXcXmX5X2X4X2X6X1X6XcXnX7X2X2X1XxXaXzXmXbXzXzX5XqXfXnXhXpX;XpXyX6X3X:X.X#X#X#X.X_ +.` ...X#X#X@..X2X5X#X..) ..#.#Xh n c # X 3 n ( T B > q . o g N N M c # X   X # 6 6 x c O.%.7 2 6 6 n $ j j x x v M N v n 3 # 6 k 2 b h h ^ W W z ) E h ^ 6  .<XMXMXMXmXmXnXMXsXgXHXyX5X;X6X+.b O.>X-X.XO.c 6 .. .^ G :X1Xv 3 6 6 k  X.X....H }..X#...6 6 6 j Q h W W h h x Q x x ) ) +.x h # $ j b ` ) +.1X X) +.:X4X.XXX2X;X4XgX;X+.:X-X:X:X;X4X6X:X;XrXrXhXdXmXfXsXpXfXsXsXqX7X5X5X5X1X6X>X#X;X4X-X#X:X4X5X:X3X7X;X3X5X5XpX6X2X6X6X6X1X0XVXvX>XO.+.zXvXnXfXMXAXHXJXHXJXLXJXJXJXLXJXHXHXHXBXyX:X( ^ k ^ O.l g 3 3 9 2 ^ o. . .x Q ) ! x +.^ G ) h + E W h 7 1 4 1 o o + # @ o k J F H l l J 5 1 5 M 0 1     1  X.X#X3XpX5XNXrXfXnXnXNXmXVXpX.XyX6X-X#Xo.#XsXyX1XwX9X9X9X9X9XOXm.v.}.}.] O..X] k / [ }.oX}.Q.|.XXXX9X:X^ ` X.|.X.}.[ ( x I [.#.^ I oX}.v.'.I G x 6 k D C F [ x ^ k _ [ [ |.v.r.a.a.a.9.f > B A V > w B N M M M S N C A B N B A N B M N B B B B N m ",
"6XaXgXgXfXsXgXnXvXpX6XpXxX0X;X4XqXrXsXgXiXpXiXpXpXpXpX6XpXqX0XaXaX5X2X4X0XaXaXpXgXMXNXHXVXNXHXHXHXSXnXBXVXVXmXcXcXmXVXVXAXnXhXfXgX5XpXpXpXpXaXqXsX5XpXsX5XpXpX5X4X6X;X6XpXaX5XnXAXNXNXHXJXNXAXnXfXpX<X,X,X#X .j h v 2 S l o 1 J o   . X   & ( _ 7 X 6 x ..c W j 1 g 0 3 3 # @ X X X X - m ^ x ! E x ) x Q .X6X XX..X5X:X-X5XyX,X.X.XpXnXMXnXnXfXfXaXMXKXKXHXKXLXLXLXHXHXAXHXJXSXdXpXyXnXmXPXaX X.X;X>X$X#X.X-X>X,XrX6X:X$X;X%X#X#X4X6XfXpXyX;X) ` #X+.W k ^ Q Q Q 6 j h h Q n I ^ c k I :X:X2XaXrX;XpXzXmXdXpXgXMXaXzXmXcXvXfXnXMXhXpXfXhXiXrXfXhXhXnXfXfXgX7XpXaXpXzXzXfXzXVXNXVXHXJXHXHXHXVXNXBXmXVXmXxXzXcXmXCXVXMXyXdXMXBXAXSXAXBXNXAXHXKXJXHXJXHXJXVXHXMXdXyX7X:X$X:X.X:X7X] _ ..O..X#X^ .X@.o.+.@.+.<X>X3X#X.XX..X+.^ k g U F H 3   1 1 . & X   & o . o . o 1 o o & l 3 k J XX#X6XvXdXpX6XxX7XzXMXaXvXcXKXMXpXjX4X4X<X#XsXNXsX7X8XyXaXxXaX9X9XXXXX9XwX8X2X8XyX:X.X#X X1XwXXXoX&X6X2X.X_ G I [ _ x 3 6 6 x ^  X[ ^ _ c G ( x z k c h j c I ` Q ) E h $ ~ :XY 9.t.9.f , , ].XXT f , > = q C D N m M N w C N B A A M q w L v.v.v.Y ^ ",
"2X4X,XiX4XiX6X5XqXpX5XpXpXpXpX4XiX4X,X5XpXrXrX5X5XrX6X6X;X4X4XiXsX6X6X6X;X;X0XfXnXBXNXNXnXnXBXMXMXNXBXnXMXnXmXmXmXmXvXnXnXnXnXpXfXMX7X0X7X6X6X7XaX5X5X4X4XaXaX2X8XaXpX0XaXpX7XaXfXhXNXHXNXHXHXBXBXHXHXHXBXhXHXtX+.+. .5XdX5XpX4X-X+._ h I 4XsXpXyX>X .@.@....X^ x X.3X XX..X$X` 2 ` c ] .X.X_  X..:X>X#X;XMXHXSXnXHXVXHXbXNXMXAXSXBXHXbXVXKXKXHXKXKXLXHXJXJXLXLXLXLXLXKXHXHXHXKXJXHXBXNXMXKXvX7XaX5XbXmXmXmXpXNXVXHXnXHXHXJXHXJXJXJXJXHXHXHXmXVXHXHXvX6X3X$X;X@.#X@. .+.X. X.X#XgXdXgXMXNXMXNXmXvXfXzXHXHXVXMXBXzXfXaXrX6X0X5X6XpX3X,XpXpX4X;X5X6X0X0X;X6X5X4XzXaX7X6XsXpXsX0XzXhXnXkXBXkXhXpXhXfXMXzXHXHXHXHXHXKXjXvXKXVXfXfXpXsXjXfXnXVXJXSXHXJXHXMXHXVXmXaX7XxXdX5X3X2X6X7XvX3X.XzXaXrX5X6XsXBXjXhXMXAXNXSXSXJXHXAXNXnXvX5X3X$XXX:X Xb X.8X2X9X1X( X . o X o . . o / oXwXXXsX7XBXHXAXSXJXHXHXHXKXKXHXMXMXCXKXNXnXpX5XsXrX5XsXhXjXzXbXsXvXsXtX6X4XXX&X8X8X2X8X9X8XsXzXpXpXxXyX6X1X1X6X4X:X.X$X+.@.) b ( / (  . .3X2XO.+.( [ X.v S G E j x W `  ._ o._ E j ^ O.K A A r.A A L XX1X}.N A K S X...m F ( J Y Y F K Y v.v.[ H }  XK N m g ..",
"7X2X;X,X;X4X5X5X6X2X6X;X;X;XpX6X:X4X6X2X;X2X6X;X2X8X7XaX0XgX6X6X6X5X4X2X2X7XaXpX5XgXfXfXgXnXnXbXnXMXnXpXpXaXaXpXgXzX7X0XaXgXaX5XxXxX5X5X8XyX7XxXzXzX7XaXaXfXaXaXaX7XqXaXgXzX7X0XpX4X4X5XrXiXrXsXsXaX5X,XrX:X,XsX#X#X<XsXBXMXMXnXBXAXBXfXnXjXjXjXiXpXsXjXnXAXHXNXSXjXkXAXMXAXHXNXhXhXfXNXvXmXHXCXNXSXVXNXNXbXMXCXNXmXnXnXKXbXvXNXMXJXJXLXLXLXHXNXHXHXLXKXHXHXKXKXKXKXKXKXJXHXSXNXnXfXiXkXbXVXnXBXBX4X4X0XHXsX5XsXdXvXBXBXnXhXjXiXkX6XsXjXsXBXSXBXNXHXnXnXMXgXfXfXpX7XfXfXaXsXNXnXnXnXSXMXBXnXzXnXnXnXpX6X0X6XpX5X7X7X5X5X4X7XpX7X6XpXdXdXpXdXaX7XrX6XpX6X7XfXpXpX7XsX7XaXsXzXaXyX6X5X6X6X5X4X8XaXyXzXaX8XsXaXvXNXMXsXVXKXpXsXhX5X0XpXpXzXSXvXHXHXJXHXHXKXNXfXvXmXxXzXbXnXaXxXxXsX<X XzXxXpXmXsX6X6XyXfX5X6XsXpXhXvXvXaXBXvXBXMXSXzXpXdXsXzXSXnX6XaXcXcXaX2X8X8X2X.X1X;X1X1X;XmXKXLXJXHXHXHXLXLXHXHXKXJXKXHXSXVXVX0X0XpXjXnXBXMXnXNXnXnXBXBXnXtX4X,X,X6X3X4X6X;XyXpX4X6XvXaXMXnXfXpXzXcXaXbXaX-XaXpXpX,X:X:X.X#X@.@.@.@.) Q E { _ h h c j $ j x { Q ^ v v z x W Q G ..^ I _ +..X#X:X6X#X$X.X+.O.O.( ....( .X.X#... X.X.X.X X5XpX;X;X1X1X8X",
"pX0X5X1X0X5X0X5X5XaXsXpXzXpX5X2X5XgXpX0XaXzX5X6X2X0X7X8XgXpX6X6X6X6X6X0XxXxXfX7X8XpX0X5X5X0XaX5X0XqXaXfXzXdXbXzXzXfXgXpXaX7XfXzXaXfXAXfXzXxXpXcXcXfXaXaXaXbXvXpXpXaX7XaXpX7X7X7XaX6X6X:X.X:X;X2XaX0X;X;X#X.X:X,X4XtX<X-X5XpXrX5XnXrXiXfXrX4X4X,X4X,X4XnXBXnXNXAXBXhXdXfXBXgXfXpX5X6X5XsXiXpXfXBXkXgXcXNXMXaXzXzXbXvXMXzXmXmXzXaXnXHXKXKXKXKXKXJXJXHXHXHXKXLXKXKXHXKXHXHXJXJXHXSXSXnXnXrXgXzXpXrX,X;X;X5X5XrX5XaXvX5X;XrXBX4X:XrX6XrXpX5XiX5XrX4X5X5X>X>XpX6X;X4XiXpXpXpX6X7XfXpX4X7XgX5X6XyX;X5XrXrXpXpX5X;XsX5X2XpX5X5X$XyX4X0XpXfXsXsXaXpXyXsXdXbXdXnX0XaX0XsX8X7X7XpXgX5XzXsXpXaX7XpXdXmXNXaXbXmXmX1X1XgXzXbXnXpXnXSX7XvXMXmXmXzXbXzXzXnXNXNXHXHXSXHXdXnXmXzXCXxXzXVXmXmXnXnX:X3X5XaXmXMXpX.X.X<X0X6X:X6X;X2XpX7XsX6X5X:X;XpXHXpXrXpXhXvXhXpXnXfX5X:X1X:X4X3X5XgXNXNXHXKXKXHXHXSXMXnXfXpXsXmXbXmXgXfXfXsXyXnXfX6X:XrXrX5XpXiXpX7XpXrX:X4XsX5XrXfXpX6XyXsXpX5XpX4XyXpX6X6XzXMXnXfXfXpXbXfXdXfX8XqX6X5X5X;X4X-X.X#.) b x h x h j n x n + # 6 6 # h # 3 3 k ( ` ` ........@.#X.X#.:X1X2X4X;X4X3X6X6X5X6XaXgXzX0XpX6X5XvXxXpXqXzXcXcXcXxX",
"aXfXfX0XaXpXpX5XaXfXqXgXzXaXgX0XqXgXaX8X0XaX7XfXaX7XaXxXaXsX8X8X0XaXaX5XzXcXfXpX0XxXaXxXpX7XaXaXaXaXzXcXzX0XzXzXxX5X5X6X0XzXaXxXxXxX4X6X0XzXxXnXzXgXgXpXaXaX7XbXaXxXfX8X8XyXpX0XgXnXyXyX4XaXmX7X5X0X4X:X$X2X:X2XrX#X;X5X4X6X6X:X;X;X2XpX:X;X2X5X;X;X;XzXzXxXxXsXxXpXaXaXzXzXzX7X2X2X6X0XyXpXrX5XpXpXaX5XpXfXgX0XaXpXzXmXcXSXVXfXsXBXHXSXHXHXKXSXMXNXVXMXHXVXKXHXVXHXMXVXNXNXmXnXnXnXcXhXsXnXzX6X8X5X;XrX#X:X8XyXfXaX5XzXmXsXdXdXyXmXbXdXpX5X7XaXsXaX1XyX5X6X4X4XpX7X4X4XfXaXdX5X7XsX7XaXvXbX6X7X3X4XyXsX6X5X5XpXpXnXhXdX4X;X4XpXpXxXzX5X7XaXfXvXnXVXdXaXzXgXzXfXdXzXdXfXaXaXfXfXpXxXzXbXfXCXLXmXzXfXnXaX0XzXpXsXfXmXMXNXmXzXmXNXsX8XzXzXaXzXMXhXMXSXVXzX5XxXNXzXzXdXyXzXzXzX7XpXzX5XfXfX7X6X4X;X:X;X4X5X,X<X6X4X:X;XrX:X6X#X-XaXMXrXnXaXfX5XgXrXgXCX5X4X6X3X7XHXJXJXHXHXHXnXMXnXfX5X4X6X6X6XaXVXnX5XdXpX8XfXaXzXaXaXzXxXzX8X2X2XpX7X8X8X5X4X6X7X5X6XpX6X7XaXpXhX6X2X:X2X4X6X7XpXgXaXvXdXzXgXzXmXMXnXzXbXnXnXnXvXvXsX5X3X:X:X X+..X#. X.X X.X+.X..X$X$X:X3X5XpXxXaXcXnXbXvXmXzXfXxXCXVXNXSXAXHXJXAXHXNXMXSXNXVXHXBXSXVXNXHXnXgXnXmXnXgXxX",
"6XfXgXfXpX6XaX6X0XvXqXaXfXMXzXfXfXaXxXzXmXmXaXzX4X6XgXzXzXfXpX8XzXzXmXaXcXxXcXzXaX0XfXzXxXpXzXzXaXcXcXmXzXfXcXbXaX8X0XfXaXfXgXxXmXaX1X4XxXcXfXpXaXbXzXvXzXfXmXzX0XfXxX0XxXzXfXpXsX0X6XMX$X-X6X8XyX;X6X7X:X1X1X5XyX:X6X5X6X5X8X<X...X X-X;X;X;X6X#X4X;XpXmXmXgXfXxXfXzXfXcXmXxXdX0XaX8XcXmXaXzXzXpXyX5X6XpXcXnXbXzXaXaXcXxXmXxXZXzXaXmXVXvXfXMXzXsXaXdX6XnXNXHXHXaXzXbXdXpXzXmXmXnXNXpXzXnXVXzXaXxXpX6X:XiXaX8XvXyXzXnXxXmXsXnXxXnXfXaXfX5XsXfX7XmXzXfXfX6X4X:X6XMXxXaXzXpXaXxXzXpXpXaXmX5XgXfXfX0X5X7XsX5XgX;X6X2XpXfXnXiX7X2X5X0XnXsXhXsX5X4X4XyX5X5XzXnXNX6XfXNXVXVXVXxXvXCX6X:XmXmXfXmXmXHXGXmXaXxXMXVXmXHXyXbXcXVXVXSXfXzXsXpXzXpXsXmXnXzXmXSXVXHXCXmXmXbXzX7X0X;X+.#X#X<X.X2X:X;X X X1X;X,X:X;X.X3X....#X:X@..X#X;X;X4X7XhX-XXXaXrX4X6XsXsX5XfXbXzXfXyXvXvXnXnXbXpXfXvXfXsX7XvX4X7XvXpXaXVXCXxXmXaXpXpXdXaX6XzXfX0XxXxXgXxXmX5XsX7XpX7XaX7X0XzXgXfX7XCXfXpX7XzXxXxXhXMXgX6XMXmXzXdXpXgXfXgXpXzXnXaXbXmXNXNXNXnXCXHXHXSXVXmXCXHXHXHXHXHXSXVXSXHXKXJXHXHXHXVXHXHXJXJXHXAXHXJXHXAXAXNXBXBXNXAXBXNXBXnXgXjXhXnXtXjXAXnXgXnXnXvXnXnXmXMX",
"fXgXpX0XzXfXaX6X7X5X0XzXfX5X6XgXpX8XpXrXqXgXdXzXdXaXpXnXvX4X-X5XrX;X2XaXpXpXnXiX:X-X2X5X4X2X0XpX6X8XcXGXHXVXzXmXVXNXfXsXzXVXzXaXpXaXzXMXxXCXpX5XgXfXaXaXfXxXmXfXaXmXxXzXxXmXMX5X0XAXvX7X-X.X.X-X:X:X:X4X:X.X$X:X6X2X1X-XrX6X5X;X:X<X:X:X:X:X.X;X.X-X4X.X0XSXaXzXaXmXMXsXpXmXCXVXmXmXmXzXnXaXmXzXxX8XpX5XzXNXVXSXbXCXzXzXCXVXHXVXmXdXcXNXmXvXbXxXzXzXdX5XzXnXaXcXzXmXxX5XaXsX7XzXmXMXvXpXnXNXmXfXzXMX7X$X;XfXvXxXdXgXzXaXzXbXaXfXmXvXBXpX1XpX4XzXxX0XfX5X5X8XmXbXmXyXsXpXrXpX6X4X,X6X6XvXpXsX5X2XcX;X;X7X8X4XaX8X7XpX5X5X4X5X6X:X>XrX6X6XaX4X1X4XyX;X:X6XpX4X6X6X5XrX;X7X4X6XxX4X3XzXpX2XxXHXgXaXzXnXdXNXLXHXzX>XvXzXaXmXSXsXmXmXnXMXmXzXbXMXMXHXHXHXHXSXHXNXhX5X..:X.X@.+.#X.X3X;X$X#X1X;X#X4X6XrX6X4X,X;X#X#X6X;X#X3X6X4XmXMX3X:XpX6X5X5XrX4X:XpXsXsXmX4X:X5XsXsXsXgX;X2X7X5X8XxXgXaX7X7X;X;X0XaXxXaX2X4X6XsX:X:X8X5X4X6X5X3XyXyX;XrX7XxXaX6X1X8XvXjXaX7XxX7XaXbXpXvXzX0XzXdXmXfXyXVXzXaX8XcXaX7XaXMXMXaXsXfXfXMX0XzXBXfXvXvXnXSXBXNXHXHXJXHXVXMXNXBXNXnXMXMXnXMXnXnXMXAXHXSXSXNXBXNXMXNXMXfXnXfXfXfXfXrX,X5X5X4XrXiX5XpX5XpXpXfXfXfXzX",
"2X5X>X-X6X5XpX5X2X:X;X4X4X4X;X-X-X:X;X:X-X4X4X4XaX5X4X;X:X:X;X;X5X6X.X:X4X4X;X:X2X4X4X4X3XfX0XfX6X2X4XaXnXsX5XfXfXsX5X;XiXpXaXfXxXfXxXmXaXgXaX;XxXfX6XaXcXmXxX7X5X0XmXcXgXcXmXbX5X>X>X-X:X:X>X4X3X:X.X#X:X.X$X:X5X6X4X:X3X6X6X:X;X>X3X5X4X:X:X1X:X;X1X1X0XCXaXbX6X8X2XzXxXmXmXVXmXmXmXmXMXcXzX2X7XyX:XnXgX7XCXmXmXcXmXVXcXVXVXcXxXVXCXCXmXCXMXzXcXzXyX6XaXcXzXmXVXCXmXfXxXaX6X4XpX6XgX4X;XpX4X:XgX6XsXsXaXpX0XvXfXMXmXzXbXMXvXmXVXMXmXSXSXvXhXfXMXnXsXsXpX7XNXvX6XsX4X X$X8X5XXX4X:X7XmXyX6XyX;XsXgX7X2XpX6X4X6X4X4XrX>X6X5X;XyX6XvXiXaXvX7XiXyXrXpXfXyX,X6X4X5XsXdX5X5X5X5X6X6XrXpX<X#X1X8XpX;X:X5X3X8XzXpXaXfXxXpXaXxXmXaXaXfXgXmXzXcXzXnXBXnXgXmXmXSXSXMXmXsXpX5X1X3X#XpXpXpXfXsX6X6X>X7XfXjXjXjXsXsXiXpXaXfXjXpXzXaXzXzXgXnXsXaXaXfXbXsXxXxXaXiXhXVXaX;X6XaXfXxX8XnXgXdXaXHXVX7X2XzXdX,X.X1X2X;X:X2X:X3X2X;X7X2X.X.X:XXXX.;X;XXX7X5XdXvXrXaXMX7X7XpX6XaXzX7XaX6X5XyXfXaXdXbXaX7X7XaXzX7XzXpXzXCXzXvXaXzXpXyXfX7XzXpX2XgXpXsXpXpXpXzXmXcXmXzXAXnXfXaXsXpXsXnXzXpX5XpXvXhXnXBXBXfXhXjXrXiX6XpXpX5XpX6X6XgXpX6X5X5X4X6XfXpX5X4X5XpX5X5X",
":X6X4X4X;X;X4X;X4X<X-X;X;X6X6X;X,X;X;X;X;X6X4X5XpX6X0XsX4X,X6X5XpX5X5X;X2X0XaX5XqXpXgX5X7XpXpX0X5X6X;X4X6X:X:X;X-X;X6X;X;X:X;X;X6X4XgX6X$X;X6X.X:XpX4XfXgXCXxXxXzX7XxXxXzXxXvX5X;X.X#X;XaX4X;X5X:X:X>X>X4X4X7XrX5X4X;X2X6X5X5X4X4X4XrXsXsXsXpXpXfXfX7XpX5X6XpX2XaXpX:X5X7XxX6X8XzXaXCXHXVXCXKXbX0XyX6XcXxXFXKXCXmXCXCXNXcXPXVXGXCXCXZXCXnX;X0X4X.X;X2X;XgXdXBX5XfXfXgXmXBXpXpX5X4X4X5XyX4X;X;X6X6X;X.X6X5XpX5X4X5XaXpXpXBXdX2X3XhXpX5XaX6XrX5XMXjX6X6X;XsX7X3XyX4X>X5XrX;X5XpX6X6X,X5XyX#X-X,X4X4X;XrX6X7X5X5XrXpX5XsXsXjXvX5XNXmXMXsXnXhX4XgXBXhXiXsXpXxX;X2XfXaXrXiX4XsXsXyX5X6X5X,X,X2X7XaXyX7XfX0XaX4X6XxXMXcXmXBXpXaXCXmXMXhXNX,X.XHXfXnXaXpXzXvXmXMXMXMXHXSXSXSXmXSXAXvXmXcXMXMXSXAXAXAXBXjXsXnXfXBXMXnXsXsXpXnXpXpXzXnXnXxXpXdXMXkXxXmXmXaXfXhXzX0XCXbXfXfXmXMXMXMXCXNXnXNXBXyXvXiXjX4X8X6X:X:X6X4X>X:X3X6X;X:X;X;X:X2X4X:XXX7X6XpX6X;XaXaX5X6XyX0XfXfX7XgXaXpX4XaXpXvX:X X6X7XxXCXfXhXmXmXVXVXcXVXcXxXzXfXxXxXxXzXmXzX6X:XzX4XxXMXfXMXxXmXmXmXzXzXfXfXvXaXdXaXxXyXpX5XpXpXgXfXgXgX5XfXaXaXhXpXaX0X0X0XyXrXpX6X5XpXyX7X4X6X7X5XpX",
"fXzXgXsXpXgXzXaXpXpX6X6XaXsX5X5X5XaXaXfXiXpXgXaXsXpXnXnXnXvXnXfXnXvXnXNXVXMXfX5X6X5XfXpX5X5XpXdXpXiX6X;X5XyX;XpXrX;X5X;X;X-X:X;X4X>X;X5X4X6XsXsX4X4XpX4X2X6XXX4X5X0XaXxXCXbX6X,XsX6XzXrX6X5X4X5X;X;X;X4X5X5XiX,XpX5X6XpXaXaX5X8X5X7X5XpXnXnXnXvXcXnXnXnXhXnXfX5XgX7X5X5X6X5X5X2X7X1X:XgXaX6XpX3X:XxXaXgXmXmX4X4X7X7X5X7X5XnXaXfXyX7XxXaX2X;X6X6X5X6XpXsX5X5X5XpXgXdX4X5XzX5X4X5XsXaX5XiX5X4X4X6X;X:X.X#XX.;XrX5X6X:X;XpX4X5X2X7XgXfXfXrX6X5XpXvXrXrX5X:X#X<X<X5X5X3X;X3X6X:X-X-X;X4XrX4X:X6XyX6X5XpXsXpXpXvXxXxXaXsXMXnXjXvXVXnXSXMXMXkXpXBXvXBXjXrXzXgXBX .1XxXsXhXjXgX5X5X5XrX6X6XrX7XiX7XyXaX0XpXmXgXaX5X8XbXfXfXaXxXmXNXbXvXhXBX;X X5XfXvXNXMXMXNXMXNXMXMXBXAXHXsXsXsXnXHXHXHXKXHXHXHXSXNXNXBXBXBXNXNXnXNXnXnXzX0X6X X-XsXzXzXnXBXzXzXzXmXnXbXmXbXzXMXnXmXVXMXvXzXnXhXSXNXfXMXSXSXjXrXpXyXsXdXfXsX6X6XpX5X6X6X3X4X5X;X6X4X4X3X;X4X:X7X5X;X5X6X2X>X.X2XaXpXmXMXsX5X7X5X5XpX6X+.5X0XaXxXzXMXMXzXmXmXxXmXVXVXVXzXmXCXVXaX7XMXnXzXsX:XzXdXgXfXCX5X5X4XyXbXfXfXhXfX5X7X0XdXfX5XyXmXzXnXMXmXfXfXfX5X7XxXBX5X7XpX5XyXpXpXaXsXpXxXpX6XaXaXaX",
"jXgXgXhXnXkXNXAXNXAXnXBXMXNXNXnXNXSXHXAXzXGXSXHXSXVXMXNXMXVXMXBXGXSXSXSXMXhX6X5XpXfXgXpX5XsXpXfXsXiXrX6X4X6XpX6X5XgX6X4X1XpX6X,X5X5X4XqXpXyXgXfXMXsXsXpXsX6X:X4X:XwX;X0XaX;XpX5XpX5X5X#X;XpX6X6X0XfXyX6XpXiXpXpXpXfXhXnXMXMXmXnXnXBXhXBXSXVXMXnXnXfXfXnXVXNXVXNXnXnXnXpXfXgXrX5X5X;X5XpX4X1X:X6X:X.X:X2X6X2X;X;X4X>X:X:X.X>X:X#X.X#X.X:X;X6XzXsX5XyX5XsXfXdX5XzXzXaXpXpX5XsXrX7XgXhX>X;X6X6XyX5XaXsX,XrXBX6XpXaX7XdX7X5X0XgXpXcXzXnXvXnXfXzXVXMXfXpXyXrXtXyXvXaXfXsXpXjXsXrXrX6XiXpXdXdXNXvXnXfXaXnXMXMXmXmXNXnXVXVXMXAXNXHXHXAXNXNXVXHXNXHXAXjXsXBXBXiX>X:XAXhXpXfXpX.X;X;X,X,X>X:X4XrX:XgXfX5X5XfX;X:XgX7X7XmXdXpXdXmXmXfXsXgX5XnXnXsXpXpXBXSXkX<X4XfXkXiXrXhX6X.X[ '  X&XXX:XjX<XiXJXHXHXHXHXnXAXBXMXAXSXNXhXMXHXxX8XZX:X6XVXCXMXSXSXVXVXVXVXMXnXmXHXSXHXHXSXHXNXHXSXMXBXBXBXhXhXsXpXjXhXzXsXfXmXvXhXzXfXnXVXMXbXnXsXpXfXsX5XpX4XsXsXpX6XvXsX>X;X;X;X;X;X4X6X7X5X:X:X;X6XfX5X;X6X#X:X5X5X7XfXmXMXVXcXaXaXaXnXmXVXVXVXzXaXzXaX6X4X:XaX5X6XaX7X7X6X4XsX4X6X5X5XpX5XpXpX7XyXiXpXrXnXhXpX6X5XpX0X;X5XfX5X;X5X6X;X;X:X4X5X5X4X5XvXzXaXzXpX",
"4X<X-X;X,X>X>XiXpX;X:X2XrXBXfXiXiXrXiXgXjXiXsX6XpXfXpXsXiX;X,XpXpXpXfXfXnX5X5XVXVXSXMXMXVXzXpXsXpXrX,XrXrXiXrXrXiX6X5XpXaXgX>X6X5X4X5XpXpX5X5XpXfXrX,X4X6X5X;XaXpXpX6X4XiX;X6XiXzXzX7X8XaXhXaXzXmXgXfXnXMXfXhXnXfXgXsXjXfXfXnXhXpXpXvXjXsXhXfXpXjXiX5XsXsXfXnXvXHXSXnXkXnXfXbXMXcXcXpXsXpXdXyX5X5XaX0X6X6X5X4X;X-X-X XwX;X>X2X:XXX4X-X;X:X$X;X4X;X6X4X4XqXgXfXbXnXbXfXtX:X;XyXpXpXdX6XgXzX5XnXgXzXSXmXBXNX>XrXvXsXpXcXnXnXmXBXMXmXmXnXnXVXmXNXMXvXbXhXhXiXrXhXbXMXBXnXhXMXMXBXMXzXnXvXxXmXzXnXMXVXSXNXnXCXHXVXHXHXHXHXHXHXHXHXJXHXHXHXJXHXNXAXNXnXHXnXfX4XMXNXMXnX6XO.@ I ,X;X>X:X6X6X,X6X6X5X4X.X@.#X#X2X5X4X7X2X0XrX5XfXpXsXqXiX;XtX#XhX#X$.$.) j E @.@.o.+.oXOX@X@X9XeX+XY.m.i.C = J I _ -X%X .:X8X9X1XaXFXxXbXnXmXCXLXbX;XbXHXfXfXHXnXfXjXzXsXfX5X,XrXiXpX6X<X>X,XpXjXyX6X6X:X;X,XrX6XdXfXpXnXhXrXiX5X5XhXmXNXnXhXjXhXvXyXfXpX.X#X,X>X-X4X,XrXrXiXjXfXiXfXsXpXsX6XfX;X;X;X6XaXsX;X6XSXnXxX7XyXmXfXxXxXbXfX7XaX7X5XzXVXCXmXsX8XdX8XaXmXzXcXpX0XxXyX7X6X3X7X0X7X5X5XpXgXpX5X5X5XpX5X5XpXpX5XpX5X:X;X5X4X;X;X2X;X:X:X;X;X:X2X6X4XpX5X;X",
"-X$.@.$.@.<Xo.Q -X.X.X#.^ b x x j n x $ n n n @.+.#. .tXo.j W  .b @.+.x  .#.cXHXkX,XgXrX,X6XpXfXjXsXrX5X6XrXsXsX>X>XgXgXpX5X7X6XpXrXsX5XpXsX5XiX5X7X7X0XfXgXaXW #.nXfX6X;X#X-X5XpXhXmXAXnXnXVXzXnXfXpXgXkXhXnXnXnXzXnXfXnXMXnXBXNXBXBXvXnXBXBXBXBXMXSXAXBXjXrXiXsX5XiX,X-X>X,XsXiXfXfXpXaXfXyX7X7X5XaX0X7X6X0X6X Xv..X6XbXfXxXPXCXxX4X.X-XbX7XaXfX7X6XpXrXaXcXVXGXNXfXnXsX6X6XpX;X7XsXaXpXiXpXBXMXmXMXnXsX.X:XhXnXbXvXfXfXfXMXVXHXHXKXSXNXSXMXMXHXHXHXHXSXAXnXAXHXHXSXVXmXCXMXVXGXVXBXNXSXNXmXVXNXVXHXHXKXLXKXLXJXJXHXHXHXJXHXHXHXNXGXJXJXAXBXBXHXHXJXvXHXLXNXVXMXsXyXMXhX6XpXpX,X>X,XO.:X:XO.-X+. .#X.X#X<X,X6XpXxXpX@.$.@.5X-Xh h W Q j E E 6 j 6 $ # @ @ v.j.E.+X!.R.E.d.V.F.Z.U.{.{.n.a * ; x.].Y.T.R.i.R.@X[ @.+..X;X;XI +.-X#X-X<X.X+.+.@.$X$X.X-X#X:X;X,X-X>X-X#X#X#X#X#X#X#X@.o.+.O. .@..XO.Q  . . .@.:X-X@. . .+.+.)  ..XO.X..Xo.+.;XsXiXnXMXdXvXvXhXsX5XpXaXNX.XpXaX6XzXCXdXMXHXCXVXmXzXcXcXxXmXCXCXCXVXVXVXVXSXHXVXmXVXmXVXVXMXVXNXVXAXMXNXAXSXVXVXSXBXBXBXnXhXfXjXpXgXjXnXsXsX5XfXzXhXpXrX6X5X6X6X2X4X;X4X4X:X1X5XpXxX0X6X;X",
",X%.! ) ,XuX{ E  .O.x ) o.j # b W E @ h +.O.Q jXtX@.%X+.$.{ Q o.7 ^ x b @.0XHXJXtX+.,X-X .Q -XiXiXkXkXnXBXhXhXsXsXyXpXpXaXnXnXgXkXnXhXfXMXMXGXHXMXVXNXaXgXgX7Xc #.fXnXBXdX4X;X6XrX4X5XfXsXnXNXHXHXvXMXVXBXNXHXAXBXhXnXnXBXkXkXBXsXtXtXiXrXrX6X>XO.4X<X>X4X;X3X-X$.) @.@.:X+.$.o.Q $.hXfXfXcXmXMXbXzXxXaXxX7X0X8X0XKX5Xx b @.O.;XXX6X@.h x ..>X-X<X3XrX#X@.,X6X,X6XBXMXfXpXsXrXpXtXpXfXnX,X.X0X5X5X5XHXLXNXBXiXgXHXnXMXVXSXHXHXHXJXKXAXkXjXkXBXSX6X>XiXjXjXjXnXkXHXHXfX5X0XpXrX,X,X#X#X>X#X>X-X@.#X;XrX6XsXrX:X-X>X,X>XpXrXpXiXpXhX6XsXgXsXgX;X:XiX6XkXsXBXNXHXHXVXSXHXKXHXxXgX>X,X6X;Xh .X:X3X2X7X8XaXaXfXMXnXjX,X,X<X#X! % X c c z # 6 x # # # $ x $ X o x.c.u.j.V.T.E.E.s.=.V.Z.f.V.C.+X@XOX{.U.T.H.V.u.P m.w 3 6 W @.+._ X.[ #XrX6X,X4X:X#X#X%X+.#X:X#X6X4X.X .$.) W ^ W 6 $ h 6 # j j 6 j ) ) x ` Q ` ` I  X_ c 9 H Y v ^ ] +.O.^ ) _ _ ) #X-X-X<X,X4X6XiXfXpXhXsX@...mXBXmXCXmXCXmXNXCXCXHXmXzXCXCXCXPXVXCXGXVXHXNXMXNXVXVXSXVXHXHXHXHXJXHXSXNXAXkXhXkXiX<XW O.-X:XdXfX6X-X+.n ..#X@.@.-X,X,X,X,X,X,X,XsXpXsXfXgX5XyXzX6X6XcXaXfX5X",
"$.{ ^ #XkXjX$.) O.z b +.#Xo.v b E Q Q @.-X&.j W -X@.o.! $.$.! W o.E I  .,XHXHXSXhX<X5X4X:X$.o.@.o.$.#X$.@.-X#X<XiX#X.X@.;X>X#Xo. .#X%.@.@.@.;X6X;X4XaX6X:X-X@.#X#X@.:X,XfXNXVXVXvXxXmXjXgXmXSXHXNXJXBXnXhX,X>X:X#X#X#X+.o. .-X,X:X;X;XXX$X.X X.X` ( ..+.+..XXX X) Q W o.o.) o.o. .Q Q  .$.#X4XmXzXVXKXVXLXKXZXPXKXpX>X#X` j W h k b c ^ E + # # + # j X % + X + *.W #X#X#X4X,XiXiX6XsXHXnXo..XrX4XsXVXHXMXNXBXtXtX-X<XiX6XrXsXgXjX>X:X@.) x E h # @ $ ! x n W o.+. .#X>X#X-X,X<X$.{ W W  .@.o.Q Q  .$.o.o. .) x )  .x #.-X-X<XgX4X,X,X6XtX>XpX4X<X) >X#X .:XNXHXfXBX;XgXrXrX#Xx ) @.#X` O.X.4X-X:X;X6X4XrX<X#X<X$.o.6 n _ ` 8 +.#X@.x 6 x h + @ $ # 0 , 3.J.d.y x.; t E.F.Z.Z.F.V.f.J.M.E.`.+X{.s.T.E.V.i oX+.3 E E W ) ) x ) W ' ] [ ..$X$X+.) ..o. ...` O.+.@.` z k k ( 6 2 D e e m 4 e Z K U U v.'.H ..^ A u.f.c.c.C.W.h.v.v.'.}.` U x.v.L K P ' x h x j ) @.-X#X#XQ #XhXzXNXKXHXCXSXHXHXKXHXVXPXHXKXPXKXHXVXMXHXVXHXHXHXHXMXNXkXsX,X>X>X>X<X<X-X.X+.Q x *.# 2 v c k x Q j # ( +.2 c E W ) ) b W W E o.o.@.<X6X6X5XMXpXzXfXMXCXCXnXzX",
"$.%.o.o.-X<XtX! j ) #X-X@.` +.` E ! &.Q o.! $ ..,X@._ c ) $.$.$.<Xh x ..5XHXHXMXrX>X5XgX6X@.O.{ { { Q ! ) +.+.$.[  X@.@. .W x j h 6 j W j 9 k c c H Y m.x.i.v.U [ [ oXoX1X;X6XrX6XpXNX5X:X#X-X>X5X$.) Q W j Q x h h E x ) `  .XXOXOX+XY.R.OX|.XXoXXX$X#X_ +.#X<X@.@.+._ ) O.' ] ` x x Q 6 h 6 n W o.#.+.:XaX4X;X+.x ^ @..X+.) #X@.Q W x j 6 $ # # @ # @ @ + @ + + X X + # @ j $ j Q E  .+.$.Q o.pXsX;X5XnXkXAX<X+.Q h  .Q + 6 6 x W b ) h 2 6 # # # $ j z x o.) 2 `  .O.#XW ) %X .! Q E b c x h j $ j $ h x j 6 j h x Q O.<X-X,X-X,X<XtXtX,X6XpX>X^ $.#X#X,XhXjXjX5XrXjXrX` _ .X6 o g [ ^ ! W ` `  X$X` $.Q ) $.+.%X$X#X#X#X#X^ _ #X+.W ` W 6 # 1 * s.F.B.W.W.T.OXt : C.F.N.N.U.d.4.d.Z.B.L.F.L.Y.V.W.T.Y.p.9 8 ) ) W ) O./ z l D S l G @X+Xm.XX<X#X$X#X+.%X%XXXoX].[ '.v.9 x.L.C.c.c.g.F.B.Z.E.C.S.N.u.Y.C f.F.S.F.4.;.A.P.L.c.'.J x b.B.C.F.C.V.T.|.D L l z x )  .@.#XhXNXKXLXLXKXKXKXHXVXHXJXKXLXLXKXKXLXKXKXHXJXNXfX6X#X@.+.@. .) ) ^ W W c ) W h # 7 j x E ! { ) h E ! j ! h x x c k h x +. .h # 6 3 j ^ O.) x ` @.-X>X6XNXMXnXcXnX",
"o.o.` ^ o.<X%Xz 6 Q {  .o.W ( O.{ o.! ! o.! j kXDX+.@.{ o.$.o. .{ # O ..iXHXGXMXsX5XnXsX$Xh x # x o._ +.@.XX|.b.u.i.I ] O.W ^ W j j O.x 3 s w a e a f.Z.C.B.V.V.V.V.V.g.y.D J / /  .4X4X.._ j Q  .6 $ h E j x Q Q ` ^ _ E h |.E.L.L.J.P.C '.{.h.j.R.{.Z }..X..}.+.) @.+.XX|.].U c ) ` x h h k x c F k x k H H ( ) ^ b ^ +.{ c ) +.W W _ 8 $ j 6 h x 6 $ # $ # 6 j Q E j j 6 Q j $ + + % 6 @.)  .BXNXtXpXBXNXjX,X#X) ( #.x 2 X @ { o.x ^  .x # x _ { %.Q W -Xo.9 ^ #X+.W Q o.{ Q $ # # n h h W 6 n j x E j ` j h + + Q { O.+.{ o.) +.#X@.@.#X+.$.Q Q Q x -XkXhXrX;X4XfX6XrXb $ 6 2 ].x.b.U # ) O..XO.} c j _ 2 x ) z @.:X#X@.@.c 7 W W _ ^ W k q 3.C.C.M.N.F.F.W.V.V.W.C.C.A.>.Z.M.C.M.=.3.M.M.F.Z.g.V.C.4.M.a j h k ) E %XxX1XU C U.x.x.E.J.c.{.|.oX&XXX X@X{.=XeXR.m.{.R.x.U.M.C.Z.T.W.G.N.N.P.F.N.F.A.(.F.P.F.N.A.=.:.N.A.N.x.K L p.C.N.N.A.S.F.Z.n.f.T.C.h.M c c  .@.rXHXHXVXKXKXiX6XfXfXfXkXcXHXHXVXNXnXpXfX6X#X#X@.O.>X.X..O.^ h E ) h 1 c W x G [ W ! j x j ! ! j Q o.! $ j E X k j k # # k x k I 2 k #X-X_ #X$X X.X$X5XxXNXpXnXpX",
"<X) v j x n v G W $ h b  .o.I #X+.) ! Q ! Q ! UX<X@. .@.@.$.+.%.{ j # #.iXHXMXnXsX5XNXrX-X>X#XO.W +.XX XO.].n.g.g.<.p b.'.x.F j + # j 2 <.M.M.F.M.N.N.N.M.M.N.B.S.C.B.M.-.C 4 J H J W Q ) E x E ! ! E h ! ! ! ! ! Q Q ) W ] +XL.L.).).P.w H u.q.S.K.d.j.XX$X' c.v.O.XX|.OX].v.J G / M F ` D m H v.v.Y ^ '.m.Y.v.~ J x E ] c c H ] ^ W b j j $ $ j E j $ j E W _ )  .#.#X{ W ) o.E 6 # 6 +.o.+.#XsXpXyX5XNXHXNXpX-Xj j # O ] 1 z E UX{ ..W x x ]  X_ <XlX@.<X%.$.Q +. X_ ) { o.) 6 j $ # x h j j 6 6 j n x 6 X $ x Q { _ ] +.O._ +. X~ ` ] _ _ ! j j Q # #XBXhXfX4XaXsX4XhX^ 3 J k y.{.' ` } [ ) ^ 7 ^ x # +.' e 3 6 j ) :X.XO._ / # h E ( 2 ; R.C.Z.3.4.M.N.N.F.W.V.C.N.d.F.N.N.M.M.N.1.3.-.=.=.g.U.R.F.W.N.d.5 e S D M b.@X@X@XY.C.M.W.Z.V.J.P.W.F.L.E.b.U.*X*XE.F.F.R.U.U.C.N.B.S.F.F.F.A.0.A.N.A.A.N.B.C.N.N.G.A.A.V.i.x.].c.C.E.W.A.G.A.D.N.B.B.A.Z.V.F.Z.2.D 9 ) _ yXAXvXSXzXmX4XyXAXfXMXpXaXrX5X6X@.o.) b n W  .-X$X#X3X.X~ ` Q z Q ) ^ W j c '.oX^ j j ! 6 6 ! E ! ! $ 8 lX%.z 3 E z k z 3 2 ^ O.] +.yX#XW +.>XkXAXHXLXLXLXHXJXNX",
"+.$.~ h 3 k ..^ +.v 2 b ^ ) ` .._ E Q ) E ! ! @.+.) )  . .o.$.%X%X{ X R gXHXMXhXfX4XfXvX5X,Xo._ / '.oX+.{ [ '.].Z i 4.j.T.Z.<.k W z + a C.A.A.A.N.C.M.V.E.V.V.d.M.M.d.N.4.t.D H L e J W ~ P 2 j z c ^ E l ' ' ' H / W ~  XOX`.`.L.L.`.).y.C C./.(.C.d.V.5 6 g Y.Y.m.E.V.R.@X].y.'.P C C x.i.A Z h.x.c.b.Y.L.L.j.Z C x.x.H H x.n.v.P H Y c 8 $ # 6 h j x E 6 W +.+.Q x @.o.:X-Xj j x x z o. .) pXBXgXsX7XSXJXAXgXsXj +   c k 1 c b #X%X%Xj 6 G .X+._ <X<X.X[ ` O.O.$.}  X] [.} { 8 { #XQ E W { o.o.Q @ # n X 6 !  .` ` ' } ]  X X X] } ] /  X] { j W Q 6 ,XhXjXjX4XMXtX6XAXO.L oXL m.].z z ' ( h k 6 x Q j G y.t t 4 6 j +.;X Xx [ ' x ^ _ F c.C.B.d.6.A.N.N.M.F.F.U.C.N.N.N.7.6.M.q.-.N.>.M.7.-.d.Z.d.1.4.;.0.A.F.Y.C.U.L.C.M.N.J.W.B.F.F.C.P.W.C.F.L.T.m.'.E.E.F.A.A.C.C.N.N.F.S.S.F.E.>.>.0.A.q.N.S.A.N.;.6.A.G.S.;.f.' ].E.(.(.F.G.G.0.0.0.B.q.Z.Z.C.B.M.j.d.M.Z Q +.BXBX5XvXaXbXmXKXHXgXzXb  .j 6 j h ` %.$. .)  ._ v 9 / / 9 +.+.j ! ! Q ! Q ^ / ^ ! j j $ # 8 8 $ $ # $ o.<Xo.%.$ $ 8 7 j E o.$ + Q ) x z 6 j z b ) ;XVXBXVXJXHXHX",
" .-X{ c c G O.k o o g ( +.tXtX@.%XE Q o.%.o.*.-X<XO.` o.%.@.-X@.o.{ @ n qXNXMXhXsX,XpXMX4XO.~ P x.v.|.{ ^ U }.'.e f.d.V.C.3.4 h ) ~ 3 s.L.S.F.A.;.u.t.R.+Xb.m.R.M.C.V.N.M.M.g.V.d.j.n.i.Z n.Z C S l D i.<.p.c.Y.x.'.'.oXoX}.R.+XR.Z.`.`.s.1.M.G.B.S.S.N.a G S f.Z.J.L.L.Z.V.V.Z '.L C S y.j.n.Z.g.d.C.V.C.Y.T.Z.W.C.B.V.p.5 p.R.R.n.v.K Y l 6 j 6 6 E c x # h ^ Q o.o.+.#X$.$.) o.#X@.j % $ ) @.kXpXpXfXHXHXNXyXrXQ + l l 3 3 3 W x ^ $.z k #X.XX./ { >X%XO..XO.O.+.O.' U '.[ O.` #X.X%XQ { o.Q ` %.j ! @ E $.o.! _ %X%X$X_ ^ ` +.%.+.} .X..} ^ j ) o.6 3XhXjX6XaXHXsXiXNX_ y.'.' }.[ h # k k $ $ @ 2 j # 4 p.<.V.1.y a l +.#X_  X_ b x 6 x.C.-.4.7.G.G.N.6.4.C.M.8.M.N.N.A.7.4.M.A.B.-.>.N.-.;.M.d.d.c.j.w./.D.P.E.L.R.E.C.F.).Z.C.J.C.C.B.F.M.N.F.W.m.$XoXc.T.U.N.N.A.F.W.A.N.A.B.N.A.A.N.-.q.N.N.N.0.M.;.7.N.>.-.-.B.E.(.)./.S.B.A.A.0.A.N.N.;.d.N.N.F.C.>.q.S.g.H .XBXiXrXyXaXzXmXHXhX5X-Xk 2 2 3 $ + E b k +.O._ H ' } ~ / ~ } ] c ! j E ! ! ! ! ! E j ! $ @ $ $ + @ 8 Q %XjXlX$.{ @ 7 ! j %.lX8 6 j E E j ) x { o.# ] MXzXHXGXkX6X",
"o.{ x ( +.H v 1 . 3 v J ..-X%.<XtXE ! o.o.&.$.iX%X{ ( $.$.$.$.Q ) $.$ # 6XNXnXfXgX,XfXNXsX@.G A C C b.v.p.v.oXY.s.2.t s.q.h.K L x.u.i 4.M.q.-.=.4 9 j.J.Y.n.F.F.M.D.W.S.A.H.c.V.s.k.V.j.C.n.u.f.p C 5.s.Z.d.Z.f.v.].+XY.~.&XY.Y.R.Y.L.).(./.A.8.d.M.q.q.u D 4 9 j.S.G.G.P.D.d.Z Y i.x.4 f.M.N.N.2.g.S.C.V.U.V.N.t.y.h.J.j.n.C.k.Y.Y.p.K v.2 9 7 c v W ) v v c H E Q Q ) ) ) Q ) Q b _ x h 6  .@.nXvXgXnXHXJXHX5X:X+ X ^ c 2 3 x v +. .@.+.+.#XO.+._ ~ -X%X+.O.+.( +.#X_ }.}./ } ] _ O.{ %.{ ] { ) O.o.{ o.&.! ! %.^ _ %X%XO.~ J / } +.O.} / _ ^ { ) E j 6XkXjXpXmXNXjX5X,X3 Y D k # $ # 3 k c j h k j @ @ y.u.s.=.:.F.E.p # _ $X#XW 6 # 5 1.Z.;.>.>.E.{.M.6.6.Z.N.N.M.M.M.F.N.d.F.N.-.S.B.B.-.:.q.4.4.Z.q.,.w.A.G.E.I.L.B.F.P.P.C.d.Z.U.Z.-.;.M.N.N.N.C.|.} {.W.E.N.B.A.A.F.N.N.N.N.N.7.A.>.Z.4.4.B.C.=.N.D.N.N.>.;.Z.6.N.A.A.A.F.N.A.7.N.q.A.>.T.+XN.N.M.M.>.F.W.N.n.X.BXjXsXzXaX7XvXBXnX .) _ J ' / 3 6 j 3 ~ E J H [ [ [ ' | ` ~ [ } E ! j j j ! z j E E j j 3 j # X E lX! %.lX<X$.o.j 8 $.Q lXlXQ $.! 8 { o.jX%.j %X# .XzXHXHXfXjX<X",
"W  .O.x I O.+.@ 1 v ] _ } ] %.o.@.^ W o.&.! :X$XO.O.O.@.+.+.-X%.o.o.$ O ;XBXfXpXsX5XgXNXvX.XK K l y.Z.C.Z.g.f.d.N.4., 4.A.t.s C.C.M.B.M.;.<.r k  X'.V.E.R.M.B.Z.c.M.B.N.N.V.j.f.p.d.4.Z.M.s.r.Z g.Z.L.Z.M.j.B.r.y.E.C.M.P.L.E.(.(.).(.D.`.`.P.J.F.C.8.Z.2.v.U v.p M.D.P.S.G.S.s.n.V.F.C.F.A.B.M.y.h.N.Z.C.u.x.d.1.V.P.B.J.T.+Xs.j.E.b.b.P 2 P e J l U J U Y J 9 E ) W ^ h ) Q E W z k ...X#Xo.@.nXfXpXhXSXJXJXsX,Xj 2 ( ( k 3 _ c ^ _ ` _ O._ ( ` _  X/ O.o.^ O.( ] ' ] Y [ ^ +.} ` ` %.{ } ` W { { %.&.o.) E  .$.O.o.^ tX%X%X/ +._ / .XO./ ` z ~ Q $ j sXhXsX6XVXNXiXkX-X# 6 l 8 @ @ 8 z ` ` x 6 6 $ # D T.j.4.:.< T.J.=.0 E ) j 9 4 Z x.y.g.4.B.M.3.4.6.-.;.-.N.B.N.M.R.N.B.V.4.=.: -.-.M.>.>.4.=.d.M.S.D.0.N.M.M.G.C.8.P.S.S.P.C.V.V.M.d.4.6.M.V.U.A.G.R.R.{.W.C.M.N.N.0.7.0.0.A.N.M.-.N.+Xm.c.-.;.=.>.w.G.A.,.N.R.f.-.>.>.A.-.;.,.w.>.>.,.>.Z.V.6.7.-.N.>.N.F.P.j. XjXjX5XaX0X6XpXfXAX) ^ ` k Q z k x j 2 J  X_ D J ' } ~ } ] _ _ / F E j j ! j j E c ~ W 8 3 E ) # E ) { &.E lXQ %.j } jX$.kXlX%.$.! %.tX%.lX$.) o.$ 3XHXNXsXnXhX-X",
"_ @.@.{ ( ..] ^ X.+...] } _ ] W @.W  .<XtXO... Xl v ^ +.@.o.$.%.o.^ 8 # :XkXjXpXsXrXpXBXnX:XP x.p V.Z.V.Z.M.B.N.M.7.M.M.g.<.s.F.F.S.M.3.1.m.U K {.R.T.T.V.A.S.C.c.Y.E.C.F.V.p.v.'.c.M.M.d.;.p i x.j.B.C.V.C.F.s.Z.C.y B.P.P.P.).E.P.(.(.`.=X*X`.G.G.I.q.S.J.+XR.D w i <.1.s.d.=.s.h.N.S.M.>.M.B.S.B.F.B.q.V.h.F.w.0.N.N.P.L.E.J.P.E.b.x.b.x.y.y.x.e D H S L P 9 # z x h h E x E x h j +.;X5X-X@.gXBXpXsXHXJXSXdX#XE ` / G v W { / ' .X$X+.` .X X XO.@..X{ W +..._ ' [ }.}.[ ' $X] ] _ O.%X#X^ F [ o.o.Q %.o.Q O.#X%.{ O.} O.%.^ ~ ~ O.$._ / J ~ 2 7 x n 6XBXjX;XNXNXsXhX,Xh $ 6 2 j 6 j ^ W j 6 6 # # S c.j.R.d.P.N.d.N./.C.D 9 a c.n.R.L > 4.=.q.q.3.-.7.>.C.V.>.C.>.M.+XA.N.d.4.d.M.N.F.N.;.i g.-.F.B.N.N.N.A.F.F.D.G.F.G.F.N.S.S.Z.Z.C.Z.N.M.C.U.n.F./.S.C.OXZ.N.C.N.N.>.M.N.N.N.F.U.C.F.S.V.n.1.4.q.N.A.0.w.D.W.C.T.~.F.A.A.0.>.,.,.>.-.>.>.>.6.7.>.-.>.>.-.M.W.i..XBXBXzXaX5X2XfXMXBX@.W G 9 2 j j $ j z e U G S D F ' / | ' } | D F F W j E ! j } } z ) 6 # 9 E 6 E + ! ! E %.$ $ E %.jXlXlXlXlX<Xj %XDXDXtXuXJXlX6 :XnXNX5XMXBX4X",
"_ I ) o.( +.+.X.<X+.( ..%X` O.` o.` / ,XAX] X.O.2 5 ( o.#X$.#Xo.@.+.` 6 2XjXfXgXpXiXpXMXBX>X9 s g.f.g.C.Y.M.A.A.d.4.-.;.d.g.Z.M.N.A.B.V.M.Z.C.W.M.j.f.N.q.0.N.L.V.x.Y.).).F.J.c.c.C.Z.q.M.M.s.f.V.F.C.r.a U.u.L E.E.L V.E.E.F.).E.C.P.D.D.D.P.(.S.A.(.q.N.F.-.R.p.m.F z 7 v x.y.y.x.V.M.>.>.-.q.A.M.d.1.8.>.-.N.d.E.M.S.P.P.G.S.C.C.C.s.V.s.t p c.x.c.y.e L Y.x.j ` [ x h j o.j j E _ ;XfXpX>X>XyXnXrXkXNXHXAXjX$.j c v c k ` %.z #X#X.X.X+.$.o.#XO...$.#XO.O.X...] '.[  XO./ ' ] ` (  X) ` c  X[ ^ ) o.$.Q %.%X%X%.~ ^ E c ~ +.+.] ~ { O.} ] ` 9 W ! j 4XAXvX6XHXNXjXnXfX! X 3 3 h 6 # j G 4 P x.A A R.k.V.f.k.q.N.>.-.P.V.f.V.Z.W.J.Y.q o =.d.B.-.=.;.d.0.L.C.>.M.q.N.0.A.B.M.M.;.N.A.M.>.f.Y.p.-.G.q.q.q.N.q.N.G.G.(.F.C.B.B.E.W.N.N.Z.B.A.N.V.C.V.F.M.M.E.E.F.N.F.A.N.7.>.N.A.7.C.=.;.N.G.A.N.f.L t.=XS.7.D.w.>.0.L.+XS.A.w.D.0.,.w.>.<.>.>.>.>.>.>.>.>.d.1.d.N.t  XBXBXNXzX,X<XnXNX,Xo.O.| %X2 $ 6 # $ c e 5 J G J 4 4 G } ] ~ G H K H ~ v E j J } ^ E { 8 7 8 . 8 7 E $ + { j   @ %.Q %.$.8 { lXlX%.$.DXIXIXIXIXkXQ #XBXnXvXSXHXrX",
"` O.+.c +.#XO.O.<X+.O.+.-X#XO.%Xj x ] >X#X2  Xc # J o.Q o.%.-X$.-X@.o.c ;XhXhXfXfXfXpXnXvX#Xv C p <.g.s.;.q.A.N.Z.6.>.-.B.C.N.M.C.0.M.N.F.N.F.S.N.C.U.M.M.d.M.N.Z.c.R.P.).P.M.d.M.M.M.M.M.M.d.C.0.A.=.y.f.+X{.T.P.L.OXOXP.E.E.F.W.Y.L.D.(./.0.A.D.A.B.: =.-.;.E.J.W.p.' ~ Y c.j.M L M.q.-.q.q.q.g.g.s.D Z ,.4.0 5 R.M.Z.M.B.G.F.N.N.S.M.q.4.s.2.u.p x.Y.y.p U.c.v b ^ 2 # b W # h X.-X4XnX>X-XsXhXhXsXnXAXJXAXsX#X^ o x +.k Q +.c _ #X#X#X$X<X+.+. X_ ` .X.X] +.` 9 }.' ` +.+.' ~ ) ` ` ) ^ ^ X.I ] ] ! Q E $.$.lX%X%X^ v l v ~ _  X~ G O.X./ c W j ) x >XHXsX6XVXAXkXsXAX) X h # $ 7 4 g {.m.R.E.L.J.n.u.Z.s.;.-.=.B.q.V.F.K.F.Z.C.V.F.C.t 3.-.M.6.-.;.=.=.;.>.0.N.>.0.N.A.M.;.8.>.0.A.N.N.S.S.C.M.N.N.q.q.N.=.d.D.L.w.S.N.F.S.E.L.B.q.N.F.B.q.B.A.C.T.Z.J.E.W.C.N.7.7.w.N.N.M.N.A.N.: <.C.A.A.A.g.v.u.+XZ.,.A.w.0.A.0.,.>.>.;.;.0.,.>.,.1.=.>.>.N.7.>.>.0.N.4.M.J.<.XXMXBXNXvX6X:XhXNX<XO.] %X<X2 9 j $ E / 4 4 H G 0 4 9 ~ / | / | F D H | J ~ _ ~ } / _ c 3 z o @ 3 o 3 @ 9 E # 8 # j ! %.$.<X%XlXlXlXlXlXlXJXDXDXlX! +.bXfXnXHXGX,X",
"b ( ( ` #X%X<XjXlX$..X%X .%.$.>X)  X/ I $X` v X - G W ) o. .@.#X<XtX%X_ 2XNXhXjXgX5X5XfXzX$Xz 9 e Y.W.N.N.D.F.>.M.6.d.C.F.V.d.s.M.N.S.N.M.S.A.N.q.q.V.j.h.j.Z.B.P.L.E.).W.F.F.N.N.F.M.d.M.8.1.A.D.M.q.Z.F.T.E.C.F.j.oXm.R.b.f.y.Y.J.E.).r.u.).G.G.A.0.=.; =.;.V.F.q.q.W.C.Z.C.N.P L F.B.>.N.N.B.V.S.A.d.d.A.C.p t M.M.N.S.P.G.;.C.D.N.F.N.M.Z.g.s.2.u.h.c.f.j.c.e v h z h ^ h + c X.4X4X7XrX$.pXBXBXpXnXHXHXSXkX,Xx x 6  ._ _ +.` .X$X.X>X.X` O.:X XO.O.` _ ( O.( ] ( / H @.%.O.~ I / _ _ ` ' .XO.G O.{ Q ` _ %.<X<X%X{ _ +.+._ O.~  Xo.W [ ~ [ o.6 ( j >XJXhXsXAXAXBXhXkX{ + 7 # 9 b.R.m.Y.U.V.d.d.V.m.g.M.>.B.A.:.q.A.N.P.L.L.P.C.d.(.).M.d.-.4.4.;.:.: < 1.j.>.,.w.;.:.B.N.0.>.=.: N.F.L.0.N.=.d.N.N.q.M.-.;.-.F.F.A.G.P.B.C.B.B.S.q.N.B.N.N.M.N.N.V.V.R.OXZ.F.>.4.N.,.N.A.,.A.A.>.M.J.-.M.B.S.B.j.Z.+XM.,.,.w.>.-.-.,.,.,.N.;.g.M.>.,.,.-.-.q.>.w.>.A.B.>.w.0.V.w :XAXnXBX5XrX3XzXBXsX-X2 O.%X9 l E 6 { } H U 2 k S l l S G | ' H F e e F ] / } c { ` ` O.~ { z 7 3 @ # @ { ) 7 7 z %.` E ! { &.%.<X%XlXDXjXDX$.lX{ 7 #XnXNXpXNXMX6X",
" .^ b ` .XlX@.tXuXuX>XuX%.Q Q Q ..}...#X>X4XE # G ` ^ .._ ..O.@.-X<X$.o.6XBXhXsXpX5XaXnXMXrXz @ 2 ].U.A.S.P.W.N.N.>.N.M.;.s.Z w ;.M.Z.M.M.-.0.N.q.M.B.j.p.j.W.B.;.s.B.F.F.C.Z.V.Z.B.F.M.N.-.8.0.q.q.w.w.G.P.C.u.J.J.R.R.m.K E.).E.P./.(.t.Z S.A.P.D.P.G.:.;.s.S.q.i ;.q.C.d.4.-.j.c.4.0.A.q.A.D.w.D.0.D.A.0.D.D.F.d.=.B.N.S.0.=.B.P.C.0.M.M.C.g.;.u.p s.U.h.y.v.y.b.l W  .o.j n  ..X4X;X:X#X) pXMXMXgXBXHXNXnXsX#Xx 6 # k h 3 +. X6X#X+.@..Xc #X$XX.] O...X.X.+.` o.^ ` ] .._ ( ..` ( ' c ] .X$.O.` #Xo._ +.} %.` W `  X X$X$X] / ` O.%.#XO._ } { j E 2 :XHXkXsXMXBXBXBXsXj # 6 3 c.R.R.H.B.L.B.M.M.C.V.-.>.-.M.N.= =./.F.P.P.L.L.C.M.W.B.;.f.;.-.-.>.>.>.;., f.-.>.0.>.-.M.M.A.>.=.:.6.A.g.:.=.& i N.B.q.B.N.>.N.M.-.d.N.Z.Z.d.Z.Z.Z.N.-.>.N.g.V.M.M.V.C.R.{.N.M.M.N.N.N.,.w./.D.A.-.N.A.>.0.A.F.N.A.N.T.6.>.>.>.6.M.>.>.0.B.>.s.b.s.>.-.,.>.M.-.-.w.0.>.w.0.0.A.C.0 6XSXMXBXpXpX5XnXnXjX-X2 ~ $.~ l # E %.| P H c 7 v H J S S | ' D e m D D H ] ] J & E o.$.$.o.8 Q z @ o . 3 ! # . %.lX%.o.{ &.# <XlX<X%.DXIXjXlX%.lXo.' fXBXMXcXfX6X",
" ._ _ G / x jX%XtXjX@.tX%XO  .#X^ _ } o.$.^ 6 c } ' ^ ( O.} / @.$.Q Q @.:XnXhXsXpX6XqXnXhX5X+.O.E s 4.M.B.B.M.N.N.6.N.M.Z U J 6 p N.V.F.F.N.0.N.A.S.B.B.M.-.M.N.6.t.C.A.N.N.s.p.M.Y.C.0.w.D.0.w.q.A.w.w.G.P.P.U.n.C.J.T.Y.m.W.(.G.B.F.D.P.C.D.P.P.(./.G.A.q.Z.;.-.p.2.d.g.M.y.1.V.n.M.q.N.A.,.w.^.w.D.w.,.0.S.M.d.s.c.4.;., A././.F.F.S.C.M.Z.Z.d.d.u.u.c.c.Y.j.n.S 4 4 k x j b .X;X;X:X$XoXo.4XnXNXpXfXNXAXBXsX,X^ @ k c 7 2 ^ ` #X:X#X+.%X#X+. XO..... X..( O.O.) _ ] ] / ] ] _ ` +.G H g k I _ ` W W v ) o.W { E } +.%X+.O.} ' / G ^ ` ^ _ W ! 6 z 6 :XJXBXfXVXNXBXhXrXn + # 9 n.U.1.4.F.M.N.M.C.V.d.: -.V.s.=.: M.A.G.P.(.E.N.Z.C.d.-.;.1.;.;.4.=.6.4.-.;.;.A.;.;.>.-.-.>.N.N.U.d.-.N.;.a <.< =.N.>.N.q.q.w.G.N.>.q.d.T.-.3.V.U.8.6.M.-.t.x.C.C.M.M.E.R.J.C.N.q.S.B.M.,.A.A.>.:.>.F.F.M.w.D.S.A.>.w.>.>.N.6.>.7.6.7.>.>.C.>.U.].v.t.-.>.-.-.M.V.N.w.S.0.7.q.A.4.e MXnXnXvX3XpX4XhXhXBX>Xx J  X} ` 9 +.%.G e H H K l F H J g 4 D C e S D D U [ F | $X%X{ ` >XE ^ # 3 8 3 9 E { # 1 o.lXjX%.$.Q E { %X%XlXlX$.$.lX&.Q + / 0XpXBXpXqX,X",
"o.` / G O.O.tX%X#.tX%X+.#X+.+.#Xl 5 J k U 9 n ^ ] X.^ +.#X+._ #X) $ ) @.2XMXvXfXfXpX5XgXMX6X$.-X{ J s.d.4.=.1.1.4.q.A.C.R.'.c j C Z.Z.4.<.<.<.4.N.!.B.>.w.>.>.>.>.q.0.N.0.0.-.u.d.j.F.A.0.0.w.w.q.N.w.w.D./.P.P.Z.k.C.P.L.E.P.(.S.M.S.G.P.S.(.A.S.(.P.J.M.>.>.>.-.-.;.8.8.U.Z.1.<.M.B.S.S.0.D./._././.A.>.0.w.q.4.-.J.Z.-.=.M.D.0.M.N.N.F.3.1.Z.C.N.f.y.h.u.C.V.n.P 9 2 J c v  .#X:X2X:X&X'..X5XMXNXhXBXSXAXBXsX,XO.o @ 8 ^ W ` :X$X#X#X$.+.#X:X#X.X X+.+.O.` ^ ..+.] _ ( _ I I H _ 2 c O.E k I O.} ~ c 3 3 O.o.` O.} %X$._ / ' O.] +.G ~ _ o.) ! + k h ,XJXfXpXSXAXBXjXsXx + # # x.g.=.-.A.M.B.M.M.M.N.: : -.=.d.C.B.N.D.B.P.L.C.M.d.=.;.<.s f.s.; . 4.:.;.>.-.-.-.:.>.>.0.q.0.A.A.-.=.:.=.y.].M.;.M.N.B.*X>.N.V.A.w.S.B.V.;.d.3.d.d.d.M.-.f.f.d.g.k.Z.C.F.W.A.M.N.D.A.N.M.d.C.>.: A.S.Z.N.0.A.F.A.A.w.,.>.N.>.>.7.>.7.N.>.>.N.g.].Y a =.q.q.A.A.V.-.0.A.w.A.B.0.;.K NXNXnXMX5XrXyXgXhXSXtXx 9 ] } ] } / } F 4 P Y Y 4 4 4 J 2 e K D F S e e U ' e H %.O.$.Q ` ` E z 7 E { o.Q ) 6 o E $.jXUX&.Q Q { o.{ lX$.uXlX&.%.$.X ~ sXnXjXqXqX6X",
"E v  .O.@.$X^ ` / #X<X$X%X%X` 5 3 3 3 v ..c 6 x _ +._ @.@.#X$.#XE # n  .6XMXfXpXpX5X6XfXnXyXO.o.` ] c.f.a a p Z f.>.N.C.J.U.c.C y.u.1.1.a Z 5.i s.Z.M.A.>.0.>.-.>.s.d.q.M.Z.g.M.s.f.S.q.>.q.A.w.0.6.N.w.q.Z.d.Z.k.P.(._./.A././.G.P.(.).(./.(.N.D.`.).S.F.D.D.G.6.;.4.N.A.4.>.N.4.M.N.S.D.D././././.D.^.^.w.G.(.G.A.0.N.N.V.>.A.A.B.A.M.M.=.<.>.N.Z.M.d.t.s.Z.Z.R.f.p.b.v.K ' +..XXX1XXX}.'..XiXBXjXpXnXHXHXNXkX>XQ @ o O ( O.@.:X@.$X$.O.#X#X.X+..XO.O._ ] +.O.( X..._ _ ] ..` J G k 2 c ` ~ / / ` I / J J ] O.^ { O.O.O.#XO.] c ~ +.O._ {  .{ ) 8 ` k 5XHXfXpXHXBXBXBX4X) z 7 # a f.f.T.W.C.N.q.M.N.6.q.;.;.-.;.M.q.-.N.M.F.M.V.s * r * o o & 2.;.=.;.;.-.4.;.;.C.C.>.>.>.>.>.>.-.: * ; < 5 H C.>.N.F.Z.L.q.C.Z.N.N.C.M.C.F.M.F.Z.8.Z.R.-.Z.Z.Z.V.V.d.Z.P.S.>.>.7.0.S.d.* & ; =.* <.0.>.,.A.A.A.F.A.A.w.>.>.-.0.6.>.>.w.>.>.,.V.OX|.'.1.>.0.A.w.>.-.>.>.q.N.>.N.;.Y NXVXNXnXrX>X6XpXNXAXiXW &  X#X X+.[ U H | H Y L J e e J l S Z D F 4 4 D e e D S l } { E Q E c } { z Q E 8 # # E E E jXlXE ` %.%.lXDXjXUX%X$.%XIXlXX ^ aXnXhXpXgXrX",
"b ` +.%X+.:X{ <XlX$. .$.$X+./ S I o . # b x 6 k c E ) O.@.@.-X .x $ h  .qXnXhXsXiX5X5XgXzXsX_ Y n.T.C.U.b.c.V.E.F.-.N.C.V.g.P.J.f.f.c.Z.N.f.f.V <.=.d.s.1.-.M.q.M.d.f.8.i.c.A.A.V.V.Z.d.N.0.A.w.0.M.>.D.P.F.Z.T.c.P./.D././.G./.(.P.(.`.`.).P.P.).`.`.(.(.).(.G.M.-.M.N.>.;.M.N.6.6.A.G.G.D.A.D././.D.w.e.G.D.A.S.D./.D.G.A.A.A.G.G.0.R.V.;.M.>.B.C.Z.d.s.s.j.C.Z.g.J.R.R.].'.}.&XXXX.H p.m.$XpXBXhXiXBXBXHXAXhXrXQ X 3 l ( o.O.#X-X#X$..X$X X#X+.X.] +...( +.+.` ` ( ] O.] ..] / c ^ x ] ~ ] ( ] ^ ] } } O.+.` %X} ` ^ O._ ] +./ J G } _ +._ O.Q j W  .6XHXdXhXNXBXjXkXrX) @ # 3 0 f.1.=X=XC.A.q.-.q.-.A.;.>.M.:.-.8.M.B.F.M.M., X + @ 1 % X X & M.A.-.8.>.;.< -.q.N.;.-.>.=.-.>.=.: * * * + 1 V.F.M.B.>.>.>.0.,.A.>.M.M.N.6.M.N.7.q.q.;.4.c.f.M.N.M.j.j.J.V.M.N.N.S.G.g.3 2 @ 2 @ i >.,.0.N.-.>.A.N.G.w.w.>.>.>.M.6.>.w.0.>.q.N.B.W.T.6.>.>.0.A.A.>.>.0.w.N.7.-.;  XNXfXsXdXpX6X6XyXMXBX,Xx 5 } ] } +.%X+.} P C L A Y D e ~ G S M P e w w m D 4 5 S J ` o.E z z 7 $.%X&.{ %.j z 8 Q lXo.! $.&.o.E %XlXJXIXUXE E lXlXQ 6 W yXMXNXqX4X6X",
"` ) ` ] ..uX%. .%X%X%.^ +._ 4 [ O.9 9 3 v 6 k K ^ h x ) o.@.#XQ 8 $ Q ) 5XBXfXgXgXgXpXgXnXrX[ U.g.k.C.C.E.F.).P.G.A.M.Z.F.C.P.F.T.V.V.B.A.N.Z.d.t.4 5 w d.w.q.q.d.3.V H.d.C.B.N.C.j.h.Z.>.N.7.q.q.q.A.A.-.E.E.C.J.(.A.A./.(.A.w.(./.(.`.(.P.S.).`.).).(.P.F.G.G.q.C.6.A.M.3.;.N.M.M.A.D.D.G.G.w./.(././.G.A.G.S.G.P.D.A.D.A.0.N.A.0.M.f.4.>.d.-.M.M.s.Z.d.-.f.V.B.W.W.{.+XOXv.|.XXXX'.C h.m.-XpXnXnXdXnXAXHXNXkX<Xo.3 2 c k  .` .X#X<Xo.+.-X#X#X+. X.X@.O.] ^ `  XO.] _ / } ^ G J k k 9 k 2 ^ ^ ^ O.^ l ^ +.@.` @.` ' } _ S X./ g D J ] ] } } ^ ) $ h x yXJXsXpXAXBXjXhXsX6 @ J H 0 p u.t.C.B.,.N.;., Z.N.=.: ;.M.>.;.-.G.B.V.B.i X X + X + X % % * 4.-.3.d.< ; ;.;.-.;.>.A.Z.=., C ; & o @ 4 5 q B.;.-.-.-.4.>.6.N.B.-.;.-.M.M.Z.M.M.g.1.-.u.f.g.V.d.h.v.m.-.M.M.M.M.M.k.Z M r e a M.>.>.-.;.:.>.7.A.A.A.w.0.S.>.7.>.>.0.0.>.M.C.N.D.A.>.>.-.0.A.A.N.,.,.w.B.N.=.o $XHXvXfXgX7X7XpXpXnXBX-Xh 9 5 ~ / } }  X+.J a x.A M e e F e S 5 q C P K e S e e 4 | ~ } %X) E E Q $.<Xo.) j o.E E lX<X! Q ! %.$.lXlXuXDXlX6 7 o.! # ! c 3XNXBXpX5X4X",
"^ b _ G 3 v .XO.%.%.%Xo.+.W @ G k c x c c # J ' ^ 9 b ) .X#XQ E $ X Q #XpXnXkXfXnXsX5XfXfXrX[ U.s.s.Z.Z.V.C.P.P.F.S.M.M.P.F.F.N.M.Z.Z.F.B.B.B.M.f.D 9 L W.M.-.s.f.N.B.C.D.D.A.P.B.t.t.<.-.4.>.>.N.N.0.N.M.m.V.M.j.F.N.w.G.A.N.S.G./.).).(.A.D.P._.).(.(.P.B.G.G.N.;.=.0.d.e 5 d.N.d.M.D.D./.D.D.A././.(./.P.).).S.F.w.D.A.A.A.A.w.M.d.s.;.;.;.>.-.-.4.M.M.N.s.C.C.F.E.+X@X@Xm.m.}.[ ].x.c.l @.nXBXBXgXnXSXHXSXsX+.%.8 k ^ ^ ..} $X%X+.$.<X$X#X+.#X@...+.( / O.+.%X( ( / G ^ _ ^ l 9 G +.~ / c 2 [ ] G l l G ( +.` ] ' _ 4 }.[ J [ oX' ~ G / _ ^ z k 6 # sXHXiXrXAXAXhXhX6Xh G v.a r q 0 : ;.>.0.>.;.: : ;.-.=.< ;.N.M.>.-.s.Z.F.1.@ 6 $ 5 . % X % o 1.q.s.<.: ; 4.:.;.;.:.: ;., a 3 ; * * + W 2 X t t y -.d.M.d.;.q.M.A.>.T.-.-.M.Z.6.4.u.s.>.V.d.Z.Z.d.b.v.n.-.d.-.g.d.q.f.r =.N.M.8.6.>.-.>.-.>.q.6.F.A.A.7.F.A.0.>.q.>.,.7.F.{.B.G.N.A.N.>.0.A.A.w.0.>.6.>.q.t @ 3XHXnXNXpX5X;X;XpXhXAX-Xh 9 9 / } } H [ U D Y L A K K e q M D D w Z L D e D D J 9 9 } } %XQ 6 k ~ j j { ^ 3 $ $ 6 E ) ! ) o.jXjXlXIXlXjXlXj z o.{ ` X 7 8XvXnXpX5X5X",
"( ^ G ( G v _ O.o.$.<X X( O.Q G k k c ^ 2 3 H H G v x ^ O.@.+.! + + *.-XfXNXhXfXvXfXfXjXpXyXW x.v.c.F.F.F.F.W.G.G.7.q.F.F.G.B.M.>.8.Z.N.M.M.M.M.d.p.[ x.s.1.N.B.M.q.q.N.A.D.A.B.F.d.1.& 1 0 3.N.S.B.C.6.d.Z.Z.q.s.Z.D.D.A.S.N.A.(.(./.(.A.-.P.(.(.).).P.S.F.P.A.>.>.w.=.& o 6 a t.s.V.D.G.G.G.A.>././.D.(.E.P.(./.P.)./.0.P.G.G.B.C.B.q.>.>.>.>.-.;.4.8.s.M.g.C.Z.F.!.+X=X9X@XOXOXb.P c.x.v .XnXNXfXfXnXNXHXAXsX$.6 # 2 2 x ) XX#X.X+.+.O.$X#X#X.X$.O.+._ +.` { +.v _ / G g I c l v 1 I ` c ~ l I I / ` / v c } { %X} / }. X_  XO. X XH ~ J ` } v k ` +.hXAXrXsXAXBXnXfX6Xx e g.f.=.1.0 r ;.;.-.;.;.;.:.;.S.M.g.=.:.=.q.M.=.d.J.4.r W ^ '.c.* * @ X 2.3.;.;.4.7.=.t =.: =.:.t.j.w e : 1.p @ j j + o s 4.:.>.0.V.c.f.-.0.F.Z.8.d.M.M.N.N.x.1.M.V.M.V.R.j.n.v.f.M.M.q.;.4.N.> ; N.N.;.q.-.>.>.7.>.A.F.C.B.A.w.0.w.,.>.w.q.N.N.G.N.N.A.F.w.M.>.>.A.N.>.A.q.>.>.N.N.=.4 yXHXhXMXhX;X4X,XsXMXHX-Xh @ ~ } / [ ' ' K e e D A v.M F ' ' C D P C L M M e 5 G J ~ ^ ~ Q &.E c %X) 3 E %XlXQ 8 @ 7 E 6 lXuXjXlXlXDXDXlXlXlX<X! { Q + v yXnXnXiX5X7X",
" ...` ..] #X{ %.%.! o.] ) %.) ] 9 k c 9 @ n H I _ c c  .! ) o.E j # b ,XfXnXjXgXfX5XpXpXpXdXo.] ' v.g.d.F.B.M.S.S.>.A.B.C.B.M.N.N.d.Z.N.N.N.B.M.M.u.Z f.s.f.q.B.q.-.d.B.A.S.S.A.B.M.y.1 + 1 <.q.D.0.B.N.M.S.P.(.P.G.D.S.A.D.F.G.(./.(.)././._.`._.).).(.G.P.G.6.,.,.< d y.].5 3 5 i.n./.w.A.F.0.-.D././.`.*XD././.A.(.S.0.D.G.P.F.C.N.,.A.N.>.-.;.=.3.;.;.N.M.Z.M.J.+X=X9X@X@X@XOXOXv.U.x._ ;XnXMXhXsXNXHXJXAXAX#Xj k G k o x @..X#X#X#X#X#X X%X{ c I ..+..X_ ^ ` ) ` ` / v G c _ ^ h k 9 k / G k G ..+.^ 2 ` ~ G ] ^ ' }.oX/ / ^ ] ' oX[ v k E v G <X#XnXHXrXpXAXkXBXnX$.J v.<.M.q.{.L 0 Z.>.;.:.-.-.>.-.1.* 0 q : :.=.C.V.=.-.M.4.S Q W ].m.P # @ e ; :.>.4.:.* X . @ r A.C.N.-.Z <.=.t 7 $ $ $ @ q V.M.-.d.V.m.&Xc.6.B.M.8.Z.Z.M.M.V.x.c.H.B.B.j.f.u.M.j.f.C.V.u.d., , i s.N.6.4.Z.N.>.-.>.N.A.q.N.N.N.-.F.w.A.w.w.N.A.N.A.A.A.S.A.A.>.N.N.0.A.>.-.-.>.>.A.N.8.K rXSXnXfXrX5XrX3XdXnXHX-Xx k 5 | ' H K U H m w N x.L e | [ [ [.H D P M e 5 5 e 9 c +.} { E Q E %Xo.j 8 # $ # +.%.+ @ z # $ lXjX%.! j Q ) %X$.%.8 o.o.h 2 dXMXhXgXgXpX",
"_ ` ] / ^ ^ j j ! + h <XlXQ @.+.c l l 3 @ n G ( O.( ) E x _ ^ W E 6 o.iXnXnXfXpXpX5XrX5X5XfX#X' Y.F.g.V.B.S.8.M.N.N.B.q.B.d.Z.A.M.N.S.A.A.N.C.N.M.d.V.Z.<.s.d.M.M.M.M.A.A.S.D.D.A.-.s.Z 9 w W.4.-.0.G.D.q.;.N.A.A.G.A.N.A.G.F.P./.(.(.).`.(.(.`.).).).).P.D.G.A.0.;.Q.9XeX@XZ.V.n., s.S.G.S.q.0.w.(././.(.E.G./.G./.G.-.0.G.G.G.G.G.S.0.w.q.q.6.-.4.-.;.M.N.M.4.M.C.+X+X+X=X@Xv.'.].n.U.C  .6XBXNXBXrXfXHXJXNXHX>X$ x .X_ 1 ` #X#X@..X>X.X.X.X+.+.%._ _ ^ ` +./ H ] ` b ^ G ] 3 2 ^ c 2 4 v G c _ X.( I G / _ _ ^ c J oX X] ] / G | }.'.' G J G k W #X .nXAX6XsXAXAXBXkX+.c.R.=.1.4.f.w p f.; ; =.; * >.:.& X X % X q M.;.d.f.=.j.Z.u W ) oXA 1 $ + 1 2.g.s t r + 3 1 X 3 r 1.F.C.* d , ; # + 8 8 # 0 3.Z.;.=.=.Z.R.V.;.8.-.-.+XZ.N.C.M.>.+X&Xd.M.s.V.R.M.M.M.d.c.m.A s i s.=.3.Z.V.U.Z.>.>.q.>.>.>.-.M.>.-.A.q.>.-.w.A.M.N.A.N.N.F.F.F.B.-.q.0.>.7.N.>.>.q.0.N.1.F tXBXSXfX4XrXpX6XsXhXHX-Xh l 9 ~ ~ | U U K C Z C K K m H U ] ] D N N e 4 F H e / E c +.%.9 ~ ) ! j + + X . X lX$.@ . # ! E o.lX&.6 6 @ 6 $ E { $.^ %XE W 5XnXnXgXiXpX",
"b I / O.} ` E @ # + # ) %.c +.O.3 g 2 # 6 2 l v ( _ ` k  .O.) W x Q ! -XpXMXnXhXfXaXpXiXpXfX#Xj C j.J.V.N.(.A.-.S.S.A.L.P.S.S.G.F.A.A.D.D.A.M.>.8.C.C.d.<.s.M.N.M.N.A.N.A.D.D.D.A.B.F.C.2.;.S.3., i s.G.4.d.=.8.F.G.D.D.D.G.S.P.).(.).G.).P./.`.(.).).P.F.S.B.0.w.N.+X=X+XI.).(.).M.0.w.0.q.D./.G.(./.(./.D.w.w.G.P.q.0.0.D.w.D.D.F.A.0.N.0.0.N.N.-.;.;.;.>.M.;.-.E.+X+X!.+XU x 6 v ].Y.L ^ 4XBXBXfXsXfXHXHXHXHX,X$ ) #X` ~ @.X.#X#X+.$X#X<X.X] ^ O._ c G O.` G ' _ I +.o./ O.9 o 9 9 g J G v k I I c ( O.^ ..o.z k H  X] ` ] | ' D oX X' H J ' } O.{ ..VXkX4XyXMXAXhXhX&XZ.C.Z.=.<.-.d . . % % . % X 1.,.=.@ @ @ + 0 M.-.:., d.=.4.2.3 W oX].s X + + @ O o & @ X 9 S 2 4 o 2 0 o   . * : q 9 c E $ e i 1.Z.1.=.g.B.>.B.E.W.V.j.;.q.L.W.C.Z.|.p.>.;.M.T.M.N.N.s.g.c.x.{.U.Y.1.;.>.V.+XV.N.q.>.-.-.-.>.6.N.A.>.>.>.>.>.N.M.0.A.N.M.F.F.A.>.;.q.N.,.w.A.q.0.N.q.S.c.F 7XMXVXhXpXpXsX4XpXBXNX<XE l J J e F K P Y L L A A M D 9 S ' H e C C M U [ J 4 ~ E k k E E ` x X + + 3 # # { o.uX%.X @ jXlX%.n X . X X + @ 8 %.%.<Xo.{ z 3XMXfXgX5X5X",
"c  .+.O..._ z h 8 + 3 2 k / ' G 3 3 3 j 3 v v I ^ x G ` ) @.W j j o.Q @.qXgXgXiXpX0XpXpXfXfX#XE z a j.3.M.F.F.q.G.A./.(.P.(.F.F.S.A.A.D.G.B.M.M.B.Z.B.B.h.t.M.>.0.D.D.A.A.A.G.w.S.B.S.P./.A.>.>.y S i.A.A.F.;.;.F.F.G.(./.G.w.W.L.).).G.).P.P.)._.).).P.P.G.0.A.A.w.S.P.(.(.).D./.w.w.w.0.,.w.A.B.P.(./.q.A.0.S.q.M.-.C.0.A.D.A.F.E.0.w.N.N.B.M.N.>.-.>.8.=.Z.4.M.R.+X!.E.~.U z 8 2 c.J.e x 6XAXAXvXdXfXSXHXNXMXsXX c ^ v +.+...#X:X:X3X@.@.+. XX.] _ ../ / ^ +.] ` ` _ ^ ../ k k 5 I c H l } ^ g c G I ( O.` ^ l U U / ] ' X.O./ K '.'  X} H jX#X` { _ HXkX>XrXBXBXBXjX&XC.C.B.M.: =.Z.* X @ @ + + % r D.w.1.& X + @ t d.N.N.W.E.M.f.* o c '.5 X X         . . @ Z , t , y.0 . . : n.d   o 2 c x h 3 v 2 r 1.j.;.E.Z.q.M.E.T.=.J.+XV.V.U.1.v.c.M.s.<.B.B.C.s.u.c.].OXR.E.E.<.<.S.E.+XU.7.>.6.-.-.M.N.,.>.>.0.>.>.7.w.0.G.B.Z.q.7.6.>.N.>.M.N.0.0.>.>.>.>.0.N.q.m.J 5XMXVXiX4XpXsX5XrXnXHX6XE c ' 9 e e e v.Y Y L l.M D ' e ~ D H F D P M Y [ J l J l @ 3 3 # 3 # ! Q # # @ 8 $.lXjXDX&.# Q DXlX  . o X . o + X # $ tX<X%.# 3XNXfXfXiXrX",
" ..XO.v I ` ) ` E 3 l c k l l I v 3 6 2 3 v b [ ^ I I ` W ) Q j j j ) #X6XVXfXsXpX5XyXpXpXpX$.) { 9 r.V.N.F.N.B.D.A.D.W.P.).P.F.B.S.A.D.A.q.4.s.d.B.S.B.B.V.M.6.A.B.S.A.N.0.0.A.0.q.N.P.G.B.>.w.8.t.N./.(.B.N.A.F.8.B.(.(.(.A.-.P.).(.).).(.(.P./.B.-.:.Z.N.B.G.G./.(.(.(./.P.0.G.N.>.>.A.,.,.0.C.B.B.>.-.0.S.B.6.0.L.P.0.A.B.A.0.D.S.0.0.>.B.q.M.q.6.M.8.u.V.N.R.Y.J.!.*X+Xx.x.S 4 f.Z.e b aXAXBXhXyXMXAXMXBXBXMXj 3 n G ,X:X.X$X$X#X#X.X$X_ } _ ^ } ` c / ^ I / c ^ I ] .X` k J / ^ G ( ^ _ ` H O.k I / ] ^ X.G F '.J ^ _ _ E J [ '.| ' ' H #X^ G Q +.KXsX>X5XjXBXhXsX9XJ.B.B.q.4.: -.f.1 k e # $ + X y ;.N.* & s 1 ; Z.L.L.C.B.B.d.s.i 2 z 2 6 6 X o o & * x.2 Y s.<.3.f.; <.g.y.m.x.1 .   & S 6 0 C k 1 w V.-.d.V.;.-.;.;.q.E.T.Z.4.c.K C j.> * . d ; . o 0 y.R.Y.j.E.E.u., =.<.c.d.w.A.>.>.>.N.N.,.F.N.N.>.,.>.,.7.0.w.N.B.0.0.0.N.q.>.7.,.7.>.=.-.-.>.N.q.c.4 5XBXHXrXrXaXpX4XrXhXHX4Xh z J | / ' H | Y v.C D J 4 m ' ~ F J g m D q 5 U G 9 E 9 1 . . X @ # # @ X # + %.uXlXDXDXlX$   j #   . o o @ @ @ 8 { $.$.%.lX6 1XNXnXiX5X5X",
"b h  .~ k 6 j ^ ~ J ( ] 2 1 g g 1 O @ # k ^ b G c G k ^ ` o.Q x 6 j o.>XgXMXMXvXdX5X4XpXsXpX$.E W ) L V.M.M.6.N.G.A.G.F.P.W.(.A.M.D.D.D.S.N.d.].s.B.F.F.W.N.N.q.N.N.B.A.B.A.A.S.B.N.B.B.B.B.A.N.q.-.G.(.(.A.A.(.(.-.=.N.P._./.7.G.).(.)._.)._.(.G.;.;.;.:.N.P.A././.G.(.(.(.B.>.A.q.>.;.>.0.,.0.>.q.N.B.0.S.N.>.N.P.q.w.N.F.A.>.w.w.A.A.0.>.7.M.-.q.q.6.-.d.N.B.C.T.F.W.E.R.p.Y.n.x.s.j.5 b 5XNXMXvX5XnXNXNXSXAXSX{ k v O.+. X#X.X:X:X%X$X#X+.} G ] +...G ' ] G / O.v G +._ ` J / ..I I ^ G O.^ g ^ c I ] ' _ ' U ' v.L H ~ ^ v H ' U [ U J F X.] ^ ) .XJXjX>X5XjXkXsXjX9XC.B.M.M.4.f.: :.=.M '.# + + % . ; ;.=.:.-.;.;.>.M.M.;.>.F.B.T.Y.2 $ h j h j ] X.'.m.|.U F '.oX].d a j.v.4 Y @X|.oXm.x.C 3 r y.U v F n.q.=.t.<.8.3.3.M.C.C.V.C.c.L x.& ; {.2.* . * a A c.Y.f.n.{.H.C.3.=.;.d.N.w.D.>.>.M.-.>.q.0.7.>.0.w.,.A.w.0.P.P.0.0.N.q.q.q.>.N.>.>.N.Y., f.B.q.>.s.S yXVXSXpX6X3XpX;XrXvXSX4X^ ` l / ] | ' U Y Y A Y | 4 5 | G l 4 l J 4 e 4 4 ~ 5 { { o 1 k c 3 . . 1 z o . E $.%.<XlX$.# $ X . . o 3 z Q 8 8 E ! E $.lXlXE .XNXBXiX5X5X",
"^ @ b G 6 x Q z 2 v I H / l 3 2 1 # X O k k l k 3 2 2 b ) ..Q E j Q o.-XnXBXfXBXsX6X5XgXsXpX@.x ` { '.d.4.Z.S.G.G.A.G.P.(.N.(./.D.D./.G.0.A.F.OXf.M.C.S.S.G.A.>.A.N.B.S.A.q.N.q.F.A.M.S.A.q.D.N.G./.G.P./.A./.(.P.-.d.P.G.G.w.D.P.).).).(.).).).N.0./.,.>.S.0.F.G.w.>.>.;.:.-.A.M.-.,.N.>.>.0.0.N.A.S.G.D.F.S.C.D.D.>.0.F.M.0.0.0.>.S.N.0.0.>.8.6.>.N.N.N.>.7.N.L.P.W.S.W.T.n.Y.g.u.f.p.@  .6XMXnXrX6XfXNXAXHXAXSX` k l ^ .XX..X:X.X<X#X#X@.@.O./ _ ` ^ } ` _ / O.#X XO.v G ` ' ] O./ _ ( ] +.` J U / ] [ O.` +.I [ '.'.' / G ^ ' K K K [.~ _ ^ .X] W #XHXkX6XrXjXkXsXhXXXn.=.4.8.g.V.M.Z.>.V.e + + + X % 1 -.:.:.< : M.-.-.=.-.A.F.F.E.+Xm 6 6 E E j c x c k 6 c }.oX'. X X.XOX' C <.r.m.m v.+X'.W e Y / ' '.v.t.s.y.m.j.-.d.M.M.M.C.F.Z.u P r Y.R.{.m.OX9X@X&XOXR.n.OXp.1.d.3.d.M.Z.N.D.0.>.>.>.;.>.>.>.>.>.A.7.0.w.w.A.E.E.A.0.>.q.A.q.q.A.-.;.S.R.1 a ;.s.=.m._ dXHXnXsXvX6X4X,XsXMXJX,Xx _ S H [  X' P P Y i.L | F F D S 9 l / ] S S ' J 9 J } { { 9 ~ k 2 c c / $X..X E %X%Xo.%X<Xj # + X 9 $.<XlXQ { tXo.uXIXjXlX$.# $XVXnXhXpX5X",
"` I +.c 2 W c X.+.k ( ( .X2 o 3 3 1 o 3 c v J c k g l I @.@.) ! *.$ j -XBXBXjXsX6X4X4X0XgXgX$X` x ` Y.F.M.N.G.).).F.S.).)././.S.A./.D.q.q.,.N.B.Z.M.M.M.N.S.A.N.B.S.A.G.S.B.A.F.A.A.q.N.M.A.A.S.).).G.w.>.>./.).C.; =.P.W.P.F.-.=.N.).).A.(.).S.P.(./.D.>.;.>.G.G.D.w.q.:.;.-.C.M.B.S.B.q.>.>.>.>.0.w./.).G.A.D.P.w.0.0.C.0.E.L.0.0.A.A.j.M.q.>.-.>.7.w.w.A.N.N.F.).P.W.L.V.d.d.s.d.Z.u.h +.4XBXMXsX5XBXAXAXNXNXJX_ x ` h @.+. X.X.X#X.X X.XO.c _ _ ' I '  X#XO.3X+.` o.k I ^ ` ^ ` ( ^ c +.O. .] U X.I ..^ _ +.v / } / ] O.G l [ [ U ' H ` ` k _ +.W $XJXnX6X,XiXjXsXjX$XZ , 1.d.d.4.6.8.-.M.s.; & @ @ % o 4.q.>.;.>.8.;.=.:.6.q.6.B.B.V.Y.U 6 # h h 9 2 @ # # l m.b.U H H $ X.].; * 0 v.y.g OX@XJ L c.Y x.n.].Y.N.s.@XY.N.M.N.N.N.F.F.N.g.i.p R.u.R.Y |.|.v.n.{.R.+XeXOXZ d.8.j.s.C.N.,.0.;.-.-.-.>.,.0.>.N.7.>.7.q.w.>.L.E.0.A.Z.N.S.0.N.>.M.;.M.x.v D d.<.q K k xXHXAXnXiX5XdX>X5XnXJX-XO c S | [ } ' U P L Y L H S J F S e F ~ U D H } J l ~ c ^ { E %X^ v _ +..Xv c # 3 %.<X! ) +.$ @ + X E lXlXo.{ %XDXlXDXIXDX$.&.Q / VXhXkXiX5X",
"( I  .#X] ` ^ O.<X~ H ( ^ k v l 2 3 2 2 c b v c U k I ..` ) ! ! + + # @.gXBXhXiX5XyXyX5XpXnX:XW x ' R.E.W.W.W.F.F.G.G.).).).P.G.S.G.0.B.F.7.0.M.Z.W.B.N.A.M.-.N.N.N.G.G.S.S.F.F.B.A.S.B.M.F.S.P.G.(.F.S.N.>.N.q.;.y 8.M.q.P.;.;.-.-.0.P.G./.G.(.).(.G.N.-.>.N.A.A.D.w.q.P.M.;.-.>.>.B.M.A.:.;.w.G.0.w.G.D.S.S.D.F.A.A.A.0.0.F.N.L.6.>.q.8.-.N.0.N.M.N.A.A.>.>.>.D.P.F.F.L.Z.V.T.Z.Z.C.Z h  .5XNXnXnXjXpXNXnXSXNXHX%Xj (  X) ` ] .X$X_ ..$X.X] +._ } ] _ ] O._ / #X@.O.W ` J ~ ^ c 2 +.+.` I ( ) ` / .. X/ ^ .X] [ O.[ ` / _ G J ' U D F U / } k 9 ^ _  XJXjX6X5XiXjXrXsX$X& q C 1.d.d.4.=.d.M.Z.M.;.r # X X * -.-.6.>.:.=.M.V.B.M.F.N.N.N.C.n.x.S 3 2 5 9 D Z s x.c.'.}.P C U b.~., 1.C <.d.2.OX] ' D <.Z.g.m.b.u.-.Y.b.Z.B.N.N.N.M.C.F.N.d.u.c.Y.p.R.x.].Z f.V.n.d.+X9XeXv.j.d.4.d.T.W.>.0.A.d.-.>.q.0.0.C.N.>.>.>.N.w.>.L.E.>.B.T.Z.w.w.q.>.A.-.;.h.x.y.N.s.O & H xXAXMXgXpX7XpX5XyXNXJX,X@ 9 J J H  X[ '.K P L C D 5 4 P D D e 4 U H G ~ v v 7 9 9 @ 9 ~ ` E E { ! $ E E 7 { x # 2 h $ x h + X j j 8 <XDXIXIX%.{ %.%.Q o./ nXjXfXgX4X",
"^ G I ` c ` ( k h 2 I v o 6 2 g 2 3 o 2 x b k 2 v G I ^ W { ! E # @ + @.fXBXvXdXpX7X5XaXgXgX:X` ' [ E.I.E.E.F.q.N.F.).).).(.G.G.N.=.q.F.A.w.w.8.M.S.F.N.S.A.q.A.B.M.F./.B.N.A.F.B.Z.F.F.A.A.P.W.C.W.P.W.D.A.S.N.:.; =.-.S.B.>.N.d.: :.C./._.(.).(.).W.N.;.F.P.N.0.D.0.>.D.D.G.M.>.>.>.;.>.A.>.A.G.A.A.D.D.G.D.0.D.q.N.,.L.E.>.S.E.M.6.q.N.w.N.A.N.N.A.A.C.M.q.M.S.S.A.P.W.Z.N.E.Y.V.f.D j  .yXnXnX6X5XhXBXBXSXSXKX<X# k ( O.W ` O.:X@.X.$X_ z +.+._ _ ^ ..O.( / ~ ` O.c c k E c ] ~ I .X_ ^ ) 2 ^ ( G J G G J I ( ..^ ] ^ ^ I _ } H M H U /  Xv ^ j W 4XHXkX6X5X6XsXiX,X3Xx     O s 1.d.d.4.M.M.Z.M.3.* 1 @ X u <.; <.s.M.J.j.-.C.d.M.M.-.-.d.s.n.x.X.h 2 c.U.T.U.1.$X1Xv.Y ].x.].b.j.f.f.M.C.R.U k l t M.f.b.c.y ;.C.M.q.B.S.N.7.F.B.N.Z.d.c.OXH.J.+Xn.Y.f.s.U.U.8.d.OX9XR.-.B.6.d.U.C.C.N.7.N.>.N.>.0.M.-.q.;.=.=.;.M.0.F.G.w.N.B.F.0.0.A.A.A.A.q.Z.M.g.f.p.e C XXCXnXnXcXdX5XpX5XaXNXHXqX3 v 5 l S ] [ U C L v.L C M 4 e F H D F K D H ` ~ } ` { ~ 9 9 ` { %.{ { { ) ! j $ E E 8 # 6 # # 8 # 3 jX) %XDXDXIXDXlX%X%.DX<X@  XHXhXgXiX;X",
"%X>X%X` k b G ^ W 3 I G E 2 3 v v 1 X 2 l G G G c c v S .X%Xc j $ $ j .XcXSXvX0X5X7X0XaXfXfX>X[ m.].E.E.E.).N.0.(.(.(.(.).P.G.A.A.4.q.M.M.q.0.6.-.N.B.F.D.A.A.S.P.(.W.F.A.N.N.A.F.S.F.G.F.S.P.P.E.E.P.F.G.q.C.C.:.< -.N.F.C.N.* * f.-.K.).(.(.(.).P.0./.0.D.B.>.A.w.w.D.A.w.A.S.>.>.>.-.0.w.w.`.N.>.A.A.G.G.0.D.A.S.w.0.q.B.A.A.N.q.M.B.S.G.A.S.0.q.0.w.C.S.w.0.G.G.A.W.B.V.g.h.Y.j.b.2 # ( vXvXjX,X6XnXNXNXJXSXJXyXh h b I b #X X#X.X.X.XE H +.^ ~ ` _ _ ..[ _ _ ( / I ` ^ ^ v z ~ G / _ J c ' ( v ` O.( I k ( O.O...] ~ ~ / _ ] H F U H ~ ] +.o.6 x ,XHXfX,X>XpXvXsX;X.XO.@ % X o p d.4.-.;.d.4.N.C.3.* o   . o + 3 & f.V.s.-.M.M.;.8.3.M.>.4.;.L 5X^ 3 1 <.R.Y.M.R.&XXXXX@Xu.v.v.R.s.d.Z.C.M.v.$X X'.y.f.g.OX{.k.;.J.q.w.B.N.A.F.C.C.g.s.f.Y.Y.!.E.Z.U.j.d.V.R.V.g.j.m.].t.q.-.Z.Y.B.C.N.A.N.M.M.>.7.;.;.;.=.=.=.: ;.>.q.A.w.M.A.G.A.0.w.N.q.N.M.>.N.p.2 o XX}.:XHXnXMXfX5X5XvX6XpXBXHXfXh c 2 5 e D K K C L K C L U m 4 D D H D P K F | H ] } } %X{ 9 %Xz # z %.{ { %.%.+ # 6 j + X # o . @ ` IXlX$.jXlX<XlXlXjXlXIXlXX  XNXNXnXiX6X",
"#XtX%XI ^ ` ^ ) W k J c W c 1 c v @ 1 g l k I ^ I ` / ] W ! Q ! j j ! #X4XnXMXpX5XaXaXpXqXsX#X[ Y.R.T.C.P.).,.S.).(./.P.).).(.(.G.-.q.4.;.-.q.6.d.d.C.L.A.A.S.S.G.P.P.G.S.6.M.N.F.F.S.E.W.S./.).P.).).F.W.>.@XOX:.-.q.M.N.B.& X 1 2 t.I./.G.).(.(.D.G.P.N.D.>.q.0.,.,.A.w.A.N.G.S.,.,.>.>.w.w.0.>.0.A.D.q.:.;.;.B.0.0.>.B.B.A.>.M.6.q.N.q.A.0.q.N.>.0.A.A.A.G.S.q.F.S.S.C.V.x.x.U.1.M 8 # ( cXfXsX4X;XpXBXAXNXHXHXjXQ E 2 1 ( ;X.X.X>X@.W k  X/ v ` b v ^ ( ..` / ( ` _ _ .._ ] ) ^ ] ` v c ] U ] / O.O.I [ ]  .X.O.( ' H ' [ ` +.'.Y oX_ / J _ .Xo.E .XJXpX6X6XgXhXjX5X#X+.x $ + X 5 s.8.>.M.4.4.g.8.C.3.:.; .   # 7 # C g.Z.4.1.x.+X=Xd.N.;.3.1.|._ k h + 1 g.n.4.M.OX.X.X].f.A P p.b.h.N.A.B.V.@X}.v.x.Y.R.+XOXH.d.m.s.d.=.;.>.d.R.T.g.j.Y.C.T.Y.M.4.d.3.Z.T.U.U.f.d.j.h.j.=.Z.Z.U.M.C.C.N.N.M.q.>.>.>.-.3.;.;.f.y.-.>.=.0.N.N.N.A.A.A.0.0.A.N.0.q.M.x.h 2 #X` yXgXMXBXhXyXfX5XrXpXHXHXgXh W 9 9 5 e F F C A D D D H / S e D K D D D e H | | ^ E %X%.{ +.+.^ 3 %.tX$.) %.&.X + + X 1 @ / ..c tXIXjXlXjX{ <XQ <XjXDXDXlX+ #XAXhXnXrX:X",
"_ x b b v I z k 2 v v k c v 1 2 9 @ l D G v v c v G / ( k n x Q Q h Q +.6XNXsX5XgXpXgXsX5X5X%XG K ].J.F.E.E.F.P.).(.(.(.(.).).(.S.;.-.4.8.-.N.-.4.Z.P.P.S.S.G.F.S.P.).).P.B.Z.M.F.F.F.W.W.G.G.).).P.P.G.D.).T.V.-.M.-.-.S.1.o Z v.K r M.).(.G.N.0.(.G.A.A.F.A.,.0.0.S.E.w.D.B.G.A.w.w.0.>.w.w.7.>.0.w.B.0.N.W.d.8.-.>.;.;.M.-.8.-.F.C.M.N.0.N.0.w.q.0.A.A.w.A.A.q.B.G.G.N.n.C Y.f.4 3 6 # W pXnXvXrX6XgXvXhXBXAXJXkX_ W 3 g _ ) _ $X%XO.z ^ O.^ v ` ` / W ` ^ ^ _ _ ` / +.$.x v Q ^ I G c G / ( ..O.O.` c G _ ..v ( / ( v ^ l ( X./ [.}. X[ / ^ O.o.x .XAXsX5XtXrXsXiXtX;X_ @ # @ X o ; 1.q.-.=.d.d.-.;.B.B.-.- %     X 2 A e w e 3 @XeX8.>.=.r s i.2 @ S S 3 <.c.y.f.Y.1X#Xo e '.'.q L b.q.G.A.A.J.R.OXOX+Xm.U.Z.>.j.h.c.].Y.+X<.i 1.E.V.V.C.Z.8.1., y <.R.U.n.Z.U.h.Y.d.;.B.4.4.C.E.U.V.M.B.N.6.M.q.N.6.6.8.4.T.Y.x.3.q.N.N.N.Z.6.N.A.A.w.A.A.0.A.M.s.c.c.g W c 6XpXMXMX5XyXgX7X2XyXVXVXsXh W @ 1 0 J ' D P H m e ' K H H M C K D D D D S F J J ` _ +.%XW ~ $.) ) %XtX%.$.%.{ $ + @ E 1 yXJXuXDXIXDXlXDXlXlX&.$.IXjXDXlX@ #XAXjXjXiX4X",
"] v I ~ ^ ` ( } v 1 1 G ' _ E c 9 O G v v v c c J c ^ ` / x b o.{ j *. .1XnXrX6XvXyX7XpXpXpX$XE x [ R.C.C.j.V.W.P.(.(.(.).S.F.(.A.-.;.M.N.M.N.S.F.).(.(.G.P.W.G.F.Z.F.(.P.F.C.C.A.F.F.F.F.A.B.P.(.).E.)./.G.A.w.q.-.M.F.Z.> y.T.Y x.u.;.P.).D.P.(.(.G.G.A.N.A.A.,.>.A.F.A.A.0.q.w.w.w.0.0.0.0.0.>.0.>.q.G.S.L.B.L.N.,.>.M.M.k.d.>.C.B.M.q.M.=.q.w.w.0.w.G.0.0.A.N.N.G.B.d.Y.x.U.s # 7 # # ) cXnXfX3XpXdXVXMXkXHXHXSXO.^ b .XO._ +.$X%X+._ ` %X%.E c l G ( ` c ^ O._ } G O.) G ' / ^ c G l g _ _ / / ] ( I J I  X+./ ..^ c c J O.O.( H ^ O.' Y U +.o.x #XVXsX,X6XiXiXrX-X;X^ @ + + + X @ <.-.-.-.>.q.M.d.4.8.-.y @ X             @ 3 p B.4.-.A.: , s.2 @ u.V.C 1 a U Y y.|.X.].F o m ].L L M.q.M.N.S.L.!.R.R.].f.d.d.Y.x.p n.=XeXR.k.4.M.M.N.C.M.;.;.1.<.u.n.c.m u f.c.j.K.t.-.B.1.U.E.R.Z.C.F.N.M.B.A.B.N.>.;.s.U.Z.d.4.0.A.0.>.M.M.>.w.w.w.0.q.N.q.q.s.Z 1.w # z X.dXAXgX.X#X6XpX6XrXMXSX5Xj ` 9 9 e ~ | D C S S D D H ' H K M D e e e m N D D | } ~ } %X%X} %.%.$.%.%X%X$.{ lXlXE @ h 1 tXjX$.lXIXIXUX<XDXDXDX$ lXlXlX%.+ 6XAXkXjX5XpX",
"_ O.I ( _ ..] ` x O k _ _ G ( ` 1 3 x k ^ k c J J I / { O.Q ) ) ! $ E W }.0XVXMXfXaXpX5X7XpX:X_ c U c.V.1.< < B.(.P.(.(.P.A.A.).F.>.8.B.G.G.S.G.(.).).(.S.A.F.F.F.U.F.(.).L.Z.N.F.F.B.F.A.W.S.(.(.F.M.C.F.G.F.P.0.=.d.C.y 4 D F ' x.f.M.F.(.(.G.D.I.P.G.A.A.S.w.>.A.G.A.N.N.N.>.w.0.w.,.w.0.0.>.>.N.q.0.0.S.q.q.A.w.S.D.G.S.B.M.L.B.B.M.>.1.1 = 1.0.A.A.A.w.D.0.C.A.w.S.N.h.b.T.a @ 7 # 6 ..fXsXpX4X6XgXhXfXjXNXKXSX+.` k 2 I ^ +.:X.XX.#X` <X%X` ` ~ J O._ ] +.G I _ ` ` c +.%XG  Xk ^ _ v I / I ^ z v ' ` ....] ] J H ^ ] ~  XO.' ' / ] '.X.' +.$.o.:XHXpX4XyXrXrXrX6X:XW o.X + + + @ i d.-.B.N.-.M.Z.4.-.M.j.s 3 ] U 2 1 o @ X o 5 3.=.;.q.-.3.V l 5 1.-.=.a c.v.J b.].|.}.' ; * a H J f.>.s.g.q.N.L.!.=X9XOXj.h.R.Y.v.U.Z.T.>.B.C.M.q.M.S.M.Z.B.B.1.j.+XY # D }.y.4.C.h.f.V.=.: =.U.Y.j.T.E.V.M.N.B.M.>.=.d.V.N.M.M.>.q.N.0.N.N.w.D.w.q.N.q.-.>.M.M.1.4.u # h O.aXMXsX;X6XpXfX,XrXSXVX4X$ c G 9 S J H D M J H H U S H F D D m 4 5 e e C D S ~ ` { { %.tXlX%.$.$.%.%.$.o.%X$.$.! @ # 8 %XlXlX&.uXDXo.` { $.lX$.%XlXuX&.X 6XHXjXrXgX;X",
"` ( ^ _ ...Xc O k J ( ` ^ c l l 3 # k 2 3 1 k G I G / O.W ) %.{ ! E / v XXxXNXpXpXpX6XrXpXyX:X} _ v.c.1.:.=.d.=.S.*X).(./.).).).W.-.q.G.A.G.G.D.(.(.).A.B.N.N.F.F.N.P.W.F.B.B.Z.F.F.B.F.F.D.G.P.P.6.M.d.Z.D.+XL.N.:.>.4.q D u n.c.V.d.B.S.S.(.G.S.P.G.P.q.B.F.,.7.A.A.w.0.w.w.w.w./.D.w.>.0.w.>.>.M.q.G.q.N.q.S.S.D.e.0.P.`.E.A.B.M.>.S.N.t.9 + O s.0.A.D.D.D.S.F.D.D.N.d.w Z T.c.5 c 6 j ..nXzXpX4X5XpXhXnXsXHXKXnX .E @ c 1 k #X.XO..X.X@. X_ _ ` ~ / G G O.+.c / G ( _ / ( ] ~ I c I I I H I ..G O.` ..( J ( ` [ ^ W G ] _ _ v ] X.` ] [ [ / O.#X$.4XHXfX5XsXsXnXsX7X6X` ..z o 3 @ @ i >.>.>.W.c.;.-.M.M.d.y.= a m Y  X#X XX.. . 1 a j.V.M.;.y.a f.u.u.f.g.s.c.L _ [.].].P }.OXc.d 4 [ e <.].y.3.N.E.eXFX+Xk.n.j.R.H.j.M.-.M.B.F.V.M.C.g.Z.Z.Z.M.N.J.OXR.D x [ |.f.q.B.1.Z d.B.;.;.;.U.U.j.T.U.C.q.M.-.M.6.N.F.N.M.N.>.7.N.>.>.N.A.0.A.A.M.>.>.>.7.6., =.* # x .XfXmXvXyXpXgX5X;X6XBXHXhXh 2 9 4 5 D D M a D D D U F J F J S 5 & 0 e e e 4 ' v } { } { <X<X%X%X{ jXjX%XtX%X%.Q 6 $.6 @ E Q o.o.&.Q @ 8 <Xo.o.lXlXlXlX&..  XVXgXhXgX4X",
"+.` ^  .+._ k k 7 v ( v ( ^ 2 J 7 3 c 7 o o 2 v G H ] x 2 ^ $.$.%.+./ ] .XxXnXfXmXsX5XpXrXpX:Xo./ ].x.<.t.e t <.Z.P./.G.G.).).).P.M.N.A.A.S.G.A.P.(.G.A.A.A.F.G.P.W.P.P.F.F.F.F.P.F.C.W.F.F.P.P.B.;.3.;.N.A.k.I.C.M.4., 5 e s.H.k.B.8.s.G.P./.(.P.S.G.M.: M.A.N.N.N.>.w.0.w.D.,././.w.0.0.>.;.>.>.q.d.Z.=.Y.*XP.F.S.N.0.N.8.M.s.4.g.N.A.d.1.e @ # <.w.0./.w.D.D.G.).P.M.p.D j.g.C H 9 6 E .XzXMXrX;X7XgXpXnXnXNXHXrXx 6 X @ # + h  .O..X_ O.O._ X.} / [ ~ ` ] ( ` _ _ _ / / ` ~ ] o.+.$XO.^ +...X.] +. XI I / G ..v G G X.[ +./ G ^ / O._ [ [ F O.o.W 4XHXhXrX4X5X6XMX6X:Xb 7 W + # + o =.>.>.A.B.V.Z.>.d.j.f.s A y.a v.> 2 +.6X Xo X # m D ; 1.r m.M.d.t.f.x.<.u 2 ^ '.[.].'.8X} OXm.o K 4 & D w 5 y.R.eXeXh.t.s ; h.u.=.V.g.g.V.+XF.N.-.<.Z 4.M.B.N.T.m.y.b.'.y.s.j.k.4.4.t.s.g.V.C.V.Z.+XY.-.Z.Y.c.;.-.-.q.N.N.B.6.>.>.>.0.N.N.0.N.0.0.0.>.>.0.>.0.>.1.=.& 3 k .XmXnXpXfX6X6XpX7X5XjXNXgXn c S 4 e M D m e K m H ' H J J D C N e S D M e e | }  XO.%XtX<X<X<X%X) $.<X$.%XlX%Xj 3 $.%.z o % @ ) ! + } %XlXlX{ lXDXIX$.6 @ .XVXBXkXrX6X",
"#X+.)  ...v I ] 6 2 G O._ G c / 2 x W k 1 o # g [ [ _ c c k W O.$.@.+..X.X0XfXhXfXaX0XaX5XrX3X{ v.R.f.2.5 + @ q s.F.G.N.B.P.).E.W.D.A.A.A.G.A.G.(.(.(.P.A.S.F.S.G.F.S.).P.F.S.D.G.F.W.F.G.G.S.G.N.;.=., =.:., M.B.B.;.5 l 2 1 N w V.u.t M.P.P./.P.D.A.M.M.4.A.N.B.A.,.w.D.0.w.,.0.D.w.w.D.w.0.0.-.q.M.M.s.i.j.B.B.F.0.N.8.4.<.s.Y.-.0.Z.4.4.t @ q M.w.S.G.D.S.w.w.P.N.8.m.'.n.h.m S 3 6 j @.gXsX;XyX6XdXhXfXBXSXHXjX`  X  X @ 3 c  X#X#X+..X` W _ } ( _ / ^ c / _ _ O._ c / ^ O.%XO.' +.[ [ I X.}.O.` ] ] O.` I ( v U ' [ ' I / v 2 / O._ ' '.'._ +.W 4XHXzX6X7X5X2XBX5X.Xj # ..# 1 C r 3.-.q.N.N.T.V.V.u.y.y.y.v.y.u.s b.s l ( 1X]   X % % X o 2 L f.1.Z p Z q 1 h 9 C ' D XXXXoX X@X].5 w K P v.4 3 q m.m., y.d d > f.t.R.Y.c.g.q.T.;.=.u.a : N.Z.B.Z.c.c.d.M.<.q 2.f.V.8.1.k.d.U.Y.V.T.C.U.U.g.c.U.;.;.=.:.V.U.M.N.A.0.0.A.0.q.>.0.q.M.q.B.7.0.0.>.N.<.; 1 W ] #XrXxXaXfX5X6X5XaXvXMXHXcXh x v g S U K m e H D H ' H S J S Z C Y F m e e e 4 ~ ' E %.O.W ` ` lXDX%.Q %X%Xo.%.o.k j Q o.3 8 7 %X&.8 jXIXlX{ >X%X<XJXDX$.X $XHXhXjXiX;X",
"^ W c ( O.( [ G 3 k ` G J I / l 2 k ` l 1 X @ b [ X.^ v n k b @.O..X@.:X.X8XfXnXpX5X5X5X5XpX4XO.v.T.h.D 6 6 6 7 p N.N., -.M.G.).E.A.A.A.A.N.S.S.G.(.G.A.B.F.N.F.G.>.B.(.P.W.F.G.G.S.F.A.S.S.F.F.D.q.w.4.:.< t , =.N.P.j.D 6 2 D 4 U.g.=.;.S.S.D.G.G.A.C.F.N.-.:.M.S.D.w.(.F.D.w.,.>.D.D.w.w.w.0.>.q.q.N.V.y.1.N.S.B.N.N.4.<.f.N.L.C.0.C.Z.N.-.=.N.,.0.N.A.D.D.w.w.S.B.V.x.c.C.g.m.x.3 6 $ ( aXiXsXfX:XsXnXVXMXMXHXnX+.wXX.] ` +..X>X:X#X]  X} _ ` ] ^ ` ^ _ / H ^ c c _ _ } ^ ` _ ( ^ ` o.@./ (  X[ ) ( _ c ` G I I ] } ` ~ ] G ~  X^ c G S Y  X] { ) 5XHXNX6X5XrXrX5XaX6X6 @ z @ e `.V.8.N.N.N.>.Z.V.f.f.d.1.c.v.c.-.u.v.a p <.C c % % 8 # X   % X 2 L c.a 4 o o h h # [ U k J oXoXm.].].m.].Y |.XXO.'.m.c.y.n.U.j.: c.u.3.k.f.Z.>.=.: , y.c.; ; ;.M.W.R.U.N.C.p 4 y.u.t.=., =.U.{.{.M.M.T.W.E.R.c.j.8.1.y ;.+X+X>.N.A.A.G.A.w.0.q.0.>.N.q.A.,.0.7.>.0.4.& X ~ O.) 6XVXBXfXyX5X4X5XvXMXHXfXh j l _ J e U H [ F m F H G H D F M q D m 0 a D D J 9 9 9 9 +.tXuXDXo.o.%XO.%.<XE + 3 tXo.# Q %X$.%XlXo.lXDXjX%.%X$.%X%.$.lXUXX $XSXkXkXjX4X",
"( G ^ ] O.( ] G 7 n I W E x v k k h k g l 6 O n ^ ] [ G G ....#X.X+.) #X#X2XgXfXdXaXaX5X5X5X>X+.].W.Y.v j j # # e 1.=.; p 1.C.C.F.A.N.N.A.A.S.S.(.(.(.A.N.F.F.A.G.M.F.).P.S.W.F.C.B.D.A.N.A.G.F.A.A.D.>.;.;.& X > s.; * L 7 3 3 2 c.B.=.=.G.F.G.G.G.N.N.F.F.-.=.;.q.>.w.G.A.D.0.>.w.E.w.A.w.w.w.w.A./.D.F.F.C.M.A.G.S.0.>.N.G.q.;.8.M.N.N.N.0.w.0.0.0.A.N.D.G.D.S.N.q.Z.Y.j.M.V.c.y.4 F k O.MXgXpX5X;X6XvXBXAXnXHXAX_ X.O. .+.+.#X;X>X$.}  X] ^ ` I k ^ _ _ o.( ` _ ^ l G G I v _ G W _ _ ( c v +.G x c F g / O...c G G H G ^ ] / _ v 9 / ' ' Y ' I _ sXnXsX,X2X5XkXrXjX#X3 @ # + 5 d.6.-.Z.M.M.d.M.g.t y.f.v.P v.'.r.n.].a h.C.M.y.1 @ # @ @ 3 @ 2 + 2 C w .       X % 1 '.m 2 H R.R.].m.C ].'.v.[ [ '.OX{.R.R.R.T.E.R.d.M.-.V.U.M.=.f.t.s.j.b.; 1.Z.j.J.C.N.E.=.2.i b.u.=.=.2.c.{.f.N.>.M.T.T.Y.j.V.M.f.n.d.Z.B.N.N.>.N.0.0.A.D.A.0.N.M.6.,.A.S.>.>.>.A.* 7 ] +.Q 3XMXbXyX5X6X6X2XyXMXHXjXj x 7 l }.U K U ` J 5 4 S 4 e D m N A P e e e D D e 9 c 7 E %XuXjXlXo.{ o.3 z Q j ! $ <X$.j E jX<X%X$.Q lXjX$.j o.&.o.%.8 o.o.$ #XAXjXfXsX5X",
"^ ( _ ` X.} ( ] v 2 2 x j 2 ) #X%Xk n c c 6 X 3 G G }.[ .. .-X#X+.#X .+.#.0XvXpXnXVXzX6X;X5X>X[.n.L.j.v 6 h 8 # # & * r 9 l y -.B.A.A.B.G.A.S.F.G.).(.G.S.G.F.W.G.M.Z.(.(./.(.F.C.N.S.G.A.0.F.G.A./.S.S.;.M.V + X .   3 5 6 + # k C f.Z.=.S.P.P.P.F.F.N.N.>.6.-.>.>.;.0.A.S.A.D.w.,.>.0.>.>.-.q.A.A./.(.(./.P.M.q.D.S.A.N.G.A.;.m.j.-.N.>.q.D.A.N.w.A.A.,.0.0.A.G.A.J.j.Z.C.C.V.s.j.c.p.L XXzXzXaX4XyX5XgXnXBXMXJXkX` ( j j O.+.;X,X.XO.+.+.] ^ G v G _ ^ ` k ^ ) ` ] ` ] ^ ^ ..( c ^ ` ` ^ ] E 2 [ O.z ] ] ^ G / ` ^ [ [.( _ G +.%XJ / ] } X. X[ ~ ` fXBXsX;X6X5X;XpX6X:X2 2 k @ + 0 -.>.-.-.Z.Z.g.i i.Z 4 K l D Y D '.].c.U.M.q.L.c.J c c v 3 9 7 7 @ X . o 5 q .       k F # 2 n.m.m.m.v.{.c.n.c.{.c.m.R.R.R.OXm.Z.U.f.f.V.g.s.d.4.h.j.V.f.k.d.;.g.;.j.j.Z.Z.E.Z.g.c.n.V.f.y 1.d.=.;.;.C.d.4.M.U.R.d.M.E.V.-.>.6.q.;.6.A.>.F.>.q.>.N.-.>.N.7.M.>.7.7.N.r E O.@.x 6XMXnXmX5X4X6X4XpXfXHXgX6 ) c 5 K Y A K ^ 3 H [ 5 [.S S ~ m D P oXH F D S 5 9 z # ~ $XlXtX%X%XQ ) o.6 X 8 lX&.z jX&.# ) o.{ $.{ o.$.UXlXDXlX%.DXlX! %Xo. XSXBXnX5X5X",
"G ^ ` ^ .X+.G c k @ O x E c c o.$.k l G G 9 @ # 2 l [ [ +.{ o.@.O.#XO..X-X0XgXiXfXxXfX4XrXsX1X{.Y.L.V.Y z h $ 6 6 3 3 h h 4 1.A.A.N.0.W.F.A.F.F.G.(./.G.G.G.F.W./.L.F.).(.(.G.F.M.d.N.F.G.A.G.S.A.S.Z.F.;.N.w + # 2 2 k l J 5 l h 2 4 y.1.d.G.P.S.A.A.>.-.-.>.-.A.>.;.-.A.A.^./.0.M.>.N.>.>.>.>.A.A./.(.(.G.S.B.N.S.N.C.N.S.0.B.H.V.>.N.A.q.q.F.0.q.N.N.q.6.>.w.D.0.J.Y.V.E.!.M.d.P.C.j.n.XXmXnX6XrXaXpXsXfXMXNXVXhX) ^ E $ ^ #X+.+.O....XO.O.} G ` ~ _ ^ G ` ^ ^ ..O.O.] ( _ ] / ` I W ) ^ ] o./ }.} ` } ~ ^ c v G o.{ ] _ ^ ` ^ c ~ ] ' / ' '.oXO.W pXhX5X;X5X7X7XsXrX>Xj 3 9 3 o X =.N.-.;.8.; & m x.L D P ' J x.v.'.'.c.c.Z.N.N.+Xf.U Q ^ ~ / [ J c z 3 z ..oXJ Z x.1 % 1 l 7 L m.OXx.L b.y.C.V.f.d.H.R.k.R.R.y.M.Z.U.d.T.V.4.t.n.1.<.J.s.3.d.d.V.Z.g.4.Z.M.B.V.Z.d.Z.C.V.j.j.V.M.8.=.d.d.4.d.g.Y.Z.M.-.1.-.>.,.>.>.>.M.;.3.].Y u.d.q.>.0.>.>.7.0.N.-.; j W +.+.dXMXnX5X4X6X;X7XsXhXHXpXx k c 9 F m D C U k _ 3X/ [ H 2 v e M C [ H H J 5 1 o @ @ _ lX%XQ %.lX{ ! $.E E j Q %.E %X%X$.$ 6 j 6 { <X<X<XlXlX$.o.lX&.8 { j O.NXnXnX5X6X",
"g G G ( ( I ' z 7 @ O 6 j 2 2 O 2 G G v b k @ o 2 ` [  X$.{ $.<X+.{ o.>X;XiXfXgXfX4X2X;X5XsX$X'.].H.V.m x j # 6 j j 6 j P E.P.-.A.A.N.N.M.N.A.A.G.(.P.G.A.A.B.W.(.).j.F.).G.D.G.d.d.N.S.D.G.G.G.G.B.=.8.N.3.o @ v / W W c x.J.OXY 7 # 5 =.=.N.P.A.S.S.F.>.>.;.q.w.>.,.>.>.w././.D.D.A.A.>.>.,.w.q.D./.(.(.G.A.0.A.A.S.F.A.F.D.D.J.F.0.A.0.0.q.0.q.A.N.N.S.S.0.0.D.S.B.E.E.T.N.B.B.F.4.j.x.1XmXpXrXpXsXaXqXzXSXAXHXAX_ +.Q E k ...X+._ @.@.( ] _ O.^ / ^ / } O..X] / ...X} ..+.^ ` G ] { I J J ( ( / _ ) ( ^ I +.~ 9 c E { } [ _ { _ v J H F '.|.'.]  .rXhXyX5X7XpXxXpXrX,Xj X e 1.p.2 t 6.-.s.q 5 e y.y.h.A  X[ v.h.x.'.v.x.p.f.C.M.>.-.3.D 2 h ` ' g 2 6 # 6 ) W h 9XeXoXo 3 XX3 L b.n.x.v.P L j.j.g.d.f.Y.+X+Xj.4.T.T.s.1.d.d.T.h.h.p t.V.j.j.c.2.M.S.4.V.-.3.d.C.M.M.B.j.k.f.4 v.E.N.d.d.q.Z.g.;.Z.U.4.;.E.W.>.N.M.;.;.q.;.Z.m.Y m.T.Z.q.0.w.w.>.>.N.M.=.D z O.;XvXzXaX5X5X4X6X7XpXhXAXnXb z G g M 4 4 e M J / O.b 5 U ` 0 4 N D M F H J 5 5 4 o 3 %X+.` %.lXlXlX<X%X%.Q + @ $ # h tXlXo.Q X ~ tX%.{ $.$ j %.jXlXo.%XlXj ] nXnXvXpX6X",
"l g ( #X( ` ^ E 7 @ O @ # 2 4 c ] O.~ v v 3 @ & 6 b ..O.x h @.<X+.) Q .X-XpXsXfXfX6X:X;X4X4X@.W v x.f.6 z h $ n 8 # $ l E.).).,.G.G.G.7.=.M.A.S.D./.P.G.N.F.F.W.(.W.=.t.E.F./.D.B.B.N.A.G.D./.G./.M.=.S.A.; # z v I _ E L y.C b.`.Z @ 3 t -.M.D.G.F.W.-.M.>.-.>.>.,.0.0.>.0.^.^.D.D.D.A.:.q.>.0.w.G.A.F.A.A.A.G.D.B.N.A.D.P.F.S.P.I.A.N.0.q.N.B.>.S.A.0.q.N.>.6.-.-.J.!.+XE.N.M.E.E.C.F.Y.wXzX5X5X5X7XpXrXfXMXNXHXjX{ .XW x _ G +.k k ( ] ] +.@.O.` _ ' _ ( +._ c l +.} +.+.O._ H ( I +.X.] +.v ] ` G c v ^ ( _ } ^ ~ W ) O.] ^ ] O.~ ~ ~ ' }  X X}  XsXpXpX4XaXzX7X7XpX.Xj 0 s.d.C.a : >.M.d.C y.f.c.x.x.P m e x.c.x.4 Y b.U.Y.C.N.B.4.8.h.Y l # 9 / o @ 7 8 x O.n @. .( H 1 X.4 A OXY.OXOX].m.c.M.Z.d.n.n.T.C.M.3.c.g.;.g.Z.N.E.E.s.<.V.T.j.V.n.u.M.B.M.f.Y.k.-.M.q.P.V.: f.M h 2 a M.M.Z.M.d.g.4.M.M.N.F.A.0.q.N.>.V.d.=.6.4.1.1.f.t.M.>.>.>.N.N.7.N.B.-.d.D .X5X5X5XbXsXpX-X7X6XnXnXHXnX6 c c 9 5 4 e q S D H ^ 2 J E h 4 e D F D F 9 9 | ~ 4 9 4 %X%X%.) <X$.o.$.lXj $ @ 3 1 6 $ $ ! ) j ! uXlX$.%.{ o.%.o.lXjXlXIXDXj $XMXBXfX5X5X",
"/ k k ) O.o.^ I 7 7 2 # 3 g v c / ' c k 2 # X O 6 c +.+.7 # +.<Xo.Q W #X;XfXfXfXsXyX3X2X6X6XO.x 8 9 C 7 v 9 $ # @ # # A `.`.).G.D.A.N.N.>.6.A.S.S.P.P.S.F.G.S.G.G.M.; ;.+XT.A.F.F.M.A.F.G.G.G.G.A.-.M.F.A.0 2 G G k x z b.m 3 P p.5 # + * M.>.F.G.F.S.-.A.0.-.;.>.0.(./.w.>.w./.D.D.G.>.0.A.0.0.w.A.N.N.>.q.G.S.A.S.A.S.S.B.F.G.A.G.A.0.A.N.N.0.N.q.A.B.-.N.S.B.M.Z.L.E.*XC.g.g.B.W.F.F.L.9XnX6X5X7X6X6XyXgXnXNXNXjX` +.` ^ .X^ k c _ ] .X+._ ] _ } ] +.+.} O.] ` ] ( { _ _ ( ( ` X. X] O.c / +.#XG ( ^ l / O./ ^ v ~ } +.O.+.] ' } O.O._ .X} G  X+.-XhXrXiX;XpX0XnXvXhX#Xc s ;.q.N.s.; ;.t.u.w C =.j.i.U '.D Z u x.m.v.v.m.Y.T.C.N.W.T.f.i.Q.U o h b k @ U P c W h 6 $ # X.[ o 4 5 v.R.Y.R.R.c.s.q.M.g.V.M.N.M.N.E.p i -.N.Z.N.F.*Xj.h.U.R.Y.Y.n.p.1.N.d.t.n.j.M.M.F.P.t.C P S x 9 a : M.C.Z.d.s.d.6.,.0.N.N.>.6.N.>.=.t.;.4.M.-.-.g.s.-.>.>.-.N.F.>.N.>.6.6.2...3XpXbXfX5X6X6X6X4XvXBXVXnX$ W v 4 1 m e M D P K K G ` $ 7 S m M e J H D 9 9 J 5 4 ~ Q o.^ O.$.%.! { j h j # + 1 c + . + $ X 3 ) Q o.%XjXIXlXlX<X%.$.lXDX$. XAXvXkX5X6X",
"O.I l ` ` ) ` F l 2 9 2 4 J l 7 ^ J k 2 3 @ o O c x W @.v n  .-Xo.W ) :X;XgXhXpX5X5X4X;X;X5XO.{ Q h 7 k k S 4 6 # + @ K.`.E.A.G.G.A.N.A.D.A.N.F.F.).W.N.S.F.A.G.G.N.d.(.(.7.6.A.D.G.G.D.w.G.D.P.;.=.W.S.S.= # v F v x 3 q - @ D 5 1 6 @ p d.>.D.P.P.P.A.M.>.:.;.w.A.w./.D.w.w./././.D.w.w.>.>.w.D.w.G.G.A.0.A.A.A.S.P.S.N.q.L.N.N.S.A.N.q.M.S.N.7.>.A.N.M.S.A.q.F.H.V.E.E.T.j.g.N.R.f.d.V.eXmXpXpXfX6X6XpXfXMXNXAXAX^  .E #X+.` ^ @.%X]  X+.] ` .._ ] ` _ O.X.' } } / v _ o._ ` } ...X+. X[ ' O.I W O.` ( ^ _ +.[ +.` } c ' .X+.] _ J _ +.O.O.[ +.o.#XvXpX5X6XfXpXnXsXhX:XG <.M.q.M.N., * a v.].].4.M.p.Y '.a <.V.u.t.Y.R.c.g.V.C.C.+XT.1.}.oX5 5 9 h I 3 v '.'.v 3 6 7 c 3X9XH . & 3 A R.R.n.j.Y.Y.-.d.B.g.M.M.d.V.Z 1 <.Z.<.g.g.f.V A n.J.n.h.f.y.<.-.d.1.<.s.<.1.F.B.=.<.a 2 6 5 b.; : d.s.;.d.g.M.>.0.0.N.>.>.>.>.b.y.4.M.q.d.Z.q.C.M.N.N.M.0.N.0.0.,.>.Z.e ..:XnXzXpX4X7XpXaX7XgXBXHXBXj ^ H m 9 [ F m e H K J J c h 9 S D e e D F | J e 9 9 9 +.%Xo.%.uXjXlX$.<X%X{ E # X X 3 O . . % . 8 E 8 ` %X<XlXjXjXlXj 6 %.jX%.O.NXfXpX5X;X",
";X$Xv I ] k l J k v c 2 5 S g v ` 4 2 3 3 5 3 z ) ` W O.^ b h @.<X+.o.:X#X5XgX5X5X5X6X$X.X$X X_ E 8 e x.C 5.s h 7 X & K.E.G.N.D.D.0.G.w.A.A.A.A.F.(.A.A.S.N.F.G.G.S.S./.(.G.G.D.S.G.D.D.>.N.P.G.-.;.F.;.=.= 9 J L l K t.B.>.; - 1 + 6 3 y ;.-.S.W.(./.N.>.>.,.D.w.-.,./.D./././.(./.D.D.A.>.w.S.w.-.N.D.0.G.S.A.D.G.S.N.N.A.A.A.A.A.w.F.Z.B.0.N.S.A.A.q.A.0.A.S.B.C.C.J.N.V.V.Z.4.& X o D 1XcXfXyXyXvX5XpXvXbXMXHXkXo._ W @._ ] ` :X%.^ +.+.+. XG ` { ' _ ` _ O...O._ / _ ) ^ _ O.( +.#X+.] O.] _ W ` X.( ) ` ( X.^ c ^ G / l l _ { } [ X.O.` ` +.+.@.sX5X7X7X6XNXzXpXhX#XU g.B.8.M.N.>.1.s v.'.u.d.d.d.Y.R.p.Z p.d.t.c.c.d.>.N.F.C.E.V.h.I ~ 5 C 2 $ c ^ W 2 L v.~ ) z c 6X8XXX[ 0 e & 0 v.R.s.u.m.1.<.g.3.d.1., <.t @ o o X q y.x.Z Y R.k.{.Y.u.p d.>.k.c.b., V.F.B.d.=.8., t : p.+X|.& : d.;.d.d.M.N.7.q.q.-.>.N.-.].|.j.N.7.d.f.M.N.M.N.C.N.A.A.A.0.>.>.3.v +.#XMXiXpX7XfX8X7XyXaXNXHXnXj 7 4 D / ' D 4 5 v E ~ 4 7 x m D F e l F D / ~ J / l J ) -X) +.lXjXlXW z %X%.) $ X o 1 @ o X     ~ %.j ` ! $ 7 { Q W E E Q lX%.+.BXiXsXpX6X",
"W W l I v l l 9 2 J J 4 5 S g n H J ~ 2 2 G x ) ) x x k v 3 W @.+.^ ) -X#X0XgXpXpXsX4X6X:X;X.XW Q ~ y.W.F.C.4.9 8 + 5 M.M.-.;.D.G.A.w.A.D.w.A.M.k.L.S.F.G.C.N.F./.B.M.G.(.).F.N.-.G.D.w.-.S.D.D.F.q.M.f.q f.u.r.U.2.=.(.(./.G.:.; @ 3 1 1.>.-.>.G.(./.D.,.w./.D.w.w.w.D.D.w././.(.(.D.w.w.0.0.w.w.A.N.0.D.D.D.G.w.G.P.F.q.S.A.A.A.w.N.N.B.F.A.G.A.F.A.F.S.A.S.S.A.N.B.B.M.N.F.3.o X # @ o .XcXpXpX4XpXrXpXVXNXMXHXhXQ W .X.X) +.} +.+.' .XO. . XO.} ` O._ ` ` O.+.` G [ _ G ` O.O.X.( .X+._ _ %XO.] ^ ( } O.{ ] +.v ] W ~ l K U O.#XO.X.] c S [ +._ @.gX0XmX6X6XaXpXvXnX#XY C.N.M.-.-.>.>.-.C.Y.M.q.M.B.M.Y.{.b.i.s.j.j.s.F.B.M.V.B.W.Z.c.l v m C m U H }.v c 2 A U X.c 3 W 1X9XoX}.[ ].; * ; : ; u , w C V.=.: j.R.m.o o o +   o t s.j.H.s.J.J.y.m.Z.N.u.N u.;.N.D.q.q.Z.d.j.d.6.>.R.&XXX4 p j.s.s.M.q.>.M.-.;.-.M.d.T.T.M.M.-.>.3.d.M.M.N.A.B.q.0.N.M.-.Z.Z h O.#XNXgX6X6X5X;X6X5XsXnXHXNXh v 4 N [ U e e e v 9 c h @ c F D J m H | P F H 2 3 4 c z E } %XlXlXo.8 9 { ! 6 @ o.@ 1 9 Q + @ @ j o.z h Q W 2 2 x 6 j { { lX&. XNXiXgX5XgX",
"8 @ 5 J 9 J H / / J g l J G x v v H W 3 2 c W n 6 6 2 l 3 x o.o.O.#XW O.;X0XfXaXaX;X.X5X$X#X#X' '.].f.J.F.F.6.i e 1 t.M.-.-.;.w.G.A.D.w.w.w.w.8.u.C.G.G.F.N.Z.F./.q.B.(.).F.N.A.A./.A.w.D.q.A.N.A.q.-., e C.-.N.F.;.* B._.D.A.0.A.=.; : =.;.N.,.(.(.G.S.D.D.S.D./.D.(./.^.,./././.(.D.D.w.>.>.,.D.D.w.0.G.D.D.G.A.A.P.A.B.S.0.>.q.0.q.C.S.N.B.N.q.0.>.F.A.S.N.B.N.0.L.F.S.N.B.; 6 z 6 v U wXmX7X5X7X5XgXfXfXBXBXHXkXx ( ;X+._ ^ c E ( ] X.O.` } _ +.` ( / ..O./ ) ` J G ~ ` .X_ } ( I I ` _ ] -X( U _ I ( ` G ] / ` ^ O.c ' '.'.H / H 9 / ] [ .XO.{ #XfXsXpXpX6XzXxXzXBX#XZ L.N.M.-.;.M.>.6.M.>.>.q.4.g.n.u.c.n.=.Z.L.s.s.g.M.Z.M.N.W.T.: 4 D 4 1 3 Z b.@X'.) # o D |.'.H 3 h oX^ 7 & 4 OXOXOXOX{.R.c.p y.: : Y.m.x.].R.c.y.K k @ 0 <.d.8.s.@Xg.j.Y.L.V.c.h.B.W.M.-.M.d.h.M.=X+XV.M.H.v.H / & w g.4.-.M.6.M.N.6.;.-.C.Z.M.q.M.>.M.4.-.g.Z.q.B.A.q.q.N.4.g.p.l x ^ #XBXgX7XyXzXpX;X3XiXnXHXnXj ] U C L F m w q 1 3 2 z ^ # e J S F D D K H | S 5 J 9 7 ` %X%.%XuXo.7 { $.Q z k E %.k 3 E $ @ { h $ c 3 z ` G _ W 7 Q } lXlX{  XkXpXpX5XpX",
"c 2 2 2 2 4 J v _ ] / ^ ` 2 W ` J G @ X n 2 c k @ # 2 k 1 x ) @.-X$.o..X2XpXnXfXaX5X.X;X$X.X:X[.Y.c.f.d.T.L.;.V.V.> d.A.;.-.;.>.0.Z.F.0.A.w.0.M.g.F.G.A.B.D.B.N.D.M.P.).(.B.B.G.A.D.w.w.A.-.A.>.N.N.>.:., -.-.-.F.-.: L.(.0.>.w./.A.-.-.>.-.;.D.A.S.P.E.A.P.A.A.w.).`./.w.w./.^./.(.w.N.q.>.q.0.w.,.0.N.A.q.0.D.0.w.A.N.A.w.A.N.-.>.N.N.B.N.q.q.>.N.N.S.S.q.B.L.E.F.B.L.S.B.M.5 6 @ 2 l X.1XcXaXyX4XaX0X5XsXsXBXVXsX..#X>X#X.X] ^ ^ +.%.` O.} O.` @.` ^ ] .X+./ ] } ~ _ _ ..] c O.+./ / ( ] (  X_ / ^ ~ ' _ +./ l ~ k ~ ` ~ G ' .. X}.K [ $XO._ ` ) +.yXfXfXsXsXgXbXpXzX#Xx.C.N.M.-.M.M.,.7.-.q.q.;.M.c.x.u.;.d.;.4.-.d.d.T.d.M.N.A.C.j.: H [. XM 3 @ L x.S 3 2 @ 2 U K x.v.J S 9 P m.M P m.m.[ |.n.{.+XE.j.Y.R.n.c.c.r.h.Y.f.t.- w x.: < 1.@Xh.C.f.d.t.s.-.N.B.N.M.g.1.Y.>.*X+Xs.s.V.f.q 4 }.C d.M.=.=.M.N.N.N.Z.f.-.y , Z.;.-.;.d.c.x.p =.=.;.>.-.4.Z.d.p.x h W %XMXpXaXvX4XiX3X5XpXzXAXnXn v I k H 9 4 N e 3 j 6 # ^ v k 9 F H v ~ F 4 J H U ~ 9 ~ } %XtX<X<X$.o.) ^ %X) W 6 { h O X 7 j # o.$.z h x W x # k x %.lX<XlX$ $XBXiX7XzXaX",
"v 4 1 3 5 2 v k v I S v x 9 W W l 9 3 2 3 o k c # 6 n / k j  .) o.o._ .X>X7XfXpX5X5X.X.X#X$X#X].Y.y.1.Z.B.W.M.d.I.d.;.>.: :.;.0.-.=.4.>.N.N.A.S.B.P./.A.F.A.A.N.C.C.).(.(.F.G.A.A.A.D.D.S.S.F.A.A.A.M.;.-.0.D./.P.N.d.(.(.N.>.D.(.A.;.6.>.,.w./.>.A.(.F.B.(.w.0.A.G././.D.w.(././.D.N.;.-.q.>.0.0.A.D.w.w.N.A.A.w.>.-.0.A.A.A.M.;.6.N.M.M.N.N.F.A.F.F.F.W.W.M.J.+XA.N.F.N.S.4.5 # O D 5 3 .XzX7X6X5XfXxXzXrXgXnXNXhX-X...X@._ ` ( +./ Q c  X+./ { o.G ^ ^ ( ] ^ ^ ` +..XI ] O.+.X.O.] O._ ^ G ' ' ` _ c ] ` G / ~ ^ H J } / ] [ ' ..+.XXoX_ ` _ _ #X+.rXpXaXvXvXaXaXfXMX#Xb.Z.d.d.8.6.M.M.8.s.Z.8.;.4.V.s.s.M.n.=.-.V.V.M.d.d.f.d.V.f.u * b.v.I H 3 2 / ] 2 3 3 k 4 t t.p.m.OXm.m.].R.p.a f.V.y.C x.Y.T.C.C.C.C.j.<.2.[.b.R.g.T.v.0 i u.c.* a 1.V.s.3.;.-.0.S.0.M.d.M.q.N.N.E.j.g.-.M.B.C.u.L '.1.;.y.N g.N.M.V.s.Z y.L H 0 r i j.V.x.x.c.s.Z Z 1.g.s.s.f.v.x j x $XVXsX;XgXzXpX5X5X6XfXBXBXW 7 2 1 l 3 3 D m 9 k @ @ k G h W H F G ~ ~ 1 4 P e 9 v O.o._ +.lX$.o.%.o.`  . .6 @ E x 3 1 2 $ + W UXh v ` h ^ $._ uXlXjX$.%.6  XnXiXfXmX5X",
"_ v 1 3 5 2 k c J g J 2 O v k G J ' c k k 1 x c 1 3 b +.l x o.+.@.#X%X@.-XgXgXfXfXyX.X...X:XXX{.f.y.g.M.B.B.M.d.V.L.C.-.>.N.4.4.=.M.-.;.N.A.N.A.G.(.G.D.A.7.>.: =.P.)./.W.B.F.A.D.A.A.G.F.F.P././.G.>.q.D.w.D./.P.>.G./.(.)./.w./.0.q.F.A.>.>.S.C.S.F.A.S.P.D.G.F.w.D./.w.0././.w.A.6.N.N.-.6.>.>.0.A.A.w.D.A.A.G.A.>.N.S.G.A.M.M.N.A.q.6.N.C.C.C.F.F.A.F.j.d.E.*XB.q.q.A.N.2.0 3 9 S 1 2 XXMX6X;X5XrXzXsX;XpXMXNXhX%X` ....} _ ] ^ v ` W ~ _ G ` O.+.] ] G ] } c 9 +.X.( / +.+.G ( I / / [ +.v ~ +.` v / .. XO./ ] / / / ] } [ ' ..'  X Xc 9 / +.O.+.fXsXyXaXdXaXxXMXBX.Xp.V.4.=.1.d.q.>.;.M.V.s.V.d.M.>.d.N.T.4.-.M.4.N.;.j.f.p.p.y.Z L 1.L v ' / 3 { ) h v 2 S c.F.u 4 p.n.T.H.j.j.d.h.c.+XR.N.L.Y.g.V.t.d.N.M.1.a v.R.OX{.OX@X'.Z m.+XZ > ; s.V.L.L.q.q.S.B.6.6.Z.-.>.M.J.T.V.V.M.M.S.C.d.x.Z w '.Y = u.-.=.1.L * Z 5 o o J }.-.4.f.f.s.e M x.~.f.u.b.'.x _ E $XzXfX3XzXvX7X4X:XyXfXBXNXW ^ .Xk G 1 1 9 S 4 2 z # 7 k 2 h 9 c ~ c k 9 D H J ~ ~ ^ o.c _ %X$.{ E E { Q x 2 6 # # h 7 # o # X # 3 @ G k 3 lXlX$.lXlX%.%.j [ nXiXpXfXyX",
"c l 2 3 4 2 2 l c l l G k 9 l J J 2 O W ` 7 O 2 2 3 x ` k W @.%X%.o.o.o.#.7XrX5XpXyX.X.X;X@.oXU.V.V.d.V.C.N.M.U.g.B.F.d.M.-.2.* , S.N.B.N.A.A.A.G.(.G.A.B.N.-.: <.S.G.G./.M.q.>.D.D.G.D.D.G.A./.D.w.N.w.B.w.G.D.S.A././.G.(.G.>.w.D.).F.A./.6.>.A.S.G.P.G.S.-.0.7.w./.^.^./././.D.A.B.C.S.h.1.-.q.q.>.0.D./.A.A.A.A.S.B.N.N.F.N.S.A.,.0.>.6.C.V.C.C.B.N.F.c.1.*X+XA.F.F.A.N.0 + 3 9 D 2 ( 7XNXiX;XyXpXaX6X6XsXBXHXkX#X+.I _ O.} ` c c k x Q / / c _ _ G ] } } %.} { ` ` ~ ] ( [ ] ' X./ I I _ I +.$.] I [ I / ( / ( / ^ ` ` } [ / O. X..+.v 9 _ ^ ..+.sXjXpX8XpXzXZXfXgX$Xx.d.M.f.c.-.>.>.>.d.i t.s.4.s.M.4.M.N.>.q.C.d.4.Z.R.n.m.m.m.f.h.c.Z v.].&XO./ H ' '.Y H 5 t 4 o o C 5 3 y.V.d.Z.g.b.h.3.d.u.n.].|.=.;.=.: , f.OX@X@X@XU ~ ' x.m.].y.y.u.j.j.j.J.L.N.N.N.d.4.C.W.N.C.C.g.Z.>.M.M.M.s.1.R.|.}.X.x e y.Z R.|.b.m.|.|.'.3 5 d.N.d.1.<.e {.i.1.d.n.m.'.c h c $XvXsX4XdX5XsX5X:XzXhXvXNXx 7 ..G J J S 9 9 9 3 j 6 2 3 v E j ~ H ~ 8 J [ H J J ~ ] { z %.) o.E ) 7 c $.E z 6 2 7 j 6 # # # + X 3 2 7 v 6 { DXlXlXUX%.j z .XBXiX5XpXfX",
"` v l 2 2 k 4 g H 2 l J 3 3 2 5 2 @ X # $ o 3 k c 7 6 c k k ) o.j $ Q E #.gXaX6X5X5X#X.X;X.X@XW.P.C.1.q a g.<.q i B.M.;.;.2.1 9 u.N.0.M.;.0.A.G.G./.G.N.B.N.-.: 1.G./././.M.N.A.w.G.D.D.D.D.D./.(.P.F.F.S.w.S.G.G././.S.S.(.G.w./.P.(.G.,.F.F./.G./.P.q.-.S.;.-.D.w.^./.w./././.w.A.>.M.J.].3.q.M.>.>.N.A.0.A.A.A.S.q.-.J.C.F.N.N.,.N.0.0.0.N.N.B.F.C.Z.Z.C u.J.E.7.A.F.S.s.# + 9 S L c  .aXVXrX2XpXzXzXzXfXsXnXHXMX#X..^ ^ I ] O._ ~ 2 2 ^ ] ] ` _ c _ O.%X+.` } O.+.~ ^ c [ ' _ O.O./ ` J [  X_ _ +.[ I } O.' ` ( O.' ' O.X.}.H / ..` ] ] l / ^ .X$X@.4X5X0XpXCXxXzXnXtX'.1.4.u.1.M.6.>.;.i.L Z 1.g.g.Z.d.4.Z.B.c.h.M.d.;.M.B.R.Y.R.R.U.V.d.p.].oXv 4 p.v.n.U.l x 4 p p 0 6 2 2 o - a 3.t.u.n.y.1.4.j.n.m.c.i <.<.y.x.@X[ [ ] S e H OXv.K f.u 0 g.n.x.E.S.M.Z.Z.g.M.L.E.V.V.V.j.Z.N.F.M.-.1.d.B.g.y.U ` Y x.K a.v.}.w U oXoXI 4 4.=.;.;.1.f.+Xu 1.d.R.H.R.' x W 6XpX5X0XvX7X6X5X5XpXgXnXNXx # h c 3 l / 3 9 3 + 6 2 H 1 # j E ~ | _ ^ ~ ` J J J / ` ` $ 6 Q Q 8 E 7 2 E { { uX$.{ j # # 3 # X X ^ ! 3 j # E ) lXlX%.j ^ c $XAXpX5X6X5X",
"` v G 9 O 2 3 5 X.9 5 2 1 k 2 1 @ O E @ @ 2 / ] ^ 3 @ G k b +.Q 6 h j W .XaXfX6X5X5X.XX..X#X9XE.F.V.r # @ o     & M.M.-.4.a @ [ {.q.M.-.=.q.0.F.P.(.F.F.S.F.: <.F././.(.G.-.B.A.-.B.G.D.D./.(.(./.G.A.A.D.A.d.M.D.D.G.A.F.S.G.w./.).P.G.w.0.G.G./.(.G.>.>.G.A.>.,.w.^./.w././.w.D.0.>.M., , >.q.-.Z.q.0.0.0.0.>.N.A.(.B.E.V.B.W.A.0.0.N.0.0.0.B.d.g.;.3.= }.c.-.C.B.A.0.S.s + 2 k 7 J ^ _ pXHX5X5X7XfXpX0XaXjXfXHXAXO.I ..x v ] ] ` c ~ } ~ ` ..O.O.^ ( +.` ^ l v ' +.~ ^ ...X] .._ c ] +./ X.O.+._ _ O.[ .._ } _ ^ ( ] ] ..O.^ / ` c ` } ~ v ' W _ #X$XyX4X2XpXMXzXNXnXrXK Z g.j.;.M.q.M.1.x.x.Z b.n.U.C.-.d.c.q 5 Z d.d.8.L.q.M.V.s.n.U.d.<.9.'.oX6 9 x.e c.4.A F L ' '.m 7 D x.a 0 3 D t y <.m.d.N.C.j.Y }.x.C x.m F / j h v ~ Y m [ v.D f.; & k.B.f.d.G.B.Z.C.M.Z.N.B.J.T.Z.M.M.-.M.-.c.n.g.N.M.B.d.x.x.K L j.j.c.M.h.J $XO.0 6.-.;.d.N.d.r.Z Z f.Y.V.Z.U Q ) sXpXyX5XfX5X2X4X3X7XfXSXHXx # k c l v 2 2 1 + @ 8 7 ~ 7 # 6 ` ` ~ ' } ` { ` ~ ' c W ~ j + 8 x 3 7 2 z $.W %XlX$.%.%.&.8 %Xj % @ h Q # o.E E ! + # z h Q 3 :XBXsX5XfX;X",
"k k 9 2 3 # 3 1 3 3 2 1 o 1 I c 2 2 ` v O.+.^ .X^ @ O # 2 k x W h x h ..2XfXzX6X4X7X$X.X3X;XwX{.V.c.3 $ @ % %   . s.B.q.d.e 3 p.C.0.>.-.N.w.N.B.G.(.G.S./.4.* i F./.(./.>.=.1.=.;.A.D.G.D.(.D.D././.D.w.w.G.M.A.D.A.D./.B.N.D.w.G./.(.D.A.D.G.w./.A.G.A.w.G./.w.A.A.w.^././././.D.0.A.N.M.Z.C.F.7.A.A.D.A.7.B.W.P.G.S.F.>.q.B.F.A.0.A.A.w.,.>.; o & * & X G x.F.F.d.q.M.> o 2 ^ 2 3 ' X. .gXVX5X4X7XfXbXsXrXgXnXHXSX.X2 k l v v ` c c O.~ ^ ^ ` ) O.^ ] .X+.O.^ _ %X%XO.O.) G G ^ k 2 (  X} ^ O.@.$.] [ ] J G c ` ] ] ^ l ` c ~ c E ^ ^ o.` ~ ( G O.:X;X5XpXtX6XMXnXpXfXsX^ @ <.4.4.d.4., w 5 C Z '.'.c.p., x.k o X 2 1.;.q.N.Z.h.n.n.Y.V.{.m.T.p.m /  X'.].x.y.c.c.i Y [ G 2 U ].].|.oX].@XN A ].= t d.f.A oX|.'.F e y.4 S m I U H 9 4 i.C p.].S s.B.F.S.B.S.V.C.B.V.V.C.C.C.q.M.M.;.-.;.j.{.@XR.Z.M.C.E.V.u.j.M.M.>.B.V.c.}.v t -.;.;.C.N.=.> K 5 y.s.g.d.v.W _ 4X5X5XxXfX4X7XaX6X7XgXcXHXx @ ^ ' S 3 1 2 # 6 $ E W ) { j z W %.O.G S / } { ~ / v 1 v c 6 3 k 7 k x 7 ` o.o.o.$.$.6 j # j n X # # c X o.o.$ + @ X X # 3 # $XkXsX6X6X6X",
"2 2 2 k ] 9 o o . o 1 1 2 3 v G J 2 - v c _ W  .^ 6 # 3 G } 6 x c Q h ) 4XgXpXgXrX7X$X#.6X$X@XR.V.R.~ Q x ` O.E 2 s.F.N.Z.Z c.F.A.0.q.0.w.A.M.Z.P.P.E.F.(.-.& r M.G.(./.F.R.e ; S./.S.F.L.P.A./././././.^.D.D.D./.D././.B.q.0.>.N.D.G.A.A.D.D./.(./.G.N.S.(./.,./.w.^./././.G.S.;.=.N.M.B.F.M.>.w.D.S.(.A.G.S.D.G.G.A.G.E.M.d.N.A.0.A.w.>.N.>.* + X o o # ' v.N.F.M.j.t 1 P 2 2 7 F }.#X..mXmXpXdX7XpXzXzXpXpXnXHXHX:XG c G 2 1 k z ^ ` ^ O.+.#X+.+.( ] O.#X( ` _ G +.#X$.` +.( I U +.` ( +.c _ @._ +.+._ ] %.` ~ ` ^ ) ` c ^ ^ } / ^ W 9 ^ ] v h ` >X:X4X5X5X5XaXbXxXyX6X! X a =.1.1.<.p e P '.4 5 3 0 0 & 5 2 @ 1 o q 1.4.6.g.T.T.J.C.>.=XOXg.c.4 k Y v.'.| C w j.R.v.H c h [ oX}.[ L C.~.[ [ }.' P b.y.|.OXR.n.u.f.C.1.3.<.C i.Z u u.C.h.j.p.F 0 t.N.A.S.q.V.W.F.4.M.B.B.B.N.M.N.M.;.1.M.8.y.s.M.B.B.F.q.V.c.V.8.>.Z.V.B.Y.u.u.=.<.R.N.=.w Z x.4 1 M C y.c._ o.3XaXaXmXMXyX7XpXaX6XpXMXJXQ 6 ] S 4 9 k j $ # 3 ` { Q ) E ` / W } / ~ ] _ ^ E 9 E { ~ c x 2 x 3 z Q W E c Q %Xx h # X   . 7 + . @ 6 # # x 3 ! + @ 3 o v 6 .XhXgX7X7X5X",
"2 2 9 2 I _ o o # 9 o 7 ` v c ` _ v v c l l ^ ` ^ 6 6 1 k x 7 # n j @ x :XaXpXpX5X7X;X..-XXX@X+Xc.v.W j W _ ) ) ~ i B.S.B.V.P.G.A.A.A.0.0.G.d.t.L.).P.F.(.M.t 4.N.G.P.(.G.T.4.-.(.G.Z.M.N.N.A.A./.D.(./././.D.D./.D.D.S.G.P.6.;.N.A.G.G.G.D./.(.(./.G.>.(.)./.,.w././.D.A.G.A.;.<.h.Z.N.0.q.q.w./.D.G.D.A.G././.G.G.S.w.B.q.M.N.0.S.A.0.>.w.w.M.5 @ X # 2 }.|.V.B.N.j.0 4 C 5 3 g P J O.#.VXSX7X0X6X5XaX6X6XpXkXBXHX.Xx G ' ` k G ^ ` ~ ) O.] ] O._ O.O...+... X} k l O.^ ] W l I H G ^ ] _ ^ ] _ X. .O.O.I ) g ( ` ^ G ] / _ '  X/ / / ^ / ( k 2 v .X;XaXfXsXzXaXzXMXpX5X6 1 Z <.2.Z 1.> K XXk 1 0 e 9 m 5 w e 2 1 2 k U a p.c.U.Z.T.C.N.R.j.-.|.[.o U [ H H oXv.b.OXb.m.x.L k 3 c _ w f.y.Y m.m.@X@X@X|.m.+Xg.V.Z.d.8.M.U.1.u.Z f.t.;.d.T.V.Z.s.5 e , < =.g.Z.C.C.N.S.M.C.F.A.A.A.Z.s.f.u.<.w p.Z.-.-.;.-.n.Z f.Z.>.j.j.d.q.B.M.f.u.k.:.<.x.k.V.'.@ 2 v 1 c.X.@.3XmXnXcXaXpX7XrXdXzXaXnXJX .k ^ 5 e 4 l 6 # j 7 E { ` Q ~ ' / E J H ~ ` ] D v ~ ` { { { z 1 6 6 ` %.$.c v ^ o.<X6 O o . 3 E + @ 3 # o.n h 8 j # 3 @ 1 x x .XnX5X5XrX5X",
"k c / c G ^ c l v ` v l O.` k c 4 ^ } I / v ^ c 3 6 z l e 3 3 O O o @ h :XzX5X7X6X:X:X..#XXX@X'.c E j k ^ _ ) O.` 0 1.4.; u d.-.M.q.S.B.B.N.8.V.P./.G.G.F.=.k.4.d.(.).).G.0./.D./.A.;.;.C.q.0.0.P.G.G.D././.D.D./.0.>.F.M.S.N.M.A.D.A.G.A.S.D.(./././.A./.`.G.w.w./.D.A.;.G.F.0.E.T.V.B.0.D.(./././././.A.D.P.).(.D.A.D.S.A.0.B.N.A.F.A.>.w.D.w.B.f.m 3 '.9X9XT.S.B.Z.Z 9 Z 4 # 3 2 2 x #.VXnX5X2XpX7XnX6X6XqXpXMXSXO.3 l ( ( _ ` z k +.` ..#X .^ ] } ^ ` O._ .X_ G G ^ l I +.^ 3 G J l ` v v c ` G v b ] _ ] ` ' ' ^ / +.] / / ] ] / } _ / _ v 9 ^ +.@.$XpXrXaXzXsXVXmXpXE 4 u.g.f.i <.r l O.@ % 6 v v 3 5 5 4 9 o @ 1 3 5 4 D c.4.Z.Z.T.j.N.N.r.m.].eX}.J 1 '.m.f.R.c.s.i.v.U D v.9 3 l F v.j.n.n.n.R.Q.|.Y.d.d.3.=.3.V.OXv.i.g.C.=.d.s.Z.d.Z.V.p C {.b.t 1.V.g.M.M.8.: d.0.S.P.N.q.;.f.A w C w j.9XL * 1.n.y.V.V.B.d.-.N.C.M.M.s.=.q.>.8.y.Y.f.|.'.@ G 3 M v  .aXfXpXvXpXxXpX4XfXMXfXvXHX .h v 5 4 1 5 1 X 6 3 j Q o.o.~ H l E j k l 9 | S l 9 } { ^ E c z E E W %X<X#X$.x k j E E # X X X o # X @ +.o.E # . @ @ 3 h 6 +.6XfX6X6X5XpX",
"l l k J G ^ ] c l v J l ( ' c c _ { ^ ( _ c / 4 o 3 v 1 O 2 z 2 O 3 k W ;XMXfXxX.X...X..X..XX.{ $ @ h  ...O._ o.{ @ o o + 1 > ;.-.M.N.Z.-.;.N.F.P.W.F.B.-.q.G.6.N.F.W.G.P.0.G.P./.D.D.G.B.0.S.G.D.A.A.D././.D./.D.A.,.N.B.N.P.(./.S.S.D.A.q.6././.G./.F.D.(.w.A.7.w.C.6.:.S.F.).P.t.p.V.N.F.S.D._.(.D.(.G.G.A.G.(.G.A.A.S.N.N.F.S.A.G.w.0.A.A.>.B.S.C.v.@X9X@XC./.>.8.p.Z p q # h 1 k h  .MXvX5X>X7XxXfXvXpX5XxXGXVXO.k X...c ( +.c v z ^ O.O.k l W ` ` _ G ( @.@._ G G ^ @.@.O.v ^ v l / / c / v 9 ~ O.W l ^ G } +.~ c O. X} { G _ '  X} O.` _ c I @.) :X7XpXfXvXxXmXmXpX%X}., 1.g.1.p u 0 l } 1 7 k 5 1 o # k l 4 2 9 1 1 1 a g.-.C.j.U.Z.N.q.-.k.*XeX@X[ 5 x.p f.j.u.u.C L m.x.m.] J J G [ ].c.n.C.J.j.+X].d.V.j.s.1.8.C.V.r.Z.C.N.N.B.F.C.P.C.R.L |.+XOX=.=.;.s.1.t.x.; d.q.>.M.q.d.r.3 4 1 0 9X9Xy.1.s.8.-.J.Y.d.B.B.C.C.6.=.-.N.N.C.B.r.c.n.v.].e 2 h @ _ W 4X6XxXaXpXaX5X7XaXgXfXAXJX@.6 v D m 3 0 & # 7 k 6 k / ] / S v 8 6 j v 9 4 e J ~ { { %.W h # # # # 7 _ $.<Xo.O Q h 3 X 8 $ # 3 @ # @ X x o . . X O # ! 6 o.pXvXpX7XaXiX",
"2 3 5 J l 2 2 7 k ~ c / l l O.W +.@.+.,X+.J v v ~ 2 ] c 1 3 l k 2 b E E @.qXpXmXrX+..X+.G @.6X+.j H '.` O.o.) ) { # + # E 6 3 <.8.-.M.s.=.N./.P.G.F.B.M.-.A.D.S.M.S./.(.).G.G././././.D.G.D.P.(.D.-.q.A.w./././.D.D.D.>.>.G.G.G.(.G.D./.F.C.4.A.D.G.A.A.N.G.G.A.w.w.G.N.M.C.B.B., Z }.C y ; & , B.(.).(./.G.G.A.A.G.S.P.W.F.N.S.G./.A.D.w.L.C.>.M.N.Z.T.@XoXY.B.G.>.B.j.q 4 w e 2 @ 2 z ..mXnX7X5X5XzXvX5X5XyXMXBXAXO.^  X X/ x  .~ G ` +.O.) ^ _ ^ W k c v ` ..I ] _ G G ' +.o.) ^ ^ c G ] _ ~ G J ] ..~ ] v l ] G / ` ' / G { ` v ' >X<X{ _ G G c ..O.#X;XMXgX7XzXCXVXfXiX3XC y <.w 4 s q X.$Xx.D 1 . 1 2 2 3 5 5 1 1 3 9 @ e j.d.Z Z Z.-.-.>.>.F.T.Y.N 2 o a r.1.f.v.c.f.t.j.x.D ] ' [ [ }.|.c.n.8.E.C.Z.v.<.s.-.d.Y.M.;.-.-.s.1.M.A.F.C.M.S.A.T.v.b.R.Y.n.Y.g.s.c.n.OXv.i d.>.q.-.-.C.w 9 r * c.Y.+X+X=.;.=.j.eXV.d.N.M.=., u <.M.V.J.C.p N p.].XXXX6 # # +.) >X5XmXpXmXmX;XpXyX0XaXMXHX$.k v l S # 1 @ @ @ h # # 6 v 7 ~ h 2 E Q ~ ` | 9 ~ O.$.{ %X{ ! # o 3 2 E k 3 O.@.3 Q ) E 8 o.o.%.{ { j + X 6 o . %.j . X 3 <X-X:XfXpX5X2X6X",
"6 2 9 g l 2 3 2 2 ` c +.E S G 2 2 ( )  ._ g 9 / %X^ uX{ J O.#Xk +.x #  .#X;XqX5XsX;X#X.X` .XrX#XQ X.] E o.o.` '.' z 6 ^ ] c 6 3 > =.=.;.M.F.N.L.A.S.G.A.N.A.N.8.M.S.F.q.B.-.8.P.(./.G.G.S.A./.(.G.6.A.D./././.(.G.A.D.w.A.(./.D.(.(.G.S.M.W.F.7.>.,.7.0.,.D.A.A.A.w.7.A.A.M.M.d.s.@XH 4 H F k 7 1 i F.S.F.E.F.0.0.S.F.P.S.N.q.F./.D.A.0.N.N.N.S.0.q.M.B.!.T.C.E.S.d.R.c.e D y.w o 3 3 x ( VXnXpX5XyX5XgXaX5XpXvXSXNX+.` X.X.' 7 E %X/ O._ ` ^ _ O.c ^ l ` G v @...^ 3 l D / _ ` ) ^ ] ^ ^ x c ` } ^ c / ] ] } ^ c / O.` / ] c ~ .X^ ~ h j ` } v ` c ^ .X.X:XpXpX7XmXmXNXfXfX#X4 0 ; 0 1 2 1 c .XC Z 0 o 1 J h 2 D 1 k 3 @ 1 @ @ * u L Z M.M.>.L.Z.N.V.i 0 & 1 O <.M.b.v.x.c.g.f.'.A 5 / v.m.@X[ K D a s.>.B.v.U OX{.Z.d.M.T.s.-.u.* <.B.N.N.C.M.A.E.Y.M.T.Y.R.+XT.Y.j.M.s.XX}., Z.=.>.N.A.=.: =.B.>.q.R.|., ;.c.Z eXH.;.-.-.V.n.@XN 3.d.d.C.r m 5 M v.}.6 x ] j { 3XaX7XzXNXmXpX7XvXyXpXgXHX@.# 7 H k # # X 3 z j + # # $ # Q %XQ Q j 7 W _ E 9 _ ` { %.%.Q 6 3 x 3 k ` ^ Q ) 3 9 E %XuXlX%.+ E -X# 2 E X . . W O.%Xh v Q #XpXdX,X4X4X7X",
"2 6 9 5 4 v 2 7 E W E 3 3 I G J G x h z 3 g l  .#X{ ) c $XtXO.x ..^ 2 ) ;X:X6XyX$XW j ( ..-XpX#X`  .) 6 _ +.' Y.n.' Q / @X'.8 1 1 : 1.-.M.N.S.F.N.A.G.S.N.q.:., M.S.N.N.-.-.q.8.S./.A.;.N.D././.D.0.G././././.(.-.=.w.0./.w.D././.G./.G.D./.D.A.>.w.A.A.N.G.A.>.N.A.0.M.C.M.=.> p.Y G v.v.'.~ J ^ 5 :.N.0.S.F.A.A.S.).D.w.F.8.A.G.G.A.q.>.M.0.G.w.q.B.B.S.D.N.F.M.k.b.e 5 e e @ X # 6 E ( vXpXnX5X5XfXsXdX4X5XnXGXAX .^ [ [ X.6 6 +.} ] ` ~ ` v k _ Q E ` _ ^ v v k 9 l / { E ~ E c ` ` ] 2 c ~ ^ ] O._ G ` _ ~ ' +.^ G ^ _ +.+.] ^ c 9 ` $.O.v G ] ^ b X.6X3X3X7XzXCXdXiXNX#Xo @ 1 3 2 2 J  X Xw * @ @ 4 5 1 o @ 4 I 2 + X @ @ X 5 v.n.M.C.M.V.V.d.<.N p.d.L @ e u.p p.U.f.=.m.|.L D 4 C l }.'.|.].K e r., '.;X&Xm.M.U.C.R.+Xc.q e 0 q =.d.Z.q.V.d.8.q.q.B.B.H.H.E.d.=.=.x.}.F u i 1.;.-.>.>.:.-.>.M.8.i <.=.V.c.J.T.4.;.-.j.n.OXK t.N.8.U.q M Z U ].A 3 j ..o.o.rXnXxXbXMXzXVXzXpXpX7XfXHX$.@ 2 3 k 7 @ 7 h E x # @ # # @ + 6 Q ! Q 2 j z ~ 7 ~ _ %.o.{ +.{ X @ X G +.x ` c +.%.{ uXjX<X%.E ! j { { # % o 1 # 7 $.{ Q h  XhXiXpX6X8X5X",
"W 3 2 k l 2 2 2 W h h 9 9 k I H g g _ k 2 g O.} _ E x k tX<XJ X.-X+.l  .4X;X0XpXrX%XW ) ` #.5X$X.. .} c Y oX[ c.c.U ` S B 5 1 o 0 * ; =.d.M.S.F.F.W.B.F.B.B.;.=.<.d.A.G.S.F.C.A.G./.;.* N.w.D.(.D.N.S./././.(.D.r.C -.w././.D./.(.F.D.(.(./.D.G.,.q.B.A.B.A.A.A.G.A.>.M.s.; & 1 M D '.x.v.Y P K [ F s.A.G.C.F.N.0.-.F.P.G.F.B.F.S.B.A.A.>.;.Z.B.0.q.Z.C.B.S.A.N.C.C.C 2 2 S 1 X @ @ ^ ) ` gXpXfX5X6XsXmXvX3X7XpXnXAXQ n J +. X9 $ {  X] _ ] ^ 6 W <Xj Q Q ~ O._ ^ k ~ ~ { } } E z @.#X_ I ~ c G ~ ~ +.c ` _ ~ _ I v W _ ~ ~ O.( ` } J +.%. X} / X.X.` h b ) .X2X;X..5X5X5XSX,XX 1 2 7 3 2 l U C e @ 3 3 2 1 S 2 # @ 1 2 3 + 3 o + & w j.-.M.M.M.Z.f.p K v.+X|.1 3 x.y.f.d.V.-.Y.Y.Z D 5 1 P v.v.m.i.5 0 0 4 v.OXd.B.d.C.F.B.R.@XOXOXw 5 0 e p.R.p.u.3.=.-.3.4., V.E.C - = b.D U oXXX= , -.M.-.q.-.-.=.; ; ; : M.M.B.T.1., t.H.j.T.L y.C.M.j.r y.C oXOXZ 8 8 O.+.O.rX6XbXpXmXzXdX5X6XaXpXvXSX$.# v v 2 h 3 l v Q Q z # X @ # $ $ 6 6 E j 6 7 J E ` O.{ ~ E W 2 o 7 j 2 3 1 _ 7 x z %.,X@.%.E uXo.  # X . o $ 3 8 W 3 1 c ( #XpX5XyXfX5X6X",
"c O.Q h 2 3 c 9 # $ h v l l k v v 9 g 3 5 ( +.c 3 h j 3 W <XlX@.#X/ 9 I 6X5XzX7XiX4X#X+.^ #.fX$XO. ...^ }.@XOXc.v.H c ] G b ` 3 o 0 * =.d.Z.B.G.G.C.B.W.F.C.G.4.y 4.F.G.P.W.F.D././.C.g.S.G.G.(.A.B.G./.G.D./.w.E.v.f.0.0.D././.I.S.G./.(./.G.G.A.A.A.0.G.A.A.G.A.A.A.>.; * r e N v.Y Y [ m.x.P '.' f.8.Z.:.>.A.>.S.P.S.A.B.Z.M.S.A.S.G.q.=.d.N.>.q.L.N.N.S.G.F.E.j.3 @ 3 3 o # 3 ` W E O.fXMXpX7X2XfXnXfX8XzXzXbXvX) x g ( .Xk X E o.{ ) ` E ! 6 ! ! E h Q ` l / ~ 2 { Q k x ! Q o.Q k ` O.{ Q k 3 3 2 h c / ( I J ` O.{ G J  X} ` ] %.) ] +.J  X6X3X>X^ + n v 3 c U .X#.zX-XX 0 5 l 5 2 z L Z 1 k k # @ 2 S 7 7 + o o X X % X % o 1 a f.s.-.Z.M.h.i.u.b.'.@XC 1 J Z f.f.Z.M.4.r.Z e D P L x.A N Y 4 a C '.m.-.F.J.V.q.N.N.M.f.R.R.h.> * o 5 * ; d , j.s.=.1.3.F.C.x.|.0 q f.c.L }.l r C.d.8.q.;., ; & 0 t 4.N.M.q.B.B.;.V.E.C.F.V.<.V.Z.s.w OX2 '.{.}.# z ) { ) pXaXdXbXSXzXzXaX5X7XbXnXVX .# 7 3 l 2 2 J k ^ E E x z E E j # 6 8 8 z v J G 7 x E z E Q + o @ x { @ o k O o o.E $.<X) j # x +.  o o X 1 X @ h @ # 2 k #X.X;XpXsXsX5X6X",
"3 W +.k k v k 1 + Q >X) 2 k k Q c k g g ~ c v 7 3 k 3 O + @ n # k k n b -X2XcXpX:X.XX..X+..XfX;X+.^ W )  XoX+Xv.| l b +.o._ Q ~ 3 & r > 3.8.-.M.P.N.q.F.F.F.D.D.N.B.S./.(.G.B.F./.(.B.Z.F.N.>.S.N.S.(./.A.S.(.D.4.E.d.M.w.w.G.D.0././.(././.D.G.A.N.S.N.>.G.>.N.F.B.w.>.: r u.4 4 x.'.}.[.v.' U ] ' '.c.-.;.0.A.P.`._._.G.8., <.;.M.B.A.4.u.M.M.-.N.N.C.P.A.w.q.q.C @ X % % @ # k 6 W +.-XhXnXsX5X7X7XgXsXbX7XpXfXjX) c g .. Xz X ~ +.] c ` j *.! E E ! E E E 8 k z l ^ x $ Q ! j Q Q ! E ] ` ) W E ~ x 6 z l ] G  X} c ^ _ ^ c ` } ` _ +./ ` } / .XzXzXyXrX+.;X6X,X5X,X@.aXSXh X * q w c J e 1 # I  X) k k 3 9 .X7 X + X % X % X X % X Z 1.;.-.;.y.Y C C C v.oX# J P b.x.<.2.c.c.w L c.p.Z v.v.m 1 Y @X|.5 p.f.t.C.B.N.Z.;.N.j.c.n.f.: * . . : =.: : s.j.s.3.1.M.d.C OXb.=.-.Z.u.b.x.y.d.4.;.q.-.* o 0 i 4.B.w.q.q.N.S.0.N.B.M.d.B.d.V.V.Z.M XXX.K m.X.k c Q Q _ yX5XsXNXMXmXzXnX8X7XMXbXHXo.8 z 3 2 k 3 S 4 c ! z E E Q Q E j 6 9 ~ ~ ` c E z ~ ^ # E j   . . + 3 8 # j # @ +.Q 3 %XQ     7 Q 3 6 # @ # X X h O o 3 G ( @.,XfXaXpXqXpX",
"# b ` k 2 1 l 9 2  .-Xj 3 3 n W 8 v +.#X+.~ ~ 7 3 3 3 @ o X X O # h $ n I ;XfX1X.X#XX.#X^  .5X#XO.Q ) +. XoX[ ( _ ` +.+.+. X` ` k 5 0 * <.d.=.;.S.B.B.B.N.N.S./.P.S.D.G.(.G.j.V.(.P.S.M.8.;.M.M.M.B.G./.G.A./.G.p d.s.i >./.D.D.G.(.(./././././.(.D.G.N.M.0.q.N.N.w.w.A.1.> q H D i.].|. X' U ] oX}.U Y p.u.1.;.(._.).`.d.= @ 1 u.4.k.M.i 0 0 > ;.>.M.-.Z.B.0.8.Z 4 3 + 3 1 o 3 n 7 ` @. .pXAXrX6XiXaXaXxXzXzXfXgXjXo.W J ( ] 2 1 9 %.O.] ^ E j ! ! Q o.j ! j $ h 6 E E ` Q &.E Q )  .Q Q ^ ` o.Q { +._ E } E E / ] _ J ~ _ ` ~ ^ / ^ ^ I ^ E E v :XLXCXHXnXMXHXLXLXLXjX,XKXfXW X 3 0 s J l 5 2 j  ..X_ v h @ 6 [ ..X + + X i ; * : .   . & i 4., =.].N i s.C oXv.oXU Z 4 5 D c.p.o 1 C 4 2 m l o X K OXXXh 0 j.g.M.W.E.M.q.q.t.p.<.: < ; y : 2.;.V.Y.d.V.r.t.s.s.y.Z l.w 3.=.<.y c.f.q.;.d.>.F.=.& . * 1.d.8.8.t., , =.1.s.d.V.u.4.N.Z.V.U.t [ oXY L 7 ` ) o.)  XdX6X2XaXsXmX0XmXaXxXaXaXHX#X^ k 3 k # 5 e J c E v 9 v x Q j j z 8 7 W { 8 E h j $ X .   . . . . . Q o.! ^ c O.b X z Q 8 6 + X # # 3 o # X X X o O @ 3 O.%X#X7X8X5XpXfX",
"@ n k 6 z z 2 3 2 3 3 2 # 6 2 3 1 h O.c 3 x z k 2 3 1 o o # @ @ 3 ) x @ #.:X#.pX,X)  .O...+.#Xo.{ W  .+._ O.o.j h _ @.O. XX.x k v 2 0 q : : :.;.N.N.M.M.N.A.D.P.W.D.F.D.(.).N.-.8.M.>.: : : u s <.8.D././.G.(./.s.d.=.=.w./.(./.D.D._.D.w././._.).).G.N.M.N.q.-.-.>.>.=.> * w x.v.c.v.m.}.~ F ` }.{.].[.G U ] K E.`.).L.a + + + 0 1.t.1.Z e o o r : , i c.M.8.4 7 k 7 6 h k k h j h  .) b 2XnXyX5X#X:XpX2XxXmXmXCXxXo.E 3 X.] 1 @ 9 9 _ ] W j j 6 $ h E 6 h Q Q j x j ` Q ) Q 8 %.) j Q x I k ) Q ) ) _ ) Q ! ^ ~ / ] _ c J ' +.} ~ E } ^ ` ! j v .XVXNXVXKXKXzX0XMXLXMX..CX.X+ + # 5 r e 6 9 v 6 x ^ c 6 @ + + 2 6 X + X & 8.=.: & & . .   . ; =.s.b.; =.<.i U @X}.M a g 4 e 0 Z 5 X X X X 1 3 3 2 [ @X1Xc 3 y.V.Z.@X@X>.M.M.j.h.p.1., : , > ; j.n.j.-.N.s.k.Y.c.t.Z.V.3.C.g.p.R.y.p C.Z.d.M.d.: & ; , g.V.=.& o & * & * = > y i 1.M.Z.V.g.f.m.4 H U 7 x W :X-X:XfXdXCXVXNXMXmXVXVXmXfXgXHX6X+.^ ^ ^ # 4 U ' W j H ~ { _ +.%.Q z 8 j $ # # o X o @ X X o X X o X . . 6 6 h 1 @ ~ W o # h # X @ # h o O j 3 @ X o 2 k 3 6 O.-X6X7XzXrX;X",
"o X X + Q { 7 1 1 @ # 3 3 ! 6 o @ X n O 1 @ 3 k 2 3 # X + j 6 j h 6 + h @.>X:XO.# # x  ._ -X-XO.o.Q ^ [ O.#X+.j x c n b W ` ` [ ` k e w s 5 a y.C.G.S.B.S.D.G./.D.P.B.-.d.Z.-.=.> a =.; & # # @ 2 t.S.D./.(./.D.A.q.;.D.D.(._.(.(.(._._././.(.).(.P.W.W.B.F.3.;.=.: * & & q r <.y.x.{.'.#XO. X} G u.Y.oX}.|.O.x v.E.E.m.e $ @ # @ 0 & & o o 3 + @ X o 1 4 t > v ^ x c W  ...` x ) ) +.+...pXaXcXxX;XaXmXVXbXMXVXLX6XW W + x ^ 2 W 9 4 G ~ ` j Q j # # # j x o.) ) o.W k ) $.o.E Q Q j Q 3 ^ / c &.! ` _ E j E G ( ^ _ O.` ~ } .X+.{ +.G ` Q Q { @.@.gXLXLXHXKXKX8XXX2XaX@.1X$X8 @ + 3 a 5 3 x Q z h ` 2 6 # @ # # @ @ X + 5 N.y 7 o o * ; &   & 3.p u > : i y.L }.v 5 a 5 0 > o X 1 X     . . X # 2 c }.|.( k m.C.J.R.s.-.N.t.y.j.u.j.n.c.1.: * i V.d.-.=.M.C.C.s.-.F.q.-.F.t.L @Xi.e y.q.8.d.;.; y M.M.d., * 0 t d.d.u * * : -., f.x.p.g.f.j.d.0 ' } + h (  X5X:X5XmXVXVXHXHXSXSXVXmXNXmXHX5X .o.%XW 3 7 F c ~ E } %X%X%.%X$.{ 8 E j + @ X X o o X X @ @ 1 @ 3 @ o X o o v k 3 c o.x h 6 # 3 O @ W h 4 1 o @ O @ o c  .z h +.xXgXaXaX4X",
"1 . . X # X @ 3 6 X X @ @ # # o @ @ X o 1 9 7 # 3 h 6 h # # # # X X X b 4XpXhXyX%X-X-X,X-X,X6X#Xo.x x O.#X#X+.W o.%X+.@.$.%X#X#X@.] 2 4 l v / / p N.D.D.S.A.B.G.G.F.M.y i i t > 2 7 1 1 X + $ 6 $ 5 3.w.(._./.(.(.-.:.G.A./.(.(.G.).).).S.(._./.N.-.s.J.W.k.0 5 q @     1 5 1 q e 5 p.oX$X#X#XO.~ l U O.4 M ^ 6 # S v.Y c %   + # # + X X % X X X @ % X @ o 1 c x x n k +.#X) )  .+..X-X-XvXrX0XSX,XaXHXHXCXmXmXMX#X+.) ) . W v c c 9 ~ ` 6 h ) x ! 6 2 #X$.#X$.+.%.o.} ) ) ) ! ! E ) o.E c v ` j x x x ! E ` ^ ` c ` O./ ~ _ +.O.E h c W ` #X#Xo.) rXKXKXJXLXLXLXKXCX:XU xX>X<X,Xo.+ # 7 l z j 8 z x j h j c 6 3 ` 6 + X * s.g # # 7 5 s e 9 o : * Z v.p.p ; M N & o 1 0 0 & o o . . 3 2 1 o   . + # 5 K c 7 Z r.y t y <.d.> r i f.n.OXR.E.W.Y.u s.V.8.;.C.!.W.>.M.A.0.C.u.Z A b.C.d.4.8.q.3.t & * , s., ; p r.t.;.0.=.: <.: d.=.a D x.g.g.V.i S '.G 6 k #X>X>X.XpXnXSXVXVXmXNXCXVXzXaXgXVX6X^ O.+.) ! 6 J G e ~ %X%.<X$.$.%.{ # + X X . o o @ @ o o 2 6 6 # @ o O O X k k # # O 3 k ) h @ o # @ 3 c @.# O 1 o @ 3 7 X { ) 2 5XpXzXmXNX",
"X . X X X o X # j + X X @ + # 7 # 2 o o o k ! # 6 # h x 1 o X X 3 v I ;XBXHXHXSXnXjXkXkXjXkXjX#XQ Q ! ) @.-X#X%.@.#X+.o.$.@.$.o.@.O.E ] O. .O._ J f.A.W.M.N.-.F.F.A.1.D x.e 2 @ # 6 @ %   3 x 6 6 6 0 d.P.(.G.G.(.-.q./.A.A./.(.B.A.G.D.G.).).A.M.3.A D Z v.m J 2 X % o 1 @ 3 2 4 e C v.oX.X .) ^ x ( _ h v x W j 6 h @ X X 7 + + @ X X 6 z # @ 6 $ # X # 2 2 O I XX:X:X;X5X;X#X+..X#X@.;XfXsXNXnXsXfXNXVXVXHXVXyX.X+.o.+.E x G | } ' ` z 3 #X>X#Xo.E _ +.o.%X#X<X<X-X<X#X{ ) { Q ! ) Q E 7 k Q x Q 6 $ E k b ! h G ( ^ ^ _ v c ) Q {  .) _ X.) E W :XBXBXGXAXHXKXJXJX6XmXHX .#Xo.j + @ h x j k E h z E ) ^ ] _ W $ # @ + 1 2 W + # ) x c [ G 0 * * <.C U 9 1 . o & . . o 3 9 x W # + $ 6 3 7 7 o . . 5 p v.3 ; 0 > = 5 * b.4 w <.d.p.R.R.R.T.E.> C Y.V.s.C.J.Z.M.>.6.6.d.1 s g.N.N.S.S.M.C.Z.- o o o 1 : 3.d.f.t.-.A.6.=., =.;.=.- J L g.s.M.t 2 c h x h o.6X-X$XvXrXdXMXnXMXVXzXnXmXnXaXHX,Xn 2 ] #XQ E E 7 9 ^ O.W j $ E %.E o o @ @ 1 8 # @ 3 # @ @ z j 7 # @ O 3 o O @ # 6 3 k 3 1 1 3 3 W ) Q # ) # 2 h @ 3 1 @ o j  .I 6XfXpX6X5X",
"X X . . X X o 2 n j # + j z 3 b v I $X.Xv n # X % . X k ( ..#X1X7X#X:XMXJXJXAXNXNXhXkXBXhXsX6X#X.X#X .+.:X>X$..X#X>X3X3X#XO..X:X$X@.O.-X#X+..X+.$Xv.j.v.Y U.C.S.F.F.e v 9 h 7 # # X + 3 c ^ x +.{ W J u.M.q.B.-.-.-.A.(.G.0.S.F.T.n.V.N.A.G.G.M.d.1.v.S 3 h v 7 # # # ` c c _ W / / ~ J Y [ ` ) +.` ^ _ ) x k x # + X X o 7 # G 7 # 3 k 7 x O 2 .X/ k I [ / 2 X.xXmX5XpXgXrX>X.X.X:X4XX..XpXCXHXNXNXNXNXSXVXBXfXsXfX-Xo.%X-Xv 2 ~ 7 W x @ O.,X#X-X+.Q ^ #X-X#X+.@. .tXtX6X>X%Xo.) Q o. .o. .` Q +.x W x E E ) Q b k W ^ { .X X_ ^ .X$.o.W Q O.#X#X#X5XbXvXyX5XHXHXHXSXMXBXfX:Xk 1 # @ # h 6 j x Q $ + x o.6 c .XW 6 # + + c x O._ ] X.^ c O.^ 1 k H F x k n W c j c x # 7 ^ ` h 7 $ 6 x h 3 3 j b 3 . & a V t <.u u , * ; & * <.s.C.m.|.'.x.Y.m.p . q > Z Z.N.;.s.g.M.s.0 # a M.N.0.M.M.N.Z.s.o o r w 0 1.s.s.c.u.A.N.M.:.d.M.d.: d 2 J y.u.j.= 3 6 7 h h h .X.X;XfXbXbXgXqXfXzXqXpXMXgX0XHX:Xk c ^ ) # 6 ! # 3 h Q k k 9 3 # # O 6 @ 3 7 j 6 6 j j 3 6 ^ x z h 2 3 2 # O v v # 2 7 O 1 k ` O.b h 7 3 k 2 1 3 3 3 1 2 2 6 v .X;XgX:X:X:X",
"3 1 v c 3 2 o 6 x x 6 X $ k 3 b +. .,X.X( b # o O k  XpXaXnXSXSXSXSXHXJXJXHXAXNXAXnXAXNXkXsX6X4XrXrX6X;X5X6X4X6X5X5XaXsX;X4XpXfXMXhXyXrX;X:X:X@..X X' O._ v.c.t.V.y.7 v 2 n ( ^ x ~ W  .:X@.`  .^ +._ P c.c.d.4.<., , 8.=.4.u.Z '.H m i 1.M.M.4.i 4 H 6 h E # 6 h 3 b .Xx Q o. .O. X{ ^ .. .) 6 n _ k 2 v 6 k k G v x ^ z # n ` } ^ +.:X$X6XyXbXHXSXvXmXHXVX6XxXVXVXvX6XjX6X4XyX;X6XsX6XrXBXHXVXMXSXHXHXJXHXAXHXHXkX@.+.6XtX6X:X#X^ <X>X>X#X#X,X>X,XrXyX<X:X<X;X@.@.4XrX6X;X<X#X<X<X .:X,X#X{ %.o.O.#X$.O.#X#X_ @.o.W .X$X.X#X#X#X.X#X@.@.O.3XNXNXSXKXKXLXLXLXLXKXLXLXKXHXLXKXaXvX5X) z 3 7 ^ _ O._ ^ X..X.X.X+. X#X%X#XO.#X3XyXvXsXsXsXdXxXsXrXdXtX4XyX5X3XyXrX6XsXvXpXyXdXvXtX#X$X.XO...` ^ ^ c ` 7   . o . * K p.<.* > o * <.V.E.oXX.+.G oXoXm.5 . w x.c.Y.U.s.OXm.C k ^ H g.C.E.V.U.C.S.; o s u.Z 0 i h.p.x.f.N.G.C.;.: 1.<.<.: o 5 D L q X 6 j 6 6 6 z ^ @.<X4XaX6X8X7X;X2X-X:X;X2X6X;X.X+.x # o 3 # + z k c E E c 2 o k 2 @ 3 7 ^ W Q Q j j j $ # { E ^ k E x ^ ^ 2 +.I @ O k k / ^ _  .O.o.6 3 2 3 2 h 3 o o 3 k 6 h +.7XpX5X4X5X",
"O.X.5XaX6X.X$X] 3 n ( / ( XXXX:X X..+.#.:X$X_  X4X5X0XgXsXcXBXBXBXNXGXAXAXBXhXBXBXjXkXnXhX5X5X5XpXfXfX5X5X5XpXsXqXrX5XsXsXpXpXzXSXAXSXSXAXBXhXyX4X4X.X:X%XO.^ J U F .X3X1X7XCXsXpXhXvXhXdXtX>X$X3XsX%Xc g g = > q I }.P A x./ W ` _ _ ' H P Y U ' ` x h ^ b x W k 3 X.O.3 I O..X:X#X+.:X5X3X.X[  X.X$X1XaXbXbXhXdX7X3X3X+.W ` O..X3XnXSXHXJXJXJXHXHXJXHXHXHXHXHXHXVXMXBXjXsXpXvXpXfXvXhXMXnXfXVXNXAXSXHXKXKXJXJXBX6XO..XHXBXjXnXJXhXhXAXsX6XpXBXhXhXhXBXjXsXsX>X;X>X.X:X4X5X:X;XsX>X;X6X<X;X3X>XtXrX>X-X@.-X.X$X;X#X X#X-X#X#X:X:X;X;X3X>XpX7XsXsXaXSXMXVXHXLXKXKXLXLXLXLXLXHXKXJXjX6X6XyXvXvXvXvXvXSXNXNXHXSXvXvXBXMXNXSXSXHXNXBXBXBXAXAXHXNXSXHXHXHXSXHXJXHXHXJXSXHXHXHXNXHXBXtXMXsX4X3X;X.X>X.X.X+.o.2 4 l 2 O 5 N U k 1 J X & Y .X...X#X.XXX}.].a L x.m.|.K Y '.[ E ^ / L n.C.Y.j.{.R.c.o 2 h l ^ H m.i.i.x.j.P.T.: -.Z.u 0 L ].C o # # X   6 ) j # # h x j  .#X5X;X5XnX6X5X5X X2X8X2X:X#. .) x z {  .h h 2 W W ) ` k z _ I l x j %.Q E j $ $ $ $ 6 E c 4Xb 1 W _ G O.W 3 1 9 ( b _ j 3 ...X) ( o.2 ..+.b ` 2 3 3 3 k x _ SXNXgXvX5X",
".X:X6X6X6X4XpX$X X X.XXX.X.X.X;X3X6XfXfXsXyX4XpXhX0XdXpXpXpXpXfXpXiXhXsX5XgXMXnXhXhXhXiX4X4X7X7XgXfXpXpX6X7X6X2X5X;X4X5XpX6X6XiXfXgXBXAXBXHXHXAXAXBXjXsXfXyXyXzX6X0XHXHXKXLXHXfXHXHXJXKXJXHXKXKXHXAXAXvXrX3X$X XwX7X2X X X$X$X;X5X;X:X.X.X..] ( / J F }. X:X.X.X2X8XSXNXbXVXSXVXvXMXMXVXHXHXHXHXHXKXKXHXHXJXHXNXAXSXHXHXSXyX6XsXMXHXJXHXHXJXHXJXJXHXHXHXHXHXNXVXSXBXhXgX5XpXpXvXpXaXnXMXVXCX4XfXfXpXnXVXNXBXMXBXnXsX5X6XpX6XrXnXHXdX,XsX6XdXgXgXjXsXfXsXsXiXgX;XrXrX;X6X3X<X4XsXvXhXvXjXdXnXfXpXfXtX4X>X@..X4XyXyXyX6X3X;X6XrX6X3X3X7X7XpXvXhXpXbXHXSXfXHXKXKXKXKXLXLXKXLXHXSXVXSXSXHXKXJXJXJXKXJXSXJXHXJXSXNXVXNXSXVXNXHXMXBXhXhXjXBXBXkXhXBXNXHXHXHXSXHXAXNXAXNXAXHXAXHXHXHXHXBXBXHXJXHXnXpX5X4X6X;X:X7XMXzXyXdX8X;X2X8X6X7X3XO.+... X.X.XX.#X X|.K c ' '.oX}..X..^ $X+.^ x.OXL u q & & . @ c z k x G H Y '.v.t.d.p.K c.x.9 ] ....( h . 2 X 2 k x c v c c _ ^ o.#XnXMXSXHXNXHXJXMXHXHXHXLX:X+..XW ) ) _ Q + # E O.c ` I X.X.G g n 6 6 h E ! # $ j j j $ h +.x E v ~ x E ! 7 %Xx ^ 3 1 O k I b n ) b k jX<X+...v ` n 3 ^ ) z bXLXnXBXBX",
"<X;X4X4X4X5X6X6XpX4X;X;X.X:X7X5X5X5XpXpXaXaXzXbXnXdXaXpXrXpXpXpXiX6XiXpXpX5XpXgXpXfXpX;XqXaXbXaXpXgXaXfX5XpXfX7X5X4X5X8XyX3X4X5X5X5X4X6XrXgXjXkXAXAXHXJXKXJXJXLXLXLXJXHXJXHXMXzXHXMXVXNXMXVXAXJXHXJXKXLXLXLXLXLXLXLXPXCXxX0XxXmXcXmXZXxX8X2XCXxXyX7XHXLXLXLXHXHXKXJXHXHXJXKXKXJXJXJXHXNXVXHXHXHXNXAXHXHXAXNXAXHXSXHXHXHXHXHXHXJXHXSXNXnXnXnXBXnXnXnXfXnXvXnXgXjXgXsXpX5XxXVXmXnXNXzXfXmXVXMXnXsXmXzXaXqX7XfXnXMXsXfXpXMXMXMXSXMXkXfXrX6XgXbXsXsXpX5XpXpX6X6X;X5XyX7XyXzXnXdXhXsXsXpXsXpXgXiXpXjX5XpXbXdXyX3XfXfXcXfXpXsXfXmXnXsXpXfXBX2XaXxXaXhXnXVXnXnXVXHXHXLXLXLXLXHXHXKXKXHXJXJXJXHXHXHXJXAXAXfXvXMXMXnXMXVXSXVXNXAXAXnXjXfXjXzXgXfXnXBXSXAXNXBXBXVXvXfXnXhXnXnXAXBXMXHXkXkXNXBXBXBXhXBXMX4XdXMXnXyXzXVXKXKXKXKXHXHXVXHXHXKXKXKXMXbXmX;X:XyXdXdX3X:X:XXX1X$X.X_ ^ O.o.` ].' k v G c k _ :X3X;X3XtX;X.X$X1X$XoX|.1XbXvXsX>X#X#X+.+.( #X[ ^ $X6XyXsXjXhXsXsXMXMXjXnXNXHXHXBXAXHXHXLXKXHXKXBX3X,X$.+.o.O. .2 @ 8 ) c c I X.#Xn v $ j j 6 j Q Q j ! x j j j j $ 6 x ) ! Q E Q $.^ G I I I v g I O.x # 2 ) x O.X.#.b k o ~ c ] vXHXBXSXNX",
"pX7X5XpX7X7X5X5XpXsXsX5X;XaXfXfX5X6XqXfXfXfXgXbXzXpXpX7X5X0X7X5XqX5XpXaXsX7XpX0XpX5X6X5X5XaXcXsXaXfXaXaXfXfXfXfXdXaX5XpXrX5XaXpXfXyX6X5X4X4X6X,X,XsXfXBXAXBXAXHXSXNXBXBXnXfXjXfXjXfXzXvXpXpXpXgXhXNXHXHXHXJXHXHXJXKXLXLXLXLXLXLXLXLXLXLXLXLXLXLXLXLXLXJXJXGXBXNXNXhXVXHXSXnXMXNXnXzXMXnXMXGXHXHXJXHXHXHXHXHXHXHXSXnXzXHXAXnXVXBXBXBXpXpX5X;X4X5X7XaX7XpXfXsXpX5XaXgXNXxXmXMXMXaXcXVXMXmXzXNXmXnXvXnXMXbX7XpXpXNXmXmXzXnXMXVXbXxXfXCXrX$.6XNXmXvXjXaXcXbXbXvX3XyXrXaXdXgX5X;XpXsX4XpXpXnXhXdXzXnXdXMXfXzXmXnXiXpXpXpXzXmXnXvXMXfXrX5XfXyXbXfXMXaX7XgXbXaXhXhXSXKXKXKXLXHXKXLXKXHXHXJXJXMXNXHXAXAXNXMXBXMXMXAXHXnXnXMXjXkXiXiXhXjXvXvXfXmXfXnXnXnXMXmXVXnXsXiXsXpXrXpX5XgXsXfXhXBXAXAXAXBXnXiXrX7XmXNXnXHXSXCXVXHXVXHXHXHXKXHXHXHXHXHXKXHXKXKXHXHXCXKXHXKXHXCXCXzX0X8X X/  X#.J U $XyXbXCXMXHXHXLXKXKXJXHXHXSXHXSXHXHXKXHXSXHX-X...Xb # . $XMX5XkXAXJXHXnXkXnXnXAXVXHXHXNXHXMXnXMXMXmXzXcXqXVXHXAXhX6X6X.X.Xk X.G + E z U  X.X.Xv k j h ) j j E Q j Q Q ) o.) O.j $ # j E E *.h c ( v ] ......G k n O O O O 3 b o. .n G v W ^ :XhXMXnXNXBX",
"nXgXaX5XpX5XpXdXpXqX0X5XvXzXfXcXSXvXpXpXfXhXaXmXMXfX5XfXvXxXaXaX7X1X5XpXgX7XfXaX5X4X7X0XpXxXaXpX4X2XcXzXaXvXsX5XpX5XyX4X2XaXpX7X5XyX7X5X7XpXaXdX4XpXaX4X6XsXpXfXfXpX5XpXsX5X6X6X5XpXpXyX7XpXpXaXpXnXNXHXKXHXSXHXHXKXHXKXKXKXJXHXJXHXHXHXKXJXHXHXHXHXHXHXnXnXvXnXBXMXnXhXsX0XpXpXaXxXnXzXzXaXbXcXcXNXMXnXBXnXnXfXvXNXNXNXvXfXpXpX5X0XyXyXfXaXfXpX8XxXMXaXvXxXzXfXzXpX0XMXgXmXmXmXVXVXnXMXMXHXCXpXfXfXgXmXfXxXaXnXcXmXMXMXVXVXSXMXmXmXdX3XaXmXzXfXfXfXzXCXnXnXbXpX4XnXhXdXaXyXpXbXzXpXpXnXbXsXzXvXzXaXgXzXmXaXfXvX4XpXxXaXnXVXMXdXfX2XbXNXMXfXnXbXzXfXmXnXfXzXNXHXHXHXKXHXHXHXHXHXHXAXpXNXhXHXNXNXNXBXkXgXBXkXfXfX0X6X6XpXgXyXaX,X6XpXsXvXmXdXpXfXMXvXnX5XaXyXpXpXyX4X2X;X5X4XgXBXBXMXNXNXBXiX7XJXNXnXhXBXVXVXMXHXSXHXHXHXHXHXVXHXHXVXGXHXHXGXVXHXSXHXHXHXHXHXJXHXSXHXHXVXCXzX7XHXKXKXHXHXHXNXHXHXHXHXHXNXMXSXSXHXHXHXNXAXNXsX.X3X#XX. XX.3 5XpXiX@.;XhXfX5X5X5XvXSXAXHXHXHXHXJXJXKXKXKXLXKXKXKXHXHXNXSXmXVX6X X3XO.h @ v I  .( I (  .x ) ) o.+.j $ E c  X:XrXSX@..X+._ <Xo.o.+.#X:X.X:X Xb b g k 3 J l 2 2 2 6 @ # @ 2 k h _ rXBXpXBXfXnX",
"0XgXsX7XpXfXpX5X5XaXpXqXpXpXmXzXaX5X5XqXhXgXmXfXaXgXzXMXMXnXfXMXvX7XyXfXmXxX5XpX5X2XzXpXpXxXvXdX4XpXMXzX6XgXfXyXaXfX5X5XpXaXdXaX0XfXsX7XpXaXfXfXdXfX5X0XaXaXaXxXzXzX7XaXgXpXzXxXfX7X1XwX0XbXgXnXsXfXgXMXHXHXHXSXHXHXMXNXNXMXnXnXNXNXVXHXHXHXMXnXfXnXzXfX6XfXsXyX6X5X5XpX6X7XgXaXpXmXmXnXmXzXnXfXmXmXaXzXmXxXaX7XnXmXVXmX0XzXmXbXaXnXmXbXfXzXfXyXcXmXfXfXyXaXxXaXnXCXxXMXbXgXVXmXzXNXBXzXMXmXVXxXbXMXzXzXmXbXmXcXcXSXVXVXHXVXVXSXHXmXMXVXCXzX5XpXgXvXmXnXdXdXfXvX6XnXhXfX7XvXvXxXzXdX7XgXaXpXpX5X5XaXaXvXBXvXpXpXrXyXMXVXhXfXvXfXfXmXmXMXcXfXMXfXaXCXmXxXzXaXnXmXNXHXVXmXMXMXMXaXHXyXzXKXfXnXSXhXhXnXhXvXpX5XgXvXfXdXfXfXsXdXMX6XvXsX5XhXnXpXsXrXaXpXsXaXbXvX5XsXMXbXxXaXyX4XpX0XcXnXvXBXjX5X4XsX5XfXnXnXmXNXNXnXNXNXNXMXBXMXnXfXgXfXzXzXfXbXfXzXfXgXfX0XnXcXmXMXMXBXnXAXBXjXnXNXBXkXjXhXMXnXnXnXfXsXrX0XpXvXfXbXpXqX5X,XpX;X;XyX6X6X;X0X X#X;X5X6X5XaXzXpXgXhXaXfXnXaXgXgX5XNXNXVXMXmXVXLXLXKXKXLXKXKXLXKXLXSXfX4X;X.X$X5X1X;X XX.o.c #X) 3XvX>X+.$X3X6XMXNXfX5XbXBX:X#.) ..#.G X.:X4X Xv ] .X.XX.XX.X XX.X.( / X.X.v 2 O.<XsXNXhXfXnXBX",
"6X5XpX6XpX5X5X4X5XBXyX2X4X4X5X;X;X5X6X:X2X4X5X5X;X6XfX5X6X5X6X:X;X4X0XmXMXmXaX7X5XzXcX5X0XgXzXsX;X4X0XpXaXzXfXaXzXaX4X4XpXaXgXpX8XaXaX7XaXvXaX5XzXnXfXmXCXMXHXNXhXfXmXfXxXzXfXmXbX1XoXoX8XpX6X5X#X.X7XaXfXnXnXNXSXVXvXvX7X0XpXpXqXfXgXnXgXgXaXzXfXfX7X5XsXsX7X2XxXyXmXdXzXCXHXMXbXxXzXpX8XaXBXVXmXVXVXVXVXmXVXmXHXHXVXKXVXVXzXzXSXCXCXVXmXMXzXMXcXMXnXmXaXpXmXCXzXnXnXMXzXxXmXbXaXcXmXVXzXmXzXzXVXfX5XdXfXVXzXaXfXnXmXVXHXmXHXMXxXmXVXSXmXmXzXbXjXfX4XxXBXsXaXpX4X4XpXpXpXfXfXyXfXzXzXpXnX5X1XaXfXaXfXgXfXfXbXaXdXvXvXVXzXMXNXvXBXAXaXVXMXVXVXzXnXVXHXVXCXnXMXNXgXmXCXVXgXbXBXpXzXGXLXJXHXMXMXfX5XgXbXBX5XrX0XnXdXzXnXgXaXfXfXfXzXaXaXfXfXpX6X6XrXpXsXfXfXpX3X7XMXvXpXvXzXaXxXvXmXpXyX5X4X5XdX5X6XzXfXfXpXfXhX7XpXgXpX5X5X0XpXgXMXvXfX8X0XpXfXpXpX5XpXzXzXzXMXaXgXfXpXpXgX6XsXfXrX5XfX5X6X5XfXpXpXdX7X7X3X4X4X;X3XrX4X3X2X6X;X;X7XgX4XXX;Xk G ( 2XzXzXzXxXzXMXvXbXzXmXbXzX2XzXmXbXhXmXCXmXmXSXHXHXnXNXfXfXfXMXfX..+.MXzX0XsXpXfX.._ ` X.$XrXpXpXbXxXzXbXbXnXvXMXhXAXnX3XvXvXdX5XI n g I }.2X5X6X:X4X-X X}..X#X....#.v  XsX#XhXfXfXfXhXpX",
"gXfXgXaX4X;X4X4X:X2X5X2X5X;X2X;X2X6X;X;X6X;X6X6X4X4X4X;X6X,X:X:X2X2X;X0XpX6X4X;X:X-X;XgXxX0XpXyX+...2X6XxXzXzXxXzXnXaXaXaX5XaXaXaXfX0XzXvXxX0XgXnXfXnXdX6XgXpXmXdX4XgXyX-XpXaXcXVXyX1X1X6X-X:X6X:X#X6X6XsXfXfXhXBXhXfXzXdXgXnX7X:X6X5XaXpXfXCXNXpXaXyX;XaXzX7X6X5X8XxX5X8XVX4XnXmXxXmXvX7XVXVXVXCXVXNXHXGXKXLXKXCXmXKXKXHXKXCXVXmXPXVXMXVXmXCXbXzXCXSXVXmXCXVXHXVXCXzXcXVXVXPXKXKXLXKXKXHXKXJXmX7X6X6X,X:XpXaX7X5X6XfXNXaXnXVX0XaXpXyXpXVXzXVXHXCXmX6XzXdX5X0XvXaX8XaX5X2X5X5XaX5XzXMXvXNXsXaXSXSXHXSXVXVXCXbX7XnXnXpXnXmXmXBXaXnXmXmXzXVXCXVXKXHXHXVXKXxXsXcXnXdXmXzXVXVXCXMXvXbXcXnX6X,XgXMXsX6XsXpXyX6XvXdXcXnXaXpXgXsX5XrXpX5XVXaXfXNXfXrXfXhXjXfX4X5XpX5X5X5X8X6X0XfXxXzXnXxXfXpXaX5X6XfX6X6XaXpX5X;XpXpX8X7XpXyX5X>X.XdXaX5X,X6X2X5X4X5XhXnXpXfXgX5XnXCXnXzXbXvXzXpX.X5XsXzXfXsXpXdXfX6XaXpXdXbX5X0XxXaX5XaXmXpXaXpX5XsXsXnXpXfXpXrX..;XxXxXbXmXzXNXnXzXmXfXzXCXCXMXxXmXSXnXnXCXMXmXNXSXCXfXaXzXpX2X7XmXNXdXyXmXMXSXmXsXyXvXnX:X6XsXpXpXpXfXgXaXgX5X4X5X6XpXfXhXBXSXHXHXHXnX.XX.rX7XaXpXpX4XdX6X8X5XyXrXrX;X;X$X6XrX6XsXpXzXaXBXgX",
"fXfXsXpX2X2X4X5X1X;X2X5X6X2X5X4X;X4X4X5X5X5X8X6X5X;X4X;X#X:X;X5X5X6X4X;X2X;X:X;X2X.X+.-X2XzXzXpX3X;X6X:X;XqXzXmXzX5X;X;X4X#X2XpXpXsXpXpX5XyX1X6XgX5XpX:X+..X4XgXgXdX5X;X>X5X,X6XpX5X5XsX4X5XsXrXsXfXsXhXjXhXnXvXfXnXsXgXzXmXbXaX6XfXbXCXnXzXcXvXgXfXiXrXgXfXfXvXfXdX7XyX7X6X..;XgX7XfXdX8XnXnXgXpXqXnXgXzXnXzX0X6X6XgXaXpXaXVXdXmXSXVXfX0XCXNXpXmXzXzX5X0XMX0XfXpXfX7XaXMXgXnXmXgXnXpXgXpXpXpX4X6XrX,X6XrX5X;X;X>X2XgXzX7XpXzXzXzXfXaXVXHXfXnXMXVXHXmXfXfXzXaXzX7XaXbX7XxXbXdXaXfXMXmXMXdXsXaXzXhXcXGXVXnXBXHXpX8XnXpX1XpXMXpXnXSXHXVXGXHXmXGXzXcXmXVXmXzXbXmXMXVXVXnXMXMXsXMXSXSXhXjXsX,XpXMXVXhXBXMXvXzXfXnXpXfXpXsXiXsXsXpXMXAXgXnXnXBXBXfXjXpXjXnXvXsXiXpXfXsXpXyXpX6X7XpXrXaXvXrX4X,X#X5X6X5XnXpX5X,XiX4X6X6X6X<X,X:X:XrX4X;X#X3XpX$X2X<XpXfXiX;X8XyXvXfXyXcXNXsXpXmXCX7X8XVXmXfXpXaX6X4XaXaXzXzXyXaXCXVXaXaXVXxXzXzXfXbXsX5XMXSXNX;X5XaXSXnXfXxXxXxXsXzXgXpXmXHXzXzXbXxXMXNXxXCXxXMXgX8XNXNXaXaXnXdXzXzXzXaXcX0XfXnXaXpXpXnXdXdXMXaXyXxXzXzXfXaX7X7XzXfX7X6X7XyXsXsX5XpXiXiXvXzX0XqX4XpXfXaXvXgXvXcXfX4X5X5X4XsXfXdXnXsXMXNXnXgXBX",
"0XiX5X5X7X5X6X2X4X8X6X6X6X6X5X6X;X4X6X5X5X4X2X4X6X4X6X5XrXrX5X6X6X5X5X5X4X4X6X4X4X;X;X#X:X6X4X X#.4X6X;X2X6X5X5X6X6X:X@.#X#X#X2X5X5X;X-X-X:X<X4X5X6X2X;X#X@.-X7XfX5X,X;XpXpXiXrXfXgXsXhXsXjXAXBXMXNXNXNXMXBXVXSXSXSXnXVXHXHXSXCXCXNXVXSXMXmXzXnXvXjXnXzXhXiXsXvXMXMXmXBXnXsX5X4X5X2XfX5X6XpX5XpXfXyXsXyX7XxXvXfX6X6XzXxXxXpX4X4X;X7X5X5X;X6X4X6X5X3X4X6X4X;X7XsX4X4X6XyXpX7X5X6X5X6X4X6X6X5X5X6XsXrXrXpXpXpXpXiXrXsXzXvXVXNXnXVXmXmXMXVXVXzXMXnXnXVXfXpXcXvXdXsXyXsX6X;X5XrXpXsXfXgXnX5X2XaX3X4X4X5XqX5XpX,X4X6X6X5X,X;X5XdXfXpXzXMXpX4XpXnXhXzXNXzXnXNXnXnXMXNXVXMXNXMXHXBXnXhXBXsXsXjXhXAXMXnXiXjXMXhXhXnXzXdXsXrXpXaXsXsXgXsXaXhXhXNXMXnXsXiX7X8XfXnXvXfXjXmXvXgXzXpXpXqXgXrX6X5X6X>X-X#X;X3XvXnXfXvXvXhXiXhXrXyXpXrX4XrX;XrX6X7XfXpXyXyXsXyXyXyXaXzXgXpXyXaX7X5X6X4XpX6X4X5XxXmXVXvXbXVXcXCXHXVXVXSXpXgXzXaXaXVXSXVXVXmXzXsXrXfXMXBX4XfXnXnX7XxXHXSXCXaXzXxXvXzXPXCXbXzXmXVXVXxXmXmXaXzXzXdXvXaXfXxXaXzXxXbXxXNXfXxXnXbXaX8XpXzXMXmXMXzXzXvXzX0XaXmXMXvXpXpXyXxXbXzXaXdX5X5X5XzXfXpXsXyXfXnXdXhXvXzXvXsXsXnXjXpXpXhXnXsXfXnXnXMXzXBX",
"sXqXpXqXpX0X5X5X5XgXgXaX6XqX5XiXpX6X6X5X5XaXsXpXgXaXcXMXBXhXhXiXiX5XpXiX,X:X;X0X5X2X4X:X$.-X4X:X.X-X6XfXgXgXpXzXpX5X4X4X4X6X;X.X#X:X:X-X:X:X,XpXpX5XpX5X-X4X6XfXsX6XsXpXfXvXvXcXfXnXMXAXvXnXMXNXHXHXVXHXKXLXKXKXKXKXKXKXKXKXHXHXSXVXVXVXVXHXHXSXVXAXVXMXMXMXVXMXNXMXSXHXHXNXMXnXpXpXzXhXmXNXMXNXSXHXSXNXMXVXVXvXzXfXnXcX.X2XdXdXrXpXrXaXpXpXdX6X;XrX;X5XrX4XfXsX5X5X5XpX4X5XfXsXsXBXvXpXhXsXsXiXpXsXfXsXjXbXdXpXnXVXSXCXmXHXVXGXHXHXHXVXHXHXVXVXNXSXVXCXnXhXfXhXnXvXhXfXsXdXhXsXsXsX4X6XsXrXrXsXfXnXsXiXsXpX6XyX5X;X;XtX4X5XrXrX5X4XiXrXhXnXnXMXSXSXSXHXBXBXBXNXHXMXmXMXNXhXhXfXnXjXjXsXMXBXnXhXfXdXnXpXpXhXfXsXsXsXfXpXsXnXdXpXsXAXNXSXHXSXBXfXMXCXsXhXhXzXvXfXNXMXzXbXgXsXfX5X4XrX6XyX6X6X>X .zXBXfXhXnXpXgXfXpXvXfXfXjXbXbXzXaXpXpX0XzXzXfXsXsXvXnXzXaXaXmXpXfXsXgXpX7X4X0X;X4X;X6X8XMXHXgXMXHXmXmXVX6X-X3XzXsXMXmXpXnXaXxX5XpX;X:XmXaXMXxXmXCXHXqXmXHXHXVXNXVXSXKXMXpXpXmXNXBX5X5XdXmXzXBX:XaXgXaXnXxXHXmX0XmXHXmXmXMXSXnXzXmXzXMXmXmXVXnXfXmXmXzXzXcXnXaXyXbXbXmXzXaXpXnXpX0XgX6XsXfXrXpXsXpXfXBXfXfXfXnXAXBXnXBXBXBXkXMXAXfXMXAXsX",
"gXsX,X5XgXBXgXnXvX6XaXSXfXzXmXnXmXxXnXfXgXnXMXVXpXgXVXMXkXkXnXfXsXsXsX5X6X5XpXpXaXxX6X;X.X.X;X5X>X-X0XfX;X6X8XcXvX;X6XsXpXpX6X$X:X6X6X6X6X4XrXpXsXsXvXmXrXrX6XrXpXrXpXpXfXnXMXhXnXvXNXSXNXNXMXfX6XpXsXnXfXcXNXNXNXMXGXHXSXHXHXNXGXNXNXNXNXVXNXNXHXNXBXNXMXNXNXNXNXNXnXVXVXMXnXMXNXSXVXHXSXNXNXMXNXVXSXVXMXVXSXVXSXBXnX0XaX7XnXsXgXpXfXfXpXpXfXgXsXsXfXvXjX7XpXpXpXiXrXrXyX5XiXpXpXgXvXhXnXnXNXMXmXnXBXBXsXnXvXNXHXSXHXSXNXMXVXVXHXGXVXHXVXzXMXHXHXHXKXHXVXBXMXSXNXMXBXAXBXBXnXBXhXjXsXsXsXjXhXgXzXnXnXnXdXsXMXvXsXsXsXfXhXjXgXjXnXNXVXnXNXHXHXKXHXHXKXLXKXSXHXHXVXGXMXAXNXnXSXAXAXMXAXjXBXBXnXsXnXBXBXBXjXiXhXnXvXsXMXMXhXnXMXSXMXnXBXHXHXHXNXBXsXMXMXjXnXNXMXBXnXBXMXBXBXsXfXBXnXhXfXsX5XiXb c pX>X5X0XfXCXVXNXBXnXnXBXhXmXMXMXmXmXgXfXnXMXvXnXnXhXNXNXmXnXzXnXrXfXpXdXpXpX0XpXyXpXaXpX0X6XpXpXpXgXsX7X7X5XyXbXpXpXpX0X5X8XaXaXbX7XpXmXnXMXmXVXgX6X1X2XaXHXaX7XaXnXcXyXpXaXfXhX7XyX7XfXgX-X#.X.7X4X:X:X:XpXmXxXxXnXmXfXnXnXzXbXmXnXgXaXNXVXVXcXaXMXzXmXSXVXCXzXMXHXfXsXaXaXvXzX6X4X4X;X6X6X5X4XdXfX5XgXvXgXgXhXhXhXnXMXHXNXHXHXhXSXNXBX",
"<X$.#.;X6X.XR #. .#.;X4X;X6XxXcXmXcX5XqXzXfX6X.X#.4XcXvXrXqXzXnXMXNXkXNXAXVXrX0XxXaX8X0X6X4X4X;X:XX.5XpX5XmXcXzXmXxX5XpXgXsX5X>X<X>X,X4XrXrX6XpXgXfXcXNXjXrX6XsXsXfXdXsXfXMXNXMXmXMXNXBXMXHXNXNXvXBXSXBXvXnXBXfXnXBXnXNXMXnXMXMXNXNXVXVXSXHXVXnXNXAXNXSXHXNXVXHXMXNXNXBXNXHXNXVXVXHXHXHXVXMXnXkXnXnXcXzXnXVXHXHXHXMXmXBXAXSXMXhXnXNXvXfXnXhXnXMXBXnXhXjXgXgXpXhXnXsXpXrXpX5XqX5X6X6X5X5XsXpXfXBXsXpXnXBXBXnXNXHXHXVXNXHXNXfXVXHXHXMXVXVXCXVXHXHXHXHXHXKXHXSXHXSXHXHXHXKXHXSXSXHXSXSXNXBXNXSXVXSXNXVXMXVXHXVXmXMXMXVXHXmXzXnXVXHXHXKXKXKXHXKXVXHXPXVXVXVXVXVXVXNXHXHXVXHXKXHXHXHXHXKXHXvXNXSXHXHXSXAXNXBXMXnXBXBXMXVXNXnXjXnXVXKXBXNXSXHXHXHXSXHXzXfXAXnXfXNXNXNXnXnXMXpXhXvXvXnXBXjXMXsXpX-X..tXrX;XpX.XpXHXSXGXnXMXnXnXvXBXnXnXpXgXgXjXsXBXBXnXnXMXMXnXnXnXnXvXyXmXnXhXfX5XaXrXsXzXfXfXzXvXzXmXfXyXpXaXzXfXaXsXaXaXaXaX5XbXfX5X5X5XfXfXfXaX7X0XaX6XvXpXyXfX5X2X6X6X6XvXmXmXfXdXfXmXcX0XgX,X.X:X8X5X;X6X5X.X;X;X8XmXHXCXNXmXVXnXmXVXMXxXaXNXmXzXnXaXmXVXCXbXVXzXaXmXbXfX7XzXnXqX5X7X-X-X:X:X;X6XxXgX6XhXNXpXpXsX6X6XiXsXkXBXAXNXAXLXHXJX",
"_ k #.....3 o 3 b .X X.X#X:X8X8X8X:X...X2X6X#X'.XX X;XpXfXfXmXNXnXgXkXkXjXzXsXiXpXqXaX8X:X,X4X4X4X;X4X5X,X5XcXBXCXCXcXcXvXnXsXrX5X>X>X>X4XiXsXpXmXMXMXVXVXdXiXsXsXhXMXnXfXNXAXSXMXnXjXMXVXHXmXVXAXmXmXHXHXSXHXHXSXKXJXSXBXSXVXHXHXHXHXHXHXHXVXSXMXNXnXnXBXBXBXVXMXBXNXNXBXnXNXNXNXNXAXMXNXBXBXkXnXnXvXmXmXNXmXcXVXAXVXiXjXHXVXHXHXnXnXHXJXHXHXHXSXSXBXNXHXnXMXSXNXNXhXnXvXvXvXBXmXzXSXmXCXMXnXfXsXhXBXnXnXVXBXnXnXNXHXHXSXNXNXHXHXKXJXHXLXLXLXHXJXLXLXLXLXKXLXKXLXKXLXLXHXHXHXHXBXfXNXHXVXHXHXJXHXHXMXVXKXKXHXHXKXHX5X2XCXaXaXcXVXGXfXgXbXeXxXxXFXFX9X8XbX0XcXzX0XVXSXVXnXgX5XpXfXnXnXnXHXHXHXLXKXHXKXJXnXMXNXVXHXAXHXvXgXNXHXLXHXVXHXHXHXHXNXBXHXVXjXnXnXBXhXhXBXsXvXsX5XnXvXnXSXNXnX5X;X6XnXnXjX>X:X;XLXfXmXHXVXNXnXnXBXBXMXAXMXMXBXjXBXnXnXnXhXNXAXhXMXAXVXMXAXMXfX6XvXdXhXiXvXNXnXVXHXAXMXnXMXSXpXpXvXSXnXMXvX;X7XzXvXmX,XI I .X;X5XfXcX2X:XpXMXvXpXgXpXpXsXsXhXsXsXnXmXMXgXvXnXzXaXbXpXzX5X5XpX6XaXzX4X2XwX1X7X7XfXmXVXVXSXCXGXnXHXcXaXnXfXmXcXmXVXVX4X7XHXmXgXpX7XaXpX5X7X8XaX:X4XsX6X6X-X.XyXzXgXfX;X;XiX:X.X:X:X6X5XrXkXAXAXkXAX",
"'.oXI X.:X+.U [ +.oXoXXXXXXX@X|.oX@XX.wX8XyX$X'.|.|.I @.-X;X1X;X5X6X6XrXiXrX6X5X;XwX:X6X2XaXsXzXrX>X,X5XgXcXVXmXGXHXHXHXVXcXnXNXmXfXpXpXiXsXgXfXMXnXMXNXSXNXfXnXNXAXHXNXNXnXbXNXVXSXVXMXHXHXLXKXHXHXLXLXKXLXSX)  .-X-X,XGXKXHXSXVXHXNXNXmXMXvXmXNXMXHXKXHXSXSXSXSXVXnXfXnXNXAXGXGXHXHXNXkXkXAXJXHXNXJXNX-XcXaXKXSXMXgXnXKXbX:XfXjXjXiXiXiXkXBXHXHXHXGXHXHXNXfXsXBX<X#.#X,XnXnXjXcXVXGXnXsXzXmXcXnXCXnXHXHXHXNXHXHXHXHXHXNXHXJXJXLXKXAXJXHXHXHXVXHXKXKXHXHXKXHXHXHXHXHXBXkXhXiXnXjXhXBXAXHXBXiXiXqXiX5XrXBXgXfXgX#.#.;XmXxX5XXXoXeXZXxX6X7XeXZXFXFXeX9XeXeXeXxXxXCXCXFXPXcX7XxXZXxXaXrX3X2XzXNXmXHXHXNXbXBXnXBXnXnXnXHXhXJXHXJXLXHXHXHXHXKXHXHXBXHXLXnXhXHXhXsXhXhXMXnXnXMXSXNXSXVXVXNXNXvXhXAXHXSXhX:XHXHXNXNXMXBXMXfXsX,XiXjX,X6XrX>XrXBXfXpXgXhXiX6XpXaXhXAXfXmXMXhXNXBXfXvXNXfXMXMXvXBXfXfXhXnXnXMXNXpXrXkXfX7X;XXXBX,X@._ `  X:X ..X:XaX7X;XXXSXMXBXBXgXfXnXMXpXpXMXbXzXVXNXfXnXBXiXaXfX5XaXaX0XmXnXaXCXzXfX5X8XaXfXpXpXSXzXfX6X;X5XzX0XpXyXVXnX5X2X5X:X;X4X4X6X6XyXdXsX5XpXfXpX6X:XiX-X@. .$XpX-X.X#.#X6X6XzX6X3X5XyXpX#X5XjXjXqXpX",
"oX@X|.oXwX}.v.'.'.v.v.v.m.v.K A K S x }.@XoXv.v.|.m.L K Y v.x.].'.[ X.+.:X2X.X-X+.( .. ..X:X5X4X:X5XrXfXpXpX-X2XCXKXCXGXLXKXKXHXHXKXHXVXVXVXnXnXBXnXhXVXKXHXJXKXKXKXSXKXKXKXLXLXLXHXgX>Xb x b  . .qXpX4XaX-X#.XX1X#X.X.. .-XgXMXGXGXKXHXCX0XVXHXSXMXtX .#.<X-X@.-XqXfXhXjX4XgXjX,X-X6X<X-XiX,X,XsXsX<X@.;X7XcXLXHXHXVXHXNXMX>X:Xo.W .X-Xo.o.o.+.#X.X-X-X-X@.@.@.@.W `  .W  . .W ) @.#X .) .X-X.X@.-X4X,XgXjXqXpXBXHXVXNXnXSXGXHXHXnXpXnXcXVXSXSXPXKXSXCXKXKXCXCXcXZXbX3X1XaXxX9X9XeXeX9X1X.X.XXXX.#.+.$.>X.Xo.) 2 I 6XgX6X7XyX9XeXeXxX5XsXbX1X@XZXeXeXeX9X!.@X9XeXeXeXeXeX9XeXeX@XoX9X9X@X9X-X2XgX7XaXaXvXvXfXjXyXnXNXnXBXkXHXLXMXnXNXHXKXLXnXqXmXHXNXfXMXvXhXnXBXSXAXMXNXBXnXNXHXHXBXjX,X5XNXHXJXJXSXNXfXgXhX,X#.#. X#X( .X^ O.X.;X6XpXzXgXyXzXzXaXcXbXyX;X4X6XzXsXfXcXaXbXNXnXnXnXNXAXNXAXHXHXSXnXnXHXfX.X#.dXnXnX-X#..X$X7XsX4X.X] 6X;X4XbXxXzXgXHXSXBXSXnX:X6XgX2X4XpXkXiX7XVXqX-X1XxXqX4XHXnXzXaX5X7XmXmXbXzX7XzXhXpXfXpX5X6X5XyX6X4X6X7XMXfX7X5X6X;X;X4X;X;X;X:X:X;XrX4X-X:X.X-X.. .j # 2  .#.k  X#.O.5XpXsXhXsXsXfXpX4X;X4XfXvXnX",
"v.|.v.m.v.Y Q.m.i.q N b.Q.v.Y F S 2 O 5 l.m.i.m.m.b.i.v.m.m.m.m.x.S ` ^ [ }. ...2X>X#X4Xo.x ) )  .o.Q  .W W h O..X:X:X:X;X;XqXMXGXLXLXHXKXLXHXHXHXHXVXLXLXLXLXKXJXkXBXMXHXnX5X4X.XW b .._ E 3 oXoXI b .X>XO..X6X,X>X>X:Xo.j # 3 n x  .#.4XnXnXMXnX5Xk ` z $ j E  .$. ..X;X#X-X@.j h b -XtXsX,X$.$.o._ #.iX#XzXJXVXNXJXHX4X,X-X#X+.) o.%.o. .` ) ` / ( .X$.O.+.@.$.+.o. .Q O.@.+.+...X.@.O...+.+.] O._ ] +. . .#X-X.X-X-X,X;XqXfX6X;X6X7X7XxXeXeXZXbXxXFXeXeXeX9X=X*X=X*X).*X+X*X*X*X*XE.+X!.OXn.OX@Xm.[  X#Xo._ :X#X#X.XoX1X@X+X@XOXXX.X#X&X@Xn.H.E.+X+XR.Y.9X+XE.E.+X+X*X=XeXeXR.y.E.eXeX@X X#X...X0X0XxX2X5XpXgXnXfXfXsXnXHXJXHXxXqXnXHXnXnX:XBXBXNXSXJXSXhXMXnXMXBXkXkXBX,X,X<Xo.x I ( b b @.#Xo.Q W ..;X-X@.c [ 1XXXv.1X1X8X9X9X6XxXaX6XpXaX8XeXFXZX0XwX;X:X6XpXfXnXzXNXNXBXiX5XnXJXHXLXJXsXnXHXHX6X4X.X[ MXKXfX^ 7XHXVX0X2XaX#X;X ...1X;X,X.X.X-X-X,X,X<X....#X0X#XI #.n k  ..._ #.,Xx k 5XpXHXCXCXzXKXKXSXCXHXfX5XiX7X5XbXfXvXdX6X5XpX6X-X;X;X6XiXyXhX6X5X5XfXpX6X4X;X4X6X;X@.x ..b X 2 XXb k x k b ^ #XpX-XO.<X;X6X,X,X;XpX5XpXfX",
"v.].L l.v.v.Q.b.p.s - m.b.A Q.oX X X$XF l.~.b.m.m.l.b.v.v.m.x.Z p S E j E W z ` .X) o..X` ! E j h 3 @ + b  .+.O.E c ) o.O.].b.|.oX;XiXMXHXHXnXCXLXLXLXKXHXBX,X-X-XO.@.@.@.#._ #XQ h G n ! o.o.o.+.+.o.+.o.) o.%.Q j # Q $.%.{ Q 8 8 h j -X-X-X-X#X#X>X>X#X>X>X-X-X#X<X>X,XtXtX<X$.) +.] @.>X<X-X<X$.#X-X.X.XBXHXSXJXHXAXrXpXrXQ j h x W ) ] ~ P v.v.D `  .) ^  .O. XO.+.+.@.#X$X#X:XO.) _ H '.oX|..X` }.|.}.}.oXXX X.X#X6 b .X.X#X$X3X9X=X`.*X*X*X=X=X=X*X*X*X*X*X!.!.`.`.`.*X*X*X*X`.E.+XE.`.*X`.*X`.R.].#X-X#X#X$X#XXX+XY.+XE.J.].] #X+.].+XT.!.].U.W.Y.OX9XE.F.P.L.E.j.j.E.Y.T.E.L.@X9XeX@XOXOXoX9XeX9X&X1X1X-XO.:XiXhXnXBXAXAXBX,X@.4X5XMX6X-X<X6XiXiX,X>XtXsX-X@. .o.@.) # # + @ h h j c n n 3 5 L v.Y v.D K v.v.v.m.m.Q.}.m.v.v.}.}.}.XXXXXXwXeX@XoX@X1X.X@.-X+.@.@.@.iX,X . .-X4XiX,X4X4X5X@.>X@. .) ] ,X6X-X+.>X-X@.<XaXaX5X6XX.$X6X+._ k 3 # # h n # n j # n x 6 ^ ` _ ^ 3 G ^ g I 3 v :X,X;XrX;X:XgX ...6X#.b  .# n ..:XfXnX-X) I b l ^ b 2 g k @.b n b X.VXzXzXmXiX( .....X8XyXyXvXnXnX6X4X#.] +.1XpXrX.. .X.4XsX:X:X:X;X4XqX",
"l.l.A v.x.l.x.a.p.w m m.l.v.|.wX1XwX2X}.b.b.m.R.m.y.x.v.v.v.C q w 4 h j j j 8 W ` W ^ ( j j 6 7 9 c o.O.#X@.#X+.) Q o.o. X5.g.T.Y.v.] .X-X#X-X-X4XGXNX0XgX6XW x ) _ Q $ ( ) %.uX%X] ( j j ! j ! ! o.&.j ! ! Q o.o.! ! ! ! o.+.%.O.+.$.%.j ! o.%X%X$.$.%.o.$.$.o.! !  .Q o.) ! o.o.! n O.+.b x O  .o.@.+.:XsXJXHXKXLXKXHXBXnX#X7 # z W ) ^ Y x.n.R.c.S g '.[ U [ '.'.[ [ '. XoXOXoX X'.'.K v.+X{.OX|.v.{.+XR.R.x.c.v.#...~ +.#X+.}.OX@X*X*X`.*X*X*X`.*X*X+XE.E.*X`.`.+X`.!.*X`.+X+X=X).E.J.L.*XeX*XE.!.E.E.|.oX X'.h.oX1X&X).*X+X]. X XXX].n.W.Z.OX|.V.F.R.OXB.F.).W.W.F.=.4.F.M.T.d.T.+XT.E.`.L.E.E.+XeXeXeXeX@X&XF W ;X#X#X .4XiXO..X#XyXyXfXsXo.$.-X@.$.@.{ )  . .) ) ! $ $ # $ h h $ k H v.v.L l.l.~.~.A v.K i.x.i.T T A T T l.Y L L v.v.U v.v.Q.OXl.K K v.|. X X_ _ _ E Q c b 6 j ..-X#X,XpXpX.X6X+.^ z g Y W # _ ^ ^ W ( I ( ..+.+. .W v ^ O.c k ~ 3 o + X @ 6 3 k G ( +.#X#X_ +..XoXoX X.X) c ( (  .3 O & S #X@.@ @ 7 c k v n ) # 3 X.1X3X;X3X$X$X( v ~ / U o #.;X@.GXo.$XvXMXVXMXNXVXSXnXnXnXrX3XyXvXMX5XpXrXW ..#X.X5X;X2X:X>X6X",
"i.b.i.v.OX~.p.a.l.Z i.i.A v.oXoXXXXXXXJ T n.R.R.p.r.i.p.x.Y D 3 9 2 7 j E E Q Q x x j j h 7 7 9 k Q ] E Q o.Q { { {  .o.D > u.j.j.U.Y.].[ O.o.@..X4XgXpXnXjX@.O.+.) X # _ @.IXtX$XsX%.j $ ! ! ! Q &.o.$ j j &.{ ) o.o.! Q Q Q ) { { ) Q ! $  .o.o.&.Q ) ) ) ) ! ! # $ # j $ j &.! Q j O.+.X.$Xl n ! W ;XrXfXHXNXNXBXcXNXkX>Xc .X$X@.E J L m.x.x.n.a 4 b.b.P v.'.'.].'.'.K '.m.E.+X{.+XoXv.R.E.n.Y.E.R.`.).).H.p a 2 3 # h O. X|.Y.E.E.`.`.E.*X*X*XE.T.*X!.!.`.*X+X+XR.P.T.`.`.E.E.E.E.E.E.E.E.!.!.E.!.+XE.E.n.}.c.y.}.:X&Xv.T.C.{.oX|.+XC.F.F.V.OX9XR.M.V.+XW.B.L.L.Z.(.V.4.F.>.N.N.L.J.C.F.P.L.J.E.S.E.R.t.H.h.T.m.b.' ) E k >XpX>X#X,XaX6XpXjX$.-X .#Xo.X j o. .o.O.) j X $ # 6 9 3 # 3 C R.n.Y.~.a.b.@Xb.l.v.b.l.Y Y K K v.T T T T L T m 5 K K v.m.|.XXL Q.!.OXoX+. X$XO./ ] ` ^ k W <X@.#X4X;X4XqX+.` v.C D ` W / ] [ ^ '.].'.Y ^ W W k g 2 j ` c +._ 2 c _ O.+.#X:X:XtX>X-X@.>X>X;X;X$X3X<X4X#X1X:X( ] ` $XyX;X;X#XO.+.rXrXyX_ J X.1XxXxXaXpX9X@X7X6X] 1XCXpX$Xk n 3  .] zX4XcXVXnXmXmXBXMXAXfXiX3XMXJXnXfX5X>X) o .XqXpXpX5X-X@.@.",
"r.l.b.Q.OXm.l.p.l.p.h.y.w F F v.XXXXXXl B h.b.n.h.a.b.p.p.v.l 6 h 7 9 9 6 h x j h $ 6 h 8 3 5 4 J '.'.j ! ! E Q _ c k [ v.l l S x.f.V.U.n.x.oXXX6XrXvXvXzXzX3X+.O.#   h +.$.kXjXjXIXjX%X$ j ! ! ! ! o.! 8 j ! &.) o.o.! E Q o.Q Q ) &.) Q ! Q o.o.&.{ ) ) ! E Q ! # n 6 $ + j ) &.Q j @.) b :X3XW j Q >X4XSXHXSXsXgXgXnXfX4X;X#X) x W S x.OXR.E.R.P S 9 D '.'.].].OX'.[ v.m.b.R.m.].m.|.].p.'.v.m.V.f.Y.T.E.R.y.K 1 o X   J b.n.T.E.E.`.E.T.R.*X`.`.!.E.E.!.!.H.+X+X{.E.W.E.*XE.E.+XE.E.T.R.T.E.J.T.E.*XT.J.E.|.D 4 x c  Xv Y @XOXb.U.F.M.C.V.V.R.m.v.OXOXT.M.F.S.F.M.(.M.4.4.d.C.B.F.B.F.F.P.E.F.P.G.F.j.1.R.j.T.E.E.v.x E ` 4XsX,X,X4XfX6X;XnX6X,Xj E j o # # $ j $ %   . # 2 j 2 # # 4 a.b.n.z.A b.z.v.b.b.l.v.v.l.C T i.}.L i.L K m M N 5 M m N v.A v.C v.b.oX_ Q _ [ [ J J [ ` c W >X@.4X4XrX5XpX.Xx w {.G ' v.[ }.}.'.|.~.m.[ }.oX].M Z v.6 2 k 6 c +.+.+.@. .) @.` +.......$X6X..X.@.:X@.@.-X#X6X;X3XyXvXpX2X7X7X:X+.3X8X8X7X0XeXeXeXeXeXeXeX9X9XwX.XXX1X7X4X_ O.X.l ` -XaX2X,X6X5X6X4X7XaX7X@.:XiXMXCXmXrX5XrXb n x n b -X<X#Xo.",
"l.h.m.~.m.v.i.p.p.p.h.V V C q A  X.XXX] M V a.p.p.y.y.A L N 3 h P P K a e S l 6 6 2 H H e e a Z m.{.{.U c z ]  X[ e e v.Z 6 h x / u.g.j.g.c.m.9XsXMXnXcXVXmX6X$XE   X n ) W ^ vXIXJXJX$.# j Q ! ) ! o.! *.! ! j E &.&.$ # ! ) Q ) ! o.{ Q ] v Q Q ! o.! ! ! E ) o.E E ! $ j ! ! ! E E k ..O.o.#.( 6 W +.;XHXHXMXpXvXsXhXsXpX:X) j k I K n.E.E.E.R.l k 2 x.].}.b.|.}.[ }.m.m.b.m.m.R.m.|.OXm.] v.J.J.Y.n.n.R.OX@XXX2 l @ o X c.f.E.E.E.).J.R.j.n.T.E.J.E.E.E.*X+XE.E.E.*XE.E.+XE.R.R.R.V.;.R.R.E.W.C.T.R.R.`.R.U H ' O.c ` O.^ $X].V.C.B.n.4.V.C.n.m.@X9X{.M.V.F.F.d.Z.C.M.4.M.U.U.N.B.M.B.S.S.S.G.F.M.C.T.f.V.L.Y.m.@XR.D h W ;XBX,X-X5XyX;X8XnXjXiXE # 6 X.v.w * .       S 3 # F b.C P Y.R.z.Y.l.N |.Q.N v.~.b.m K h.u l.~.a.r.i.m C > B l.C B Y M B i.v.x.C v.XX#Xo. .+.' X.U G b O.o.rXrXpX6XpX6X,X>XQ 7 H 6 Y E.'.Y m.|.|.OXm. XoX+X~.m.L |.}.P v.v v ..O.o. .j 2 2 H K 4 x.v.}.5Xv v./ X.X.] @. ...#X+. X:XwX1X:X.XoX X|.~.Q.+X!.@X@X+X`.!.*X*X!.R.!.+X~.V S I I b.Y.@Xc ^ 1X( W ^ )  ...}.OXXXx [  XXX@X}.o.-X#X .W 6 O o # b ^ j ",
"h.l.i.v.T i.Z N B V M N a.p.V M U I v.}.e > B T Y F K ' v.S v Y c.b.v.x.x.m.x.L Y v.C C y.y.x.Y.g.h.c.n.].m.OX].Z Z p c.M x x 6 J m.R.U.j.V.R.8XbXMXpX5XMXmXpX#Xc X 3 h I ( X.dXjX>XrXQ $ j ! j ! j E 6 + j ! + E ! ! $ + ! o.) ) &.) Q $. X] +.$ ! %.Q ! ! ) $.o.x ! Q ! E ! j ! o.#X@ v ( ) h ..X.6 ) ;XHXHXhXgXsXhXfXfX$.W W x S m.R.E.E.T.h.j.2 h l L m.].m.].'.Y oXv.m.n.R.R.R.OX|.].].].OX!.R.Y.p.R.R.R.*XR.e 0 v 5 . C s.Z.F.E.E.E.E.C.V.C.E.L.E.E.T.*X+XC.E.E.E.T.g.E.R.R.R.k.V.T.j.n.E.V.=.J.f.k.T.5 3  X.X X}.}..X.X Xs.Z.d.Z '.U.F.U.Y [ |.R.R.F.B.Z.B.d.d.M.M.M.N.f.f.d.V.V.C.B.B.S.P.B.d.Z h.C.Z.E.V.m.R.E.U.v.J 6XBX-X ..X,X6X6XnXkXtX) h c XXoX|.OXr & l e B > A Y.R.@X!.~.z.n.~.Q.A v.i.w n.!.~.w * p.m.~.~.~.~.p.V m.!.m.C T A v.}.M M v.v.L |.|.}.X.+.O.,X#XO.x 6 o.` sX:XjX4X>X6X:XtX) 6 h ~ ].m.].v.|.|.R.R.Y.|.'.|.}.|.m.R.OXm.E.|.' .._ ) x / ' P v.v.].R.m.|..X/ b.'.'.'. X$.O.+.X.'.oXoXOX+XXXoXoXoXR.R.OX!.T.!.+Xm.J.I.S.P.L.L.I.E.z.m k ~ m.`.`.E.U ' ~.|.'.Y '.v.n.m.Y.|.U '.OXY.I.v.x ` ..O.o.) _ O.} ] D $X",
"l.x.l.A l.l.y.V z.v.A a.a.h.l.b.l.i.l.b.b.m.v.v.oX}.oXY I Y v.m.c.c.m.b.m.c.c.c.b.x.c.c.f.c.c.c.g.f.3.n.c.{.{.f.c.y.x.x.Z z E 6 k b.c.u.R.U.OXeXmXMXfX4XfXnXfX Xv b ( k I #..X<X<X-XrX{ $ ! ) o.E Q W E ! ! ! ! Q Q $ *.! Q Q &.Q ) o..Xo._ ..+.{ $.+.%Xo.%.$.%.! ) j 7  .+.Q { ! Q ) g x b  .) ) #X9 ` 6XVXNXsXdXaXfXgXsX>X{ j / b.R.E.V.C.E.T.E.p.v.S k ].].R.}.[.|.oX'.|.].R.Y.R.|.}.Y K m.R.T.T.J.Y.m.!.*X+XR.a 5 e 5 o y.Z.+X+XT.R.R.C.E.L.L.E.E.L.!.+XT.L.E.E.E.J.j.s.C.F.E.R.J.V.T.J.R.F.J.V.>.+XeXp @  X.X . X X].oX.X|.Z.Y.U  XoXV.C.b.XX[ m.E.E.V.u.n.Z.M.=.N.N.B.L.4.f.p t u.C.S.A.F.F.F.V.P h.L.L.L.B.j.J.E.E.+X'.4XBX>X#X+.4XfXiXnXjXtXQ j x ..U m.v.v.v.].m.V ; z.R.i.~.R.z.r.h.~.b.m.t.a.z.T.~.!.OXOXm.m.~.R.n.n.z.R.~.@X|.l.m.A x.Y Y T i.K L |.|.v.v.oX+.>X..I c h  .` sX6XjX2X;XrX6XtXj # j |.E.m.n.R.R.OXOXH.J.I.E.m.X./ m.E.R.k.T.R.n.v.I x v [ U L b.i.m.T.T.L.&Xv.c.S K '.oX.X.X.XX.[ }.|.|.OXOXOX|.OX+XOX@X+X+X!.!.!.!.!.L.=X+XP.I.I.z.N F ` m.`.`.E.K |.H.E.b.b.!.J.H.Y.R.m.OXOX`.P.L.!.[ }.|.[ ..@.@.+.+.+. X.X",
"m.Q.~.~.|.Q.m.b.~.~.b.r.l.n.z.b.z.n.Y.b.b.m.m.m.Q.OXOXm.x.b.{.m.m.n.c.x.m.c.x.y.y.c.c.c.c.c.c.p.c.f.g.g.U.R.U.U.f.5.i.c.x.3 x j @ = y.L Y x.OX8XcXfXpX6XaXCXdXO.j ( H 7 x c +.>XO.o.#XE $ ! ! ) E  ._ E ! ! j ! j ! $ ! &.Q ! ) &.Q %.O.{ $..X.X<X-X-X<Xo.+.%.$.o.o.W O.] O.W { ! $. .2 X...^ ^ Q  ..XI -XAXMXfXaXfXsXhXrX5X..c x.R.E.L.L.J.E.E.E.E.+XOXC v.].R.m.|.].].|.@XOXR.m.Y.{.OX].].m.m.Y.T.E.Y.m.R.+X!.R.r S J 2 . y.M.@X+Xh.m.f.J.E.T.J.E.T.J.!.E.L.E.C.C.E.V.C.C.W.T.C.V.V.j.C.L.L.).C.L.B.V.E.w c .XX.'.OX@XE.OXXXm.n.'.$X Xv.V.M.T.|.OXT.N.V.n.n.Y.Z.F.G.W.F.M.C.B.P.Z.;.d.N.A.S.F.W.J.V.T.E.T.B.L.F.L.T.T.E.!.].5XkXiX,X.X;XhXsXBXBXtXj 3 Y C x.m.l.n.n.n.n.p.& B !.Z N R.z.m.b.R.C F b.h.~.b.z.R.~.~.~.H.~.R.Y.n.b.~.~. XU Y v.b.v.[ '.L l.K L v.A T p.v.}.}.[ U J 2 XX+.rXNXsX4X6XrXrX@.# 6 x '.E.J.T.L.I.~.@XT.E.P.I.I.R.m.~.E.L.n.b.R.m.Y.R.[ I Y Y b.V.C.J.L.Y.L.!.D i.i.v.R.R.|. X_ [ H '.|.oXR.!.+X|.@X+XR.OXOXOX~.E.`.`.`.`.!.E.L.(.I.!.b.A ( [ OX~.+Xv.m.E.L.m.v.T.I.E.E.!.Q.v.R.!.J.J.!.OXb.H.~.[ X.@.o.o. .Q o.",
"b.l.l.Q.~.Q.Q.~.~.OXb.V b.m.b.b.b.n.m.m.m.m.m.b.~.OXOXR.m.{.m.m.m.p.m.{.m.y.y.p.c.c.p s f.f.f.f.U.c.c.T.E.U.j.c.5.1.2.f.c.5 3 7 h / H G c I  X8XzXaX5X4XaXVXyXO.v ( _ E W } ] .XX._ ( ( Q ! j x o.O.O.{ _ %.j Q ! ! Q Q ) ! ! &.! ! O.) ! &.o.+.@.#X<XO.+.Q o.+. .O./ ] O.+.{ { o.o.%X^ c I G 6 j $ x x #.BXfXsXfXrXvXhXpX6Xo.'.i.w Z p.V.K.J.J.T.E.!.`.Y.p.{.m.@X|.m.OX|.OXOXR.OXm.m.Y.].].v.{.R.n.R.R.].R.OXOXc.& 2 6 3 G p.8.J.d.f.n.R.E.I.R.V.T.E.L.E.E.E.E.V.c.+XT.M.B.E.J.C.V.T.C.J.L.L.E.J.S.P.J.V.q ) }.OXY.R.E.E.Y.v.i.v.oXxXOXC.g.k.J.Y.{.f.L.Y.T.V.T.d.B.P.F.W.L.F.F.F.C.N.B.F.W.E.F.P.Z.Z.L.E.L.C.B.P.I.T.Y.E.E.v.rXhXiX>X@.;XvX5XjXSXiXX J |.h.R.R.n.R.R.n.H.Y.A r.z.z.b.b.a.n.b.z.B 4 v.l.i.i.r.n.~.i.m.R.~.+XeXQ.n.i.OX|.L N l OXY Y L v.v.v.v.l.i.L i.l.l.l.Y U L m.XXO.rXNXBXiX5XpXrX..h x U [ OXH.J.B.L.E.R.R.E.L.L.).I.E.!.!.R.R.~.+Xm.OXE.m.'.].b.n.E.P.P.L.E.+X!.R.].m.[ '.R.'.}.( ( Y |.oX].~.+X+XOX@X+X~.OX|.U |.|.!.E.).`.(.(.E.K.L.Y.n.v.X.) ] v.~.oXA I.S.~.|.R.`.!.(.(.!.v.F T l.R.E.E.L.I.!.m.m.oX.X+.o.) _ ",
"l.l.A i.l.l.v.m.b.~.m.m.m.l.m.b.l.b.m.m.m.m.~.m.m.l.m.m.].m.m.n.n.b.9X&Xb.x.x.u.m.c.p t f.c.f.c.c.c.f.R.g.M.R.].2.y p.U.g.s e e F [ H Y x.[ +.;XaXsXsX;X6XfX$X$X#X_  .Q W +.^ :X%X( [ [ ] ^ ) +.+.$X..^ X.E ! $.&.j ! E j j ! &.$ ! o.#Xo.Q .X+.+.@.$.@.#XQ ! O......XO.X.#X+.o.$.@.+.Q 6 g v h E # ) @. .fXvXpXpXpXhXfXsX>X@.'.x.x.m.{.R.U.V.j.J.L.+X@XY.h.J.!.wX'.m.R.OXR.E.H.n.R.Y.].oX].v.R.+Xx.c.R.R.!.+XOXD w i.o v }.V.B.C.T.H.Y.R.E.T.R.J.C.J.E.E.E.T.L.J.T.R.V.C.L.E.F.F.L.C.L.L.F.B.F.F.C.Z.p.q / _ R.L.J.V.Z.V.Y.c.n.|.9X@Xj.d.d.s.R.R.m.q V l.q q y.g.d.Z.C.E.W.M.L.F.V.L.F.F.W.W.P.L.C.C.C.W.P.L.F.P.).P.J.E.E.x.yXhX6X>X#X;XyXMXVX>XO 0 XXm.m.n.!.~.~.n.R.K.!.R.n.R.m.~.p.p.|.b.m.m.b.v.i.V i.A v.b.l.l.z.R.~.OXH.~.n.n.~.m.x.v.@X[ F L D 2 l K x.v.L K M A OXA v.p.m.|.^ :XSXvX5X4XsXrX-Xx ^ Y }. XR.L.E.E.P.K.Y.E.R.R.`.I.`.!.J.!.E.`.*X!.+XY.R.9X|.n.Y.J.J.L.L.J.R.R.E.Y v.[ I m.[ '.[ [ oXoX|.OX+X@X+X+X+X@XOX|.m.Y }.|.!.D.).).L.I.).!.H.K.j.'.|.U v.m.R.' l H.I.).`.!.*X`./.P.I.OX' g I X.m.E.)._.).!.!.~.|.oX.X.X..",
"A C C V i.l.b.b.l.Q.Q.m.l.l.l.l.b.p.l.l.l.b.b.b.b.b.b.m.m.R.m.n.c.m.OXOXc.h.x.y.u.c.5.y.c.U.f.R.R.3.3.U.U.U.{.].c.x.c.Y.f.x.a y.Z C x.y.b.]. X4XgXpXpX;X4X6X.X:X#Xb ) { c { o..X X/ [ [ ]  X X_ ...X..( X._ Q %.&.Q %.o.Q ! Q o.! ! o.+.%X+.$X.X.XO.+.O.+.o.j Q O. X X$Xl .X%X` ( O.` j # k I x $ c c b #.nXvXmXxX5XpXnXvXrXO.' '.=X*X).E.R.n.R.E.M.@XeX+Xj.T.J.OX].R.R.R.T.+XOXY.R.R.}.'.m.OX+X!.Y.m.E.!.!.!.OXv.t.Y.5 X.'.C.F.E.E.E.E.B.T.T.Z.J.V.V.C.J.E.C.L.E.E.C.T.E.W.J.L.F.L.L.J.C.L.F.C.V.L.j.S # :X[ E.C.T.R.g.g.}.'.'.|.R.V.V.d.T.n.d.d.Y.v.0 m C e u c.c.d.W.F.S.C.j.V.V.E.L.B.P.).E.C.V.K.T.P.).).).).).).L.E.Y.U pXsX4X>X:X6X;XgXNX .& |.@Xm.l.z.~.!.n.R.R.z.!.z.~.!.~.b.a.l.&Xm.R.m.Q.l.z.n.v.B i.l.A b.b.b.p.~.!.~.~.E.R.C 1 v.|.# # F v.# x U T l.L K m i.z.h.V i b.XX+.:XHXfXyX5XgXpX>Xx W / Y |.R.R.E.L.I.J.L.`.OX~.(.E.I.(.L.T.E.~.m.H.R.~.~.|.v.v.R.Y.Z.L.L.T.h.H.H.v Y XX}.v.m.v.l v ( m.R.~.!.!.!.!.+X+XOXX.v.m.T.R.J.D.+X!.I.(.(.I.w.P.Y.~.!.b.l.H.T.v.k i.I.).).(.I.I.e.(.I.T.'.+...I U E.)._.I.I.E.!.!.OXXXXX X",
"> C A i.z.p.b.b.b.b.v.i.p.p.p.l.l.i.i.l.l.b.l.l.m.b.b.c.n.m.Y.n.u.u.u.u.f.n.y.x.y.c.x.u.c.c.d.OX].5.u.c.c.c.f.u.b.c.f.c.c.Y.c.c.u.c.u.A F Y oX5XzXaX6X;X:X#X#X#X( n b W ^ o.$.%X] ' '.] ( +.( G ] .._ ] `  .+.+.) >XkXkXIX%XQ o.) %.$.%.` I ^ ( .X+...@.#X+.%.%X X.X+. X9 W O.+._ @._ 2 n x ` k 3 ..I ( -XnXnXsXbX7XpXhXnXnX@.6 P OXE.E.L.T.i.b.T.J.T.H.k.J.Z.H.R.R.R.E.E.E.+X*XE.J.T.!.OXv.|.+XOX=XY.m.R.E.+XR.s.=.T.e ..H u.B.E.L.L.L.L.E.T.L.Y.C.B.+XE.C.E.W.E.E.E.E.E.L.E.L.F.L.V.C.R.E.V.V.R.W.V.}.O.6X].V.V.U.R.OXn.m.x.U g.V.V.T.b.c.n.c.W.E.@Xm.|.].|.+Xc.V.M.M.B.S.E.j.g.E.M.F.F.).L.E.k.V.T.W.W.).).).).(.E.E.E.p.Y eXpX5X4X<X,X2XaXhX>X X|.Q.R.T.H.n.Y.T.T.H.K.!.J.!.K.b.a.n.R.z.m.R.z.m.l.z.l.A b.z.T A i.i.l.i.m.n.R.~.~.~.p.V b.U 7 3 @ [ _ h L A L A M w z.Y.h.A V |.$X_ >XNXsXvXpXrX5XrX_ / [ x.m.m.OXB.J.E.L.I.I.b.~.`.T.J.J.J.k.J.n.R.b.A E.E.p.v.P ].OXJ.E.J.L.L.J.P.R.|.oX}.b.R.R.Y v ` '.m.R.Y.Y.+XE.I.!.~.Y v.m.l.E.H.J.R.!.I.P.P.q.S.I.!.`.`.E.l.m.L.b.J U n.L.E.E.(.P.I.(.(.I.m.X...b U R.I._._.I.D.).).!.!.+XOX",
"T i.x.T v.l.l.v.l.b.l.l.p.a.a.p.h.].y.i.l.z.n.n.b.b.b.n.m.n.n.h.f.f.c.x.y.c.c.p.c.n.c.m.c.j.U.f.1.u.u.f.f.c.u.f.2.u.x.5.p.f.c.c.y.c.Z S j / v.1XzXvXyX6X;X;X;X;X#Xc ^ %.` O.#X$.} .X>X XX.c ^ [ X.] G J I ] O._ O.#X.X>XjX#Xo.x o.+.o.o.%.] ] _  .-X%.+.....+.( ]  XtXjX_ j k ^ O. .c k Q x ^ v v +.X.@.4XMXzXzXfXdXxXfXhXhX@.v x.f.L.L.E.R.p.p.R.E.T.d.k.j.T.!.E.E.E.!.E.T.E.+XE.E.L.`.+X'._ H v F w N i.m.R.R.J.j.J.L I P 2.V.E.E.+X+XE.J.R.T.E.E.L.!.E.L.).).P.E.E.E.L.P.L.E.L.E.<.1.+XE.J.V.L.F.f.C 1X&Xj.d.Z.B.Y.].R.E.R.h.V.L.B.H.x.f.V.m.+Xj.m.OX@X@XR.E.V.C.F.B.B.E.U.j.C.P.F.F.L.P.E.J.V.V.V.E.E.P.).(.).).).L.L.c.n.9XjXrX6X>X6X;XpXAX#X|.m.R.R.~.n.n.Y.R.~.J.H.J.~.!.n.l.p.b.K.R.b.Y.R.m.l.p.a.A l.v.A B l.x.T A l.~.OXY.~.n.h.m.T 2 ( ' # j j J b.A C C m q h.~.p.A T l.XX] 3XNXhXpX7XsX;XfX$.c '.U H }.m.T.n.Y.L.L.L.J.I.`.Y.H M h.J.E.Y.!.R.m.L.*XOXm.a.Y Y.J.L.I.I.(.C.I.E.m.v.i.Y.T.OXR.b.D 2 1 K Y M |.|.~.l.F |.|.b.R.m.J.!.!.I.B.L.B.=.d.e.).).I.I.V.~.!.E.m.v.Y.E.`.I.(._.I.I.I.I.L.|.( I v m.I._._.(._._.(.`.(.I.).",
"b.z.i.l.'.v.i.i.b.l.l.h.p.a.k.p.l.b.p.a.p.z.m.h.b.i.A m.b.c.c.h.u.p.b.c.u.h.f.c.c.c.c.u.r.n.n.c.f.u.c.c.c.].n.c.c.c.5.p 2.f.c.v.m.n.e $ c '.].XX6XfXsX,X;X6X5X6X<XE ` $.{ O.#XtX.XtXjX#X( c ( I I I ( ` (  XI c #X+.$XtX^ X.%X%.%XO.o.o.%X+.+.` ] #X ._ 4 4 } +. X] `  .} E E  X+...k k n ^ O.^ I #.+.X.;XNXmXzXcXnXxXcXjXsX@.` Y Y.).).E.E.{.R.E.E.J.V.E.R.Y.+XE.E.!.E.E.+X+XR.E.!.!.!.E.OX'.E ^ / }.U 3 A Y.n.m.h.Y.q I p.J.L.E.T.R.R.T.R.T.E.T.E.E.E.(.(.P.E.F.L.P.P.*XP.E.F.J.E.j.3.E.E.k.T.J.k.V C 9Xm.N.J.P.C.Y.].m.T.Z.E.Z.T.B.H.j.Z.J.T.R.c.OX@X!.j.Z.F.G.E.E.C.J.E.R.R.J.B.W.S.F.I.I.W.C.C.W.E.E.P.).).).).P.L.H.c.n.XXgXrX,X-X4X4X4XBX#X|.m.n.n.n.z.Y.n.R.E.!.Y.R.H.Y.l.b.b.z.~.~.b.p.m.l.B C l.b.l.l.A i.L L i.i.l.z.n.Y.r.z.h.A 2 3 U |.U E 6 8 K A M q e m A R.i.b.v.l.&X.X:XMXfXgXpX6X4XpXo.n U '.) } @X~.m.R.J.J.L.!.I.).J.Y G h.L.!.Y.J.J.R.E.+X@Xb.m.m.J.K.K.K.Z.H.i.r.n.m.m.p.!.R.'.OX+X|.m q & C N g [ Y }. X|.OXl.~.'.s.P.E.L.L.L.I.e.L.L.I.(._.e.).I.`.`.!.~.E.E.I.I.(._._.I.I.e.I.+X~.OXm.E.(.I.I.).).I.`.E.`._.^.",
"b.b.x.v.T A i.i.l.l.h.h.p.a.h.z.a.V r.a.p.b.m.b.b.p.i.b.b.c.c.y.r.p.b.{.x.p.u.y.f.c.u.f.m.c.u.c.f.f.c.u.c.m.c.n.f.5.5.2.u.f.y.v.m.n.p 4 Y v.v. XqXhXrX4X6X0X6XyX,XW ` O.) @.>XDX%X#.:X.XX./ ( v X.[ +._ [ ..v ` o.v +.+.F [ ] +. X..O.o.o.G ] / I / H g ~ l ` +.#X] X.%.o.+.G $X%XO.2 W G _ +.c v ..+.) .XnXVXnXxXaXpXnXvXyX@.o.E b.E.).P.E.{.+XE.E.L.L.E.E.Y.E.R.T.L.E.!.*XE.~.T.E.E.!.R.R.R.].X.XXeX8X9 # x.Y.y.p.u.5 ' n.Y.E.E.E.R.R.E.Y.Y.T.T.E.E.P.).).).E.P.E.+XP.E.E.E.W.R.E.L.C.E.J.s.M.L.f.= }. Xm.F.L.L.Z.B.n.b.U.C.L.V.Y.Z.V.s.V.R.T.E.E.E.C.L.F.B.E.G.E.E.E.E.B.L.H.k.F.L.P.F.E.L.C.F.W.C.J.E.L.P.).).P.S.P.Y.c.b. XjXpXyX4XpXgX;X6X.X|.@Xn.b.n.n.m.n.n.R.H.!.+XJ.J.l.b.R.R.m.Q.n.l.z.b.b.C C b.R.h.i.T N A A T i.Y.b.n.V V Y.l.m 2 C Q.v j v U A V B q q q C i.A b.m.'.1X .%XnXdXyXsXpX6XiX .@ 5 v._ X.|.m.Y.R.Y.Y.!.=XI.!.E.H.].n.L.J.R.R.L.j.J.Y.OXR.+Xn.H.K.L.L.h.4 4 M b.m.E.!.!.R.v.m.~.OX9X@X@X9Xm.* & x.9X.Xl Y Y v.|.b.L.I.L.J.S.E.!.~.J.I.I.`.I.I.).I.`.!.~.K.L.E.(.(.)./.I.I.L.L.L.!.!.`.).I.L.@X!.E.!.I.).`._.I.",
"l.Q.Q.b.T N B h.l.b.h.p.p.a.a.p.i V r.a.h.l.m.m.v.l.p.h.n.c.c.i p.p.c.m.x.u.u.f.y.y.f.j.p.c.c.c.g.g.c.1.r.c.R.c.u.f.f.f.p.y.c.c.c.c.n.n.n.v.'.:X5XfXsX6X6XnXpXpX,XW W +.Q $.AXIXIX+.U }..X` ` ..( +.` J / J / [ c 3 l U }.] ( +.' X.#X) ^ ] I ~ H S l 2 S 1 7 E @.] +.$.$. X+...tX%X` z b +.-X^ 3 ^ W 6 .XNXBXnXzXpXgXnXnXrX . .) H V.J.L.E.+XR.R.E.E.E.Z.V.E.E.V.J.R.+XE.J.T.R.T.E.J.T.R.|.OXR.OXXX1XXX X1 m M 4 e q 1 S n.R.Y.H.E.R.Y.E.R.R.U.R.E.E.E.E.E.E.P.E.L.E.).E.L.L.J.L.E.F.C.J.J.h.Y.W.s.p.XXXXT.S.J.Z.Z.J.J.m.c.L.).C.V.Z.V.L.L.+Xc.E.).L.I.P.P.C.E.P.E.E.E.V.T.J.V.j.W.E.{.L.E.E.J.L.I.L.Z.E.C.F.).W.P.P.L.h.R.i...fXrX6X6XaXgXyXfX.X|.b.~.i.i.Y.h.n.z.n.n.~.!.~.E.Y.b.n.m.l.b.n.n.R.b.l.h.l.b.Q.l.i.i.i.i.i.a.i.Q.z.R.n.r.n.h.p.> u.|.g 9 v.m.R.i.C A N > V C A p.b.I ..E $XnXvXnX0X7X<X-Xo.# @ v ^ ..oX|.!.L.R.R.E.L.P.D.C.L.!.J.Y.Z.E.+XJ.!.!.R.~.E.L.Y.H.J.!.`.t.U i.c.OXm.~.OX+XE.l.i.n.n.m.OXOX@X@Xm.i.b.b.}.2 3 I J m.j.V.J.K.8.J.I.L.H.J.=.8.(.(.e.I.`.I.!.!.K.K.S.I.(.(.S.0.S.T.K.e.I.E.!.J.B.!.@X!.(.E.!.E.E.J.OX",
"m.Q.b.b.v.A A b.b.h.h.z.h.p.V a.a.p.p.a.h.b.m.m.m.b.b.n.c.c.f.r.p.y.y.m.m.u.u.f.c.x.u.c.u.m.{.c.Y.Y.c.u.1.c.Y.f.1.f.u.p.p.p.n.h.p.p.c.c.R.Y.oX;X;XgXrX6X6XgX5XpX6Xc b +.%.+.6XBXjX' [ }.O.^ ^ [ ^ v l / ~ H [ ..' l ` I ' [ #XX.( .X@.) %XO.] [ U H F G 5 4 ~ c E J  .o._ _ } +.o.#X%.o.x b .X..c k x + X.HXfXiXgXdXzXbXnX>X) W _ ` f.J.T.L.E.E.R.T.L.L.J.W.L.L.E.!.OX@XOXY.T.L.J.V.T.T.OX'.@X@XR.OX@X'. X$Xv @ 2 4 5 . M x.m.j.j.T.T.H.E.*XE.R.R.R.E.E.E.E.E.*X).L.L.E.P.F.L.L.E.E.L.Z.k.j.m.+XY.p.@XXX@XC.B.Z.d.T.C.C.k.h.V.I.R.n.Y.V.J.G.C.V.L.I.P.P.F.B.C.L.F.M.F.C.;.V.V.T.j.Y.E.J.J.P.P.L.E.E.W.W.E.E.L.P.P.P.P.P.Z.C @  .rX4X,X;X5XpXVXpXI v.v.b.p.l.~.z.l.i.m.Y.~.~.R.~.b.i.m.l.a.r.V z.~.m.l.l.i.v.v.b.v.b.l.A A i.i.l.n.R.n.r.V b.n.b.~.n.n.h.m.n.R.A B i.T f a.A i.v.m.m @.Q  XfXgXgX6XfX@.#XQ # $ 7 c  X~.R.E.(.!.E.`.I.!.*X).D.P.).J.~.P.).P.I.+XT.!.`.R.R.L.L.L.B.H.|.j.s.OXOXm.R.@Xj.v.R.t.V > m.v.|.OX+XOXi.N 5 5 D [ I v.{.n.z.H.s.n.J.Z.Y.L.-.B.I.I.0.).E.J.I.E.!.(.I.e.e.`.`.D.S.I.e.K.E.~.OXQ.Y.~.R.I.I.J.Y.+X@XR.+X",
"m.m.v.v.b.b.a.i.h.p.h.h.l.l.r.A h.h.V p.h.b.v.b.v.l.b.n.j.h.p.p.y.Z w m C 5.y.h.c.u.p.c.r.p.m.p.m.{.c.u.u.Y.Y.1.f.f.f.u.w Z Y.c.p.y.s p.Y.@X9X4X:XsXrX5X2XpXsXzX,Xz c @.o.%.>XtXuX%X} }. X( _ } ] .. X` '  X@.G U ] +.] [ ' ] ' +.O.] O.+.@.^ U  XF 5 I %Xl Q Q 9 9 x Q ^ ^ ( ) $ <X%X_ h ..6X$.o.` W j b NXNX5XfXmXmXpXnX$X_ ( _ k x.J.T.E.L.E.E.E.J.T.E.E.E.P.E.E.E.{.R.Y.R.E.L.J.Y.m.OX+X@X@X+X+X@X'.I XXX.k + @ # 2 2 3 D b.p.y.n.T.E.R.L.E.{.T.T.J.!.E.L.E.E.E.E.F.E.+XS.J.L.E.L.B.L.R.j.E.Y.A &X&X{.B.W.T.W.C.Z.V.k.C.E.E.OXb.n.J.F.D.P.E.E.L.B.L.L.L.C.F.F.L.P.Z.C.F.Z.E.H.d.J.E.J.B.C.L.L.L.P.C.E.E.Z.C.E.P.P.).j.X j ,XsX>X4X4X5XpX5X5Xn K v.l.m.n.m.n.p.v.|.Y.!.!.R.n.y.i.|.b., r.h.z.l.i.l.b.b.l.l.l.x.l.l.T B N B a.m.a.n.m.h.b.p.9X9XOX+X!.~.b.z.V N A A i.i.A C C OXm.XX .+.NXdXjX6X0X>X,X@.6 # 3 / @XJ.L.E.I.L.).(.P.E.!.I.P.L.P.I.L.P.P.(.I.`.L.eX9XT.m.n.J.L.t.@X&Xt.f.R.!.H.Y.m.N |.OXs.s.r.i.].OX@X+XOXA u > '..XX.J v.OXm.j.R.J.H.H.H.OX!.S.P.I.B.K.I.k.Z.I.K.E.I.(.e./.(.).(.I.(.I.E.!.~.OX|.|.R.!.).I.Z.T.@X9X`.`.",
"b.v.l.b.b.b.i.> a.p.i.V i.l.a.a.z.p.u h.n.p.v.v.l.i.b.b.c.c.p.y.2.i r e e Z x.y.t.h.c.c.e x.c.u.c.n.p.t.j.f.u.f.t.u.Z Z @ m m.x.M e X Z m.m.XXpX:XfXiX6X5XfXgXfXrXW ( o.E o.+..X,XlX XX. XX.$XO./ G +.} U  Xo.E ( %X X] J / ' / ) _ ]  X} W o.} v & 5 I +.E j z 9 3 3 z l / ] ! h o.#X_ x .X+.W h ( ) O. XGXVXzXmXcXmXzXpX.X_ o.o.+.x.S.V.E.E.J.L.C.Z.Z.M.L.P.L.L.!.R.Y.T.T.OX@X+XE.E.OX@XR.R.OX+X@X@X@XX.[ X.3X$ # @ # + # 3 1 o X M Y.V.y.V.T.T.J.J.R.L.E.L.E.T.E.!.P.*X=XG.E.E.L.E.C.B.T.J.J.H.'..X@XE.L.L.V.C.C.d.d.8.V.R.OXm.s.V.P.E.F.P.L.L.E.C.d.M.Z.C.A.(.).L.Z.L.J.M.E.g.k.L.E.E.L.F.L.H.L.L.L.E.J.M.E.L.F.L.).* X 3 6XgX4X5X5X4X6X5X,Xc }.l.b.b.l.p.V i.m.|.~.E.R.b.p.l.h.b.p.n.~.R.R.a.a.l.T T A l.b.L C A v.N N i.b.~.R.OXm.n.~.z.@X|.Q.m.Q.~.m.l.i.w N M M A C K C |.@X@X.X@.HXhXnXaX5X5X-X,X! o 7 J ~.H.k.n.Y.H.E.L.T.L.H.K.E.P.L.L.B.B.L.).P.*XE.*X@XY.n.A u j.m.|.|.L i.K h.k.a m.x.].OXE.!.Y.OXOXOX!.OXOXQ.OXm.|.U  .Y R.~.J.J.K.K.k.T.T.J.Y.J.I.L.I.!.E.w.I.I.I.I.E.I.I.I._./._.(.I.(.!.E.L.H.|.Q.R.E.I.H.n.Y.OX@X_.e.",
"m.l.l.m.Q.Q.l.V p.p.C w N i.p.p.z.p.u.l.i.i.l.b.b.v.v.y.w w a s s * ; y.i u v.y.f.f.h.p.i.Y.n.c.c.n.c.j.g.u.u.u.y.y.i Z C ].n.Z @ X @ 4 L Z }.,X.XiX,X;X4X5XmXnXhX( X.o.E `  X XtXuX#X/ I #X#X+.E J [ O.~ $X{ ) ` ( O.' H ( ( k O.+./ .X) j %.o.1 4 J 5 ^ { 1 k 9 o @ o & J _ o.E 6  . .) .Xo.Q G ..X.#X.X0XSXbXpXzXmXfXpX-X#.Q +.o.S {.T.J.E.J.E.B.V.Y.B.L.L.E.L.E.R.R.T.L.!.+XE.L.T.T.!.E.+X@XR.@X@XOX}.O.) @.6 z 3 3 + % 3 ' [ 3 0 Y.T.U.T.J.R.R.R.n.J.E.E.E.Z.L.E.).P.P.P.P.L.B.E.J.R.{.R.R.c.[  X].C.F.P.L.4.V.Z.g.V.V.s.@XOXU.L.C.E.E.F.L.C.8.k.j.p.h.C.S.P.).J.V.E.Z.C.L.V.s.d.L.E.E.E.L.L.F.V.T.B.C.B.L.L.F.P.f.o 3 v 6XpX6X5X4XsXyX7X5X..[ D i.p.l.h.p.v.b.R.~.R.~.R.b.i.l.A p.~.n.i.V l.b.i.N B T l.l.A N A i.m.A V h.z.m.z.R.~.K.~.n.b.b.i.l.m.b.V C L L m A A L A A |.|.@X:X XSXnXpXzX8XaXyXrXQ 7 ] k Z Y.m.R.R.m.~.T.!.+XY.T.L.q.L.S.B.p.s.I.P.!.~.Y.R.m.A 5 m M x.p.m.|.[ oXb.;.f.n.l.h.R.R.OXR.|.m.m.P.J.R.m.}.m.OX}.J v.J.L.E.B.0.B.8.V.J.Z.H.j.K.E.J.L.P.S.D.D.I.I.!.L.B.e._._._.(.S.B.J.I.K.T.J.H.K.B.f.b.+XOXY.L.I.F.",
"Q.l.l.Q.|.m.v.b.l.l.A q N p.p.p.l.l.n.p.w B l.b.b.i.y.0   . . . .   * V 2.u N x.u.y.u.u.h.f.h.c.x.A p.n.f.s C Z 0 Z f.y.x.m.c.p @ 3 3 X g v.X.<X:XsXrX6X;XaXnXgXdX+.+.%.E ..$X#X:XtX#X] ' ] ..] ~ H [ O.] +._ O.]  X XO._ J ` ( ` ] } ) x h ! x } } { ~ I $.~ J 3 v ] & q l b o.j # o.W Q +._ k I  X.X:X@.4XNXfXsXpXfXzXaX-X_ o.%. .x '.T.V.C.Z.C.B.W.Z.L.P.J.E.L.E.E.E.W.L.E.*XT.Z.H.p.T.+XOXn.Y.!.T.+X&X X/ W x ! ^ E j z X.9X9X1Xe OX@X+XL.R.+X*X!.V.E.E.L.C.E.E.B.F.P.E.L.C.Z.C.J.k.@XeX|.{.|.XXoXf.d.T.V.J.Z.V.Z.Z.C.V.V.+XR.J.E.F.L.Y.J.J.J.4.4.R.OXc.Z.B.C.L.B.B.E.Z.V.C.J.V.C.E.E.).E.E.Z.T.U.<.d.L.E.L.E.P.).t e 2 W yXdX,X6X6XpXyX5XMX5XH 5 M b.m.OXn.b.Q.~.~.+Xb.Q.v.V l.A l.m.Q.v.A i.h.i.i.A i.b.l.B q T B l.l.f i.m.b.n.n.R.~.m.l.i.A h.n.l.l.i.N C m C v.T y.i.p.|.r.@X#X+.SXnXaXzXfX6XhX,XE h ' G 9 b.R.T.E.m.m.H.~.R.+X`.L.I.I.L.m.l.T.L.!.+XR.m.m.v.C v.L 2 3 x.@Xm.].|.~.Z.n.p.h.j.c.].@XOX|.v.Y j.E.E.Q.v.].@X@XX.K J.D.P.F.J.K.e.8.k.V.Y.b.k.Z.z.B.0.0.L.E.J.(.!.L.L.q.S.(.(.(.S.k.H.H.n.~.E.I.J.n.i.b.Y.OXJ.K.K.H.",
"~.b.b.m.Q.l.v.b.b.p.A v.l.b.p.p.p.h.b.p.L i.b.b.Z w e . o . . d ; u Z y.f.y.a y.Z h.t.h.n.h.c.u V q 3 C y.@ 1 4 4 y.p C Z n.c.c.3 # J 3 S C  .<X-XpXpXiX5XvXgXfXkX#X_ ) E %.G [ .X#X' ] X.[ ] _ } / ( ..I G ^ #X.X+.( _ _ X. X_ l v c k c ` x b tX{ ! ) J %XO.] ~ X.tX X| J l H 4 h #Xx W #X..I b +. .-X3X-XNXnXfXzXbXxXsX,X .o.+.o.E ' R.V.C.L.L.E.E.S.L.C.s.J.E.E.T.J.J.L.E.J.V.j.E.Y.R.R.R.R.{.R.R.+X@X|.v.' ( Q Q ) Q  .c ( 6X;XS ].+XR.E.E.E.L.C.V.~.E.).L.E.B.F.).).L.L.C.Z.E.J.Y.@X@XT.{.oXoXm.s.Z.j.k.V.V.H.H.J.B.B.C.E.H.B.P.).L.3.J.L.J.T.g.j.Y.c.h.V.M.L.L.*XE.C.V.U.H.U.E.E.W.E.E.W.F.F.J.c.c.J.).E.E.P.J.5 - 9 W $XjX5XpX5X6XsX6XVXsX+.F K m.m.l.l.Q.b.m.~.R.b.v.v.V l.l.l.A A }.l.l.b.A i.l.i.A i.C T B B V l.z.a.l.b.R.l.i.OXm.l.b.5 l.z.V C i.B C M Z K i.i.B l.OXm.Q.U  XNXfX5XpXgX5XsX>Xj E X.XX^ l.J.H.T.Y.n.L.E.H.`.(.L.h.+X+Xz.Y.k.L.I.K.!.E.R.~.OXE.R.i.= |.@Xc.n.R.j.E.+Xb.Y.R.R.OXQ.XX|.@XOXh.T.!..Xg |.@X:X Xv.k.P.S.S.J.=.d.H.n.R.R.R.k.k.A k.K.k.H.E.Y.T.P.E.!.k.q.S.e.S.0.J.T.m.|.m.I.).!.~.~.v.p.OXR.B.V.n.",
"~.Q.Q.m.b.m.m.b.b.l.l.v.l.l.l.l.b.b.b.x.l.l.b.b.p.Z o o u t p y n.m.p w p.x.s O e u.t.b.m.h.y.q Y [ # 2 S @ @ 3 l M C D x.b.f.b.1 2 v.9 @ @ n o..XqXrX6X5XaXpXgXnX%XW o.%.} ~ [ 4X3X' X.O.+.{ _  X] [ ' ' ' O.X._ ) #X#X` [ X.] c k 6 ^ { o.` Q %.{ 8 3 _ tX/ ~ 3 6 ! <X%.+.G 2 v +.) `  ..X X( n @.X.;X6X-XmXVXfXnXVXNXbX,Xo.+.#XO.) }.T.B.L.F.E.J.J.L.T.Z.J.T.P.E.J.U.J.R.R.W.H.T.E.J.W.R.m.{.{.OX+X{.@XOXm.m.[ ) { X.x # 2 6 .. XC j.C.E.!.E.E.L.J.J.V.E.E.).E.M.M.M.S.=XE.E.E.N.R.T.j.n.+X=X@X].n.C.Z.k.V.V.j.d.k.W.L.C.E.E.J.N.P.L.L.F.L.L.J.J.V.Y.R.R.n.c.Z.V.L.E.E.E.T.T.d.Y.Y.V.J.J.R.J.C.V.J.x.m.W.E.E.V.W.u.0 a l x #XvXrX;X6X4XaX8XpXiX#XK i.T B v.A b.v.l.m.a.n.z.h.N N A B N > > C T l.i.L v.T p.i.A V V V B v.R.a.V r.B N i.z.b.l.a.> > B i.i.p.l.C L A N A A C b.~.z.].m.9XSXhXhX6XaXfX5XrX! h  X XF m.T.R.Y.T.E.H.E.E.(.I.J.p.+X=XB.L.J.e.I.K.L.).P.E.R.J.+XR.@X].R.T.T.!.L.T.~.+Xh.k.R.b.p.OXR.!.Y.H.(.L.XXXX9X9X XY |.r.B.A.q.k.t.y p.n.H.h.y.V h.v.A j.x.p.z.m.R.I.).!.~.~.K.S.C.(.).E.OXQ.L.(.(.I.P.~.v.l.m.Y.V.n.~.",
"Q.Q.v.Q.m.m.b.v.v.l.p.p.a.l.b.b.b.b.l.l.b.b.m.b.p.w . 5 t y <.r.y.x.Z q a y.& + 3 5 w p.p.s - 3 l G v v 3 @ 3 K K D v.x.x.y.u.x.4 F 9 # + + + ) ;XsX6X4X6XaXzXnXzXtXE x o.O.}  XkXjX X XX.O.o.E ' H X..X/ X.o. X_ x  X X] [ .X/ l v k c o.j Q O.&.{ %X%X%.) G 3 3 # $ x o.G 1 5 l .. .o.Q +.-X_  ..X X:X;X:XMXaXaXzXvXMXsX@.` @.#X+. .oXC.C.L.L.T.T.W.E.T.E.E.E.T.E.E.E.J.n.n.W.j.p.H.R.R.R.oXoX{.T.T.OXOXR.R.m.m.v.[ / h oX X` X.U b.Y.E.R.E.W.P.J.R.E.E.L.E.!.L.).S.C.F.E.E.E.E.C.h.h.n.n.OX@X@X{.d.L.F.g.s.Z.V.M.M.d.B.E.+XL.R.j.=.3.J.C.T.E.W.C.C.T.{.T.Y.J.C.Z.C.L.E.E.J.V.Y.V.Z.R.T.C.V.8.C.T.T.c.R.E.).E.E.E.y.M 2 G v :XfXpXrX5XyXxXvXpXsX:XM l.i.V Q.b.l.l.l.l.i.b.m.b.i.B i.p.B q B > A l.i.A v.L v.l.C V V i.A m.m.a.b.p.V V p.V B M e h.p.r.m.i.|.oXM T A B A A A m.h.a.OX9X9XMXpXrXvXyXpXsXiXj 6 ..v j.K.L.I.L.I.).E.E.`.B.k.k.v.k.L.T.P.I.E.!.P.I.I.L.J.!.J.~.OXOXz.L.E.L.P.P.k.m.@XR.h.c.t.m.Y.J.!.I.!.H.z.~.wX1X:X.X}.Y Z R.L.8.i.h.s.h.u.t.Z v.S n.E.L Z i.i.a.m.!.I.I.I.R.~.K.L.I.L.I.R.R.E._._.I.I.I.L.z.T.H.j.c.Y.OX",
"Q.Q.m.Q.m.l.v.b.v.A p.p.l.b.m.b.b.b.v.i.l.i.i.N q 0 . - t i y.c.c.u.v.e C y.s 3 + X # Z i & 4 Z D [ c k 3 k '.|.'.A p.p.x.c.c.y.L K 3 $ + % + -X4X5X5XrX:X8XzXhXBX>Xz +.O.O. X#X6X>X%X' J ..{ E ' / ] +.] +.W O.{ { +. X.X] X.{ W c J k h # z E ! j k +.E h H e [ { ! c 4 c J G / l k z 2 ..+.+.$...XX7X#X;XHXmXmXmXmXVX7X#XO. ..X@.+.{.F.J.V.J.L.V.C.M.J.J.L.H.T.E.T.H.H.n.c.c.p.'.Y.!.+XR.OXOXOX+X+XOXOXR.R.OXR.E.v.z # +.$Xx H y.b.x.T.T.Y.C.C.R.R.n.Y.!.E.j.b.H.C.B.C.L.S.E.F.Z.k.+X+XE.R.|.OXc.L.R.J.J.d.Z.J.Z.M.-.Z.k.V.T.+XR.4.j.H.t.Y.R.N.M.M.L.!.E.Y.J.L.C.B.F.T.C.C.E.V.j.d.u.i V.V.C.W.E.T.R.E.!.+XZ.B.E.u.e g k c ;XhX5XpX5XyXnXNXgXsX>Xm l.b.l.v.r.l.Y i.i.i.b.b.n.m.J H v.A w B w C b.T C T T l.V A a.a.B A l.l.b.n.h.A B > l.5 3 L i.l.OXv.2  XoXB A l.b.A B V b.v.V OX9X1XSXsXpXfXpXpXpXiXx x x C J.E.L.B.(.e.w.).I.I.k.y.b.v.h.j.R.E.E.T.E.`.(.E.~.Y.!.Y.R.OXT.L.E.T.j.(.L.c.m.+XOXm.m.H.m.H.H.!.K.T.j.K.`.`.!.oX XX.( 4 i.h.8.R.b.p.n.j.T.OX@X|.b.z.v.b.l.l.p.J.E.E.I.I.J.+XE.I.`.I.K.J.J.I.).).(.P.P.S.I.!.J.Y.b.l.v.",
"OX|.Q.Q.v.l.T v.v.l.l.v.l.l.m.b.l.b.b.i.C 5 & o &   . w b.c.y.x.m.'.l 1 e C 5 @ + + + o w w p.u.b.}.}.J o F XXoXY y.y.i i.u.j.p.v.m.D 8 + % Q ;X4XpX6X4X3X5XpXfXHX#Xx @.#X+.$.O.>XuX.X+.` _ ^ ^ _ v X.+.` ] } +.c ( O.....X.] ! Q c S 2 1 +.%.7 # 6 z v +.%.H [ } ~ j z 9 J U z 2 g _ ~ { ^  .o.) W ..;X-XzXNXmXnXzXmXgXpX:X.X` +.+.|.U.!.*XV.C.W.E.V.Z.E.+XJ.J.J.T.R.c.V.V.n.v.].].n.E.T.Y.|.@X@XOXOX|.{.Y.R.R.C.Y.F c $ ) ) 3 U p.OX&XU.R.V.E.E.+XT.A |.OX+X@X[.OX{.J.T.P.E.E.C.d.j.E.E.L.j.].OXd.L.J.Z.C.B.B.C.Z.C.M.V.C.M.T.R.T.!.~.L V +XT.M.C.V.Z.E.L.L.C.L.E.C.V.Z.8.s.C.C.E.c.p E.C.T.E.E.E.E.+XE.*XE.Y.Y.E.j.m.].k c :XsX4X5X7XgXpXcXfXfXfXU C a.l.l.a.b.m.r.A A l.l.z.n.Y v h 5 > > V Y l.l.l.T v.T l.v.i.l.B B T i.i.l.b.p.i.a.l.C L b.A b.Q.m Y v.L Z l.b.i.A A p.b.v.v.|.|.$XAXMXfXpXpX6XdXsX) ` c h.Z.K.k.J.I.P.E.I./.(.!.B.L.n.k.I.B.Z.V.J.I.I.I.!.K.R.K.K.!.~.B.I.E.`.L.I.E.+XE.E.E.+X9XT.R.x.m.L.@X|.L.(._.`.`.OX|.U G F U m.B.L.!.b.L p.R.+XR.OXv.v.b.m.R.m.m.Y.E.L.P.I.I.E.I.).`.(.I.K.I.`.I.I.I.I.(.B.I.I.J.R.~.i.w ",
"Q.Q.Q.Q.v.l.T v.l.b.l.l.p.l.b.b.h.b.h.V q A w a t & m x.'.v.v.U U k X X @ # # @ # + @ 5 b.u.t w i C  XG z [ oX'.M u i.u.u.x.u.C 1 v.|.J # 6 O. .2X5X,X;X6X6XpXfXBX@.G ) @._ {  X>XtX+.O.^ ^ ' O.+._ ..X./ X.X.I U ..#X+.+.H k 3 $ 9 J ) ! o.Q 7 2 z # h ) #X} O.} ~ { >X%Xl 5 @ O ` E 6 v v .X$.$ 3 @.#X#.cXnXVXzXxXpXzXzX;X+._ .X'.R.T.E.`.J.H.L.J.Z.Z.K.R.E.E.p.n.b.Y.L.T.n.v.].c.j.T.{.'.XX X|.m.|.OX{.R.Y.|.Y.m.c z z E h 2 '.b.eXeXV.E.E.E.E.E.E.+X=XE.E.T.V.E.+XY.C.S.*XZ.=.J.L.C.Z.d.b.OX{.Y.U.q.=.d.d.g.U.L.C.J.C.!.C.M.d.k.j.i.2 v.R.j.j.j.j.V.V.V.W.C.C.F.V.V.s.J.Z.d.E.+XJ.E.*XE.E.C.E.P.`.E.!.+XV.E.E.J.V.E.R.v.@.6XsX5X6XpX5XsXbXMXhXsXI w A i.V r.i.b.p.A N > m.l.m.C k $ g q B A v.A b.l.B l.A i.T N B N B V v.i.l.z.z.l.m.l.l.m.m.l.m.m.A Q.|.K v.l.l.A A h.z.m.v.v.m.v.8XNXgXpXhXfX5XyXkX .x Y j.R.R.Z.J.D.`.*XD.P.).I.D.(.K.n.(.(.).(.I.I.I.I.I.K.L.e.I.K.K.V.B.0.P.I.D.L.`.I.I.E.J.n.Y.Y.].OXL.+XOXH.(.).(.I.R.m.m.v.'.OXH.q.B.L.d.Z 5 Z h.h.Y.OXQ.'.v.OXm.m.~.!.L.B.(.E.!.)._._.I.P.I.e.I.E.B.K.I.I.L.!.I.L.J.~.R.m.",
"|.|.Q.v.v.l.l.b.l.l.v.b.A V B i.b.b.l.A N > * > w M Y v.'.}.'.g # # 7 # + X + # # # + J Z y.0 1 = F I 3 k I }.H 0 C x.t.j.h.p.2 9 ].OX'.J Q { o.2XpX4X>X:XsXpXzXAX+.G O.} ` _ [ #X-XQ J c _ X.O.o.` [ I [ _ ^ I I _  X#.+.J G ^ 3 4 I ! $ E { v 5 3 2 2 E +.#XO.' c x <XlX_ [ E 3 ) 7 1 ~ 7 ^ j 7 ` @.5X;XfXmXzXfXaXnXVXmXyX#X@. XR.E.E.C.T.C.E.E.F.L.E.B.L.T.T.b.r.p.].C.V.p.].v.Y.C.d.OX@X1X&X|.Y '.x.].R.m.'.b.H x |.|.x j 3 y.{.+XOXC.E.E.T.d.Z.E.`.D.q.F.G.P.E.V.d.Z.G.F.8.+XW.A.Z.V.h.OX+XT.E.Z.;.C.V.Z.R.V.Z.d.C.B.R.L.M.T.E.Y.Y.v.b.h.u.V.j.V.T.d.s.k.T.V.Z.*X=Xn.j.Z.E.+XR.R.T.R.+XE.).E.-.E.T.+XE.d.M.W.B.C.E.j.J W 6XaX6X;X5X6XsXzX6XsXrXI A l.p.i.l.a.a.z.V > > Z V A q g c S B V T T m.b.A a.b.B B N > B N C V A l.n.K.~.z.b.l.b.a.m.m.m.l.i.v.Y v.l.B l.T l.z.l.l.v.|.&X X6XHXaXsXsXnX6X5XkXO.^ x.d.+XeXL.E.I.I.).k.;.(.I.I.I.8.L.).(.).(.I.L.E.E.E.I.D.I.I.I.I.0.j.L.I.L.J.R.!.P.J.E.K.Y.R.R.OXK K L.!.E.(.I.e.L.~.~.Q.oXY |.Y.8.M.B.d.q., * u b.b.m.|.v.b.!.!.T.!.P.L.K.K.H.j.I.`.`.B.-.e.0.L.I.B.J.!.I.q.E.!.I.V.R.+X~.",
"m.T K K v.C N T l.A N q = - & = l.l.A q & - 4 U U Y Y F U v.L 5 1 5 e 3 @ 5 [ ' v # X # O 2 + l l g k Y L m [ ' K ].u.1.c.c.y.5 S m.OX].'.`  .:XaX7X4X;X5XaX0XnXNX#Xb %.+...O.O._ { j / F ( _ ^ ^ H [ ` ' v / / v  .+...O./ ,X%Xc 7 c $ + E G S 4 9 G 3 j ` O.l 5 4 j *.&.$.BX%XD l ` ' / 4 9 ^ #XO.#.qX6XzXzXpXmXcXnXnXMXjX#X.XoX{.E.T.W.J.W.W.L.W.P.P.F.L.C.C.E.OX' J T.K.Y.m.x.T.E.C.OX8XXX[ '.}.I k H m.m.b.c.z ] @X[ h z P T.V.T.Y.j.U.Y.+XE.Z.Z.8.E.E.d.C.L.B.C.B.F.P.s.T.E.C.C.F.V.Y.OXR.!.J.N.B.R.x.{.V.d.M.=.s.J.Y.Y.E.E.E.C.V.n.N e e b.U.k.B.M.=.d.C.T.J.J.H.s.d.V.E.+XT.U.n.R.E.E.E.L.d.h.c.].T.g.4.E.J.L.E.{.k c 4XvX6X3X4XgXnXSXsXpXjXI N V A B l.b.z.z.A N N N N B B 5 z l M B v.N v.v.N V |.C N B V N B N B V A b.n.m.z.b.5 5 > h.Y.l.> N M m A A B l.V m.l.l.l.l.m.v.[ yXHXBXjXaXpX5X5XjX+.U n.M.V.K.!.E.I.).P.s.t.!.L.I.I.I.I.I.(.`.).!.L.K.H.J.I.I.(.(.(.D.(.I.I.P.!.R.R.R.H.H.J.j.Y.R.m.l.C ' v.Y.H.B.K.L.T.m.R.m.OX|.t.H.V.B.B.B.Z.j.p.v.m.R.v.OXR.m.H.L.L.K.J.K.k.t.R.R.K.I.I.I.S.w.K.8.0.q.K.I.B.W.R.I.P.J.!.+XL.",
"K T v.N - = M M & o & = x.L L = = = = = w L Y U K L m - q N C x.D 5 4 + H oXXX}.' 4 @ # S 9 5 [ '.S g }.|.oXH J }.&X2.u.p.p.c.Z x.m.m.Q.|.v.+.3XaX5X6X5X4X4X6XfXSX3Xc $.$.+.+.} ] O.W ~ S S O.` / ' ] ] [ ] ` ( O.O.] _ { / / _ _ o._ z # z | H / } J 5 7 x G $.uX} Q ! o.$.%X'.XX%X%XD 1 _ | U I ..#X4X4XfXdXpXnXsXaXzXMX6X+.8X=X{.V.E.E.W.W.E.C.P.E.P.P.W.L.K.E.+Xv.H p.E.m.c.c.U.C.C.~.oX X XG '.| z / Y v.v.L E  X}.l ' U j.V.Y.c.m.c.R.Y.@XOXE.V.d.E.Y.T.j.d.F.F.F.A.8.=.k.T.L.C.M.d.h.OXR.J.M.C.T.p.x.c.d.J.k.s.J.J.u.y OXY.J.B.J.j.4 + & * & e T.V.c.C.Z.E.T.C.T.=.Z.V.V.E.T.V.c.{.R.W.E.L.j.OX@X{.J.C.E.E.+XL.!.@X'.O.;XmXfX6XaX5XsXfXfXpXpX_ 5 e q T v.b.z.z.a.> A N N N i.V l k M M A = N A B i.V A A A , C V B N V i.l.b.l.z.T F M u p.m.p.V 1 7 2 2 Y K i.l.B M v.h.v.l.i.v.5XHXjXrXpXpXrXyXnX@.[ U.V.K.L.I.J.E.E.).L.~.~.E.j.k.L.I.I.I.I.I.`.L.K.L.).(.).I.I.*XI.I.L.L.I.I.I.I.E.R.R.n.n.OX~.r., k.b.5 l v.b.Y.H.z.H.!.!.T.!.E.V.k.Z.B.M.K.L.~.OXb.{.'.m.T.E.+XT.J.K.K.R.n.Y.R.m.n.E.K./.(.D.F.B.e.I.J.B.J.L.Y.K.I.P.E.!.S.",
"A v.l.A A Q.v.L q N Z v.l.T v.N q 5 q L T v.C V A C q w C w B x.q 3 3 @ c  X[ 6 3 e a 4 U '.Y F }.|.U v.}.[ j 2 U x.2.h.m.c.c.m.b.m.i.Y b.m. X:XaX5X4X;X3X6X6XcXHX3Xk $ x +.$.' ] ] v J S 4 ' /  X/ I } X.^ Q O.] X.+.~ / } ' ] lXo.+.~ x %X%X%.{ { ~ D k x _ -XlX<X%.Q j l #XjXDXuXv e +.k 5 F I O.+.;X:X5XmX7XpXzXaXmXbX;X X0X=XY.E.I.E.E.L.F.L.L.L.W.W.P.E.E.E.E.R.'.K R.m.n.n.n.C.C.V.[..X3X' } |. X' ~ H '.F E X.[ H v.b.U.V.n.c.v.L m.b.].R.Y.g.V.V.Z.C.W.B.F.F.8.s.R.V.j.j.Z.d.c.f.n.Y.R.E.j.c.c.c.n.j.c.OXc.V.U.f.c.{.m.m.Z.B.j.Z D 3 b.c.0 l OXU.J.L.W.T.T.C.B.C.F.C.Y.T.R.U.U.Y.U.C.C.k.~.+X!.E.E.E.T.E.R.E.!.E.v.+.5XfXgX6XdXpXvXsX7XbXrXQ 2 X.U  XF T i.z.l.B B N N u B T A C U L B w C N B p.i.K T A A B B B B B i.A a.l.p.z.~.OXb.l.b.b.v.4 2 F m A C C V n.v.x.v.C i.@X X,XMXnXpX5X5X6X4XsX+.m.E.H.k.L.P.I.I.L.L.H.Y.@XE.@Xm.H.H.V.K.K.E.I.L.L.I.I.I.I.L.I.I.I.L.L.I.e.I.I.w.(.E.R.u.R.R.~.~.L.J.I.p.k X.|.R.~.H.L.).`.E.K.Y.Y.~.@Xk.B.B.P.!.OX|.OXY.L.L.L.+XOXH.Y.!.!.E.~.!.~.n.m.Y.(.(.L.D.I.`.I.H.K.H.T.Y.k.L.E.~.~.V.",
"v.b.b.m.Q.l.B Q.m.Y }.l.V C K i.i.C N A A V A A T L C p.b.y.r.i.5 X + $ # 2 # + + @ a x.Y '.H $ x v.|.'.H 2 c h 4 p u.h.p.x.C i.c.m.v.v.v.'.}.#.4XrX4X6X:X;X4XfXHXrXx j ` b W ~ F } v S J D ' I  X[ [ { O.} { ( ( X._ / [ $X/ v ) J [ ~ ) Q $.` I { { / 2 3 c G g W @.E Q 0 g $.kXuX' S o.+. XH J $.Q -X;X;XmXnXNXmXmXMXzX,XoX+X+XT.E.L.C.L.L.L.).P.P.W.J.J.C.!.E.L.R.b.m.E.Y.V.j.j.x.j.j.OXOXoX[ [ '.[ ' H I [ Y W _ ` l v.y.V.R.T.R.Y H Y v.].R.n.c.g.c.Y.B.8.=.s.=.Z ].OXR.c.g.;.f.n.+XT.Y.R.{.m.x.3.+X{.T.Y.OXb.{.n.+X@X@X@Xb.x.V.s.Z J ' '.m.i.0 m.!.L.E.E.T.E.E.E.E.W.F.+XE.T.C.T.U.U.C., r.R.E.E.{.E.E.!.Y.+XE.+X+Xn.( 5XCXgX;XpXpXfXgXzXnX5Xx h U A }.}.v.l.l.i.V B C B L Y B v.|.oXC B > N N a.l.T w A l.V V V B a.i.A C i.p.p.R.z.a.i.i.i.N M K F v.A A A T v.OXv.i.b.B l.1X#X5XhXnXdX7X5XpX2XfX.Xm.n.J.t.K.E.).(.L.Y.R.c.H.!.eX+XH.k.9.J.E.!.`.!.J.K.K.!.E.L.H.T.L.L.B.L.I.S.K.E.e.L.*XL.T.i.R.!.E.!.!.E.v.[ |.OX|.H.P.(.I.I.J.H.J.R.@XK.S.B.w.(.!.+XY.L.P.B.P.J.m.L.L.R.R.L.L.S.I.+XOXL._.`.K.e.I.E.`.I.~.OXJ.J.p.H.J.Y.m.J.",
"v.m.v.T v.b.T v.v.L v.v.v.A A v.i.A T l.B T l.p.l.Z y.y.a.V y.r.Z e e @ # 3 + + + o w Z M D H 9 2 K v.v.v.P v.l O e 2.2.t e 5 e y.p.K U U v.' x .X6X5X5X6XpX5XfXHXvXQ E ^ k ~ G J ' c / / H ] I ( ' O.) _ O.] X.O.J ^ c ] W G G S ] [. XtX` l / `  .) v e G ` J / ) _ ~ E J & o v $.] H ^ o. XH v E x :X4X.XNXVXMXnXaXnXBX;XoXOXE.E.E.!.{.k.L.L.E.J.C.P.Z.E.L.E.L.L.Y.Y.n.j.V.Y.T.m./ L m.m.m.{.m.'./ Y [ 4 l J x.E j 6 2 Y y.k.V.T.Y.m.m.[ ' m.R.R.c.g.d.d.f.&Xa : f.U.n.j.j.s.;.V.m.n.R.R.].'.v.c.V.V.j.Y.T.V.Y.].&XOX@X|.].OX].K c.).R.J c 7 5 ; ; > H.E.E.E.E.E.E.E.E.W.F.J.E.E.E.T.T.T.h.v.].+XE.!.+XE.E.R.R.+XT.R.Y.C ( :XcXfX6X5X5XfX6XfXMXiXx _ v.v.'.v.v.A A i.V w q B N Y K Y [ oXT q N > w a.i.T > w V A A A r.l.l.f V l.b.l.R.R.Y.r.V a.5 C L L l.v.v.v.b.m.Q.v.l.l.i.v.XX..4XpXgXvXaXfXpX8XmXXXc.i.J.H.m.!.E.J.J.R.R.T.n.+X!.I.I.T.l.Y.+X!.L.E.E.T.E.!.R.!.T.!.!.K.B.L.L.B.I.!.S.*XeX).L.j.v.m.`.`.!.+Xv.S v.v.Y n.q.B.I.I.E.J.J.H.R.J.B.P.I.I.I.!.L.0.(.).*X*X!.E.J.n.v.J.I.I.I.*X@XI.(.(.I.I.I.I.L.I.V.m.R.Y.C N l.m.H.L.",
"v.v.v.T i.l.A A T T i.Y v.L N B r.p.b.m.i.A i.Z V V V i r.y.Z i u.p r ; r 1 X 1 1 Z a & 4 Z Z v.L c.y.i.b.Z M J G 5 w y.x.x.5.q a Z L v.A v.G b 1X6X;X4X5X5XiXgXHXAXO.x _ ` ) G / J H [ +.| _ ' [ ' / _ o...I .X+.( W k H H J ~ ` _ }.[ [ ' 4 ~ 6 v ~ l e 4 v } Q o.$.o.3 1 [ %.1 2 j W o.{ S v E k b :X2X1X7XzXcXzXxXmXvX8X+XY.E.E.P.`.+XC.W.L.J.J.{.T.T.eXF.E.H.H.j.j.R.u.n.Y.j.m.v.~ ].R.R.R.E.R.].oX'.~ 7 2 D j h 6 6 g Z s.H.V.T.E.E.R.].{.{.Y.f.d.L.F.@XxXc.E.Y.T.p t.V.1.=.V.OX].k.E.{.].v.x.j.m.c.j.U.U.R.R.|.|.|.[.|.OX].Y ' v.F ].D 1 5 c.f.a f.E.J.C.V.T.T.E.!.E.E.T.U.T.g.p.Y.t.w '.R.+X+X+X+XE.E.g.R.E.T.V.b.J _ 3XsXpX4X6XyXdXpXsXHXsXW / K v.U Y L A N u w N B C w C S S c K L A N M v.A w l.T N A A A B V B V n.m.b.n.b.n.z.b.A N i.A m.l.C i.v.|.m.m.b.m.v.v.T w v. XG bXbXpXzXgXfXpX7XMXXXm.v.T.H.m.~.Y.l.n.T.Y.Y.R.T.B.B.I.I.!.K.I.I.B.L.E.H.T.!.Y.!.E.E.I.K.V.K.K.J.L.L.E.~.E.I.I.(.H.F |.OX|.OX}.x.t.z.R.R.d.J.L.I.E.R.z.n.+X~.H.L.J.P./.I.(.I.(.`.+X!.!.R.Y.OX].T.I.L.I._.0.L.L.I.*XE.J.H.J.K.9.> r.m.p.B i.H.L.E.",
"l.T T L i.i.N N A v.oXoXA C C V v.v.p.p.i.A A A B V r.r.r.p.u.r.2.t r t s * ; t p 5.p e e p 2.f.5.f.x.x.x.a - b XXk 5 Z y.p.y.x.S K S I '.F I  X8XpX4XrX;X5X6XpXNXAX+.j { { o.} ] ' J g ` +.+.I U ' ^ ) ) / ' O...I x ~ D 3 W +.` 4 H F J 4 5 W E 2 D J l 4 ' $.! x W Q 5 U  X+.5 & 2 Q ! .X Xk k ) { x .XxX7XMXnXzXmXcXNXZX9X+XE.E.).E.L.T.E.L.C.E.E.g.s.R.J.V.j.h.T.U.T.R.{.n.p.p.b.v.OXm.m.Y.R.R.m.|.oXX. X^ z 7 ) / J @ y.y.p.p.t.E.E.I.E.E.T.j.u.V.J.M.m.B j.+Xc.k.Y.s.n.f.<.n.R.Y.V.Y.{.Y.v.v.Y '.x.].n.n.Y.n.@XoX|.|.OX+Xm.|.x J U oXa d M v.w 3 v.V.C.C.V.E.E.J.Y.; Y.E.T.h.Z e * r oX].E.E.R.OX+XE.E.C.E.+XR.V.v.U  X7XgXmX5XpX6XpXjXgXnXpX^ I N K ' }.b.T N w C B N K N K H U }.Y v.v.B L Y B > i.A B A C B > > V V m.Q.z.m.l.l.l.B C b.v.v.b.A B m.v.v.i.T v.K L v.i.i.v.[ X.zXfXvXpXsX7XpX6XMXXX+X!.R.T.Y.R.H.m.R.H.~.~.J.B.K.K.E.I.).J.J.L.J.Z.L.*X+X!.!.E.H.J.E.B.J.B.L.E.J.J.!.!.B.q.I.I.L.p.G '.OX@X@X+XR.T.!.T.n.n.B.E.!.~.R.+XR.R.T.+XOXI._.(.(._.(.`.H.e.(.L.R.~.~.~.!.L.D.I.I.L.!.L.~.~.R.Y.K.8., > u b.R.+XR.J.L.L.",
"m.v.T T m.x.q N v.l.Q.v.x.x.p.u T l.V i.b.x.B i.Z V V r.y.y.r.r.2.2.y s t p y <.2.y y c.u.i 1.4.3.n.x.y.Z x.e U  Xv 5 t t t a '.H '.U n F [  X.X2X6X5XpX4X5X6XcXAXAX%.j o.{ Q ^ / [ l g ' O.G H H ( ] _ ` I / ..O.J E _ ' # j O.#X+./ D & o 1 6 $ z g E E c ^ Q { z 7 Q l 5 9 9 l ' { v ~ [ / 9 Q o.%.x 4X0X:XpXaXzXzXaXCXCX9X|.E.).E.E.E.J.Y.Z.M.V.F.L.E.J.L.L.V.j.E.Y.Y.V.T.x.D v.U.Y.R.Y.OXOX@X9X].'.+. X}. Xj z +.|.U + m g e K y.j.V.T.J.L.E.n.c.Z.t.c.1.s.@Xm.V.k.k.g.n.j.1.f.Y.T.W.n.T.U.v.].m.].v.].b.h.c.].&XoX{.T.+X+X+XoX~ ' '.' * y.F J A o k U.L.J.Y.+Xn.<.d . , p.= K 0 x.].'.|.b.{.E.E.@X+X+X+XE.+X+X*XE.j.n.R.9X5XgX5XyXyXpXfXgXMXzXW F C K T v.l.i.N B N w l.i.N N '.l.v.T L l.b.l.v.T l.a.B l.i.B x.B V > > i.~.Q.l.V l.b.v.B l.m.v.v.v.v.b.v.v.m.b.b.Y l.A A T v.}.$XpXfXfXsX7XaX6XpXNX.Xp.m.OXK.p.!.L.Y.T.T.~.~.Z.B.J.E.!.J.K.E.K.L.E.K.K.*X!.!.`.L.!.R.K.J.J.B.E.J.E.K.E.!.+XV.B.K.B.K.t.Y.+XOX+Xm.!.~.Y.Y.~.T.I.E.!.E.`.I.0.I.I.E.~.I.`._._.)._.`.`._.`.).!.I.).`.).I.I.I.!.I.I.I.B.T.K.I.e.`.=XH.+XL.L.L.I.I.J.K.",
"|.l.l.v.Q.v.Z T v.i.l.l.l.v.i.w = N B e A V A x.Z u V p.y.i r.i 1.1.<.t y y s t t r 2.f.5.2.f.f.c.f.y.4 # 3 J X./ 9 a p a a Z x.oX'.oXv.F }.1XXX1X6X5X5X4X6X5XcXNXHX) x ) ! E ` } U U ] }.J v  X' ( [ ] ` ( ^ ] I I 9 ' ' 1 k ` { Q J ] J 2 v 8 + $ 5 J ! 8 ! E x 6 ! &.z c $ ` .X~ } ~ 0 ` c W E Q o.h ;X7X:X7XzXzXmXSXmXCX9X@X!.E.W.E.E.V.j.L.Z.V.d.J.L.C.C.L.E.L.R.{.m.U.m.m.v.n.C.R.E.L.R.m.oX@XX.}.' v.v. XW ] ' [ J # X @ 3 l L {.E.!.).E.t.w x.1.Z oX+X+X'.x.4.d.B.Y.V.U.V.U.{.{.C.T.T.R.].c.c.v.v.v.p.c.v.oXoX|.+Xb.m.R.OXoX X^ 2 & c.OXD k m.w O Y.E.H.H.J.<.0 =.W.; . . X A @X|.|.].L {.E.E.+X+X+XE.E.E.+XE.T.J.E.E.@X4XrXsXpXvXpXfXhXVXMX) / C v.|.i.l.m.V N i.T i.i.q N |.l.v.K K C T l.i.K K |.a.T T i.v.A b.r.V l.b.@XQ.i.z.b.b.l.i.l.i.B z.L m l.l.Q.Q.T K L l.C A i.v.XXgXvXpXpX5X0X4X7XnX;XG [ OXR.m.E.J.R.J.E.m.n.L.L.L.P.E.L.K.I.I.(.I.V.K.L.K.I.J.R.m.m.Y.H.!.T.H.L.I.I.E.I.T.K.S.I.L.Z.I.E.!.E.E.J.H.R.H.E.!.J.E.J.I.S.I.I.D.D.D.I.I.I.).`.(.I._.(.I.).(.(.`.`._.`.(.(.(.`.I.(.).`.`.I.I.I.I.`.!.K.e.e.D././.I.B.e.",
"m.l.l.v.T v.i.T T B B A A l.q q V l.V q w V A i.i.C A y.y.y.<.i <.1.y : , y t , 2.t p p.u.f.c.c.f.f.p + + X h b $ + 5 e e C Z K [ oX}.' }.XX1XwX1X;X5X6X:X4X5XfXNXjXh W { ` ` o._ / G G ' v ` / m g S J I I ..` F D e ' ~ } %.l k 8 G [ | 2 c 6 + # 1 - 6 ! ! Q 9 2 x Q E ^ ^ O.%.E ) } G Q k ~ G ` k c ;XaX2XnXgXaXzXVXmXZX@XE.k.Y.T.E.J.p.c.W.J.L.C.E.Z.B.C.W.E.T.R.OXY m.'.'.].n.W.V.J.L.R.].v.m.}.}.v.b.m.].[ |.'.Y D c + 2 k 2 5 m.R.p.n.h.: m.'.x.}.}.@XOXv.].f.s.j.f.Z u.j.+X{.m.W.E.T.T.R.Y.n.x.x.Y ' ].x.|.oXR.{.v 9 p.n.].[ $ 1 m.*X~.v.S R.j.o p.).L.T.J.c.; M.L.I.j.y & M |.oXm.m.].V.L.E.W.E.+XV.L.E.E.E.V.V.!.E.9X7X0XpX5X,X6XnX5XgXBX( v K M Y v.m.v.B C m.l.i.B w N l.l.T v.|.T A C V Y F v.i.T T A A A l.i.N l.z.l.l.Q.l.b.m.b.m N V l.Q.T 4 C B l.i.a.A T m.A x.v.Y XXfXsXfXgXdX7X;X2XgX1XoX9Xm.R.OXT.E.R.H.K.m.z.L.J.L.K.K.K.B.L.L.I.I.z.s.J.E.~.m.v.K M ~.E.I.I.I.I.I.B.L.I.`.L.D.I.K.q.I.e.I.E.`.).J.~.~.E.`.J.E.(.P.T.Z.(.(.(.D.P.F.B.S.I.I.(.(.(.e.(.(.I._.`.(.!.`.(.(.(./.I.!.`.).I.D.K.`.I.P.I.(.L.I.`.I.I.P.I.",
"Q.b.b.A l.m.b.A V y.l.p.V w > w V f a.Q.p.i C Z V B u r.p.u.r.t.3.<.t y y i p i 2.0 0 u.c.f.s.c.c.c.0 X + # 6 X @ 2 H U Y 5 m Y oX X' oXoXXX$X2X1X2X8X;X;X4X6XgXNXrX[ ) ` ( O.Q @.` E 9 2 k X.} S m v ` X.[ } ] H l G v  X<XO.S 1 k c H l ^ c 8 $ ! ! 1 2 Q o.O.J H Q j +. X] Q %.z 2 +.$.7 l 9 I  .Q ^ -XaX:XfXfXxXzXMXmXbX@XR.{.Y.T.J.H.h.V.F.J.E.J.C.C.F.C.T.Y.T.E.{.v.Y.m.].b.].U.V.k.p.}. X].n.OX'.' '.'.v.'.l.v.oX'  X3 h 6 J k 1 & & o & R.v.F M I '.@X{.f.OXU.u.P v.v.x.b.m.m.Y.J.E.R.n.n.c.n.x.C ].[.U m.@XXXOXoXc 6 + @ G ` o v.L m.OXS H Y.L.; * E.E.E.E.t.; F.F.`.!.E.+XD v.|.Y |.n.U.C.T.T.E.OXM.J.+XE.E.T.T.E.!.9XxXcXpX5X6X,XnXnXpXjXQ v U N D T v.Y C C A l.i.C C q v.v.A m.v.l.i.N A v.K B T A l.B B v.H > i.B b.b.r.l.A i.V > B x.l.m.l.m.A V v.C B p.i.i.l.b.b.v.}.$XpXaXfXzXVXvX;X4XpXwX*X+XE.j.Y.J.I.!.L.H.OXR.m.J.I.K.K.K.B.K.P.I.e.R.OX!.+X+Xn.b.m.Y j.I.I.(.`.I.(.`.L.I.E.L./.I.I.E.q.L.).I.(.(.(.T.J.I.(.!.T.I.!.OXE.I.I.(.e.0.C.B.q.q.I.`.(.).(.(.`.I.(.I.(.`.+X(././.(.S.T.).(.w.D.E.!.!.`.!.`.L.I.`.E.B.D.I.",
"Q.Q.m.m.|.m.m.v.i.l.b.p.p.y.y.r.a.i.i.Q.i.V C Z p.y.V t.p.r.t.f.1.<.2.2.<.i y i t @ # a 5.<.1.1.u.r X + + @ # + # l h F v.a e Y oX'.v.&X&XXX.X X#.8X4X2X4X8XsXgXAXtX.X{ ` ( o.z 5 I ) 1 2 G X.+.' H ^ ) X.[ [ F H c ^ ~ l l K 4 @ J .X%X7 ( / z 8 j x 7 7 k ) Q E ) $.{ o.<X%XQ o.+.+.+.%.7 l 9 G ^ Q j .X2X:XmXaXcXVXzXMXbX6X@X+XR.J.L.E.T.F.F.L.J.T.Y.C.W.C.W.T.Y.T.Y.{.T.H.R.R.x.c.j.b. X X[ v.m.{.|.[ c v H v.b.9X|.|.@XX.3 ^ 1X[ . a +X> t +X'.XXXX'.|.oXm.f.c.g.m.|.@Xb.i '.'.x.m.R.U.T.R.| D x.b.b.x.P 5 D '.v.'.Y 1 o 2 3 o q w m.|.|.|.K |.R.J.x.* > H.R.L.:.i b.Y.R.OXR.m.].[.4 '.}.p.V.U.V.R.R.k.N.T.E.E.E.E.E.E.*XwX8XVXfXsXfXfXfXfXzXhXW b k / N B v.}.}.C A C L L C L  X}.l.l.l.i.l.B B v.T K T > N B N C F N l.B f T A A N A v.i.m.m.m.z.l.n.m.z.Q.l.V l.i.B A l.i.l.|.1XdXpXvXpXBXfX7X4XfX1XOXE.L.E.H.E.).(.E.Q.OXR.~.J.E.L.T.z.T.L.I.(.I.E.!.!.!.!.b.V OXi.Z J.D.P.).I.I.I.I.I.J.L.I.D.K.I.q.P.`.q.^.(.I.8.w.(._.!.E.S.!.+X!.!.J.K.Z.Z.C.M.Z.q.S.).q.e.(.(.(.(._.(.`.`.!.(.(.(.I.P.I.).I.D.I.P.I.`.I.I.P.S.I.(.`.I.P.E.",
"l.m.m.Q.Q.m.m.m.m.m.b.l.|.p.V a.p.b.i.B A p.A A A p.p.t.p.t.t.s.1.y 2.<.<.<.y y 2.0 2 a 2.2.u.i 0 X @ 6 6 # + @ # # @ J }.$X'.v.P C |.@X&X.Xo.b ..2X:X;X4X5X5XgXAXrXXXo._ c v 5 & k $ # 2 ^ _ 9 g ' { ` [ [ [ / / J k ) 9 l J 2 9 J ..o.E e M ~ j ~ %XQ o.' $X` h ) +.%X&.%.o.) %.@.#XJ ` G 4 4 l c ) 2  X8X2XMXpXfXCXHXVXMX6X XR.n.b.T.E.E.T.Z.J.C.+X=XE.R.T.E.T.{.Y.b.' {.T.R.R.x.x.].'.$X].c.T.m.n.m.'./ G G |.{.OXm.h.m.X.& ( :XoX4 v.eX*Xc.R.&X+X'.v.|.x.d.3., f.C Z y.r.].'.|.v.R.E.V.V.j.].' m.m.n.m l 3 # 9 f.<.p 5 P e 5 w c.P @X@X@XoX|.OXOXm.m.y . , T.E.U.OXK oX|.'.'.Y ].v.U @X|.x.j.u.j.R.Y.C.Z.E.E.E.E.R.L.E.+X9X8XmXzXdXhXMXfXjXBXNXo.h c I H A T K oXv.A C v.T v.oX$Xv.v.l.i.i.A A N A '.M > B A i.l.N D C B B f B l.l.b.Q.Q.z.M v.l.m.b.b.b.b.b.h.l.l.A N N A V p.@X&XfXpXaXmXaXpXaX6XbX2Xm.OX!.L.H.L.I.T.!.+XE.!.!.L.V.s.R.m.z.T.L.I.!.*XE.E.L.!.].n.`.b.1 p.T.J.e.L.L.I.I.K.L.S.S.0.S.L.I.e.(.F.D._.`.0._.`.(.I.E.*X`.!.Y.~.n.t.j.J.T.n.8.S.w.S.0.0.D.(.(.(.(._.`._.`.I.I.I.S.L.(.).I.D.P.(.`.).).D.B.S.S.I.I.I.(.).",
"T m.m.m.m.m.b.b.b.b.i.i.i.r.V A i.i.x.A i.p.r.A B B y.t.p.f.1.1.1.p p : : :.: y 2.<.u.2.i u p r @ $ j j 8 6 # + + @ 0 0 C }.XXoXP '.].|.&X Xx ( 4X6X4X>X5XpX7XfXNXhX:Xc ( v 3 1 1 1 3 + @ k E 9 g I / ' } ( ( [ } S c ) 9 ~ / E S ^ ~ / / _ Y [ %X%X%.j ! { #X#X{ %X%.x ! E v ^ ) +.~ 5 x 9 0 9 _ x h @  X8X8XnX7XaXmXSXzXfX4X$.].OX'.].Y.C.Z.M.J.V.R.!.T.V.Y.Y.T.T.c.' [ ].E.OXR.U.m.c.Y ].E.Y.H.U.Y.m.].[.$X~ K R.T.c.R.c.Y 1 z ..Y C 0 |.+XOXoXoX{.[ F v.H x.1.y ; ; : c.{.'.b.m.Y.F.0.F.T.*XOXH L Y.U.C S l z @ 9 1.Y.|.OXm.m.+Xv.H &X|.oX[ [ J  XoX].; r T.E.T.Y.T v.|.'.U F v.Y.R. X@X].n.Y.c.j.Z.U.R.C.E.!.T.d.E.E.E.T.@XeXxXzXfXgXgXsXnXnXNXo.j  XY U [ T v.}.v.T i.T A v.v.v.i.v.B A A v.v.v.v.v.A l.l.V B i.= o = N N B f l.9Xv.z.b.l.m v.b.b.l.Q.b.l.a.i.i.N q m M e C i.}.XXmXmXfXgX5XdX6X7XHX1Xp.R.J.E.E.V.E.~.E.I.L.E.!.K.T.].m.OXR.K.V.L.!.!.I.H.H.!.+X!.`.@XU i.OX+XI.L.J.J.t.V V.B.q.I.I.(.I.q.I.S.S.).(.`.).I.(.I.I.=X+XE.b.].m.j.L.L.k.m.k.q.P.D.e.L.e.e.D.(.(._.).).).L.J.E.!.E.I.I.E.I.I.(.(.I.I.(.P.K.0.I.P.I.I.I.",
"A v.b.Q.OXQ.m.b.b.l.a.l.p.p.y.V V i.y.l.p.p.y.f i.r.r.r.p.f.s.u.t.x.p y , , : , t i u.u.5.t p 4 $ j j z # # $ # + @ ; p 2.p }.XX|.oXOXm.oX Xb #.0XaX4X;X5XpXpXpXGXBX$Xv ` ^ 2 k 3 2 2 2 3 3 k 4 l 5 H ' ] I ( ..{ J l g J { { ~ k c c / X._ D U #X$.Q { ! E k +.tX<X$.9 ~ { +.` h ) %XE ^ 4 4 e F _ 6 @ #.2X0XMXzXMXmXbXcX6X:X%X'.{.OX&Xn.V.V.E.+XR.T.T.+X{.|.oXY.T.c.].].{.R.R.R.E.R.b.C U.E.n.V.E.R.Y.R.|. X' L R.E.n.j.E.{.D J P Y.x.K N m.&X_ U x.v.Y l U 4 p ; f.C.R.@X|.x.c.j.d.M.N.F.E.*XOX] y.C.c.u.5 U [ E 6 ].OXY v.@X}.X.' ( 1XF g J G D J x oX@X'.V.L.T.n.].L x.x.P m.n.d.n.K 4 m.p f.OXc.C.T.J.B.+X*Xj.1.g.E.m.|.9XeXzXvX5X5X5XpXhXnXnXo.H }.|.v.Y K v.B T L N B C T a.i.a.l.A N A l.l.b.l.A l.v.T V A M m 3 m > q q T i.v.m.l.z.m.L ' B T l.m.v.b.b.b.B M N N 5 5 N v.}.XXnXzXMX6X4XaX4X7XKX8XL.R.n.!.+XR.E.T.R.!.I.P.!.K.R.@X~.T.E.I.B.L.L.;.I.L.!.E.!.OX&XOXY.T.K.I.L.J.H.z.d.p.t.k.8.S.B.I.K.8.S.D.e.!.!.(.I.e.I.L.L.I.!.I.R.OXm.~.R.H.k.p.h.8.S.D.e.L.K.B.`.P.(.I.(.I.E.K.R.+X!.R.!.I.E.).(./.).`.I.(.).).I.I.I.I.e.I.",
"i.l.B B l.l.l.v.m.b.h.T i.b.p.B B V i.i.Z y.V r.a.a.a.V p.y.t.1.1.x.x.y s t : , r a t y 5.2.e # $ x ) ! 2 e 9 # # 3 t f.5.1.i.}.}.}.oX|.}.+.[  X8X6X4X6X6X5X5XiXBXhX$Xx O.{ k k 3 h Q E E 3 3 l ^ c E G ^ k x I ^ ~ 9 3 j Q &.) 9 2 l >XO.~ H / W { ) ) ! ) ` ` ^ ^ +.} o.%.+.$.E v >X_ ] e e m 5 c @ @ XX1XfXnXaXmXgXmXVXyXaX-X[ v.'.|.n.T.R.H.R.E.+Xn.T.OX&XXXm.Y.v.].'.].T.Y.T.Y.n.v.K m.v.H v.T.n.Y.R.OXOX].OX{.T.c.n.m.i.x.Y p.n.x.M P m.}.H v.OXR.].U v.c.x.; ; j.@X[ k a U.8.>.A.G.P.I.K.R.v.T.L.U.i o 4 OX' ~ $X[ ' ] ( x h h ~ XXY 7 G @ e S 5 H &Xv.Z.P.J.j.+X].p.c.M OXm.<.x.3.* # @ 1 P j.C.C.C.C.V.Y.R.Y.s.j.oX@X9XeX7XfXrX4XpXpXMXnXBX .F v.T l.T X.M A N e = w B A i.A l.N v.l.i.A v.m.b.i.A A V i.U / v K '.C l.N N v.b.i.V p.i.$XI C v.l.b.v.m.b.T N w B l.C q q v.oX XmXnXpX4X7XsX4X7XHX9XE.R.~.R.Y.m.OX~.J.`.L.J.p.l.R.~.E.H.K.I.B.D.).S.).!.z.J.!.OXXXT.h.H.H.k.B.n.R.Z.!.!.k.k.8.q.q.E.L.K.D.B.J.I.!.R.K.=X!.L.L.B.P.P.L.J.Y.T.T.n.z.Y.V.k.M.A.I.L.I.E.L.E.P.D.).I.I.I.E.!.E.~.+X`.`.I.w./.(._.(.(.(.I.I.I.e.S.I.I.",
"b.b.b.b.v.v.l.b.b.b.V > p.b., p.b.y.B A p.i.a.a.p.p.Z u i y.f.s.1.c.u.t ; p 2.y ; r s y 1.5.5 + $ ! Q v Z 1.a # 5 5 t ; e e D k b U oX@XXX.X X-XsX4X;X5X6X4X4XpXfXnX;Xc ) ` 7 k ^ { ) ! o.E ~ %XQ E j c 9 O 4 e l Q E j 6 $ *.&.~ F 4 v 1 @ 2 / G  X$X{ ! o.%.` _ +.} E j Q $.+. Xl l 4 4 0 * 5 - l 3 / :X:XcXMXaXzXmXfXcXzXgX-X[  X{ '.R.T.Y.C.E.Y.+XR.j.OXOXR.m.m.[.'.' [ {.R.Y.R.Y.R.v.|.U c W c.T.R.b.m.OXm.m.b.R.m.D 9 o i.x.x.p.t.p Y |.OX[ U }.@X|.[.F x.u.U.3.Z oXF 5 1.q.A.F.B.P.E.L.H.m.R.E.y.e & 5 ; l.v.XX[ y.OX'.U F Y v.m.R.m.'.L D P y.j.u.|.Y.F.L.j.V.W.d.s.R.n.OXc.<.p.g.y.+ @ # 0 V.T.T.C.F.M.j.E.T.j.c.|.OXeXeXxXqXrXrXaXpXnXgXMX@.l M C l.T Y m N w v.Q.Y L A M A T C T A l.i.A i.Q.b.r.B B B M J x 9 x 3 > = q K A l.l.A l.B C K L l.m.v.v.l.A C N V C q Z r.l.v.}.MXjX4XmXzXyX-X:XfX:XF S K ].OXOXR.R.L.I.(.Y.v.l.m.R.H.K.I.I.H.L.I.)._.I.K.!.I.E.R.E.T.K.E.R.j.z.H.;.eX@X8.B.K.I.E.@XE.K.L.I.!.H.k.J.q.eX+Xe.I.I.`.I.I.I.Y.Y.R.R.R.T.k.k.M.Z.q.S.e.I.E.=XE.(.(.`.).`.I.eXI.`.!.(.`.D.I.(.(._.(.(.I.e.B.B.C.K.I.S.",
"l.b.m.m.Q.Q.m.m.p.l.b.b.b.b.l.m.n.i.v.@Xx.p.l.p.p.i.V Z r.p.j.s.1.u.5.a t u p y t t s y f.f.5.e c j ~ b.f.f.r + 5 t r Y l @ v k h [ &XoX( XXoX#.4XdX6XpX6X5X5X5XfXfX:X^ k v v ` ) o.! ! Q E ` Q ! Q { k g 4 J J k j ! h z { ! Q +.} S H ` ^ J >XtX%X) $.%X.X<XlX#X#X%X~ ` ) ! ) +..XG S D 5 & 9 1 1 I +..X;X5XMXpXmXVXxX8XnXiX@.c }.OXoXY.E.E.E.W.T.E.E.Y.R.T.m.].m.oXO.` ` ].R.Y.R.c.Y.].}.oXH 7 J b.n.x.b.OX{.h.R.@Xc.x.L & u V.Y.Y.Y.c.m.&XoX}.' '.|.v.U H [ y.E.R.e v.p.V.M.M.M.V.M.q.q.J.v.].`.!.5 % @ = : ; > ].h.T.L.T.T.E.T.E.E.E.J.n.U.+XOXn.E.E.R.T.C.x.4 U.C.d.1.h.Y.{.R.f.y.d.T.l # $ s C.C.C.Z.T.W.E.E.R.|.{.+X+XeXxXSXjX6X5XgX0XsXnXkXo.v 2 5 m.m.oXv.K A OX@X}.S N C C N > B A l.b.T B a.l.B V A i.T J ^ ^ W [ B A v.K C v.v.B v.A M A L A M K L |.v.v.m.l.A A b.m.v.[ XXnXjX5XpXaX5X,X.XzX@.k / U v.Y.!.+XR.R.L.!.z.i.v.v.Y.Y.Y.I.L.Y.K.*X!.(.I.I.I.I.I.`.I.P.I.L.!.R.T.H.9.K.K.I.E.J.L.H.Y.J.H.K.B.I.E.K.L.I.I.I.L.I.(.I.I.I.E.+X!.+XE.S.K.k.8.K.K.M.B.B.e.I.+XS.(.I.(.)._.`.`.`._.I.).`.I.E.`.(._.`.(.I.(.I.K.w.L.E.J.",
"b.v.b.b.Q.OXm.b.p.l.b.b.b.l.b.b.m.p.b.|.i.b.i.r.a.B > p y.x.j.g.1.<.y p y , :.=., t i 1.c.f.2.].].P m.Y.p.x.2 @ 5 t a m.K 2 h 7 F oX|.C G wXXXn wXgX6X5X2X5X7XmXSX#XX./ z x E ! Q ! $ j ! x / ) ! j $._ 4 v 2 2 k Q ! 7 ~ W E E O.>X>X X` ^ [ 4XtXv ` <X<X_ o.<X%X#X%X X%XQ ! Q { O.$X Xm S J v 3 1 I +...6XpXMXxXzXcXzXaXnXpX.XE Y E.+XR.T.E.F.L.E.Y.+XT.V.T.R.m.[ { o.o.o.[.OXR.b.c.b.XX( I J l x '.m.v.].m.R.c.n.{.n.R.R.1 4 H.J.Y.Y.Y.Y.Y x.m.@XoXv.}.'.'.k o C oX/ Y d.Z.s.-.-.-.M.=.; - n m.C.A @ X     =.Y.c.h.j.V.H.E.E.E.E.`.).).W.T.R.R.h.Y.Y.R.V.V.V.i.w f.V.g.3.s.j.Y.C t d.M.m.~ 6 6 y.C.6.M.d.Z.W.C.E.R.@X@X+X!.eXxXmXhXrXpXgXfXsXBXtX .` 4 2 v.].XX}.A Y 1X|.Y ' U N A Y A Y K v.v.A A T q M L A B v.U L U }.xXQ.Q.v.v.m.v.C A T v.V B A '.[ / ' }.|.v.l.B V A l.l.oX[ 1XnXfXdX5X0XrX;X$XdX:X` }.J ' K p.~.OXOXn.b.C v.m.Y R.T.R.Y.J.T.K.!.J.E.L.L.I.).).).(.e.J.I.E.z.R.E.q.P.`.T.k.V.T.K.B.K.H.Z.0.0.I.!.0.S.I.I.E.I.I.S.P.I.I.K.L.P.I.B.B.k.M.S.q.8.M.B.e.I.D.B.I.I._.`.`.(.*X*X(.).*Xe.I.P.I.(._._.(.I.(.I.q.I.I.Y.m.",
"b.b.m.m.Q.m.Q.m.i.A l.b.m.b.b.l.Q.b.V V p.l.B i.i.B V V A i.p.f.3.<., 2.2., =.<.<.<.2.f.j.g.<.Z v.m.Y.c.m.].9 # 5 s r l.].l h / oXoXx.t U 1XoXg .X0XzX4X;XaXMXAXBX>X X~ h k c W ! $ + + $ Q $.o.! + ! { c 4 9 3 6 Q x 3 k 8 z 2 g .._ / l _ @.lXuX/ Q o.%X%.! <X>XtX%X%.%.! $ E Q E #X#X] F H J E 3 c _ k :XgXMXdXzXmXaXCXnXsX+.` / OX+XR.Y.L.*X+XR.R.!.J.V.Y.Y.|.Q ) Q  .O.] ].R.m.Y v.@X}.7 J c ^ '.m.m.OXm.Y.R.n.OXOXR.Y.4 X w Y.J.j.n.{.x.p.b.m.m.|.OX}.Y J 3 v k b D 4.-.4.q.1., r.q X o 4 O & @ @   . ; h.E.R.U.V.Z.k.n.E.!.E.).E.E.*XE.T.Z.m.].n.c.j.Z.u.q U.j.j.j.d.Z.Z.y.y Z.Z.p.D S h 7 g.M.8.M.N.C.M.F.E.h.].@X!.E.eX0XqXnXsXpXaXpXpXBX,XQ o.F M L v.v.v.v.T T v.V T }.N N N Y Y Y T M N B N > T v.N N l.v.v.b.Q.Q.l.v.T l.OX|.X.U C M r.V C l.v.U  XXX}.Y T @XA m '.l.D U $XMXgXVXaX5XrX#X$XaX:Xl  X& g K D x.OXm.|.m.' XXOX'.eXH.H.R.!.R.b.8.M.L.B.K.I.S.E.J.I.F.J.I.L.n.T.).I.I.`.!.n.n.c.k.0.J.T.V.0.C.S.S.A.A.e.I.I.P.L.S.I.(.I.q.L.I.L.M.M.8.q.S.S.I.S.J.C.D.I.w.0.P.(.(.(.(.I.e.D.I.E.I.B.I.I.(._._.I.I.I.I.S.P.I.z.v.",
"b.Q.Q.m.b.v.b.b.V r.i.l.b.l.m.|.m.i.N u > > m N N Y H Y m.p.h.g.3.=., y y , : y 2.<.<.c.3.s.y 1.p.v.v.c.{.].H 7 5 e v.@X@X' e Y &XoXb.Z XXX.K R 5X5XgXdXaXpXpXpXnXtX+./ 2 v G ) j 8 $ + + *.E E j $ j &.{ k 2 z 8 2 9 @ 3 j E l 2 9 2 4 k j %.-X<X.X%.) <X<X! rX>Xc ^ &.! E Q # c 8 k +.<X$.c 9 3 3 l J v .X6XhXvX4XcXmXmXpXiX@..XoX|.OXT.E.q.R.OXm.T.E.H.T.v.m.J h Q Q  X+.] v.R.|.].c.{.].m.m.m.'.( '.R.R.R.R.+XOX+X@XR.Y.oXo O L n.x.R.R.P ].].b.m.|.v.'.v.m ' oXG k y.4., i s.y.e 4 5 @ ' 3       5 x.Y.p.R.J.Y.v.f.V.T.T.E.T.E.E.E.T.!.R.j.j.m.v.u.M c.n.C y.T.V.f.j.Z.d.d.l.V.B.y 0 A ].H Z s.N.N.>.-.M.C.W.W.y.~ @X+X!.eXxXcXfXiX7X5XsXzXMXrXx 2 H U U U Y }.K T v.A N N v.K K N N B C A Y M M C N q N = q L T C Y T T T l.A V Q.Q.}.Y B A l.r.T V l.v.v.}.oX}.g oXv.U F U 3 v  XNXpX0XzX7XpX#X:XnX4XU .X[ F l 2 '.@Xm.R.M 3  XoX[ @XH.K.Y.R.E.OXb.T.L.J.B.L.R.Y.k.T.+XT.K.z.n.`.`.!.!.!.!.R.T.T.Y.J.E.R.k.J.L.A.0.B.S.B.I.P.L.P.S.B.L.I.P.).!.!.B.q.B.q.I.I.I.S.K.L.P.I.B.w.S.e.(.(.(.P.I.I.).`.I.K.I.(.I.I.e.(.I.I.I.).I.(.E.n.",
"m.~.~.Q.Q.m.m.m.m.m.b.i.A l.b.m.m.L q C m M 5 m ' W ! ] oXc.c.f.3., t t ; t ; : 1.1.f.c.3.1.u.f.g.y.y.p i.m.v.Z y.x.|.].n.u.y.M XX|.D 5 ..~ K XXpX6X0XnX7XaXpXgXfXkX%X3 3 z h 6 j Q E + + # x ` c # *.E Q o.` 3 2 5 1 $ 7 ! $ ~ k E 3 9 c E O...O. X<X%.#X%.E >X%X) z Q O.O._ { E ~ 3 G Q Q ! ~ 9 9 g I ^  . .:XpX5X8XzXzXvXrXX. X[ ].R.H.T.L.T.R.U.E.E.H.H.v./ k x Q ) O.o.+.|.OX@XoXm.].E.).E.E.Y.m.|.].{.{.R.E.OXR.J.E.H.@XF l H D P p.L @X&X'.|.U K |.{.m.L v.|.P P d.3.C q q A x.D 1 # k .     o A Q.Y.r u.V.m.l i.h.U.W.W.T.T.C.E.T.J.V.V.n.j.c.i.Z n.n.n.U.j.j.u.u.g.F.Z.B m.T.2.5 L v.L 5.M.C.-.4.;.d.*XT.T.u.}.oXR.E.eXcXVXgXaX5XyXmXMXzX-Xj 7 J U F U C U Y M C M B A K M M N C T A A C F [ M C m q > q C M A C T K N B l.i.b.i.N M Q.@Xb.b.V i.T T M M oX'.= A U v.M '.2 @ .XVXnX4XpXpX6X;X5XMX6Xv.'.'.9X'.'.oXv.R.j.2 & '.oX[ b.9X@XY.J.H.+XY.R.R.E.T.R.!.E.J.R.+Xn.s.j.H.`.`.!.E.!.H.R.J.E.E.V.E.T.T.R.K.w.0.F.L.S.I.I.I.S.S.F.P.I.I.B.K.!.R.f.C.B.e.P.I.P.I.D.I.q.q.A.L.0.(.I.0.D.I.e.).I.I.E.I.I.I.(.(.).`.E.I.I.P.`.I.S.",
"m.m.R.R.~.Q.OXOX~.~.|.b.x.p.a.i.A A v.|.}.XXoXXXoXW X.|.l.p.u.f.1.y u : ; , , : =.1.1.1.1.f.f.c.U.1.2.y.a c.c.5.y.p p f.d.1.M 9 p.n.4 # W D K -X5XpXpX6X6XnXsXfXnXAXtX6 3 k 1 2 E Q Q ` ~ } { Q j + $ ! ! &.Q E 1 1 6 # 6 8 8 k c Q 3 2 O.{ k ^ W $X<X%X<X<XO.#XtX%.{ ^ 3X} & @.%.{ 7 c %Xz W { `  .Q v ` ) :X .:XcXpXmXVXnXdX].U v |.].n.c.T.Y.m.T.L.L.J.U.v._ E E o.o.o.Q ..oX}.9X1XXXm.T.E.E.T.T.R.m.m.].c.@X@Xm.u.1.~.{.v.[ ` 9 H v.m.L @X&XK |.].m.{.n.h.n.c.b.v.v.j.p.v.Y K M L L 1 $ 6 l & & C A v.m.C [ OX'.v.'.P c.C.L.E.V.g.V.J.T.V.d.g.E.R.y.n.T.R.T.V.C.y.f.f.j.E.4.].x.p.OXx.L v.x.u.Z.M.E.d.-.Z.S.C.V.b.U 3 v.V.wX0XnXnXhXpX5XfXdXvX#XQ z ' 3X'.}.'.K K N C M A T C B B L L A N V B v.K F [ '.v.Q.A B C v.v.v.V N B l.N 5 N N q v.Q.b.b.l.a.l.v.Y U M '.'.Q.Y L U @X[ $ +.mXcX6X;XaX7X:X6XfX2X].@Xv.}.@X@XU m m.4 l oX}.oXv.m.@X+XR.T.Y.H.!.OX~.!.!.!.!.E.L.I.L.B.P.K.E.`.`.Y.|.|.n.H.J.E.!.R.m.R.OXR.L.L.S.L.H.k.I.I.L.P.P.P.P.I.L.i.y.I.E.Y.H.L.I.S.e.`.I.S.L.e.e.0.I.I.P.B.e.S.D.D.S.D.I.I.(.(./._.`.).).e.(.I.!.I.0.0.",
"b.b.z.z.~.~.~.~.~.~.~.Q.Q.m.b.y.v.|.|.v.v.Q.|.|.v.Y v.i.p.u.<.2.<.y : : t t : , y =.1.=.j.u.1.c.s.4.f.c.y f.c.p p u.s.1.2.t e x.{.R.Z 2 J 4 S :X2X6X;X;X6X5XfXgXfXVXsXk k k 3 h E x  .$.%XO.o.o.E + j ! ! Q ! Q E x 8 3 $ $ E 4 l Q z 3 v W 2 E tXuXkXDXuXlX<XlX%.$.^ v tX%X7 6 7 W j j $.O.W ) +.o.~ ` )  .5XW O ;X-X2XpXzXyX'...XXv.H }.@Xp.m.{.T.W.d.Y.R.n._ x E ) o.o.] ` ]  XXX1X&X{.T.V.T.V.R.R.{.&X+X+X@XOXoXm.R.@X XA I h e ].OX+Xn.Y.OXn.m.{.Y.T.R.R.U.Y.m.x.v.c.b.].].H 9 2 2 7 # # Y q . - 4 5 v.U k }.L XX1X'.u.E.T.V.V.R.V.J.V.T.n.R.R.j.f.j.V.h.V.V.F.c.x.j.g.f.t.&Xv.p.Y Z i 3 K f.C.M.B.q.-.4.M.F.B.s.'.H U s [ 0XmXnXpXfX6XpXfXnX,XQ Q [ #.}.Y Y U N C m.T N L C A T K N A B A l.v.T L Y }.v.Y A M C v.b.|.m.l.A A B q B V A N B V V l.v.A T v.b.C K '.|.v.}.|.@X Xc ..zXnX0XpX7XyX:X;XpX2Xp.OX|.v.OX@X}.S U X M }. X}.L v.b.T.Y.Y.!.I.I.!.!.I.!.E.I.I.I.(.I./.I.K.+X`.!.+X'.Y m.b.].R.R.~.b.b.m.T.L.B.S.L.].m.D.I.I.I.P.I.w.P.Y.[ J T.L.L.L.B.S.P.P.I.I.S.S.D.L.q.I.I.G.I.I.I.I.e.I.I./.(.).(./.(.`.)._.(.I.(.I.0.J.Y.",
"b.h.z.m.b.m.~.n.~.~.~.Q.Q.~.n.l.m.Q.b.l.b.b.l.T l.b.b.l.y.r.i <.<.: t : t y : t y =.<.;.H.g.f.f.1.3.1.2.t.f.Y.y.p y.<.2.5.c.n.R.s.c.a P ].y.Y :X6X5X6X6X7XpXgXzXpXNXnX` k x j x ` } { O.{ _ @.{ $ + $ ! ! o.%.Q ! E 3 h $ E z 5 2 W E 8 7 7 2 x >XlXkXIXDXBX<Xo.Q <X` +.:XuX` k { <XE O.{ o.W W j ) ` c ^ k 2X$X# ( :X#X.X.X;XO.) }.H x b v.v.m.T.Z.T.T.J.T.b.^ W ) Q ) [ OX].} $X.X$X|.m.Y.C.J.U.n.j.@X9XE.+X~.&X' oX9X@Xv b.D 3 {.R.Y.R.Y.T.U.m.m.].m.R.E.Y.b.OXoX'.L n.v.Y '.v.J 7 6 h 6 6 3 = C e +.  O k 7 x.Y X.&X[ 4 v.Y.d.Z.j.V.j.s.n.Y.j.k.V.Y.U.W.V.V.U.V.R.n.Z.g.f.p.v.U L C : h.q x.d.N.M.B.G.V.T.6.B.Z.Z.m.@X= Y 8XgXVXnXiXpX7XBX5XfX>XQ ^ F M [ v.Y K N N v.Y M T A C v.N B i.A N T |.V v.}.N M M A N B v.v.A v.v.A B B w T B A A A Q.A T v.L v.l.i.l.|.U A v.'.}.oX}.'.X.gX0X6X6XpXyX<X;X5X,Xe x.Y |.@X@X9Xh 1 1 }.}.[ X.'.'.v.Y.~.!.L.I.I.e.(.I.K.E.E.I.e.I.0.L.I.E.!.!.+X!.!.~.OXb.b.m.R.R.m.v.L V.L.J.B.B.~.OXe.I.R.L.L.L.I.P.P.oXX.E.(.I.D.B.L.P.L.e.B.L.w.I.e.w.D.D.D.I./.(.I.e.e.I.I.I.(._.(.(./.(.(.I.I.(.e.I.J.H.",
"b.a.m.m.b.m.~.~.R.Y.n.m.m.m.h.h.l.m.b.b.p.l.v.l.l.v.v.v.i.u.f.2., r s r s t y y , =.1.;.4.g.g.1.u.u.2.1., p.{.n.x.a t <.h.f.U.n.c.1.x.].{.R.c.XXiXpXpX6X5XiX5XgXsXBXAXtX3 k 2 x ^ O.) O.` ` @.%.$ + # E Q o.%.! ! Q E z 2 j 2 4 c ~ x { { 3 2 h E tXuXjXjXIX{ # #X%X2 ] .X<X{ _ >X$.) %.x } ] 7 c ^ l 2 E x ;X4X$X_ X.:Xc b -Xo.) h E [ '.x.m.OXT.L.E.H.!.R.n.].[.'.[ ] [.].v.}.;X#XO.[ m.Y.b.Y.E.R.R.!.!.+XE.~.U h I b ^ k n.Y.5 a.T.n.R.R.T.H.R.m.b.m.R.V.u q ' J C c.n.L L S i.x.C K h $ c o 0 N }.O.    6 3 K '.c oX` h J y.V.d.j.s.g.V.j.f.j.V.V.f.R.T.V.T.C.d.Y.R.g.f.a y.b.x.t : :.C.<.j.Z.M.B.F.F.C.C.1.=.U.U.p.oX|.oX-XpXfXsX6XsXpXnX5XvX-X) E F ' U v.|.T M M L N N M B w N A v.A > C v.Q.i.v.oXC 5 T Q.}.v.v.Y V l.l.A T A V l.i.w B i.Q.i.T l.i.A i.T V &XY r.v.U oX}.v.|.X.zXvX5XaXdXpX6X:X6X,X2 '.}.v.@X|. Xv '  X XoXH [ K ~.*XT.H.H.P.(./.e.D.I.I.`.).e.B.K.I.!.L.J.0.E.!.T.+X!.!.R.h.H.T.OX'.Y ].k.!.+XD.I.K.~.K.E.+XE.!.L.P.P.(.!.~.(.(.P.P.L.H.L.L.P.P.I.e.I.I.e.D.(.I.S.I.I.(.(.I.e.I.I._.(.(.(.(./.(./.I.I.I.D.I.e.",
"m.n.b.z.b.z.~.R.m.n.z.R.Y.z.b.h.b.m.b.b.a.a.p.h.m.v.l.l.b.f.f.<.<.s 0 0 0 r y y : =.;.;.s.j.g.1.y.<.1.f.Z c.c.c.y.u q r f.<.h.g.f.u.c.Y.R.n.n.1XpXqX5X4X4X5XaXgXpXsXkXhX~ k 2 $ k v x ^ ] } O.o.j + # j Q o.&.Q ! j ! E 1 2 9 k x j E { { 7 x 8 # $.uXlXtXkX%.$.%.Q %X+.>XlXQ +.$.o.o.z G c Q +.G [ ~ j j W >X4X4X:X.X;X<X2 O I  .o.[ E.!.v.m.{.c.y.C w R.C.n.R.+X@Xm.'.OXm.}.O.@.W / Y m.b.K v.m.R.R.!.~.!.R.R.b.U ^ x 6 U m.E.'.v.Y.T.T.V.E.Y.R.].b.m.R.f.u.U.t S a j.b.L D 2 l S h.c.2 6 .. X}.Y [ H . 4 x 2 P m.'.oX[ j o.H y.s.j.j.s.j.t.f.j.j.j.Y.R.V.U.T.C.U.C.C.u.g.p x.c.n.U.d.N.C.p.1.Z.M.F.F.N.C.Z.d.Z.V.s.2.3 &X$Xv 4XsXsX6XrX6XpXvXnX@.W x v X.g T l.T D M K N M N N q m C m > B N A v.A B v.i.B L F A i.T B l.T A N C A z.A B = N w l.i.i.i.L A i.C i.l.a.l.v.i.K C i.T XXCXNXsXsXfXdX5X:XsX,Xn }.|.v.v.@XXX'.XXXXoXoX}.oX|.!.eXR.@X~.K.I.(.(.D.I.!.E.K.H.T.!.E.L.Z.V.L.).).L.E.L.K.Y.~.J.T.OX}.' OXb.t.T.!.K.R.@XY.J.@X@X+XL.P.P.I.I.(.P.(.).I.L.R.z.R.L.D.P.D.I.I.A.I.I.S.w.I.0.P.I.I.I.I.I.I.I.(._._.(.(.D.I.I.(.I.D.I.",
"n.m.l.z.n.Y.R.z.l.b.m.~.~.m.b.b.b.b.l.b.b.r.f v.m.b.p.p.p.2.i <.1.p s a a y =.=.<.=.1.1.s.f.f.Z a 1.1.c.c.p.Z 5.u.5.s p.n.<.d.<.<.2.t.n.n.c.c.XXpXpXpX6X>X6XfXsXpXfXkXBX%Xk 3 3 v v E ` ] } ( { E + + $ ! o.&.&.! Q j 8 $ c 9 7 k G ` l ` x ) E E ! %.lXlX:XjXtXo.%X$X+.>X&.+ j k +.o.O.@.j E E 5 l E j x Q -X6X:X7X7X4X;X$X} k $.o.k L z.b.{.x.0 2 2 H C p.p.OX+X+X{.Y.R.+X@XoX+.E F Y v.p.i.Y v.n.!.E.R.R.+Xm.R.]./ / k Y OXE.}.b.R.R.E.V.T.n.m.m.n.c.c.h.T.E.j.'.P j.c.Z e 2 / K z.c.3 x +.O..XS '.3 9  Xk 9 p.j.T.A g O @ + X & & v.V.j.d.j.n.g.U.E.R.U.T.U.V.U.C.M.4.M.j.e e p.s.d.E.V.q e g.N.F.F.Z.R.f.V.E.s.Y.a # $XcX( ;XnXfXpX4X6XpXpXnX#X! E c F q M T K K L U q N C K 4 5 > > q N A B C q B l.B A A C B A A T v.T C v.N A b.N A A & q v.v.A i.v.A i.B L A r.l.l.v.D q v.K  XNXfX0XnXpXpX;X3XhX,Xh oX|.Y R.~.+XOX@X@XXXXXXXXXv.R.~.E.*X!.).I.L.e.I.J.R.E.T.R.T.I.L.Z.j.E.I.I.B.P.K.L.J.R.!.@XoX&XOXOX!.R.h.j.m.H.Q.oXm.+X@X@X~.J.E.E.L.(.(.I.D.).I.(.I.J.J.J.D.(.D.w.w.P.L.S.I.I.S.e.w.w.I.I.S.B.I.I.I.(.(.(.(.D.I.I.(.(.I.I.",
"b.b.b.R.Y.~.m.n.b.m.~.OX~.R.n.b.m.m.b.b.z.r.i.T v.p.p.p.2.<.<.2.2.<.2.2.2.<.<.<.2.=.<.2.1.4.f.2.u.c.1.3.2.> a y.c.n.u.r.u.=.<.y y.1.f.1.u.h.g.}.5XpX4X4X5XfXfXpXqX5XjXsX+ X 1 3 2 E W _ ] ] +.$.E + $ ! ! Q Q ! $ ! $ + j Q 9 k k l v 4 2 E ! ! E 6 $ j $.jX%.x %X<X%X` +.! # 6 ^ # $ %.%.Q o.{ .X' H 2 +.W  .;X6XpXdX5XzX;X;XO.o. .Q j v.m.q 2 J 2 3 |.K H m.=X+XOXOXE.@XoX}. X+.) k m P A H U [ m.!.E.!.@XR.R.b.m.' x z '.OXR.F i.n.Y.E.E.n.m.m.n.j.y.Z j.R.Y.m.U M f.j.c.Z P v.OXn.p.# k I ( G M }.H X.] 9 Z V.J.h.U o o 1 o X % X 2 T.J.V.H.Y.u.f.T.K.T.E.E.T.Z.F.N.Z.V.u.y.e 1.M.d.J.J.* 4 f.d.g.Z.V.c.u.c.M.d.R.x.7 .XwX.X<XnXfXpX4X5X6X5X5X#XO.o.] oXU M N C N T K q C N U S q N N 5 C A B B N l.T B B N A V T i.l.b.b.A m.T A V A A i.- & C T i.l.T A l.A N B A l.A v.v.M 5 [ XXNXgXgXxXpX4X;X;XpX>Xk U @XOXE.Y.!.~.+X~.E.OXXX|.].R.k.m.+X!.I.I.J.B.I.E.B.L.E.K.k.K.J.J.J.I.I.!.L.L.J.T.J.+X+X@Xb.OXOX|.OX+X~.Y.R.T.|.'.R.!.!.~.R.T.E.I.I.I.P.(.I.I.I._.I.J.K.T.R.P.).(.I.I.D.L.S.I.S.I./.I.P.`.I.;.S.).I.(.(.^./.e.P.(.(.).e.D.",
"b.m.m.~.~.~.R.m.m.m.Q.~.~.~.R.m.b.z.b.b.l.i.r.v.b.r.t.r.r.h.u.<.y ; ; y y y y y =.;.4.s.3.3.3.1.s.f.<.s.2.r y.c.p.n.5.p c.y : y <.1.3.=.<.g.1.v.0XrX6X6XpXzXfXaXfXyXBXtX1 o # c 1 6 j G O.O.%Xo.z + j ! ! ! Q ! $ ! $ + $ E 9 v v ~ E c 1 j j ! Q { $ X # + + W tXjXuX9 / { $ x %X+.$ E { ! Q E ] X.G ( ` 2 b .X( .X5XgXSXyX.X.Xo. .o.x F 5 1 7 1 = 9 D Y k |.=X+X) [ R.@X#XO.{ ) ) ^ v x.b.v.|.}.m.Y.R.E.R.+Xx.l v.'.] W [ |.K 2 K v.b.L.E.R.{.{.c.Z y.y.p p.c.y.A y.g.j.R.m.Y.Y.OXT.f.l ^ I [ 5 I  X X}.G C V.h.j.V.v.X.}.( 2 2 c 8 # x.j.J.H.V.g.V.Y.J.E.E.T.E.E.T.C.C.V.j.a Z 4.M.s.M.C.f.Y g.c.c.c.U.p.Z c.g.j.j.i. X$X1X:X:XmXfXpXsX5XCXbXsX$.o.@.c  X$XY w K B C U w w N '.K N > V m K K K w N N N C A l.N V l.T l.l.A A V i.B M N A i.l.A 5 C A A l.l.|.v.N C B A C M L M v ] }.fXiXnXzXfXxX4X.X0X-X XoXOX+XR.OXE.E.H.K.E.~.v.E.R.!.K.p.|.H.k.B.L.S.0.L.P.J.L.J.V.f.n.H.E.S.L.J.L.K.Z.E.Y.!.~.R.J.OXm.m.OX+X+XR.T.+X}.[ H.!.@X@XR.K.T.E.E.P.P.D.(.E.(.(.(.I.E.+XT.I.(.I.I.(.P.S.w.I.I.I.I.e.I.I.S.-.B.L.L.(.I./.(.D.S.I.I.P./.^.",
"l.l.b.~.~.~.~.m.n.~.R.n.~.+X~.p.z.n.m.p.N > b.b.l.b.h.r.y r.2.1.y t t t t t : =.;.;.3.=.3.=.<.p a 5 t 1.1.2.y.y.2.1.i r 0 q <.3.3.1.1.1.p.c.1.oX5X6XsXpXdXfXgXgXgXsXBX6XXX} 6 W / G ^ `  .#X#XO.c # 8 ! ! ! j j j ! $ + $ h h x 3 J c k z # 6 ! o.&.$ X @ $ E ) ! <XjXQ Q G c v  X#X` 9 j j $ j x l k O.g g O.#X( 3X5XfXNXBX$X .Q @.%X` F k ~ G w v.P L L l I OX|.Q _ ].oX.X%.)  X{ W ' R.R.Y.R.].Y n.R.R.|.oXJ 6 G '.` W '.U ' D L  X'.n.!.R.R.m.].L c.f.Z C A L L P Y.R.n.c.n.m.n.M.C h ) I X.k J [ }.}.G K j.H K C.q ....I I ( ^ { $ 4 c.j.j.J.+XR.T.L.E.C.T.V.+XE.C.E.C.Z.4.j.V.;.=.M.D.L.x.t.T.{.c.Y.Y.c.c.p.u.d.C  XbX7X.X#XnXpXpXpXfXcXcX6Xo.)  X[ ^ :XU w A C N U M C N M q N u C N q T K N B T N A A V q A A T T i.T A A v.T > C T l.i.i.K 5 - N A v.T v.B C K g M N m m [ ' '.aXpX5XmXmXbX4X.X2X5X.X@X+X~.v.v.Y.~.R.L.R.@X!.`.K.x.z.J.Y.b.k.I.e.B.q.K.`.I.E.Y.T.R.n.h.z.k.H.H.K.E.R.R.E.E.R.+Xm.m.OXv.z.h.|.OXK.J.OX|.Y.R.~.~.Y.Y.R.!.L.I.L.P.(.P.I.P.(.P.P.P.E.R.L.K.B.I.P.L.I.I.I.L.e.(.(.I.S./.I.L.L.e.e.e.I.e.I.I.I.I./.0.",
"l.l.m.~.~.OXOXR.R.R.z.n.~.~.b.t.a.b.m.x.C l.m.l.l.p.V B C p p t u p p t , y =.=.=.=.=.1.;.1.2.e 2 @ 5 p * * r , <.<.q 1 + 3 h.c.u.1.i C x.p.c.v.4XyXyXqXiXqXzXyXqXiXiX;X:X+.z j +.O.+.{ O.{ ` ` Q j $ $ j ! $ E E 8 $ $ $ # E j 1 2 2 / _ z 6 2 E ! ! E Q &.{ ! j o.o.Q Q 3 ~ v H O.^ ~ 2 ! $ # 1 3 c  .v X.@..X;XmXfXgXgXAX6X^ O  .,X^ v ^ ^ 4 Y '.Z Z a S l ' ..o.{ '.XX+.#X#X6X) ^ [.R.R.R.'.|.m.V.T.].] } ) ` E ' } ` [ .. XK v.XX[ U m.Y.R.|.OXoXm.Y.m.v.'. X'.v.'.{.f.Y v.m.T.g.4 x ~ ' ) ' }.}.}. XY A b.x h a g 6 2 k n ( I Q j 2 Y L y.b.m.H.Y.W.E.j.V.Z.L.g.2.H.V.M.N.Z.j.q.W.P.S.T.f.f.U.Y.c.Y.E.T.U.V.N.T.Y Y wX9X.X3XzXfXpXfXsX5XzXhX#Xo.X.K v.XXm q C N m 5 S A B e w w B M C C C A A C i.C A B > w T A A B A T A A A A i.l.l.l.l.A B v.v.= = N B A A T B q e i.A e K Y }.6XpX7XzXnXpX@.+.4XiXX.OXOXOX'.K |.].Y.T.OX!.I.I.OX[ m.L.I.!.p.9.J.T.OXOXH.9.k.T.J.OXm.z.m.R.E.S.S.L.T.L.T.T.R.m.m.OX}.X.v.m.].K.B.L.!.E.T.~.T.J.H.n.R.{.L.L.P.I.0.L.L.L.F.P.D.I.(.Y.Y.E.C.L.H.S.q.e.I.B.B.I.(.I.D.(.I.`.I.e.I.I.B.w.I.I.I.I.).q.",
"K l.m.OXOX@XOXb.b.b.z.n.n.R.b.b.h.n.l.m.OXOXQ.l.u > w i.C Z Z i 1.5.p y <.<.=.=.1.<.;.<.1.y.M l 5 5 # 5 t 2.2.u.5.a 4 # 6 S u.y.t i p U 2 e p.U :XnXsXpX6X0XnX5XaXsX>X6X@.b W Q Q ) o.) _ ` o.o.! j # $ ! ! ! ! j $ $ $ # $ E 2 @ # h l } { k 9 # $ ! ! x _ Q { o.o.! x @.~ k ^ H ..^ { 7 x j 7 3 3 W #X XO.n wX:X5XfXpX4XHXvX%X7 z x ) x x k 2 ( U A C C F [ ' Q ) ! E XX X@.,X>X) ^ [ v.].OX|.{.Y.v.[.U |.@X X X] '.|.[ }  X:Xc v.@X}.}.[ L m.v.v.i.y.h.n.Y.m.].v.v.Y OX+X].V.T.W.c.' _ }. Xc  X}.}. X[ v.Y K { x X X 3 J O 2  X' 3 j X X X # F 4 u.C.V.R.Y.V.Y.T.y.@ y.g.g.Z.V.V.L.+X+XC.s.N.{.c.d.Y.m.u.g.j.Z.N.OX' J XX1XX.-XzX5XgXaXpXdXgXiX-XO.` K v.Y w D L M 4 c 7 q N C N C B M M K L C q L v.L > w C A C B T C A T B B M U b.V A A b.l.V l.Q.C C B A T '.A A K q v.L M Y Y Y 2X2XaXnXMXfX@.#XpX,XoX|.|.|.&X@Xm.}.m.!.`.I.J.R.@XXX9XL.e.E.h.p.n.n.@X@Xl.b.m.n.J.Y.n.j.OX~.E.w.I.I.B.B.T.!.E.+X+X!.v.v.|.OX+XM.m.R.R.T.T.OXm.K.J.OX|.Y.k.B.B.8.t b.T.Y.J.P.I.e.I.I.!.!.K.K.L.0.K.K.Z.K.I.B.A.I.L.L.L.E.).e.(.I.e.w.D.e.I.I.e.C.",
"M b.@XOXOXOX~.~.R.m.m.m.m.m.m.l.p.Y.l.l.Q.v.T T M q Y Y K K L Z p.y.2.2.3.3.1.3.1.=.<.y.{.e l 5 e 4 @ 4 b.h.c.c.a e 4 S l Z u.<.p 5.0 @ # A u.U ;X5XgXsX5XfXvXfXnXiX6X,X` E Q ) E ) { Q b $Xo.W Q o.E $ Q Q ! j # $ Q E 6 6 z 7 $ $ ! x l 2 4 E + + Q &.c J k x x E + # Q x c l c o.^ ! j 3 k 1 3 _ ! o.b 3 2 XXzX.X4X0X6XfXjXrX+.b v E # # @ k F P L S F 4 U  XO.+.{ W .X+.$X:X+.) W ].m.'.v.R.R.Y Y X.] }.@X[ ' [.' H [  Xk 3 3 M oXXX@XXXU U ].].a <.u.Y.Y.v.'.' ~ ~ v.OXp.h.n.p.S ( ..) b X.oXN Y X.'  XE 2 g $   . 3 O 3 [ .XXXc 2 7 @ @ + # @ 1 C e x.T.Y.a M M # e y.n.j.d.d.s.R.b.c.M.Z.T.R.M.T.b.y.1.1.j.M.|.:X/ XX1X.X<XzXpXpXhXpXsXgXrX@.) g K v.T N C v.D e U v S S M N q w M M L T K L }.T v.> N C C C V B M A A V B B v.T A B i.i.Q.b.i.V B T l.T A K C C K C K M M T v.m.xXBXfXfXpXfX;X:X5XsX&XoX'.}.oXm.m.@X|.E.I.P.R.E.OX|.R.T.I.L.~.OXh.Y.@XOXm.@X@X~.H.h.T.K.K.E.L.w.I.D.^.D.I.!.!.!.+X+X+Xv.v.m.H.K.+X@X@XOXY.OX|.n.J.m.F M & > i w ' i.j.OXOXT.D.P.D.e.I.I.E.E.T.M.L.B.L.K.!.I.q.e.L.J.!.E.e.D.S.I.I.I.I.D.D.I.e.C.",
"v.m.OXOX~.~.~.~.~.~.~.~.m.b.T l.R.n.V l.m.N S g I [ k k b b U L x.Z <.1.s.4.3.3.3.3.<.u.].e 2 3 e 3 @ # 2 a p.a 5 C e L y.u.1.2.i i r 3 C v.u.Y 4XhXpX5X6XpXfXvXfXfXtX-X) ! ! ! ) Q { ! x o.k z Q %.E $ j Q ! j j ! Q *.6 E z 7 8 # Q { ~ 9 v E ! ! ! ! j c ` ! { %.$ 6 E *.x 8 h k x x h 2 3 & & k +   + . K eX8X#.4XsXNXSX>X1X6X2 v ^ 6 o F k v F F F ] ] / ` @.:X@.W x  .$X$XO.O.W '.OXm.].E.R.[ '.'.[ '.}.[ O.] S ].v.n 5 h x z Y OX@XY [ }.'.e 0 Z V.h.c.n.' 7 v  Xv.f.h.m.v.H  XoX}.o.^ }.Q.v.[ }.[ O.) # n   . 9 S |  X/ oX1X$XX.O.Q ) 8 $ # # 3 k c.j.c.~ j 3 H x.n.T.j.V.d.y.V.B.d.8.s.C.U.U.Y.v.L x.m.n.g.D x [ OX9X.X..NXMX5XpXbXNXpXgX .W G J U C M A L C q D U K J e N L L N M v.v.A Y '.m K B V M C A V B A T i.A A K T N C l.l.T B T T M B T V T A A v.C N T C m A L M |.mXsXnXfXaXaX6X:X4XbXwX@X@X( .XM m.OXb.Y.T.J.R.J.z.OXj.l.n.R.R.OXY.Y.OXR.!.!.!.@Xb.Y.H.S.D.I.L.S.w.0._.(.I.I.L.E.+X+X!.OXp.].m.B.L.|.@XOXm.m.R.v.b.x.Y O.c 7 2 c |.T.J.Y.R.R.C.L.S.M.q.P.I.J.H.k.L.I.I.D.K.B.0.L.L.L.~.I.H.H.B.S.S.w.D.I.I.(.I.D.",
"|.m.m.m.~.~.~.R.R.~.OXOX+Xx.B Q.~.b.A v.m.v.J H H v k U I W I Y Z p 1.3.3.4.4.1.3.1.1.2.a P x.9 2 5 1 1 @ @ s u p f.y.x.t.1.2.<.y y P 3 q x.p.K 4XpX,X,XpXgXdXsXpXnX6X@.! 8 $ ) Q j Q ) Q ! W o.%.! $ # $ ! $ $ j ! j $ E ! z 7 6 E ! ! $.~ J  .o.o.$ j $ ! Q ) ! j x Q E ! $ j W c k 7 2 2 o o & 1 2 2 3 Y eXeXeX5XMXNXNXKXMXVX6X.X$X$.l P / Q v v c J o.+.` W +.#X .) Q Q +.+.O.O.) _ ].R.].m.'.'.].|.oX}. XXX$X.X].oXH D m ( @.) oXv.D Y C J 5 Z C m C '.'.].[./ 9 U m.U.p.'.' k X.'.}.oX[ [.m.'./ H ` { ) h   . /  X$X$X1X X$X8X6X$X$.o.o.{ o.Q z c P ].v.L ^ W | m.R.E.n.h.V.Y.oXm.T.B.M.C.T.Y.R.m.}.L S U p.i.U 2 L R.&X:XO.pXpXfXfXpXmXzXfX .x G 2 g M m D K q e e m K M N Y |.v.M C i.K C K L M M N B C B B C A A l.A A i.T T m N l.A v.K A T w A A B T A M B A m A Y A l.l.L '.xXSXfXzXvXgX;X-X4X5X@XOXOX|.[ 2 '.OX].v.@XOX+XJ.B.R.v.m Z b.b.OX+XOXz.!.E.!.+X+XE.I.L.L.D.w.L.L.e.e.^.(.B.Z.Y.T.b.R.E.Y.T.n.m.m.OX|.@X@XOX@XOXoX[ I  XXXO.O.Q / p.j.E.R.R.J.j.d.B.k.q.L.B.K.H.v.p.E.E.!.K.8.q.L.K.T.~.I.E.J.P.I.D.I.I.I.e.e.I.B.",
"v.l.m.OXOXb.b.~.m.~.OX@X@Xm.OXOXm.b.v.T v.|.'.m.v.J J l v ] c F y.y.5.1.1.4.4.3.3.1.1.f.x.x.c.K 4 5 3 e e e a 2.1.3.2.2.1.2.<.<.1.1.i 5 5 u v.X.8XVX,X>XaXgXaXfXzXzX5X$X) E z ) Q j x c W ) { %.Q j $ + + + + $ *.*.$ ! $ X k 3 3 E $ $ j k _ Q Q ! j ! j j Q *.E o.j ! ! ! ! ! h I 2 1 2 j 3 # 6 2 ^ I XXZX0X8X0XNXLXHXJXKXLXJXNXKXBX+.^ $X%X+.] _ W ^ o.{ o.{ o.o. .o.o.) ) ) ) o.{ +.[ T I v x ..|.oX X X X}.XX$X}.'.^ k 7 O.+.W [ c J @Xv.K '.K M l D [.[ }. X) j H m.T.n.F D [ /  X].{.@Xv.m.m.'.E } +.Q z o ` _ .X X.X:X.X2XaX;X.X>X#XW 2  .` H }.Y D H J ^ / v.e x.y.].].s.y.I ' c.B.F.Z.V.R.].].v.'.Y L y.i.[ @ L b..X;X#XsX7XgXfXdXfXfXfX@.6 x 2 @ 4 e 4 K P m e s F S N K Y [ M v.Y N T L A L 4 5 q B A A A i.T l.i.l.l.T v.A B v.V Y T A A V A B B M M N C A N F K v.l.l.[ +.fX0XxXnXpXgX6X6X4X:X XoXOX+X].v v I b.|.oX|.J.K.P.R.~.m.v.|.|.~.~.+XR.+XE.!.+XI.E.J.B.T.P.J.J.P.e.0.w.D.B.k.V.j.H v.E.Y.Y.T.'.|.OX@X+X+XOX@X@XXX+.X.&X@XoX+.O.}.D OXY.|.{.R.h.j.k.B.L.q.8.k.R.oXm.OXOXE.K.8.M.L.q.J.OXL.w.I.I.P.I.I.e.S.I.P.I.I.",
"Z A B A A A b.l.v.m.v.m.m.A l.~.R.b.C S oXoXm.v.m.v.K J U Y Y Y L p 2.<.4.4.4.4.3.3.u.{.[.v.c.Y x.a 1 e p 5.u.1.1.=.u.u.1.3.1.y <.u.<.2.s 5 I ^ 0XMX5X8XgX:X:XqXpXrXiX>X) Q o.{ ) ! E O.+.` W ) %.E 6 + + + $ ! j Q $ $ @ # ~ c 2 # h ! 6 7 j ! ! ! ! ! { j j $ o.$.Q Q Q ! ! Q z 5 2 @ $ ! E j ) 3X( ;X5X6X2X6X6X0XMXMXHXJXHXNXHXJXkXjXtXuXiX<X_ / c v G  X}.` _ #X+.E W  . .o.o.o.Q ^ x j E ) { Q ` ] ^ ..) W ^ Q '.U # + 6 +.#X_ ' / K N g D |./ J J i.'.'. X#X+.^ ^ v.Y.Y.Y.R.R.|.$XR.|.XXR.m.R.m.}.oXO.Q W  X X] ^ ^ ( XX;X,Xo.h Q #Xo.J q v 2 H K k k x v }.U g 3 @ 1 [ |.Y.C b ' m.V.d.s.m.].|.OXm.v.|.v.x.L K 9 v.U +.#X#XvXaXaXvXvX7XpXvX@.W { ) 6 k k 2 }.X.m K D q D P [ $X XS m M N Y Y C T q K N B A m m i.i.i.i.l.T K v.L Y v.L m T A C T B A v.K N M A C m m M K m K G .XbX7XpXfX4XpX5X:X2X,Xb oX|.OXm.'.I G D |.m.n.J.J.J.!.+X+X|.OX+Xm.OX!.+XOXL.L.T.n.OX!.0.K.I.R.OXL.0.N.w.A.0.q.S.k.` c L ~.R.n.m.R.R.|.OX~.|.~.@XXX X X&X@X.XO. X] v |.m.n.R.!.Y.].m.n.Y.V.Z.|.}.}.|.XX|.@XK.;.M.E.L.K.~.L.L.E.I.S.S.P.I.I.P.P.I.I.",
"C F F D N i.l.b.|.|.l.l.B v.}.Q.m.m.L F @X|.m.L v.m.v.v.v.x.v.U l D y.2.<.: ; , 2.<.b.oX%. X].v.S D K C i.2.<.1.3.=.f.y.y.<.<.=.p u Z u.5.y.U n -X;X:X@.@.@..X.X-XpXrX;X+.) o.O.{ Q x @.O.g h x x E E # + $ ! ! ! o.E $ # k G g 6 @ j &.x j @ E ! ! ! j h v z Q o.Q $ j Q Q E o.E + X j E j E Q  .O..X4X>X-X5XSXSXdXHXLXLXLXLXLXLXJXJXJXJXAXAXjX>X>X#X$X$X$XXX$X3X5X3X#X@.O.O.@.@.O.) { .X$X@..X#Xo.%X#X+.@.#XO.%.O.^ E h E h o..X#X.X` ' '.} | [ ] ' G m }. X X#X+.^ [.'.Y |.}.Y {.|.@XR.'.oX+XR.].oX'.( ) E @ .... X` O k  X3X:X` +.$.+.o.^ 7 9 U G k ~ ^ ^ / [ ] k 2 # @ ~ D j.v.x [ H 0 <.f.[.Y ].{.].P ~ U ].].H H D c  . .#.;XpXsXfXpX:X:XgX@.o.%.c 6 *.h 9 ' F F U U 4 U  X:X}. X'.D m L K K B L L l.l.C A K } L i.l.l.v.Y Y Y [  XK v.Y T L A A C A l.T K C K K M m N K l ^ `  X7XMXfXdX5XsX2X.X.XW j ` oX@X+XR.Y l H oX].Y.L.J.M.K.b.m.m.+X~.|.@X!.*X!.L.+XOXoX@XR.B.T.F.E.@Xh.b.j.e.A.B.Z.M.t.l 3 l U m.b.m.m.[ ^ }.|.|.].XX X#X.XX.&XXX X&X Xv C ].].m.Y.{.|.].@XoXR.B.~.oXoX( }.oXwX!.8.a.V h.v.OX!.L.+XE.!.E.B.I.L.P.I.P.P.",
"v.I c Y ].K m M S T m.v.U  X XI Y Y [ '.[ U l.D T m.v.v.v.x.v.I k c K P t ; a x.].K }. X+.+.} ~ z H ].P x.u.1.3.1.<.1.y.b.5.1.<.<.y y.c.p.x.9 6 X.5X,Xo.-XrXtX<X$.rX,X5X%XQ o.%.Q ) Q h 2 3 7 3 O o.{ j $ ! j o.&.# *.+ o k k 2 6 # $ ! $ $ k o.! ! E j c ` W _ o.o.o.o.) Q ! ! $ X % x j X X.>XO.:XvXSXHXbXNXLXLXHXLXLXLXLXJXJXLXLXJXJXHXHXJXKXnXBXBXJXJXvXrXKXSXmXNXhXrXrX#X$XtX6X+.#X>X4X8X4XrX4XdXrXrXsX6X,X>X#X#X#Xo.! %X@.{ .X XO. XX.oXoX X X X} |  X,X$X#X%.J '.].oX&X|.].@X X@XOX XoX{.m.|. Xv ` _ W c ` c .X XXX XX.$X#X@.) #X-X#X) c W [ ^ c ) W ` ` ' [ ~ k 2 # ^ U w '._ h 6 @ p x.' U H S F ' 7 k [ ].H G 2 # 6 h $X5XpXdXdXvXdXyX6X) +.+.` 7 $ 3 J  XS e m }.K F X.XX}. X$X.XS [  X' '.' U B i.A Z '.$XL i.v.v.l.v.v.U ..$XY v.L A T K A A l.l.A D D K Y N m M U x o.+.( 5XnXpXpXsX6X;X:X.Xh 6 ` ` |.Y.j.'.x XX&X].Y.Y.R.{.f.f.n.E.OXm.@XR.+X!.E.E.+X@X1XoX|.m.m.V.Y.OXOX|.v.d.q.q.f.r.u U x D D Y m.'.X.c ) I |.OX X+. .O.@.O. XX.X.OX'.W D m.|.'.].'.v.{.@X&XOXL.L.!.XX( [ 9X9X@XE.9.=.v.}.R.I.Y.@X@X9XOXL.P.I.I.L.S.S."
};
