/* XPM */
static char *_6ab430aec084bb5963df3c117d0ba1fOwkKoED7mVlfc5mA[] = {
/* columns rows colors chars-per-pixel */
"630 630 13 1 ",
"  c black",
". c #040404",
"X c #180B08",
"o c #111111",
"O c #4E342E",
"+ c gray26",
"@ c gray38",
"# c #8F0B01",
"$ c #BF360C",
"% c #FF1E05",
"& c #FF5722",
"* c green",
"= c #FFB300",
/* pixels */
"******************************************************************************************************************************************************************************************************************************************************************************************************************************************************************************************************************************************************************************************************************************************************************************************************************************************************",
"******************************************************************************************************************************************************************************************************************************************************************************************************************************************************************************************************************************************************************************************************************************************************************************************************************************************************",
"******************************************************************************************************************************************************************************************************************************************************************************************************************************************************************************************************************************************************************************************************************************************************************************************************************************************************",
"******************************************************************************************************************************************************************************************************************************************************************************************************************************************************************************************************************************************************************************************************************************************************************************************************************************************************",
"******************************************************************************************************************************************************************************************************************************************************************************************************************************************************************************************************************************************************************************************************************************************************************************************************************************************************",
"******************************************************************************************************************************************************************************************************************************************************************************************************************************************************************************************************************************************************************************************************************************************************************************************************************************************************",
"******************************************************************************************************************************************************************************************************************************************************************************************************************************************************************************************************************************************************************************************************************************************************************************************************************************************************",
"******************************************************************************************************************************************************************************************************************************************************************************************************************************************************************************************************************************************************************************************************************************************************************************************************************************************************",
"******************************************************************************************************************************************************************************************************************************************************************************************************************************************************************************************************************************************************************************************************************************************************************************************************************************************************",
"******************************************************************************************************************************************************************************************************************************************************************************************************************************************************************************************************************************************************************************************************************************************************************************************************************************************************",
"******************************************************************************************************************************************************************************************************************************************************************************************************************************************************************************************************************************************************************************************************************************************************************************************************************************************************",
"******************************************************************************************************************************************************************************************************************************************************************************************************************************************************************************************************************************************************************************************************************************************************************************************************************************************************",
"******************************************************************************************************************************************************************************************************************************************************************************************************************************************************************************************************************************************************************************************************************************************************************************************************************************************************",
"******************************************************************************************************************************************************************************************************************************************************************************************************************************************************************************************************************************************************************************************************************************************************************************************************************************************************",
"******************************************************************************************************************************************************************************************************************************************************************************************************************************************************************************************************************************************************************************************************************************************************************************************************************************************************",
"******************************************************************************************************************************************************************************************************************************************************************************************************************************************************************************************************************************************************************************************************************************************************************************************************************************************************",
"******************************************************************************************************************************************************************************************************************************************************************************************************************************************************************************************************************************************************************************************************************************************************************************************************************************************************",
"******************************************************************************************************************************************************************************************************************************************************************************************************************************************************************************************************************************************************************************************************************************************************************************************************************************************************",
"******************************************************************************************************************************************************************************************************************************************************************************************************************************************************************************************************************************************************************************************************************************************************************************************************************************************************",
"******************************************************************************************************************************************************************************************************************************************************************************************************************************************************************************************************************************************************************************************************************************************************************************************************************************************************",
"******************************************************************************************************************************************************************************************************************************************************************************************************************************************************************************************************************************************************************************************************************************************************************************************************************************************************",
"******************************************************************************************************************************************************************************************************************************************************************************************************************************************************************************************************************************************************************************************************************************************************************************************************************************************************",
"******************************************************************************************************************************************************************************************************************************************************************************************************************************************************************************************************************************************************************************************************************************************************************************************************************************************************",
"******************************************************************************************************************************************************************************************************************************************************************************************************************************************************************************************************************************************************************************************************************************************************************************************************************************************************",
"******************************************************************************************************************************************************************************************************************************************************************************************************************************************************************************************************************************************************************************************************************************************************************************************************************************************************",
"******************************************************************************************************************************************************************************************************************************************************************************************************************************************************************************************************************************************************************************************************************************************************************************************************************************************************",
"******************************************************************************************************************************************************************************************************************************************************************************************************************************************************************************************************************************************************************************************************************************************************************************************************************************************************",
"******************************************************************************************************************************************************************************************************************************************************************************************************************************************************************************************************************************************************************************************************************************************************************************************************************************************************",
"******************************************************************************************************************************************************************************************************************************************************************************************************************************************************************************************************************************************************************************************************************************************************************************************************************************************************",
"******************************************************************************************************************************************************************************************************************************************************************************************************************************************************************************************************************************************************************************************************************************************************************************************************************************************************",
"******************************************************************************************************************************************************************************************************************************************************************************************************************************************************************************************************************************************************************************************************************************************************************************************************************************************************",
"******************************************************************************************************************************************************************************************************************************************************************************************************************************************************************************************************************************************************************************************************************************************************************************************************************************************************",
"******************************************************************************************************************************************************************************************************************************************************************************************************************************************************************************************************************************************************************************************************************************************************************************************************************************************************",
"******************************************************************************************************************************************************************************************************************************************************************************************************************************************************************************************************************************************************************************************************************************************************************************************************************************************************",
"******************************************************************************************************************************************************************************************************************************************************************************************************************************************************************************************************************************************************************************************************************************************************************************************************************************************************",
"******************************************************************************************************************************************************************************************************************************************************************************************************************************************************************************************************************************************************************************************************************************************************************************************************************************************************",
"******************************************************************************************************************************************************************************************************************************************************************************************************************************************************************************************************************************************************************************************************************************************************************************************************************************************************",
"******************************************************************************************************************************************************************************************************************************************************************************************************************************************************************************************************************************************************************************************************************************************************************************************************************************************************",
"******************************************************************************************************************************************************************************************************************************************************************************************************************************************************************************************************************************************************************************************************************************************************************************************************************************************************",
"******************************************************************************************************************************************************************************************************************************************************************************************************************************************************************************************************************************************************************************************************************************************************************************************************************************************************",
"******************************************************************************************************************************************************************************************************************************************************************************************************************************************************************************************************************************************************************************************************************************************************************************************************************************************************",
"******************************************************************************************************************************************************************************************************************************************************************************************************************************************************************************************************************************************************************************************************************************************************************************************************************************************************",
"******************************************************************************************************************************************************************************************************************************************************************************************************************************************************************************************************************************************************************************************************************************************************************************************************************************************************",
"******************************************************************************************************************************************************************************************************************************************************************************************************************************************************************************************************************************************************************************************************************************************************************************************************************************************************",
"******************************************************************************************************************************************************************************************************************************************************************************************************************************************************************************************************************************************************************************************************************************************************************************************************************************************************",
"******************************************************************************************************************************************************************************************************************************************************************************************************************************************************************************************************************************************************************************************************************************************************************************************************************************************************",
"******************************************************************************************************************************************************************************************************************************************************************************************************************************************************************************************************************************************************************************************************************************************************************************************************************************************************",
"******************************************************************************************************************************************************************************************************************************************************************************************************************************************************************************************************************************************************************************************************************************************************************************************************************************************************",
"******************************************************************************************************************************************************************************************************************************************************************************************************************************************************************************************************************************************************************************************************************************************************************************************************************************************************",
"******************************************************************************************************************************************************************************************************************************************************************************************************************************************************************************************************************************************************************************************************************************************************************************************************************************************************",
"******************************************************************************************************************************************************************************************************************************************************************************************************************************************************************************************************************************************************************************************************************************************************************************************************************************************************",
"******************************************************************************************************************************************************************************************************************************************************************************************************************************************************************************************************************************************************************************************************************************************************************************************************************************************************",
"******************************************************************************************************************************************************************************************************************************************************************************************************************************************************************************************************************************************************************************************************************************************************************************************************************************************************",
"******************************************************************************************************************************************************************************************************************************************************************************************************************************************************************************************************************************************************************************************************************************************************************************************************************************************************",
"******************************************************************************************************************************************************************************************************************************************************************************************************************************************************************************************************************************************************************************************************************************************************************************************************************************************************",
"******************************************************************************************************************************************************************************************************************************************************************************************************************************************************************************************************************************************************************************************************************************************************************************************************************************************************",
"******************************************************************************************************************************************************************************************************************************************************************************************************************************************************************************************************************************************************************************************************************************************************************************************************************************************************",
"******************************************************************************************************************************************************************************************************************************************************************************************************************************************************************************************************************************************************************************************************************************************************************************************************************************************************",
"******************************************************************************************************************************************************************************************************************************************************************************************************************************************************************************************************************************************************************************************************************************************************************************************************************************************************",
"******************************************************************************************************************************************************************************************************************************************************************************************************************************************************************************************************************************************************************************************************************************************************************************************************************************************************",
"******************************************************************************************************************************************************************************************************************************************************************************************************************************************************************************************************************************************************************************************************************************************************************************************************************************************************",
"******************************************************************************************************************************************************************************************************************************************************************************************************************************************************************************************************************************************************************************************************************************************************************************************************************************************************",
"******************************************************************************************************************************************************************************************************************************************************************************************************************************************************************************************************************************************************************************************************************************************************************************************************************************************************",
"******************************************************************************************************************************************************************************************************************************************************************************************************************************************************************************************************************************************************************************************************************************************************************************************************************************************************",
"******************************************************************************************************************************************************************************************************************************************************************************************************************************************************************************************************************************************************************************************************************************************************************************************************************************************************",
"******************************************************************************************************************************************************************************************************************************************************************************************************************************************************************************************************************************************************************************************************************************************************************************************************************************************************",
"******************************************************************************************************************************************************************************************************************************************************************************************************************************************************************************************************************************************************************************************************************************************************************************************************************************************************",
"******************************************************************************************************************************************************************************************************************************************************************************************************************************************************************************************************************************************************************************************************************************************************************************************************************************************************",
"******************************************************************************************************************************************************************************************************************************************************************************************************************************************************************************************************************************************************************************************************************************************************************************************************************************************************",
"******************************************************************************************************************************************************************************************************************************************************************************************************************************************************************************************************************************************************************************************************************************************************************************************************************************************************",
"******************************************************************************************************************************************************************************************************************************************************************************************************************************************************************************************************************************************************************************************************************************************************************************************************************************************************",
"******************************************************************************************************************************************************************************************************************************************************************************************************************************************************************************************************************************************************************************************************************************************************************************************************************************************************",
"******************************************************************************************************************************************************************************************************************************************************************************************************************************************************************************************************************************************************************************************************************************************************************************************************************************************************",
"******************************************************************************************************************************************************************************************************************************************************************************************************************************************************************************************************************************************************************************************************************************************************************************************************************************************************",
"******************************************************************************************************************************************************************************************************************************************************************************************************************************************************************************************************************************************************************************************************************************************************************************************************************************************************",
"******************************************************************************************************************************************************************************************************************************************************************************************************************************************************************************************************************************************************************************************************************************************************************************************************************************************************",
"******************************************************************************************************************************************************************************************************************************************************************************************************************************************************************************************************************************************************************************************************************************************************************************************************************************************************",
"******************************************************************************************************************************************************************************************************************************************************************************************************************************************************************************************************************************************************************************************************************************************************************************************************************************************************",
"******************************************************************************************************************************************************************************************************************************************************************************************************************************************************************************************************************************************************************************************************************************************************************************************************************************************************",
"******************************************************************************************************************************************************************************************************************************************************************************************************************************************************************************************************************************************************************************************************************************************************************************************************************************************************",
"******************************************************************************************************************************************************************************************************************************************************************************************************************************************************************************************************************************************************************************************************************************************************************************************************************************************************",
"******************************************************************************************************************************************************************************************************************************************************************************************************************************************************************************************************************************************************************************************************************************************************************************************************************************************************",
"******************************************************************************************************************************************************************************************************************************************************************************************************************************************************************************************************************************************************************************************************************************************************************************************************************************************************",
"******************************************************************************************************************************************************************************************************************************************************************************************************************************************************************************************************************************************************************************************************************************************************************************************************************************************************",
"******************************************************************************************************************************************************************************************************************************************************************************************************************************************************************************************************************************************************************************************************************************************************************************************************************************************************",
"******************************************************************************************************************************************************************************************************************************************************************************************************************************************************************************************************************************************************************************************************************************************************************************************************************************************************",
"******************************************************************************************************************************************************************************************************************************************************************************************************************************************************************************************************************************************************************************************************************************************************************************************************************************************************",
"******************************************************************************************************************************************************************************************************************************************************************************************************************************************************************************************************************************************************************************************************************************************************************************************************************************************************",
"******************************************************************************************************************************************************************************************************************************************************************************************************************************************************************************************************************************************************************************************************************************************************************************************************************************************************",
"******************************************************************************************************************************************************************************************************************************************************************************************************************************************************************************************************************************************************************************************************************************************************************************************************************************************************",
"******************************************************************************************************************************************************************************************************************************************************************************************************************************************************************************************************************************************************************************************************************************************************************************************************************************************************",
"******************************************************************************************************************************************************************************************************************************************************************************************************************************************************************************************************************************************************************************************************************************************************************************************************************************************************",
"******************************************************************************************************************************************************************************************************************************************************************************************************************************************************************************************************************************************************************************************************************************************************************************************************************************************************",
"******************************************************************************************************************************************************************************************************************************************************************************************************************************************************************************************************************************************************************************************************************************************************************************************************************************************************",
"******************************************************************************************************************************************************************************************************************************************************************************************************************************************************************************************************************************************************************************************************************************************************************************************************************************************************",
"******************************************************************************************************************************************************************************************************************************************************************************************************************************************************************************************************************************************************************************************************************************************************************************************************************************************************",
"******************************************************************************************************************************************************************************************************************************************************************************************************************************************************************************************************************************************************************************************************************************************************************************************************************************************************",
"******************************************************************************************************************************************************************************************************************************************************************************************************************************************************************************************************************************************************************************************************************************************************************************************************************************************************",
"******************************************************************************************************************************************************************************************************************************************************************************************************************************************************************************************************************************************************************************************************************************************************************************************************************************************************",
"******************************************************************************************************************************************************************************************************************************************************************************************************************************************************************************************************************************************************************************************************************************************************************************************************************************************************",
"******************************************************************************************************************************************************************************************************************************************************************************************************************************************************************************************************************************************************************************************************************************************************************************************************************************************************",
"******************************************************************************************************************************************************************************************************************************************************************************************************************************************************************************************************************************************************************************************************************************************************************************************************************************************************",
"************************************************************************************************************************************************************************************************************************************************************************************************========**********************************************************************************************************************************************************************************************************************************************************************************************************************************************",
"************************************************************************************************************************************************************************************************************************************************************************************************========**********************************************************************************************************************************************************************************************************************************************************************************************************************************************",
"************************************************************************************************************************************************************************************************************************************************************************************************========**********************************************************************************************************************************************************************************************************************************************************************************************************************************************",
"************************************************************************************************************************************************************************************************************************************************************************************************========**********************************************************************************************************************************************************************************************************************************************************************************************************************************************",
"************************************************************************************************************************************************************************************************************************************************************************************++++++++================++++++++**********************************************************************************************************************************************************************************************************************************************************************************************************************************",
"************************************************************************************************************************************************************************************************************************************************************************************++++++++================++++++++**********************************************************************************************************************************************************************************************************************************************************************************************************************************",
"************************************************************************************************************************************************************************************************************************************************************************************++++++++================++++++++**********************************************************************************************************************************************************************************************************************************************************************************************************************************",
"************************************************************************************************************************************************************************************************************************************************************************************++++++++================++++++++**********************************************************************************************************************************************************************************************************************************************************************************************************************************",
"************************************************************************************************************************************************************************************************************************************************************************************++++++++++++========++++++++++++**********************************************************************************************************************************************************************************************************************************************************************************************************************************",
"************************************************************************************************************************************************************************************************************************************************************************************++++++++++++========++++++++++++**********************************************************************************************************************************************************************************************************************************************************************************************************************************",
"************************************************************************************************************************************************************************************************************************************************************************************++++++++++++========++++++++++++**********************************************************************************************************************************************************************************************************************************************************************************************************************************",
"************************************************************************************************************************************************************************************************************************************************************************************++++++++++++========++++++++++++**********************************************************************************************************************************************************************************************************************************************************************************************************************************",
"********************************************************************************************************************************************************************************************************************************************************************************====++++++++++++++++++++++++++++++++====******************************************************************************************************************************************************************************************************************************************************************************************************************************",
"********************************************************************************************************************************************************************************************************************************************************************************====++++++++++++++++++++++++++++++++====******************************************************************************************************************************************************************************************************************************************************************************************************************************",
"********************************************************************************************************************************************************************************************************************************************************************************====++++++++++++++++++++++++++++++++====******************************************************************************************************************************************************************************************************************************************************************************************************************************",
"********************************************************************************************************************************************************************************************************************************************************************************====++++++++++++++++++++++++++++++++====******************************************************************************************************************************************************************************************************************************************************************************************************************************",
"****************************************************************************************************************************************************************************************************************************************************************************========********************************========**************************************************************************************************************************************************************************************************************************************************************************************************************************",
"****************************************************************************************************************************************************************************************************************************************************************************========********************************========**************************************************************************************************************************************************************************************************************************************************************************************************************************",
"****************************************************************************************************************************************************************************************************************************************************************************========********************************========**************************************************************************************************************************************************************************************************************************************************************************************************************************",
"****************************************************************************************************************************************************************************************************************************************************************************========********************************========**************************************************************************************************************************************************************************************************************************************************************************************************************************",
"****************************************************************************************************************************************************************************************************************************************************************************====++++++++++++++++++++++++++++++++++++++++====**************************************************************************************************************************************************************************************************************************************************************************************************************************",
"****************************************************************************************************************************************************************************************************************************************************************************====++++++++++++++++++++++++++++++++++++++++====**************************************************************************************************************************************************************************************************************************************************************************************************************************",
"****************************************************************************************************************************************************************************************************************************************************************************====++++++++++++++++++++++++++++++++++++++++====**************************************************************************************************************************************************************************************************************************************************************************************************************************",
"****************************************************************************************************************************************************************************************************************************************************************************====++++++++++++++++++++++++++++++++++++++++====**************************************************************************************************************************************************************************************************************************************************************************************************************************",
"************************************************************************************************************************************************************************************************************************************************************************@@@@@@@@++++++++++++++++++++++++++++++++++++++++@@@@@@@@**********************************************************************************************************************************************************************************************************************************************************************************************************************",
"************************************************************************************************************************************************************************************************************************************************************************@@@@@@@@++++++++++++++++++++++++++++++++++++++++@@@@@@@@**********************************************************************************************************************************************************************************************************************************************************************************************************************",
"************************************************************************************************************************************************************************************************************************************************************************@@@@@@@@++++++++++++++++++++++++++++++++++++++++@@@@@@@@**********************************************************************************************************************************************************************************************************************************************************************************************************************",
"************************************************************************************************************************************************************************************************************************************************************************@@@@@@@@++++++++++++++++++++++++++++++++++++++++@@@@@@@@**********************************************************************************************************************************************************************************************************************************************************************************************************************",
"********************************************************************************************************************************************************************************************************************************************************************@@@@@@@@++++++++++++++++                ++++++++++++++++@@@@@@@@******************************************************************************************************************************************************************************************************************************************************************************************************************",
"********************************************************************************************************************************************************************************************************************************************************************@@@@@@@@++++++++++++++++                ++++++++++++++++@@@@@@@@******************************************************************************************************************************************************************************************************************************************************************************************************************",
"********************************************************************************************************************************************************************************************************************************************************************@@@@@@@@++++++++++++++++                ++++++++++++++++@@@@@@@@******************************************************************************************************************************************************************************************************************************************************************************************************************",
"********************************************************************************************************************************************************************************************************************************************************************@@@@@@@@++++++++++++++++                ++++++++++++++++@@@@@@@@******************************************************************************************************************************************************************************************************************************************************************************************************************",
"****************************************************************************************************************************************************************************************************************************************************************@@@@@@@@@@@@++++++++++++    ++++++++++++++++    ++++++++++++@@@@@@@@@@@@**************************************************************************************************************************************************************************************************************************************************************************************************************",
"****************************************************************************************************************************************************************************************************************************************************************@@@@@@@@@@@@++++++++++++    ++++++++++++++++    ++++++++++++@@@@@@@@@@@@**************************************************************************************************************************************************************************************************************************************************************************************************************",
"****************************************************************************************************************************************************************************************************************************************************************@@@@@@@@@@@@++++++++++++    ++++++++++++++++    ++++++++++++@@@@@@@@@@@@**************************************************************************************************************************************************************************************************************************************************************************************************************",
"****************************************************************************************************************************************************************************************************************************************************************@@@@@@@@@@@@++++++++++++    ++++++++++++++++    ++++++++++++@@@@@@@@@@@@**************************************************************************************************************************************************************************************************************************************************************************************************************",
"****************************************************************************************************************************************************************************************************************************************************************@@@@@@@@@@@@++++++++++++    ++++++++++++++++    ++++++++++++@@@@@@@@@@@@**************************************************************************************************************************************************************************************************************************************************************************************************************",
"****************************************************************************************************************************************************************************************************************************************************************@@@@@@@@@@@@++++++++++++    ++++++++++++++++    ++++++++++++@@@@@@@@@@@@**************************************************************************************************************************************************************************************************************************************************************************************************************",
"****************************************************************************************************************************************************************************************************************************************************************@@@@@@@@@@@@++++++++++++    ++++++++++++++++    ++++++++++++@@@@@@@@@@@@**************************************************************************************************************************************************************************************************************************************************************************************************************",
"****************************************************************************************************************************************************************************************************************************************************************@@@@@@@@@@@@++++++++++++    ++++++++++++++++    ++++++++++++@@@@@@@@@@@@**************************************************************************************************************************************************************************************************************************************************************************************************************",
"************************************************************************************************************************************************************************************************************************************************************@@@@@@@@@@@@@@@@++++++++++++    ++++++++++++++++    ++++++++++++@@@@@@@@@@@@@@@@**********************************************************************************************************************************************************************************************************************************************************************************************************",
"************************************************************************************************************************************************************************************************************************************************************@@@@@@@@@@@@@@@@++++++++++++    ++++++++++++++++    ++++++++++++@@@@@@@@@@@@@@@@**********************************************************************************************************************************************************************************************************************************************************************************************************",
"************************************************************************************************************************************************************************************************************************************************************@@@@@@@@@@@@@@@@++++++++++++    ++++++++++++++++    ++++++++++++@@@@@@@@@@@@@@@@**********************************************************************************************************************************************************************************************************************************************************************************************************",
"************************************************************************************************************************************************************************************************************************************************************@@@@@@@@@@@@@@@@++++++++++++    ++++++++++++++++    ++++++++++++@@@@@@@@@@@@@@@@**********************************************************************************************************************************************************************************************************************************************************************************************************",
"************************************************************************************************************************************************************************************************************************************************************@@@@@@@@@@@@@@@@++++++++++++    ++++++++++++++++    ++++++++++++@@@@@@@@@@@@@@@@**********************************************************************************************************************************************************************************************************************************************************************************************************",
"************************************************************************************************************************************************************************************************************************************************************@@@@@@@@@@@@@@@@++++++++++++    ++++++++++++++++    ++++++++++++@@@@@@@@@@@@@@@@**********************************************************************************************************************************************************************************************************************************************************************************************************",
"************************************************************************************************************************************************************************************************************************************************************@@@@@@@@@@@@@@@@++++++++++++    ++++++++++++++++    ++++++++++++@@@@@@@@@@@@@@@@**********************************************************************************************************************************************************************************************************************************************************************************************************",
"************************************************************************************************************************************************************************************************************************************************************@@@@@@@@@@@@@@@@++++++++++++    ++++++++++++++++    ++++++++++++@@@@@@@@@@@@@@@@**********************************************************************************************************************************************************************************************************************************************************************************************************",
"************************************************************************************************************************************************************************************************************************************************************@@@@@@@@@@@@@@@@++++++++++++    ++++++++++++++++    ++++++++++++@@@@@@@@@@@@@@@@**********************************************************************************************************************************************************************************************************************************************************************************************************",
"************************************************************************************************************************************************************************************************************************************************************@@@@@@@@@@@@@@@@++++++++++++    ++++++++++++++++    ++++++++++++@@@@@@@@@@@@@@@@**********************************************************************************************************************************************************************************************************************************************************************************************************",
"************************************************************************************************************************************************************************************************************************************************************@@@@@@@@@@@@@@@@++++++++++++    ++++++++++++++++    ++++++++++++@@@@@@@@@@@@@@@@**********************************************************************************************************************************************************************************************************************************************************************************************************",
"************************************************************************************************************************************************************************************************************************************************************@@@@@@@@@@@@@@@@++++++++++++    ++++++++++++++++    ++++++++++++@@@@@@@@@@@@@@@@**********************************************************************************************************************************************************************************************************************************************************************************************************",
"************************************************************************************************************************************************************************************************************************************************************@@@@@@@@@@@@@@@@++++++++++++    ++++++++++++++++    ++++++++++++@@@@@@@@@@@@@@@@**********************************************************************************************************************************************************************************************************************************************************************************************************",
"************************************************************************************************************************************************************************************************************************************************************@@@@@@@@@@@@@@@@++++++++++++    ++++++++++++++++    ++++++++++++@@@@@@@@@@@@@@@@**********************************************************************************************************************************************************************************************************************************************************************************************************",
"************************************************************************************************************************************************************************************************************************************************************@@@@@@@@@@@@@@@@++++++++++++    ++++++++++++++++    ++++++++++++@@@@@@@@@@@@@@@@**********************************************************************************************************************************************************************************************************************************************************************************************************",
"************************************************************************************************************************************************************************************************************************************************************@@@@@@@@@@@@@@@@++++++++++++    ++++++++++++++++    ++++++++++++@@@@@@@@@@@@@@@@**********************************************************************************************************************************************************************************************************************************************************************************************************",
"********************************************************************************************************************************************************************************************************************************************************@@@@@@@@@@@@@@@@@@@@++++++++++++    ****++++++++****    ++++++++++++@@@@@@@@@@@@@@@@@@@@******************************************************************************************************************************************************************************************************************************************************************************************************",
"********************************************************************************************************************************************************************************************************************************************************@@@@@@@@@@@@@@@@@@@@++++++++++++    ****++++++++****    ++++++++++++@@@@@@@@@@@@@@@@@@@@******************************************************************************************************************************************************************************************************************************************************************************************************",
"********************************************************************************************************************************************************************************************************************************************************@@@@@@@@@@@@@@@@@@@@++++++++++++    ****++++++++****    ++++++++++++@@@@@@@@@@@@@@@@@@@@******************************************************************************************************************************************************************************************************************************************************************************************************",
"********************************************************************************************************************************************************************************************************************************************************@@@@@@@@@@@@@@@@@@@@++++++++++++    ****++++++++****    ++++++++++++@@@@@@@@@@@@@@@@@@@@******************************************************************************************************************************************************************************************************************************************************************************************************",
"********************************************************************************************************************************************************************************************************************************************************@@@@@@@@****@@@@@@@@++++++++++++    ++++********++++    ++++++++++++@@@@@@@@****@@@@@@@@******************************************************************************************************************************************************************************************************************************************************************************************************",
"********************************************************************************************************************************************************************************************************************************************************@@@@@@@@****@@@@@@@@++++++++++++    ++++********++++    ++++++++++++@@@@@@@@****@@@@@@@@******************************************************************************************************************************************************************************************************************************************************************************************************",
"********************************************************************************************************************************************************************************************************************************************************@@@@@@@@****@@@@@@@@++++++++++++    ++++********++++    ++++++++++++@@@@@@@@****@@@@@@@@******************************************************************************************************************************************************************************************************************************************************************************************************",
"********************************************************************************************************************************************************************************************************************************************************@@@@@@@@****@@@@@@@@++++++++++++    ++++********++++    ++++++++++++@@@@@@@@****@@@@@@@@******************************************************************************************************************************************************************************************************************************************************************************************************",
"********************************************************************************************************************************************************************************************************************************************************@@@@@@@@****@@@@@@@@++++++++++++    ++++++++++++++++    ++++++++++++@@@@@@@@****@@@@@@@@******************************************************************************************************************************************************************************************************************************************************************************************************",
"********************************************************************************************************************************************************************************************************************************************************@@@@@@@@****@@@@@@@@++++++++++++    ++++++++++++++++    ++++++++++++@@@@@@@@****@@@@@@@@******************************************************************************************************************************************************************************************************************************************************************************************************",
"********************************************************************************************************************************************************************************************************************************************************@@@@@@@@****@@@@@@@@++++++++++++    ++++++++++++++++    ++++++++++++@@@@@@@@****@@@@@@@@******************************************************************************************************************************************************************************************************************************************************************************************************",
"********************************************************************************************************************************************************************************************************************************************************@@@@@@@@****@@@@@@@@++++++++++++    ++++++++++++++++    ++++++++++++@@@@@@@@****@@@@@@@@******************************************************************************************************************************************************************************************************************************************************************************************************",
"********************************************************************************************************************************************************************************************************************************************************@@@@@@@@****@@@@@@@@++++++++++++    ++++++++++++++++    ++++++++++++@@@@@@@@****@@@@@@@@******************************************************************************************************************************************************************************************************************************************************************************************************",
"********************************************************************************************************************************************************************************************************************************************************@@@@@@@@****@@@@@@@@++++++++++++    ++++++++++++++++    ++++++++++++@@@@@@@@****@@@@@@@@******************************************************************************************************************************************************************************************************************************************************************************************************",
"********************************************************************************************************************************************************************************************************************************************************@@@@@@@@****@@@@@@@@++++++++++++    ++++++++++++++++    ++++++++++++@@@@@@@@****@@@@@@@@******************************************************************************************************************************************************************************************************************************************************************************************************",
"********************************************************************************************************************************************************************************************************************************************************@@@@@@@@****@@@@@@@@++++++++++++    ++++++++++++++++    ++++++++++++@@@@@@@@****@@@@@@@@******************************************************************************************************************************************************************************************************************************************************************************************************",
"****************************************************************************************************************************************************************************************************************************************************@@@@@@@@****@@@@@@@@@@@@++++++++++++    ++++++++++++++++    ++++++++++++@@@@@@@@@@@@****@@@@@@@@********$$$$$$$$$$$$$$$$**************************************************************************************************************************************************************************************************************************************************************************",
"****************************************************************************************************************************************************************************************************************************************************@@@@@@@@****@@@@@@@@@@@@++++++++++++    ++++++++++++++++    ++++++++++++@@@@@@@@@@@@****@@@@@@@@********$$$$$$$$$$$$$$$$**************************************************************************************************************************************************************************************************************************************************************************",
"****************************************************************************************************************************************************************************************************************************************************@@@@@@@@****@@@@@@@@@@@@++++++++++++    ++++++++++++++++    ++++++++++++@@@@@@@@@@@@****@@@@@@@@********$$$$$$$$$$$$$$$$**************************************************************************************************************************************************************************************************************************************************************************",
"****************************************************************************************************************************************************************************************************************************************************@@@@@@@@****@@@@@@@@@@@@++++++++++++    ++++++++++++++++    ++++++++++++@@@@@@@@@@@@****@@@@@@@@********$$$$$$$$$$$$$$$$**************************************************************************************************************************************************************************************************************************************************************************",
"****************************************************************************************************************************************************************************************************************************************************@@@@@@@@****@@@@@@@@@@@@++++++++        ++++++++++++++++        ++++++++@@@@@@@@@@@@****@@@@@@@@****$$$$&&&&&&&&&&&&&&&&$$$$**********************************************************************************************************************************************************************************************************************************************************************",
"****************************************************************************************************************************************************************************************************************************************************@@@@@@@@****@@@@@@@@@@@@++++++++        ++++++++++++++++        ++++++++@@@@@@@@@@@@****@@@@@@@@****$$$$&&&&&&&&&&&&&&&&$$$$**********************************************************************************************************************************************************************************************************************************************************************",
"****************************************************************************************************************************************************************************************************************************************************@@@@@@@@****@@@@@@@@@@@@++++++++        ++++++++++++++++        ++++++++@@@@@@@@@@@@****@@@@@@@@****$$$$&&&&&&&&&&&&&&&&$$$$**********************************************************************************************************************************************************************************************************************************************************************",
"****************************************************************************************************************************************************************************************************************************************************@@@@@@@@****@@@@@@@@@@@@++++++++        ++++++++++++++++        ++++++++@@@@@@@@@@@@****@@@@@@@@****$$$$&&&&&&&&&&&&&&&&$$$$**********************************************************************************************************************************************************************************************************************************************************************",
"****************************************************************************************************************************************************************************************************************************************************@@@@@@@@****@@@@@@@@@@@@++++++++        ++++++++++++++++        ++++++++@@@@@@@@@@@@****@@@@@@@@$$$$&&&&&&&&&&&&&&&&&&&&&&&&$$$$******************************************************************************************************************************************************************************************************************************************************************",
"****************************************************************************************************************************************************************************************************************************************************@@@@@@@@****@@@@@@@@@@@@++++++++        ++++++++++++++++        ++++++++@@@@@@@@@@@@****@@@@@@@@$$$$&&&&&&&&&&&&&&&&&&&&&&&&$$$$******************************************************************************************************************************************************************************************************************************************************************",
"****************************************************************************************************************************************************************************************************************************************************@@@@@@@@****@@@@@@@@@@@@++++++++        ++++++++++++++++        ++++++++@@@@@@@@@@@@****@@@@@@@@$$$$&&&&&&&&&&&&&&&&&&&&&&&&$$$$******************************************************************************************************************************************************************************************************************************************************************",
"****************************************************************************************************************************************************************************************************************************************************@@@@@@@@****@@@@@@@@@@@@++++++++        ++++++++++++++++        ++++++++@@@@@@@@@@@@****@@@@@@@@$$$$&&&&&&&&&&&&&&&&&&&&&&&&$$$$******************************************************************************************************************************************************************************************************************************************************************",
"****************************************************************************************************************************************************************************************************************************************************@@@@@@@@****@@@@@@@@@@@@++++++++        ++++++++++++++++        ++++++++@@@@@@@@@@@@****@@@@@@@@%%%%&&&&&&&&&&&&&&&&&&&&&&&&$$$$******************************************************************************************************************************************************************************************************************************************************************",
"****************************************************************************************************************************************************************************************************************************************************@@@@@@@@****@@@@@@@@@@@@++++++++        ++++++++++++++++        ++++++++@@@@@@@@@@@@****@@@@@@@@%%%%&&&&&&&&&&&&&&&&&&&&&&&&$$$$******************************************************************************************************************************************************************************************************************************************************************",
"****************************************************************************************************************************************************************************************************************************************************@@@@@@@@****@@@@@@@@@@@@++++++++        ++++++++++++++++        ++++++++@@@@@@@@@@@@****@@@@@@@@%%%%&&&&&&&&&&&&&&&&&&&&&&&&$$$$******************************************************************************************************************************************************************************************************************************************************************",
"****************************************************************************************************************************************************************************************************************************************************@@@@@@@@****@@@@@@@@@@@@++++++++        ++++++++++++++++        ++++++++@@@@@@@@@@@@****@@@@@@@@%%%%&&&&&&&&&&&&&&&&&&&&&&&&$$$$******************************************************************************************************************************************************************************************************************************************************************",
"************************************************************************************************************************************************************************************************************************************************@@@@@@@@@@@@****@@@@@@@@@@@@++++++++        ++++++++++++++++        ++++++++@@@@@@@@@@@@****@@@@@@@@@@@@%%%%&&&&&&&&&&&&&&&&&&&&&&&&$$$$**************************************************************************************************************************************************************************************************************************************************************",
"************************************************************************************************************************************************************************************************************************************************@@@@@@@@@@@@****@@@@@@@@@@@@++++++++        ++++++++++++++++        ++++++++@@@@@@@@@@@@****@@@@@@@@@@@@%%%%&&&&&&&&&&&&&&&&&&&&&&&&$$$$**************************************************************************************************************************************************************************************************************************************************************",
"************************************************************************************************************************************************************************************************************************************************@@@@@@@@@@@@****@@@@@@@@@@@@++++++++        ++++++++++++++++        ++++++++@@@@@@@@@@@@****@@@@@@@@@@@@%%%%&&&&&&&&&&&&&&&&&&&&&&&&$$$$**************************************************************************************************************************************************************************************************************************************************************",
"************************************************************************************************************************************************************************************************************************************************@@@@@@@@@@@@****@@@@@@@@@@@@++++++++        ++++++++++++++++        ++++++++@@@@@@@@@@@@****@@@@@@@@@@@@%%%%&&&&&&&&&&&&&&&&&&&&&&&&$$$$**************************************************************************************************************************************************************************************************************************************************************",
"************************************************************************************************************************************************************************************************************************************************@@@@@@@@****@@@@@@@@@@@@@@@@++++++++        ++++++++++++++++        ++++++++@@@@@@@@@@@@@@@@****@@@@@@@@%%%%&&&&&&&&&&&&&&&&&&&&&&&&$$$$**************************************************************************************************************************************************************************************************************************************************************",
"************************************************************************************************************************************************************************************************************************************************@@@@@@@@****@@@@@@@@@@@@@@@@++++++++        ++++++++++++++++        ++++++++@@@@@@@@@@@@@@@@****@@@@@@@@%%%%&&&&&&&&&&&&&&&&&&&&&&&&$$$$**************************************************************************************************************************************************************************************************************************************************************",
"************************************************************************************************************************************************************************************************************************************************@@@@@@@@****@@@@@@@@@@@@@@@@++++++++        ++++++++++++++++        ++++++++@@@@@@@@@@@@@@@@****@@@@@@@@%%%%&&&&&&&&&&&&&&&&&&&&&&&&$$$$**************************************************************************************************************************************************************************************************************************************************************",
"************************************************************************************************************************************************************************************************************************************************@@@@@@@@****@@@@@@@@@@@@@@@@++++++++        ++++++++++++++++        ++++++++@@@@@@@@@@@@@@@@****@@@@@@@@%%%%&&&&&&&&&&&&&&&&&&&&&&&&$$$$**************************************************************************************************************************************************************************************************************************************************************",
"************************************************************************************************************************************************************************************************************************************************@@@@@@@@****@@@@@@@@@@@@++++++++++++        ++++++++++++++++        ++++++++++++@@@@@@@@@@@@****@@@@@@@@%%%%&&&&&&&&&&&&&&&&&&&&&&&&&&&&$$$$**********************************************************************************************************************************************************************************************************************************************************",
"************************************************************************************************************************************************************************************************************************************************@@@@@@@@****@@@@@@@@@@@@++++++++++++        ++++++++++++++++        ++++++++++++@@@@@@@@@@@@****@@@@@@@@%%%%&&&&&&&&&&&&&&&&&&&&&&&&&&&&$$$$**********************************************************************************************************************************************************************************************************************************************************",
"************************************************************************************************************************************************************************************************************************************************@@@@@@@@****@@@@@@@@@@@@++++++++++++        ++++++++++++++++        ++++++++++++@@@@@@@@@@@@****@@@@@@@@%%%%&&&&&&&&&&&&&&&&&&&&&&&&&&&&$$$$**********************************************************************************************************************************************************************************************************************************************************",
"************************************************************************************************************************************************************************************************************************************************@@@@@@@@****@@@@@@@@@@@@++++++++++++        ++++++++++++++++        ++++++++++++@@@@@@@@@@@@****@@@@@@@@%%%%&&&&&&&&&&&&&&&&&&&&&&&&&&&&$$$$**********************************************************************************************************************************************************************************************************************************************************",
"********************************************************************************************************************************************************************************************************************************************@@@@@@@@@@@@****@@@@@@@@@@@@++++++++++++        ++++++++++++++++        ++++++++++++@@@@@@@@@@@@****@@@@@@@@@@@@%%%%&&&&&&&&&&&&&&&&&&&&&&&&$$$$**********************************************************************************************************************************************************************************************************************************************************",
"********************************************************************************************************************************************************************************************************************************************@@@@@@@@@@@@****@@@@@@@@@@@@++++++++++++        ++++++++++++++++        ++++++++++++@@@@@@@@@@@@****@@@@@@@@@@@@%%%%&&&&&&&&&&&&&&&&&&&&&&&&$$$$**********************************************************************************************************************************************************************************************************************************************************",
"********************************************************************************************************************************************************************************************************************************************@@@@@@@@@@@@****@@@@@@@@@@@@++++++++++++        ++++++++++++++++        ++++++++++++@@@@@@@@@@@@****@@@@@@@@@@@@%%%%&&&&&&&&&&&&&&&&&&&&&&&&$$$$**********************************************************************************************************************************************************************************************************************************************************",
"********************************************************************************************************************************************************************************************************************************************@@@@@@@@@@@@****@@@@@@@@@@@@++++++++++++        ++++++++++++++++        ++++++++++++@@@@@@@@@@@@****@@@@@@@@@@@@%%%%&&&&&&&&&&&&&&&&&&&&&&&&$$$$**********************************************************************************************************************************************************************************************************************************************************",
"********************************************************************************************************************************************************************************************************************************************@@@@@@@@****@@@@@@@@@@@@@@@@++++++++++++        ++++++++++++++++        ++++++++++++@@@@@@@@@@@@@@@@****@@@@@@@@%%%%&&&&&&&&&&&&&&&&&&&&&&&&$$$$**********************************************************************************************************************************************************************************************************************************************************",
"********************************************************************************************************************************************************************************************************************************************@@@@@@@@****@@@@@@@@@@@@@@@@++++++++++++        ++++++++++++++++        ++++++++++++@@@@@@@@@@@@@@@@****@@@@@@@@%%%%&&&&&&&&&&&&&&&&&&&&&&&&$$$$**********************************************************************************************************************************************************************************************************************************************************",
"********************************************************************************************************************************************************************************************************************************************@@@@@@@@****@@@@@@@@@@@@@@@@++++++++++++        ++++++++++++++++        ++++++++++++@@@@@@@@@@@@@@@@****@@@@@@@@%%%%&&&&&&&&&&&&&&&&&&&&&&&&$$$$**********************************************************************************************************************************************************************************************************************************************************",
"********************************************************************************************************************************************************************************************************************************************@@@@@@@@****@@@@@@@@@@@@@@@@++++++++++++        ++++++++++++++++        ++++++++++++@@@@@@@@@@@@@@@@****@@@@@@@@%%%%&&&&&&&&&&&&&&&&&&&&&&&&$$$$**********************************************************************************************************************************************************************************************************************************************************",
"********************************************************************************************************************************************************************************************************************************************@@@@@@@@****@@@@@@@@@@@@@@@@++++++++++++        ++++++++++++++++        ++++++++++++@@@@@@@@@@@@@@@@****@@@@@@@@%%%%&&&&&&&&&&&&&&&&&&&&&&&&$$$$**********************************************************************************************************************************************************************************************************************************************************",
"********************************************************************************************************************************************************************************************************************************************@@@@@@@@****@@@@@@@@@@@@@@@@++++++++++++        ++++++++++++++++        ++++++++++++@@@@@@@@@@@@@@@@****@@@@@@@@%%%%&&&&&&&&&&&&&&&&&&&&&&&&$$$$**********************************************************************************************************************************************************************************************************************************************************",
"********************************************************************************************************************************************************************************************************************************************@@@@@@@@****@@@@@@@@@@@@@@@@++++++++++++        ++++++++++++++++        ++++++++++++@@@@@@@@@@@@@@@@****@@@@@@@@%%%%&&&&&&&&&&&&&&&&&&&&&&&&$$$$**********************************************************************************************************************************************************************************************************************************************************",
"********************************************************************************************************************************************************************************************************************************************@@@@@@@@****@@@@@@@@@@@@@@@@++++++++++++        ++++++++++++++++        ++++++++++++@@@@@@@@@@@@@@@@****@@@@@@@@%%%%&&&&&&&&&&&&&&&&&&&&&&&&$$$$**********************************************************************************************************************************************************************************************************************************************************",
"********************************************************************************************************************************************************************************************************************************************@@@@@@@@@@@@@@@@@@@@@@@@++++++++++++++++        ++++++++++++++++        ++++++++++++++++@@@@@@@@@@@@@@@@@@@@@@@@****&&&&&&&&&&&&&&&&&&&&&&&&&&&&$$$$******************************************************************************************************************************************************************************************************************************************************",
"********************************************************************************************************************************************************************************************************************************************@@@@@@@@@@@@@@@@@@@@@@@@++++++++++++++++        ++++++++++++++++        ++++++++++++++++@@@@@@@@@@@@@@@@@@@@@@@@****&&&&&&&&&&&&&&&&&&&&&&&&&&&&$$$$******************************************************************************************************************************************************************************************************************************************************",
"********************************************************************************************************************************************************************************************************************************************@@@@@@@@@@@@@@@@@@@@@@@@++++++++++++++++        ++++++++++++++++        ++++++++++++++++@@@@@@@@@@@@@@@@@@@@@@@@****&&&&&&&&&&&&&&&&&&&&&&&&&&&&$$$$******************************************************************************************************************************************************************************************************************************************************",
"********************************************************************************************************************************************************************************************************************************************@@@@@@@@@@@@@@@@@@@@@@@@++++++++++++++++        ++++++++++++++++        ++++++++++++++++@@@@@@@@@@@@@@@@@@@@@@@@****&&&&&&&&&&&&&&&&&&&&&&&&&&&&$$$$******************************************************************************************************************************************************************************************************************************************************",
"************************************************************************************************************************************************************************************************************************************$$$$%%%%********@@@@@@@@@@@@@@@@++++++++++++++++        ++++++++++++++++        ++++++++++++++++@@@@@@@@@@@@@@@@********&&&&&&&&&&&&&&&&&&&&&&&&&&&&&&&&$$$$******************************************************************************************************************************************************************************************************************************************************",
"************************************************************************************************************************************************************************************************************************************$$$$%%%%********@@@@@@@@@@@@@@@@++++++++++++++++        ++++++++++++++++        ++++++++++++++++@@@@@@@@@@@@@@@@********&&&&&&&&&&&&&&&&&&&&&&&&&&&&&&&&$$$$******************************************************************************************************************************************************************************************************************************************************",
"************************************************************************************************************************************************************************************************************************************$$$$%%%%********@@@@@@@@@@@@@@@@++++++++++++++++        ++++++++++++++++        ++++++++++++++++@@@@@@@@@@@@@@@@********&&&&&&&&&&&&&&&&&&&&&&&&&&&&&&&&$$$$******************************************************************************************************************************************************************************************************************************************************",
"************************************************************************************************************************************************************************************************************************************$$$$%%%%********@@@@@@@@@@@@@@@@++++++++++++++++        ++++++++++++++++        ++++++++++++++++@@@@@@@@@@@@@@@@********&&&&&&&&&&&&&&&&&&&&&&&&&&&&&&&&$$$$******************************************************************************************************************************************************************************************************************************************************",
"********************************************************************************************************************************************************************************************************************************$$$$&&&&&&&&%%%%$$$$********@@@@@@@@++++++++++++++++****                        ****++++++++++++++++@@@@@@@@********&&&&&&&&&&&&&&&&&&&&&&&&&&&&&&&&&&&&&&&&$$$$******************************************************************************************************************************************************************************************************************************************************",
"********************************************************************************************************************************************************************************************************************************$$$$&&&&&&&&%%%%$$$$********@@@@@@@@++++++++++++++++****                        ****++++++++++++++++@@@@@@@@********&&&&&&&&&&&&&&&&&&&&&&&&&&&&&&&&&&&&&&&&$$$$******************************************************************************************************************************************************************************************************************************************************",
"********************************************************************************************************************************************************************************************************************************$$$$&&&&&&&&%%%%$$$$********@@@@@@@@++++++++++++++++****                        ****++++++++++++++++@@@@@@@@********&&&&&&&&&&&&&&&&&&&&&&&&&&&&&&&&&&&&&&&&$$$$******************************************************************************************************************************************************************************************************************************************************",
"********************************************************************************************************************************************************************************************************************************$$$$&&&&&&&&%%%%$$$$********@@@@@@@@++++++++++++++++****                        ****++++++++++++++++@@@@@@@@********&&&&&&&&&&&&&&&&&&&&&&&&&&&&&&&&&&&&&&&&$$$$******************************************************************************************************************************************************************************************************************************************************",
"****************************************************************************************************************************************************************************************************************************$$$$&&&&&&&&&&&&&&&&&&&&$$$$$$$$****************++++++++++++************************++++++++++++****************$$$$&&&&&&&&&&&&&&&&&&&&&&&&&&&&&&&&&&&&&&&&&&&&####******************************************************************************************************************************************************************************************************************************************************",
"****************************************************************************************************************************************************************************************************************************$$$$&&&&&&&&&&&&&&&&&&&&$$$$$$$$****************++++++++++++************************++++++++++++****************$$$$&&&&&&&&&&&&&&&&&&&&&&&&&&&&&&&&&&&&&&&&&&&&####******************************************************************************************************************************************************************************************************************************************************",
"****************************************************************************************************************************************************************************************************************************$$$$&&&&&&&&&&&&&&&&&&&&$$$$$$$$****************++++++++++++************************++++++++++++****************$$$$&&&&&&&&&&&&&&&&&&&&&&&&&&&&&&&&&&&&&&&&&&&&####******************************************************************************************************************************************************************************************************************************************************",
"****************************************************************************************************************************************************************************************************************************$$$$&&&&&&&&&&&&&&&&&&&&$$$$$$$$****************++++++++++++************************++++++++++++****************$$$$&&&&&&&&&&&&&&&&&&&&&&&&&&&&&&&&&&&&&&&&&&&&####******************************************************************************************************************************************************************************************************************************************************",
"****************************************************************************************************************************************************************************************************************************$$$$&&&&&&&&&&&&&&&&&&&&&&&&&&&&####****oooooooo************************************************oooooooo****####&&&&&&&&&&&&&&&&&&&&&&&&&&&&&&&&&&&&&&&&&&&&%%%%%%%%####**************************************************************************************************************************************************************************************************************************************************",
"****************************************************************************************************************************************************************************************************************************$$$$&&&&&&&&&&&&&&&&&&&&&&&&&&&&####****oooooooo************************************************oooooooo****####&&&&&&&&&&&&&&&&&&&&&&&&&&&&&&&&&&&&&&&&&&&&%%%%%%%%####**************************************************************************************************************************************************************************************************************************************************",
"****************************************************************************************************************************************************************************************************************************$$$$&&&&&&&&&&&&&&&&&&&&&&&&&&&&####****oooooooo************************************************oooooooo****####&&&&&&&&&&&&&&&&&&&&&&&&&&&&&&&&&&&&&&&&&&&&%%%%%%%%####**************************************************************************************************************************************************************************************************************************************************",
"****************************************************************************************************************************************************************************************************************************$$$$&&&&&&&&&&&&&&&&&&&&&&&&&&&&####****oooooooo************************************************oooooooo****####&&&&&&&&&&&&&&&&&&&&&&&&&&&&&&&&&&&&&&&&&&&&%%%%%%%%####**************************************************************************************************************************************************************************************************************************************************",
"****************************************************************************************************************************************************************************************************************************$$$$&&&&&&&&&&&&&&&&&&&&&&&&&&&&&&&&####oooooooooooooooooooooooooooooooooooooooooooooooooooooooooooooooo****####&&&&&&&&&&&&&&&&&&&&&&&&&&&&&&&&&&&&&&&&$$$$%%%%%%%%####**************************************************************************************************************************************************************************************************************************************************",
"****************************************************************************************************************************************************************************************************************************$$$$&&&&&&&&&&&&&&&&&&&&&&&&&&&&&&&&####oooooooooooooooooooooooooooooooooooooooooooooooooooooooooooooooo****####&&&&&&&&&&&&&&&&&&&&&&&&&&&&&&&&&&&&&&&&$$$$%%%%%%%%####**************************************************************************************************************************************************************************************************************************************************",
"****************************************************************************************************************************************************************************************************************************$$$$&&&&&&&&&&&&&&&&&&&&&&&&&&&&&&&&####oooooooooooooooooooooooooooooooooooooooooooooooooooooooooooooooo****####&&&&&&&&&&&&&&&&&&&&&&&&&&&&&&&&&&&&&&&&$$$$%%%%%%%%####**************************************************************************************************************************************************************************************************************************************************",
"****************************************************************************************************************************************************************************************************************************$$$$&&&&&&&&&&&&&&&&&&&&&&&&&&&&&&&&####oooooooooooooooooooooooooooooooooooooooooooooooooooooooooooooooo****####&&&&&&&&&&&&&&&&&&&&&&&&&&&&&&&&&&&&&&&&$$$$%%%%%%%%####**************************************************************************************************************************************************************************************************************************************************",
"************************************************************************************************************************************************************************************************************************####&&&&&&&&&&&&&&&&&&&&&&&&&&&&&&&&&&&&&&&&####oooooooooooooooooooooooooooooooooooooooooooooooooooooooooooo####&&&&&&&&&&&&&&&&&&&&&&&&&&&&&&&&&&&&&&&&&&&&&&&&####%%%%####**************************************************************************************************************************************************************************************************************************************************",
"************************************************************************************************************************************************************************************************************************####&&&&&&&&&&&&&&&&&&&&&&&&&&&&&&&&&&&&&&&&####oooooooooooooooooooooooooooooooooooooooooooooooooooooooooooo####&&&&&&&&&&&&&&&&&&&&&&&&&&&&&&&&&&&&&&&&&&&&&&&&####%%%%####**************************************************************************************************************************************************************************************************************************************************",
"************************************************************************************************************************************************************************************************************************####&&&&&&&&&&&&&&&&&&&&&&&&&&&&&&&&&&&&&&&&####oooooooooooooooooooooooooooooooooooooooooooooooooooooooooooo####&&&&&&&&&&&&&&&&&&&&&&&&&&&&&&&&&&&&&&&&&&&&&&&&####%%%%####**************************************************************************************************************************************************************************************************************************************************",
"************************************************************************************************************************************************************************************************************************####&&&&&&&&&&&&&&&&&&&&&&&&&&&&&&&&&&&&&&&&####oooooooooooooooooooooooooooooooooooooooooooooooooooooooooooo####&&&&&&&&&&&&&&&&&&&&&&&&&&&&&&&&&&&&&&&&&&&&&&&&####%%%%####**************************************************************************************************************************************************************************************************************************************************",
"************************************************************************************************************************************************************************************************************************####%%%%&&&&&&&&&&&&&&&&&&&&&&&&&&&&&&&&&&&&&&&&################oooooooooooooooooooooooooooooooo############&&&&&&&&&&&&&&&&&&&&&&&&&&&&&&&&&&&&&&&&&&&&&&&&&&&&####%%%%%%%%####**********************************************************************************************************************************************************************************************************************************************",
"************************************************************************************************************************************************************************************************************************####%%%%&&&&&&&&&&&&&&&&&&&&&&&&&&&&&&&&&&&&&&&&################oooooooooooooooooooooooooooooooo############&&&&&&&&&&&&&&&&&&&&&&&&&&&&&&&&&&&&&&&&&&&&&&&&&&&&####%%%%%%%%####**********************************************************************************************************************************************************************************************************************************************",
"************************************************************************************************************************************************************************************************************************####%%%%&&&&&&&&&&&&&&&&&&&&&&&&&&&&&&&&&&&&&&&&################oooooooooooooooooooooooooooooooo############&&&&&&&&&&&&&&&&&&&&&&&&&&&&&&&&&&&&&&&&&&&&&&&&&&&&####%%%%%%%%####**********************************************************************************************************************************************************************************************************************************************",
"************************************************************************************************************************************************************************************************************************####%%%%&&&&&&&&&&&&&&&&&&&&&&&&&&&&&&&&&&&&&&&&################oooooooooooooooooooooooooooooooo############&&&&&&&&&&&&&&&&&&&&&&&&&&&&&&&&&&&&&&&&&&&&&&&&&&&&####%%%%%%%%####**********************************************************************************************************************************************************************************************************************************************",
"************************************************************************************************************************************************************************************************************************####%%%%%%%%&&&&&&&&&&&&&&&&&&&&&&&&&&&&&&&&&&&&&&&&&&&&&&&&&&&&################################&&&&&&&&&&&&&&&&&&&&&&&&&&&&&&&&&&&&&&&&&&&&&&&&&&&&&&&&&&&&&&&&&&&&####%%%%####**********************************************************************************************************************************************************************************************************************************************",
"************************************************************************************************************************************************************************************************************************####%%%%%%%%&&&&&&&&&&&&&&&&&&&&&&&&&&&&&&&&&&&&&&&&&&&&&&&&&&&&################################&&&&&&&&&&&&&&&&&&&&&&&&&&&&&&&&&&&&&&&&&&&&&&&&&&&&&&&&&&&&&&&&&&&&####%%%%####**********************************************************************************************************************************************************************************************************************************************",
"************************************************************************************************************************************************************************************************************************####%%%%%%%%&&&&&&&&&&&&&&&&&&&&&&&&&&&&&&&&&&&&&&&&&&&&&&&&&&&&################################&&&&&&&&&&&&&&&&&&&&&&&&&&&&&&&&&&&&&&&&&&&&&&&&&&&&&&&&&&&&&&&&&&&&####%%%%####**********************************************************************************************************************************************************************************************************************************************",
"************************************************************************************************************************************************************************************************************************####%%%%%%%%&&&&&&&&&&&&&&&&&&&&&&&&&&&&&&&&&&&&&&&&&&&&&&&&&&&&################################&&&&&&&&&&&&&&&&&&&&&&&&&&&&&&&&&&&&&&&&&&&&&&&&&&&&&&&&&&&&&&&&&&&&####%%%%####**********************************************************************************************************************************************************************************************************************************************",
"************************************************************************************************************************************************************************************************************************####%%%%%%%%%%%%&&&&&&&&&&&&&&&&&&&&&&&&&&&&&&&&&&&&&&&&&&&&&&&&&&&&&&&&&&&&&&&&&&&&&&&&&&&&&&&&&&&&&&&&&&&&&&&&&&&&&&&&&&&&&&&&&&&&&&&&&&&&&&&&&&&&&&&&&&&&&&&&&&&&####%%%%%%%%####******************************************************************************************************************************************************************************************************************************************",
"************************************************************************************************************************************************************************************************************************####%%%%%%%%%%%%&&&&&&&&&&&&&&&&&&&&&&&&&&&&&&&&&&&&&&&&&&&&&&&&&&&&&&&&&&&&&&&&&&&&&&&&&&&&&&&&&&&&&&&&&&&&&&&&&&&&&&&&&&&&&&&&&&&&&&&&&&&&&&&&&&&&&&&&&&&&&&&&&&&&####%%%%%%%%####******************************************************************************************************************************************************************************************************************************************",
"************************************************************************************************************************************************************************************************************************####%%%%%%%%%%%%&&&&&&&&&&&&&&&&&&&&&&&&&&&&&&&&&&&&&&&&&&&&&&&&&&&&&&&&&&&&&&&&&&&&&&&&&&&&&&&&&&&&&&&&&&&&&&&&&&&&&&&&&&&&&&&&&&&&&&&&&&&&&&&&&&&&&&&&&&&&&&&&&&&&####%%%%%%%%####******************************************************************************************************************************************************************************************************************************************",
"************************************************************************************************************************************************************************************************************************####%%%%%%%%%%%%&&&&&&&&&&&&&&&&&&&&&&&&&&&&&&&&&&&&&&&&&&&&&&&&&&&&&&&&&&&&&&&&&&&&&&&&&&&&&&&&&&&&&&&&&&&&&&&&&&&&&&&&&&&&&&&&&&&&&&&&&&&&&&&&&&&&&&&&&&&&&&&&&&&&####%%%%%%%%####******************************************************************************************************************************************************************************************************************************************",
"************************************************************************************************************************************************************************************************************************####%%%%%%%%%%%%%%%%&&&&&&&&&&&&&&&&&&&&&&&&&&&&&&&&&&&&&&&&&&&&&&&&&&&&&&&&&&&&&&&&&&&&&&&&&&&&&&&&&&&&&&&&&&&&&&&&&&&&&&&&&&&&&&&&&&&&&&&&&&&&&&&&&&&&&&&&&&&&&&&&####%%%%%%%%####******************************************************************************************************************************************************************************************************************************************",
"************************************************************************************************************************************************************************************************************************####%%%%%%%%%%%%%%%%&&&&&&&&&&&&&&&&&&&&&&&&&&&&&&&&&&&&&&&&&&&&&&&&&&&&&&&&&&&&&&&&&&&&&&&&&&&&&&&&&&&&&&&&&&&&&&&&&&&&&&&&&&&&&&&&&&&&&&&&&&&&&&&&&&&&&&&&&&&&&&&&####%%%%%%%%####******************************************************************************************************************************************************************************************************************************************",
"************************************************************************************************************************************************************************************************************************####%%%%%%%%%%%%%%%%&&&&&&&&&&&&&&&&&&&&&&&&&&&&&&&&&&&&&&&&&&&&&&&&&&&&&&&&&&&&&&&&&&&&&&&&&&&&&&&&&&&&&&&&&&&&&&&&&&&&&&&&&&&&&&&&&&&&&&&&&&&&&&&&&&&&&&&&&&&&&&&&####%%%%%%%%####******************************************************************************************************************************************************************************************************************************************",
"************************************************************************************************************************************************************************************************************************####%%%%%%%%%%%%%%%%&&&&&&&&&&&&&&&&&&&&&&&&&&&&&&&&&&&&&&&&&&&&&&&&&&&&&&&&&&&&&&&&&&&&&&&&&&&&&&&&&&&&&&&&&&&&&&&&&&&&&&&&&&&&&&&&&&&&&&&&&&&&&&&&&&&&&&&&&&&&&&&&####%%%%%%%%####******************************************************************************************************************************************************************************************************************************************",
"************************************************************************************************************************************************************************************************************************####%%%%%%%%%%%%%%%%%%%%&&&&&&&&&&&&&&&&&&&&&&&&&&&&&&&&&&&&&&&&&&&&&&&&&&&&&&&&&&&&&&&&&&&&&&&&&&&&&&&&&&&&&&&&&&&&&&&&&&&&&&&&&&&&&&&&&&&&&&&&&&&&&&&&&&&&&&&&&&&&####%%%%%%%%####******************************************************************************************************************************************************************************************************************************************",
"************************************************************************************************************************************************************************************************************************####%%%%%%%%%%%%%%%%%%%%&&&&&&&&&&&&&&&&&&&&&&&&&&&&&&&&&&&&&&&&&&&&&&&&&&&&&&&&&&&&&&&&&&&&&&&&&&&&&&&&&&&&&&&&&&&&&&&&&&&&&&&&&&&&&&&&&&&&&&&&&&&&&&&&&&&&&&&&&&&&####%%%%%%%%####******************************************************************************************************************************************************************************************************************************************",
"************************************************************************************************************************************************************************************************************************####%%%%%%%%%%%%%%%%%%%%&&&&&&&&&&&&&&&&&&&&&&&&&&&&&&&&&&&&&&&&&&&&&&&&&&&&&&&&&&&&&&&&&&&&&&&&&&&&&&&&&&&&&&&&&&&&&&&&&&&&&&&&&&&&&&&&&&&&&&&&&&&&&&&&&&&&&&&&&&&&####%%%%%%%%####******************************************************************************************************************************************************************************************************************************************",
"************************************************************************************************************************************************************************************************************************####%%%%%%%%%%%%%%%%%%%%&&&&&&&&&&&&&&&&&&&&&&&&&&&&&&&&&&&&&&&&&&&&&&&&&&&&&&&&&&&&&&&&&&&&&&&&&&&&&&&&&&&&&&&&&&&&&&&&&&&&&&&&&&&&&&&&&&&&&&&&&&&&&&&&&&&&&&&&&&&&####%%%%%%%%####******************************************************************************************************************************************************************************************************************************************",
"************************************************************************************************************************************************************************************************************************####%%%%%%%%%%%%%%%%%%%%&&&&&&&&&&&&&&&&&&&&&&&&&&&&&&&&&&&&&&&&&&&&&&&&&&&&&&&&&&&&&&&&&&&&&&&&&&&&&&&&&&&&&&&&&&&&&&&&&&&&&&&&&&&&&&&&&&&&&&&&&&&&&&&&&&&&&&&&&&&&####%%%%%%%%%%%%####**************************************************************************************************************************************************************************************************************************************",
"************************************************************************************************************************************************************************************************************************####%%%%%%%%%%%%%%%%%%%%&&&&&&&&&&&&&&&&&&&&&&&&&&&&&&&&&&&&&&&&&&&&&&&&&&&&&&&&&&&&&&&&&&&&&&&&&&&&&&&&&&&&&&&&&&&&&&&&&&&&&&&&&&&&&&&&&&&&&&&&&&&&&&&&&&&&&&&&&&&&####%%%%%%%%%%%%####**************************************************************************************************************************************************************************************************************************************",
"************************************************************************************************************************************************************************************************************************####%%%%%%%%%%%%%%%%%%%%&&&&&&&&&&&&&&&&&&&&&&&&&&&&&&&&&&&&&&&&&&&&&&&&&&&&&&&&&&&&&&&&&&&&&&&&&&&&&&&&&&&&&&&&&&&&&&&&&&&&&&&&&&&&&&&&&&&&&&&&&&&&&&&&&&&&&&&&&&&&####%%%%%%%%%%%%####**************************************************************************************************************************************************************************************************************************************",
"************************************************************************************************************************************************************************************************************************####%%%%%%%%%%%%%%%%%%%%&&&&&&&&&&&&&&&&&&&&&&&&&&&&&&&&&&&&&&&&&&&&&&&&&&&&&&&&&&&&&&&&&&&&&&&&&&&&&&&&&&&&&&&&&&&&&&&&&&&&&&&&&&&&&&&&&&&&&&&&&&&&&&&&&&&&&&&&&&&&####%%%%%%%%%%%%####**************************************************************************************************************************************************************************************************************************************",
"************************************************************************************************************************************************************************************************************************####%%%%%%%%%%%%%%%%%%%%%%%%&&&&&&&&&&&&&&&&&&&&&&&&&&&&&&&&&&&&&&&&&&&&&&&&&&&&&&&&&&&&&&&&&&&&&&&&&&&&&&&&&&&&&&&&&&&&&&&&&&&&&&&&&&&&&&&&&&&&&&&&&&&&&&&&&&&&$$$$&&&&%%%%%%%%########**************************************************************************************************************************************************************************************************************************************",
"************************************************************************************************************************************************************************************************************************####%%%%%%%%%%%%%%%%%%%%%%%%&&&&&&&&&&&&&&&&&&&&&&&&&&&&&&&&&&&&&&&&&&&&&&&&&&&&&&&&&&&&&&&&&&&&&&&&&&&&&&&&&&&&&&&&&&&&&&&&&&&&&&&&&&&&&&&&&&&&&&&&&&&&&&&&&&&&$$$$&&&&%%%%%%%%########**************************************************************************************************************************************************************************************************************************************",
"************************************************************************************************************************************************************************************************************************####%%%%%%%%%%%%%%%%%%%%%%%%&&&&&&&&&&&&&&&&&&&&&&&&&&&&&&&&&&&&&&&&&&&&&&&&&&&&&&&&&&&&&&&&&&&&&&&&&&&&&&&&&&&&&&&&&&&&&&&&&&&&&&&&&&&&&&&&&&&&&&&&&&&&&&&&&&&&$$$$&&&&%%%%%%%%########**************************************************************************************************************************************************************************************************************************************",
"************************************************************************************************************************************************************************************************************************####%%%%%%%%%%%%%%%%%%%%%%%%&&&&&&&&&&&&&&&&&&&&&&&&&&&&&&&&&&&&&&&&&&&&&&&&&&&&&&&&&&&&&&&&&&&&&&&&&&&&&&&&&&&&&&&&&&&&&&&&&&&&&&&&&&&&&&&&&&&&&&&&&&&&&&&&&&&&$$$$&&&&%%%%%%%%########**************************************************************************************************************************************************************************************************************************************",
"************************************************************************************************************************************************************************************************************************####%%%%%%%%%%%%%%%%%%%%%%%%%%%%&&&&&&&&&&&&&&&&&&&&&&&&&&&&&&&&&&&&&&&&&&&&&&&&&&&&&&&&&&&&&&&&&&&&&&&&&&&&&&&&&&&&&&&&&&&&&&&&&&&&&&&&&&&&&&&&&&&&&&&&&&&&&&&&$$$$&&&&%%%%%%%%########**************************************************************************************************************************************************************************************************************************************",
"************************************************************************************************************************************************************************************************************************####%%%%%%%%%%%%%%%%%%%%%%%%%%%%&&&&&&&&&&&&&&&&&&&&&&&&&&&&&&&&&&&&&&&&&&&&&&&&&&&&&&&&&&&&&&&&&&&&&&&&&&&&&&&&&&&&&&&&&&&&&&&&&&&&&&&&&&&&&&&&&&&&&&&&&&&&&&&&$$$$&&&&%%%%%%%%########**************************************************************************************************************************************************************************************************************************************",
"************************************************************************************************************************************************************************************************************************####%%%%%%%%%%%%%%%%%%%%%%%%%%%%&&&&&&&&&&&&&&&&&&&&&&&&&&&&&&&&&&&&&&&&&&&&&&&&&&&&&&&&&&&&&&&&&&&&&&&&&&&&&&&&&&&&&&&&&&&&&&&&&&&&&&&&&&&&&&&&&&&&&&&&&&&&&&&&$$$$&&&&%%%%%%%%########**************************************************************************************************************************************************************************************************************************************",
"************************************************************************************************************************************************************************************************************************####%%%%%%%%%%%%%%%%%%%%%%%%%%%%&&&&&&&&&&&&&&&&&&&&&&&&&&&&&&&&&&&&&&&&&&&&&&&&&&&&&&&&&&&&&&&&&&&&&&&&&&&&&&&&&&&&&&&&&&&&&&&&&&&&&&&&&&&&&&&&&&&&&&&&&&&&&&&&$$$$&&&&%%%%%%%%########**************************************************************************************************************************************************************************************************************************************",
"************************************************************************************************************************************************************************************************************************####%%%%%%%%%%%%%%%%%%%%%%%%%%%%%%%%&&&&&&&&&&&&&&&&&&&&&&&&&&&&&&&&&&&&&&&&&&&&&&&&&&&&&&&&&&&&&&&&&&&&&&&&&&&&&&&&&&&&&&&&&&&&&&&&&&&&&&&&&&&&&&&&&&&&&&&&&&&&$$$$&&&&%%%%####%%%%####**************************************************************************************************************************************************************************************************************************************",
"************************************************************************************************************************************************************************************************************************####%%%%%%%%%%%%%%%%%%%%%%%%%%%%%%%%&&&&&&&&&&&&&&&&&&&&&&&&&&&&&&&&&&&&&&&&&&&&&&&&&&&&&&&&&&&&&&&&&&&&&&&&&&&&&&&&&&&&&&&&&&&&&&&&&&&&&&&&&&&&&&&&&&&&&&&&&&&&$$$$&&&&%%%%####%%%%####**************************************************************************************************************************************************************************************************************************************",
"************************************************************************************************************************************************************************************************************************####%%%%%%%%%%%%%%%%%%%%%%%%%%%%%%%%&&&&&&&&&&&&&&&&&&&&&&&&&&&&&&&&&&&&&&&&&&&&&&&&&&&&&&&&&&&&&&&&&&&&&&&&&&&&&&&&&&&&&&&&&&&&&&&&&&&&&&&&&&&&&&&&&&&&&&&&&&&&$$$$&&&&%%%%####%%%%####**************************************************************************************************************************************************************************************************************************************",
"************************************************************************************************************************************************************************************************************************####%%%%%%%%%%%%%%%%%%%%%%%%%%%%%%%%&&&&&&&&&&&&&&&&&&&&&&&&&&&&&&&&&&&&&&&&&&&&&&&&&&&&&&&&&&&&&&&&&&&&&&&&&&&&&&&&&&&&&&&&&&&&&&&&&&&&&&&&&&&&&&&&&&&&&&&&&&&&$$$$&&&&%%%%####%%%%####**************************************************************************************************************************************************************************************************************************************",
"****************************************************************************************************************************************************************************************************************************####%%%%%%%%%%%%%%%%%%%%%%%%%%%%%%%%&&&&&&&&&&&&&&&&&&&&&&&&&&&&&&&&&&&&&&&&&&&&&&&&&&&&&&&&&&&&&&&&&&&&&&&&&&&&&&&&&&&&&&&&&&&&&&&&&&&&&&&&&&&&&&&&&&&&&&&&$$$$&&&&%%%%####%%%%%%%%####**********************************************************************************************************************************************************************************************************************************",
"****************************************************************************************************************************************************************************************************************************####%%%%%%%%%%%%%%%%%%%%%%%%%%%%%%%%&&&&&&&&&&&&&&&&&&&&&&&&&&&&&&&&&&&&&&&&&&&&&&&&&&&&&&&&&&&&&&&&&&&&&&&&&&&&&&&&&&&&&&&&&&&&&&&&&&&&&&&&&&&&&&&&&&&&&&&&$$$$&&&&%%%%####%%%%%%%%####**********************************************************************************************************************************************************************************************************************************",
"****************************************************************************************************************************************************************************************************************************####%%%%%%%%%%%%%%%%%%%%%%%%%%%%%%%%&&&&&&&&&&&&&&&&&&&&&&&&&&&&&&&&&&&&&&&&&&&&&&&&&&&&&&&&&&&&&&&&&&&&&&&&&&&&&&&&&&&&&&&&&&&&&&&&&&&&&&&&&&&&&&&&&&&&&&&&$$$$&&&&%%%%####%%%%%%%%####**********************************************************************************************************************************************************************************************************************************",
"****************************************************************************************************************************************************************************************************************************####%%%%%%%%%%%%%%%%%%%%%%%%%%%%%%%%&&&&&&&&&&&&&&&&&&&&&&&&&&&&&&&&&&&&&&&&&&&&&&&&&&&&&&&&&&&&&&&&&&&&&&&&&&&&&&&&&&&&&&&&&&&&&&&&&&&&&&&&&&&&&&&&&&&&&&&&$$$$&&&&%%%%####%%%%%%%%####**********************************************************************************************************************************************************************************************************************************",
"****************************************************************************************************************************************************************************************************************************####%%%%%%%%%%%%%%%%%%%%%%%%%%%%%%%%%%%%&&&&&&&&&&&&&&&&&&&&&&&&&&&&&&&&&&&&&&&&&&&&&&&&&&&&&&&&&&&&&&&&&&&&&&&&&&&&&&&&&&&&&&&&&&&&&&&&&&&&&&&&&&&&&&&&&&&&&&&&&&&&&&&&%%%%%%%%%%%%####**********************************************************************************************************************************************************************************************************************************",
"****************************************************************************************************************************************************************************************************************************####%%%%%%%%%%%%%%%%%%%%%%%%%%%%%%%%%%%%&&&&&&&&&&&&&&&&&&&&&&&&&&&&&&&&&&&&&&&&&&&&&&&&&&&&&&&&&&&&&&&&&&&&&&&&&&&&&&&&&&&&&&&&&&&&&&&&&&&&&&&&&&&&&&&&&&&&&&&&&&&&&&&&%%%%%%%%%%%%####**********************************************************************************************************************************************************************************************************************************",
"****************************************************************************************************************************************************************************************************************************####%%%%%%%%%%%%%%%%%%%%%%%%%%%%%%%%%%%%&&&&&&&&&&&&&&&&&&&&&&&&&&&&&&&&&&&&&&&&&&&&&&&&&&&&&&&&&&&&&&&&&&&&&&&&&&&&&&&&&&&&&&&&&&&&&&&&&&&&&&&&&&&&&&&&&&&&&&&&&&&&&&&&%%%%%%%%%%%%####**********************************************************************************************************************************************************************************************************************************",
"****************************************************************************************************************************************************************************************************************************####%%%%%%%%%%%%%%%%%%%%%%%%%%%%%%%%%%%%&&&&&&&&&&&&&&&&&&&&&&&&&&&&&&&&&&&&&&&&&&&&&&&&&&&&&&&&&&&&&&&&&&&&&&&&&&&&&&&&&&&&&&&&&&&&&&&&&&&&&&&&&&&&&&&&&&&&&&&&&&&&&&&&%%%%%%%%%%%%####**********************************************************************************************************************************************************************************************************************************",
"********************************************************************************************************************************************************************************************************************************####%%%%%%%%%%%%%%%%%%%%%%%%%%%%####%%%%&&&&&&&&&&&&&&&&&&&&&&&&&&&&&&&&&&&&&&&&&&&&&&&&&&&&&&&&&&&&&&&&&&&&&&&&&&&&&&&&&&&&&&&&&&&&&&&&&&&&&&&&&&&&&&&&&&&&&&&&&&&&%%%%%%%%%%%%####**********************************************************************************************************************************************************************************************************************************",
"********************************************************************************************************************************************************************************************************************************####%%%%%%%%%%%%%%%%%%%%%%%%%%%%####%%%%&&&&&&&&&&&&&&&&&&&&&&&&&&&&&&&&&&&&&&&&&&&&&&&&&&&&&&&&&&&&&&&&&&&&&&&&&&&&&&&&&&&&&&&&&&&&&&&&&&&&&&&&&&&&&&&&&&&&&&&&&&&&%%%%%%%%%%%%####**********************************************************************************************************************************************************************************************************************************",
"********************************************************************************************************************************************************************************************************************************####%%%%%%%%%%%%%%%%%%%%%%%%%%%%####%%%%&&&&&&&&&&&&&&&&&&&&&&&&&&&&&&&&&&&&&&&&&&&&&&&&&&&&&&&&&&&&&&&&&&&&&&&&&&&&&&&&&&&&&&&&&&&&&&&&&&&&&&&&&&&&&&&&&&&&&&&&&&&&%%%%%%%%%%%%####**********************************************************************************************************************************************************************************************************************************",
"********************************************************************************************************************************************************************************************************************************####%%%%%%%%%%%%%%%%%%%%%%%%%%%%####%%%%&&&&&&&&&&&&&&&&&&&&&&&&&&&&&&&&&&&&&&&&&&&&&&&&&&&&&&&&&&&&&&&&&&&&&&&&&&&&&&&&&&&&&&&&&&&&&&&&&&&&&&&&&&&&&&&&&&&&&&&&&&&&%%%%%%%%%%%%####**********************************************************************************************************************************************************************************************************************************",
"********************************************************************************************************************************************************************************************************************************####%%%%%%%%%%%%%%%%%%%%%%%%%%%%####%%%%%%%%&&&&&&&&&&&&&&&&&&&&&&&&&&&&&&&&&&&&&&&&&&&&&&&&&&&&&&&&&&&&&&&&&&&&&&&&&&&&&&&&&&&&&&&&&&&&&&&&&&&&&&&&&&&&&&&&&&&&&&&&%%%%%%%%%%%%####**********************************************************************************************************************************************************************************************************************************",
"********************************************************************************************************************************************************************************************************************************####%%%%%%%%%%%%%%%%%%%%%%%%%%%%####%%%%%%%%&&&&&&&&&&&&&&&&&&&&&&&&&&&&&&&&&&&&&&&&&&&&&&&&&&&&&&&&&&&&&&&&&&&&&&&&&&&&&&&&&&&&&&&&&&&&&&&&&&&&&&&&&&&&&&&&&&&&&&&&%%%%%%%%%%%%####**********************************************************************************************************************************************************************************************************************************",
"********************************************************************************************************************************************************************************************************************************####%%%%%%%%%%%%%%%%%%%%%%%%%%%%####%%%%%%%%&&&&&&&&&&&&&&&&&&&&&&&&&&&&&&&&&&&&&&&&&&&&&&&&&&&&&&&&&&&&&&&&&&&&&&&&&&&&&&&&&&&&&&&&&&&&&&&&&&&&&&&&&&&&&&&&&&&&&&&&%%%%%%%%%%%%####**********************************************************************************************************************************************************************************************************************************",
"********************************************************************************************************************************************************************************************************************************####%%%%%%%%%%%%%%%%%%%%%%%%%%%%####%%%%%%%%&&&&&&&&&&&&&&&&&&&&&&&&&&&&&&&&&&&&&&&&&&&&&&&&&&&&&&&&&&&&&&&&&&&&&&&&&&&&&&&&&&&&&&&&&&&&&&&&&&&&&&&&&&&&&&&&&&&&&&&&%%%%%%%%%%%%####**********************************************************************************************************************************************************************************************************************************",
"************************************************************************************************************************************************************************************************************************************####%%%%%%%%%%%%%%%%%%%%%%%%########%%%%&&&&&&&&&&&&&&&&&&&&&&&&&&&&&&&&&&&&&&&&&&&&&&&&&&&&&&&&&&&&&&&&&&&&&&&&&&&&&&&&&&&&&&&&&&&&&&&&&&&&&&&&&&&&&&&&&&&&&&&&%%%%%%%%%%%%####**********************************************************************************************************************************************************************************************************************************",
"************************************************************************************************************************************************************************************************************************************####%%%%%%%%%%%%%%%%%%%%%%%%########%%%%&&&&&&&&&&&&&&&&&&&&&&&&&&&&&&&&&&&&&&&&&&&&&&&&&&&&&&&&&&&&&&&&&&&&&&&&&&&&&&&&&&&&&&&&&&&&&&&&&&&&&&&&&&&&&&&&&&&&&&&&%%%%%%%%%%%%####**********************************************************************************************************************************************************************************************************************************",
"************************************************************************************************************************************************************************************************************************************####%%%%%%%%%%%%%%%%%%%%%%%%########%%%%&&&&&&&&&&&&&&&&&&&&&&&&&&&&&&&&&&&&&&&&&&&&&&&&&&&&&&&&&&&&&&&&&&&&&&&&&&&&&&&&&&&&&&&&&&&&&&&&&&&&&&&&&&&&&&&&&&&&&&&&%%%%%%%%%%%%####**********************************************************************************************************************************************************************************************************************************",
"************************************************************************************************************************************************************************************************************************************####%%%%%%%%%%%%%%%%%%%%%%%%########%%%%&&&&&&&&&&&&&&&&&&&&&&&&&&&&&&&&&&&&&&&&&&&&&&&&&&&&&&&&&&&&&&&&&&&&&&&&&&&&&&&&&&&&&&&&&&&&&&&&&&&&&&&&&&&&&&&&&&&&&&&&%%%%%%%%%%%%####**********************************************************************************************************************************************************************************************************************************",
"************************************************************************************************************************************************************************************************************************************####%%%%%%%%%%%%%%%%%%%%%%%%%%%%####%%%%%%%%&&&&&&&&&&&&&&&&&&&&&&&&&&&&&&&&&&&&&&&&&&&&&&&&&&&&&&&&&&&&&&&&&&&&&&&&&&&&&&&&&&&&&&&&&&&&&&&&&&&&&&&&&&&&&&&&&&&&%%%%%%%%%%%%####**********************************************************************************************************************************************************************************************************************************",
"************************************************************************************************************************************************************************************************************************************####%%%%%%%%%%%%%%%%%%%%%%%%%%%%####%%%%%%%%&&&&&&&&&&&&&&&&&&&&&&&&&&&&&&&&&&&&&&&&&&&&&&&&&&&&&&&&&&&&&&&&&&&&&&&&&&&&&&&&&&&&&&&&&&&&&&&&&&&&&&&&&&&&&&&&&&&&%%%%%%%%%%%%####**********************************************************************************************************************************************************************************************************************************",
"************************************************************************************************************************************************************************************************************************************####%%%%%%%%%%%%%%%%%%%%%%%%%%%%####%%%%%%%%&&&&&&&&&&&&&&&&&&&&&&&&&&&&&&&&&&&&&&&&&&&&&&&&&&&&&&&&&&&&&&&&&&&&&&&&&&&&&&&&&&&&&&&&&&&&&&&&&&&&&&&&&&&&&&&&&&&&%%%%%%%%%%%%####**********************************************************************************************************************************************************************************************************************************",
"************************************************************************************************************************************************************************************************************************************####%%%%%%%%%%%%%%%%%%%%%%%%%%%%####%%%%%%%%&&&&&&&&&&&&&&&&&&&&&&&&&&&&&&&&&&&&&&&&&&&&&&&&&&&&&&&&&&&&&&&&&&&&&&&&&&&&&&&&&&&&&&&&&&&&&&&&&&&&&&&&&&&&&&&&&&&&%%%%%%%%%%%%####**********************************************************************************************************************************************************************************************************************************",
"****************************************************************************************************************************************************************************************************************************************####%%%%%%%%%%%%%%%%%%%%%%%%####%%%%%%%%%%%%&&&&&&&&&&&&&&&&&&&&&&&&&&&&&&&&&&&&&&&&&&&&&&&&&&&&&&&&&&&&&&&&&&&&&&&&&&&&&&&&&&&&&&&&&&&&&&&&&&&&&&&&&&&&&&&&%%%%%%%%%%%%####**********************************************************************************************************************************************************************************************************************************",
"****************************************************************************************************************************************************************************************************************************************####%%%%%%%%%%%%%%%%%%%%%%%%####%%%%%%%%%%%%&&&&&&&&&&&&&&&&&&&&&&&&&&&&&&&&&&&&&&&&&&&&&&&&&&&&&&&&&&&&&&&&&&&&&&&&&&&&&&&&&&&&&&&&&&&&&&&&&&&&&&&&&&&&&&&&%%%%%%%%%%%%####**********************************************************************************************************************************************************************************************************************************",
"****************************************************************************************************************************************************************************************************************************************####%%%%%%%%%%%%%%%%%%%%%%%%####%%%%%%%%%%%%&&&&&&&&&&&&&&&&&&&&&&&&&&&&&&&&&&&&&&&&&&&&&&&&&&&&&&&&&&&&&&&&&&&&&&&&&&&&&&&&&&&&&&&&&&&&&&&&&&&&&&&&&&&&&&&&%%%%%%%%%%%%####**********************************************************************************************************************************************************************************************************************************",
"****************************************************************************************************************************************************************************************************************************************####%%%%%%%%%%%%%%%%%%%%%%%%####%%%%%%%%%%%%&&&&&&&&&&&&&&&&&&&&&&&&&&&&&&&&&&&&&&&&&&&&&&&&&&&&&&&&&&&&&&&&&&&&&&&&&&&&&&&&&&&&&&&&&&&&&&&&&&&&&&&&&&&&&&&&%%%%%%%%%%%%####**********************************************************************************************************************************************************************************************************************************",
"****************************************************************************************************************************************************************************************************************************************####%%%%%%%%%%%%%%%%%%%%%%%%%%%%####%%%%%%%%%%%%&&&&&&&&&&&&&&&&&&&&&&&&&&&&&&&&&&&&&&&&&&&&&&&&&&&&&&&&&&&&&&&&&&&&&&&&&&&&&&&&&&&&&&&&&&&&&&&&&&&&&&&&&&&&%%%%%%%%%%%%####**********************************************************************************************************************************************************************************************************************************",
"****************************************************************************************************************************************************************************************************************************************####%%%%%%%%%%%%%%%%%%%%%%%%%%%%####%%%%%%%%%%%%&&&&&&&&&&&&&&&&&&&&&&&&&&&&&&&&&&&&&&&&&&&&&&&&&&&&&&&&&&&&&&&&&&&&&&&&&&&&&&&&&&&&&&&&&&&&&&&&&&&&&&&&&&&&%%%%%%%%%%%%####**********************************************************************************************************************************************************************************************************************************",
"****************************************************************************************************************************************************************************************************************************************####%%%%%%%%%%%%%%%%%%%%%%%%%%%%####%%%%%%%%%%%%&&&&&&&&&&&&&&&&&&&&&&&&&&&&&&&&&&&&&&&&&&&&&&&&&&&&&&&&&&&&&&&&&&&&&&&&&&&&&&&&&&&&&&&&&&&&&&&&&&&&&&&&&&&&%%%%%%%%%%%%####**********************************************************************************************************************************************************************************************************************************",
"****************************************************************************************************************************************************************************************************************************************####%%%%%%%%%%%%%%%%%%%%%%%%%%%%####%%%%%%%%%%%%&&&&&&&&&&&&&&&&&&&&&&&&&&&&&&&&&&&&&&&&&&&&&&&&&&&&&&&&&&&&&&&&&&&&&&&&&&&&&&&&&&&&&&&&&&&&&&&&&&&&&&&&&&&&%%%%%%%%%%%%####**********************************************************************************************************************************************************************************************************************************",
"********************************************************************************************************************************************************************************************************************************************####%%%%%%%%%%%%%%%%%%%%%%%%########%%%%%%%%%%%%&&&&&&&&&&&&&&&&&&&&&&&&&&&&&&&&&&&&&&&&&&&&&&&&&&&&&&&&&&&&&&&&&&&&&&&&&&&&&&&&&&&&&&&&&&&&&&&&&&&&&&&&%%%%%%%%%%%%####**********************************************************************************************************************************************************************************************************************************",
"********************************************************************************************************************************************************************************************************************************************####%%%%%%%%%%%%%%%%%%%%%%%%########%%%%%%%%%%%%&&&&&&&&&&&&&&&&&&&&&&&&&&&&&&&&&&&&&&&&&&&&&&&&&&&&&&&&&&&&&&&&&&&&&&&&&&&&&&&&&&&&&&&&&&&&&&&&&&&&&&&&%%%%%%%%%%%%####**********************************************************************************************************************************************************************************************************************************",
"********************************************************************************************************************************************************************************************************************************************####%%%%%%%%%%%%%%%%%%%%%%%%########%%%%%%%%%%%%&&&&&&&&&&&&&&&&&&&&&&&&&&&&&&&&&&&&&&&&&&&&&&&&&&&&&&&&&&&&&&&&&&&&&&&&&&&&&&&&&&&&&&&&&&&&&&&&&&&&&&&&%%%%%%%%%%%%####**********************************************************************************************************************************************************************************************************************************",
"********************************************************************************************************************************************************************************************************************************************####%%%%%%%%%%%%%%%%%%%%%%%%########%%%%%%%%%%%%&&&&&&&&&&&&&&&&&&&&&&&&&&&&&&&&&&&&&&&&&&&&&&&&&&&&&&&&&&&&&&&&&&&&&&&&&&&&&&&&&&&&&&&&&&&&&&&&&&&&&&&&%%%%%%%%%%%%####**********************************************************************************************************************************************************************************************************************************",
"********************************************************************************************************************************************************************************************************************************************####%%%%%%%%%%%%%%%%%%%%%%%%%%%%####%%%%%%%%%%%%%%%%&&&&&&&&&&&&&&&&&&&&&&&&&&&&&&&&&&&&&&&&&&&&&&&&&&&&&&&&&&&&&&&&&&&&&&&&&&&&&&&&&&&&&&&&&&&&&&&&&&&&%%%%%%%%%%%%####**********************************************************************************************************************************************************************************************************************************",
"********************************************************************************************************************************************************************************************************************************************####%%%%%%%%%%%%%%%%%%%%%%%%%%%%####%%%%%%%%%%%%%%%%&&&&&&&&&&&&&&&&&&&&&&&&&&&&&&&&&&&&&&&&&&&&&&&&&&&&&&&&&&&&&&&&&&&&&&&&&&&&&&&&&&&&&&&&&&&&&&&&&&&&%%%%%%%%%%%%####**********************************************************************************************************************************************************************************************************************************",
"********************************************************************************************************************************************************************************************************************************************####%%%%%%%%%%%%%%%%%%%%%%%%%%%%####%%%%%%%%%%%%%%%%&&&&&&&&&&&&&&&&&&&&&&&&&&&&&&&&&&&&&&&&&&&&&&&&&&&&&&&&&&&&&&&&&&&&&&&&&&&&&&&&&&&&&&&&&&&&&&&&&&&&%%%%%%%%%%%%####**********************************************************************************************************************************************************************************************************************************",
"********************************************************************************************************************************************************************************************************************************************####%%%%%%%%%%%%%%%%%%%%%%%%%%%%####%%%%%%%%%%%%%%%%&&&&&&&&&&&&&&&&&&&&&&&&&&&&&&&&&&&&&&&&&&&&&&&&&&&&&&&&&&&&&&&&&&&&&&&&&&&&&&&&&&&&&&&&&&&&&&&&&&&&%%%%%%%%%%%%####**********************************************************************************************************************************************************************************************************************************",
"************************************************************************************************************************************************************************************************************************************************####%%%%%%%%%%%%%%%%%%%%%%%%####%%%%%%%%%%%%%%%%&&&&&&&&&&&&&&&&&&&&&&&&&&&&&&&&&&&&&&&&&&&&&&&&&&&&&&&&&&&&&&&&&&&&&&&&&&&&&&&&&&&&&&&&&&&&&&&&&&&&%%%%%%%%####**************************************************************************************************************************************************************************************************************************************",
"************************************************************************************************************************************************************************************************************************************************####%%%%%%%%%%%%%%%%%%%%%%%%####%%%%%%%%%%%%%%%%&&&&&&&&&&&&&&&&&&&&&&&&&&&&&&&&&&&&&&&&&&&&&&&&&&&&&&&&&&&&&&&&&&&&&&&&&&&&&&&&&&&&&&&&&&&&&&&&&&&&%%%%%%%%####**************************************************************************************************************************************************************************************************************************************",
"************************************************************************************************************************************************************************************************************************************************####%%%%%%%%%%%%%%%%%%%%%%%%####%%%%%%%%%%%%%%%%&&&&&&&&&&&&&&&&&&&&&&&&&&&&&&&&&&&&&&&&&&&&&&&&&&&&&&&&&&&&&&&&&&&&&&&&&&&&&&&&&&&&&&&&&&&&&&&&&&&&%%%%%%%%####**************************************************************************************************************************************************************************************************************************************",
"************************************************************************************************************************************************************************************************************************************************####%%%%%%%%%%%%%%%%%%%%%%%%####%%%%%%%%%%%%%%%%&&&&&&&&&&&&&&&&&&&&&&&&&&&&&&&&&&&&&&&&&&&&&&&&&&&&&&&&&&&&&&&&&&&&&&&&&&&&&&&&&&&&&&&&&&&&&&&&&&&&%%%%%%%%####**************************************************************************************************************************************************************************************************************************************",
"************************************************************************************************************************************************************************************************************************************************####%%%%%%%%%%%%%%%%%%%%%%%%%%%%####%%%%%%%%%%%%%%%%&&&&&&&&&&&&&&&&&&&&&&&&&&&&&&&&&&&&&&&&&&&&&&&&&&&&&&&&&&&&&&&&&&&&&&&&&&&&&&&&&&&&&&&&&&&&&&&&%%%%%%%%####**************************************************************************************************************************************************************************************************************************************",
"************************************************************************************************************************************************************************************************************************************************####%%%%%%%%%%%%%%%%%%%%%%%%%%%%####%%%%%%%%%%%%%%%%&&&&&&&&&&&&&&&&&&&&&&&&&&&&&&&&&&&&&&&&&&&&&&&&&&&&&&&&&&&&&&&&&&&&&&&&&&&&&&&&&&&&&&&&&&&&&&&&%%%%%%%%####**************************************************************************************************************************************************************************************************************************************",
"************************************************************************************************************************************************************************************************************************************************####%%%%%%%%%%%%%%%%%%%%%%%%%%%%####%%%%%%%%%%%%%%%%&&&&&&&&&&&&&&&&&&&&&&&&&&&&&&&&&&&&&&&&&&&&&&&&&&&&&&&&&&&&&&&&&&&&&&&&&&&&&&&&&&&&&&&&&&&&&&&&%%%%%%%%####**************************************************************************************************************************************************************************************************************************************",
"************************************************************************************************************************************************************************************************************************************************####%%%%%%%%%%%%%%%%%%%%%%%%%%%%####%%%%%%%%%%%%%%%%&&&&&&&&&&&&&&&&&&&&&&&&&&&&&&&&&&&&&&&&&&&&&&&&&&&&&&&&&&&&&&&&&&&&&&&&&&&&&&&&&&&&&&&&&&&&&&&&%%%%%%%%####**************************************************************************************************************************************************************************************************************************************",
"****************************************************************************************************************************************************************************************************************************************************####%%%%%%%%%%%%%%%%%%%%%%%%########%%%%%%%%%%%%%%%%&&&&&&&&&&&&&&&&&&&&&&&&&&&&&&&&&&&&&&&&&&&&&&&&&&&&&&&&&&&&&&&&&&&&&&&&&&&&&&&&&&&&&&&&&&&&%%%%%%%%####**************************************************************************************************************************************************************************************************************************************",
"****************************************************************************************************************************************************************************************************************************************************####%%%%%%%%%%%%%%%%%%%%%%%%########%%%%%%%%%%%%%%%%&&&&&&&&&&&&&&&&&&&&&&&&&&&&&&&&&&&&&&&&&&&&&&&&&&&&&&&&&&&&&&&&&&&&&&&&&&&&&&&&&&&&&&&&&&&&%%%%%%%%####**************************************************************************************************************************************************************************************************************************************",
"****************************************************************************************************************************************************************************************************************************************************####%%%%%%%%%%%%%%%%%%%%%%%%########%%%%%%%%%%%%%%%%&&&&&&&&&&&&&&&&&&&&&&&&&&&&&&&&&&&&&&&&&&&&&&&&&&&&&&&&&&&&&&&&&&&&&&&&&&&&&&&&&&&&&&&&&&&&%%%%%%%%####**************************************************************************************************************************************************************************************************************************************",
"****************************************************************************************************************************************************************************************************************************************************####%%%%%%%%%%%%%%%%%%%%%%%%########%%%%%%%%%%%%%%%%&&&&&&&&&&&&&&&&&&&&&&&&&&&&&&&&&&&&&&&&&&&&&&&&&&&&&&&&&&&&&&&&&&&&&&&&&&&&&&&&&&&&&&&&&&&&%%%%%%%%####**************************************************************************************************************************************************************************************************************************************",
"****************************************************************************************************************************************************************************************************************************************************####%%%%%%%%%%%%%%%%%%%%%%%%%%%%####%%%%%%%%%%%%%%%%%%%%&&&&&&&&&&&&&&&&&&&&&&&&&&&&&&&&&&&&&&&&&&&&&&&&&&&&&&&&&&&&&&&&&&&&&&&&&&&&&&&&&&&&&&&&%%%%%%%%####**************************************************************************************************************************************************************************************************************************************",
"****************************************************************************************************************************************************************************************************************************************************####%%%%%%%%%%%%%%%%%%%%%%%%%%%%####%%%%%%%%%%%%%%%%%%%%&&&&&&&&&&&&&&&&&&&&&&&&&&&&&&&&&&&&&&&&&&&&&&&&&&&&&&&&&&&&&&&&&&&&&&&&&&&&&&&&&&&&&&&&%%%%%%%%####**************************************************************************************************************************************************************************************************************************************",
"****************************************************************************************************************************************************************************************************************************************************####%%%%%%%%%%%%%%%%%%%%%%%%%%%%####%%%%%%%%%%%%%%%%%%%%&&&&&&&&&&&&&&&&&&&&&&&&&&&&&&&&&&&&&&&&&&&&&&&&&&&&&&&&&&&&&&&&&&&&&&&&&&&&&&&&&&&&&&&&%%%%%%%%####**************************************************************************************************************************************************************************************************************************************",
"****************************************************************************************************************************************************************************************************************************************************####%%%%%%%%%%%%%%%%%%%%%%%%%%%%####%%%%%%%%%%%%%%%%%%%%&&&&&&&&&&&&&&&&&&&&&&&&&&&&&&&&&&&&&&&&&&&&&&&&&&&&&&&&&&&&&&&&&&&&&&&&&&&&&&&&&&&&&&&&%%%%%%%%####**************************************************************************************************************************************************************************************************************************************",
"****************************************************************************************************************************************************************************************************************************************************########%%%%%%%%%%%%%%%%%%%%%%%%####%%%%%%%%%%%%%%%%%%%%&&&&&&&&&&&&&&&&&&&&&&&&&&&&&&&&&&&&&&&&&&&&&&&&&&&&&&&&&&&&&&&&&&&&&&&&&&&&&&&&&&&&&&&&%%%%####******************************************************************************************************************************************************************************************************************************************",
"****************************************************************************************************************************************************************************************************************************************************########%%%%%%%%%%%%%%%%%%%%%%%%####%%%%%%%%%%%%%%%%%%%%&&&&&&&&&&&&&&&&&&&&&&&&&&&&&&&&&&&&&&&&&&&&&&&&&&&&&&&&&&&&&&&&&&&&&&&&&&&&&&&&&&&&&&&&%%%%####******************************************************************************************************************************************************************************************************************************************",
"****************************************************************************************************************************************************************************************************************************************************########%%%%%%%%%%%%%%%%%%%%%%%%####%%%%%%%%%%%%%%%%%%%%&&&&&&&&&&&&&&&&&&&&&&&&&&&&&&&&&&&&&&&&&&&&&&&&&&&&&&&&&&&&&&&&&&&&&&&&&&&&&&&&&&&&&&&&%%%%####******************************************************************************************************************************************************************************************************************************************",
"****************************************************************************************************************************************************************************************************************************************************########%%%%%%%%%%%%%%%%%%%%%%%%####%%%%%%%%%%%%%%%%%%%%&&&&&&&&&&&&&&&&&&&&&&&&&&&&&&&&&&&&&&&&&&&&&&&&&&&&&&&&&&&&&&&&&&&&&&&&&&&&&&&&&&&&&&&&%%%%####******************************************************************************************************************************************************************************************************************************************",
"************************************************************************************************************************************************************************************************************************************************####%%%%####%%%%%%%%%%%%%%%%%%%%%%%%############%%%%%%%%%%%%%%%%&&&&&&&&&&&&&&&&&&&&&&&&&&&&&&&&&&&&&&&&&&&&&&&&&&&&$$$$&&&&&&&&&&&&&&&&&&&&&&&&&&&&%%%%####******************************************************************************************************************************************************************************************************************************************",
"************************************************************************************************************************************************************************************************************************************************####%%%%####%%%%%%%%%%%%%%%%%%%%%%%%############%%%%%%%%%%%%%%%%&&&&&&&&&&&&&&&&&&&&&&&&&&&&&&&&&&&&&&&&&&&&&&&&&&&&$$$$&&&&&&&&&&&&&&&&&&&&&&&&&&&&%%%%####******************************************************************************************************************************************************************************************************************************************",
"************************************************************************************************************************************************************************************************************************************************####%%%%####%%%%%%%%%%%%%%%%%%%%%%%%############%%%%%%%%%%%%%%%%&&&&&&&&&&&&&&&&&&&&&&&&&&&&&&&&&&&&&&&&&&&&&&&&&&&&$$$$&&&&&&&&&&&&&&&&&&&&&&&&&&&&%%%%####******************************************************************************************************************************************************************************************************************************************",
"************************************************************************************************************************************************************************************************************************************************####%%%%####%%%%%%%%%%%%%%%%%%%%%%%%############%%%%%%%%%%%%%%%%&&&&&&&&&&&&&&&&&&&&&&&&&&&&&&&&&&&&&&&&&&&&&&&&&&&&$$$$&&&&&&&&&&&&&&&&&&&&&&&&&&&&%%%%####******************************************************************************************************************************************************************************************************************************************",
"********************************************************************************************************************************************************************************************************************************************$$$$####%%%%########%%%%%%%%%%%%%%%%%%%%%%%%%%%%%%%%########%%%%%%%%&&&&&&&&&&&&&&&&&&&&&&&&&&&&&&&&&&&&&&&&&&&&&&&&$$$$&&&&$$$$&&&&&&&&&&&&&&&&&&&&&&&&%%%%####******************************************************************************************************************************************************************************************************************************************",
"********************************************************************************************************************************************************************************************************************************************$$$$####%%%%########%%%%%%%%%%%%%%%%%%%%%%%%%%%%%%%%########%%%%%%%%&&&&&&&&&&&&&&&&&&&&&&&&&&&&&&&&&&&&&&&&&&&&&&&&$$$$&&&&$$$$&&&&&&&&&&&&&&&&&&&&&&&&%%%%####******************************************************************************************************************************************************************************************************************************************",
"********************************************************************************************************************************************************************************************************************************************$$$$####%%%%########%%%%%%%%%%%%%%%%%%%%%%%%%%%%%%%%########%%%%%%%%&&&&&&&&&&&&&&&&&&&&&&&&&&&&&&&&&&&&&&&&&&&&&&&&$$$$&&&&$$$$&&&&&&&&&&&&&&&&&&&&&&&&%%%%####******************************************************************************************************************************************************************************************************************************************",
"********************************************************************************************************************************************************************************************************************************************$$$$####%%%%########%%%%%%%%%%%%%%%%%%%%%%%%%%%%%%%%########%%%%%%%%&&&&&&&&&&&&&&&&&&&&&&&&&&&&&&&&&&&&&&&&&&&&&&&&$$$$&&&&$$$$&&&&&&&&&&&&&&&&&&&&&&&&%%%%####******************************************************************************************************************************************************************************************************************************************",
"********************************************************************************************************************************************************************************************************************************************$$$$####%%%%%%%%####%%%%%%%%%%%%%%%%%%%%%%%%%%%%%%%%%%%%%%%%########&&&&&&&&&&&&&&&&&&&&&&&&&&&&&&&&&&&&$$$$$$$$$$$$&&&&&&&&&&&&$$$$$$$$$$$$&&&&&&&&%%%%####&&&&$$$$**************************************************************************************************************************************************************************************************************************************",
"********************************************************************************************************************************************************************************************************************************************$$$$####%%%%%%%%####%%%%%%%%%%%%%%%%%%%%%%%%%%%%%%%%%%%%%%%%########&&&&&&&&&&&&&&&&&&&&&&&&&&&&&&&&&&&&$$$$$$$$$$$$&&&&&&&&&&&&$$$$$$$$$$$$&&&&&&&&%%%%####&&&&$$$$**************************************************************************************************************************************************************************************************************************************",
"********************************************************************************************************************************************************************************************************************************************$$$$####%%%%%%%%####%%%%%%%%%%%%%%%%%%%%%%%%%%%%%%%%%%%%%%%%########&&&&&&&&&&&&&&&&&&&&&&&&&&&&&&&&&&&&$$$$$$$$$$$$&&&&&&&&&&&&$$$$$$$$$$$$&&&&&&&&%%%%####&&&&$$$$**************************************************************************************************************************************************************************************************************************************",
"********************************************************************************************************************************************************************************************************************************************$$$$####%%%%%%%%####%%%%%%%%%%%%%%%%%%%%%%%%%%%%%%%%%%%%%%%%########&&&&&&&&&&&&&&&&&&&&&&&&&&&&&&&&&&&&$$$$$$$$$$$$&&&&&&&&&&&&$$$$$$$$$$$$&&&&&&&&%%%%####&&&&$$$$**************************************************************************************************************************************************************************************************************************************",
"****************************************************************************************************************************************************************************************************************************************$$$$&&&&&&&&%%%%%%%%%%%%####%%%%%%%%%%%%%%%%%%%%%%%%%%%%%%%%%%%%%%%%%%%%%%%%&&&&&&&&&&&&&&&&&&&&&&&&$$$$$$$$$$$$&&&&&&&&&&&&&&&&&&&&&&&&&&&&$$$$$$$$&&&&%%%%####****&&&&$$$$**********************************************************************************************************************************************************************************************************************************",
"****************************************************************************************************************************************************************************************************************************************$$$$&&&&&&&&%%%%%%%%%%%%####%%%%%%%%%%%%%%%%%%%%%%%%%%%%%%%%%%%%%%%%%%%%%%%%&&&&&&&&&&&&&&&&&&&&&&&&$$$$$$$$$$$$&&&&&&&&&&&&&&&&&&&&&&&&&&&&$$$$$$$$&&&&%%%%####****&&&&$$$$**********************************************************************************************************************************************************************************************************************************",
"****************************************************************************************************************************************************************************************************************************************$$$$&&&&&&&&%%%%%%%%%%%%####%%%%%%%%%%%%%%%%%%%%%%%%%%%%%%%%%%%%%%%%%%%%%%%%&&&&&&&&&&&&&&&&&&&&&&&&$$$$$$$$$$$$&&&&&&&&&&&&&&&&&&&&&&&&&&&&$$$$$$$$&&&&%%%%####****&&&&$$$$**********************************************************************************************************************************************************************************************************************************",
"****************************************************************************************************************************************************************************************************************************************$$$$&&&&&&&&%%%%%%%%%%%%####%%%%%%%%%%%%%%%%%%%%%%%%%%%%%%%%%%%%%%%%%%%%%%%%&&&&&&&&&&&&&&&&&&&&&&&&$$$$$$$$$$$$&&&&&&&&&&&&&&&&&&&&&&&&&&&&$$$$$$$$&&&&%%%%####****&&&&$$$$**********************************************************************************************************************************************************************************************************************************",
"****************************************************************************************************************************************************************************************************************************************$$$$&&&&&&&&&&&&%%%%%%%%####%%%%%%%%%%%%%%%%%%%%%%%%%%%%%%%%%%%%%%%%%%%%%%%%&&&&&&&&&&&&&&&&&&&&$$$$&&&&&&&&&&&&&&&&&&&&&&&&&&&&&&&&&&&&&&&&&&&&&&&&$$$$%%%%....****&&&&$$$$**********************************************************************************************************************************************************************************************************************************",
"****************************************************************************************************************************************************************************************************************************************$$$$&&&&&&&&&&&&%%%%%%%%####%%%%%%%%%%%%%%%%%%%%%%%%%%%%%%%%%%%%%%%%%%%%%%%%&&&&&&&&&&&&&&&&&&&&$$$$&&&&&&&&&&&&&&&&&&&&&&&&&&&&&&&&&&&&&&&&&&&&&&&&$$$$%%%%....****&&&&$$$$**********************************************************************************************************************************************************************************************************************************",
"****************************************************************************************************************************************************************************************************************************************$$$$&&&&&&&&&&&&%%%%%%%%####%%%%%%%%%%%%%%%%%%%%%%%%%%%%%%%%%%%%%%%%%%%%%%%%&&&&&&&&&&&&&&&&&&&&$$$$&&&&&&&&&&&&&&&&&&&&&&&&&&&&&&&&&&&&&&&&&&&&&&&&$$$$%%%%....****&&&&$$$$**********************************************************************************************************************************************************************************************************************************",
"****************************************************************************************************************************************************************************************************************************************$$$$&&&&&&&&&&&&%%%%%%%%####%%%%%%%%%%%%%%%%%%%%%%%%%%%%%%%%%%%%%%%%%%%%%%%%&&&&&&&&&&&&&&&&&&&&$$$$&&&&&&&&&&&&&&&&&&&&&&&&&&&&&&&&&&&&&&&&&&&&&&&&$$$$%%%%....****&&&&$$$$**********************************************************************************************************************************************************************************************************************************",
"****************************************************************************************************************************************************************************************************************************************$$$$&&&&&&&&&&&&&&&&%%%%%%%%####%%%%%%%%%%%%%%%%%%%%%%%%%%%%%%%%%%%%%%%%%%%%&&&&&&&&&&&&&&&&$$$$$$$$&&&&&&&&&&&&&&&&&&&&&&&&&&&&&&&&&&&&&&&&&&&&&&&&&&&&........****&&&&$$$$**********************************************************************************************************************************************************************************************************************************",
"****************************************************************************************************************************************************************************************************************************************$$$$&&&&&&&&&&&&&&&&%%%%%%%%####%%%%%%%%%%%%%%%%%%%%%%%%%%%%%%%%%%%%%%%%%%%%&&&&&&&&&&&&&&&&$$$$$$$$&&&&&&&&&&&&&&&&&&&&&&&&&&&&&&&&&&&&&&&&&&&&&&&&&&&&........****&&&&$$$$**********************************************************************************************************************************************************************************************************************************",
"****************************************************************************************************************************************************************************************************************************************$$$$&&&&&&&&&&&&&&&&%%%%%%%%####%%%%%%%%%%%%%%%%%%%%%%%%%%%%%%%%%%%%%%%%%%%%&&&&&&&&&&&&&&&&$$$$$$$$&&&&&&&&&&&&&&&&&&&&&&&&&&&&&&&&&&&&&&&&&&&&&&&&&&&&........****&&&&$$$$**********************************************************************************************************************************************************************************************************************************",
"****************************************************************************************************************************************************************************************************************************************$$$$&&&&&&&&&&&&&&&&%%%%%%%%####%%%%%%%%%%%%%%%%%%%%%%%%%%%%%%%%%%%%%%%%%%%%&&&&&&&&&&&&&&&&$$$$$$$$&&&&&&&&&&&&&&&&&&&&&&&&&&&&&&&&&&&&&&&&&&&&&&&&&&&&........****&&&&$$$$**********************************************************************************************************************************************************************************************************************************",
"****************************************************************************************************************************************************************************************************************************************$$$$&&&&&&&&&&&&&&&&&&&&%%%%%%%%####%%%%%%%%%%%%%%%%%%%%%%%%%%%%%%%%%%%%%%%%%%%%&&&&&&&&$$$$&&&&&&&&&&&&&&&&&&&&&&&&&&&&&&&&&&&&&&&&&&&&&&&&&&&&&&&&&&&&%%%%....****&&&&$$$$**********************************************************************************************************************************************************************************************************************************",
"****************************************************************************************************************************************************************************************************************************************$$$$&&&&&&&&&&&&&&&&&&&&%%%%%%%%####%%%%%%%%%%%%%%%%%%%%%%%%%%%%%%%%%%%%%%%%%%%%&&&&&&&&$$$$&&&&&&&&&&&&&&&&&&&&&&&&&&&&&&&&&&&&&&&&&&&&&&&&&&&&&&&&&&&&%%%%....****&&&&$$$$**********************************************************************************************************************************************************************************************************************************",
"****************************************************************************************************************************************************************************************************************************************$$$$&&&&&&&&&&&&&&&&&&&&%%%%%%%%####%%%%%%%%%%%%%%%%%%%%%%%%%%%%%%%%%%%%%%%%%%%%&&&&&&&&$$$$&&&&&&&&&&&&&&&&&&&&&&&&&&&&&&&&&&&&&&&&&&&&&&&&&&&&&&&&&&&&%%%%....****&&&&$$$$**********************************************************************************************************************************************************************************************************************************",
"****************************************************************************************************************************************************************************************************************************************$$$$&&&&&&&&&&&&&&&&&&&&%%%%%%%%####%%%%%%%%%%%%%%%%%%%%%%%%%%%%%%%%%%%%%%%%%%%%&&&&&&&&$$$$&&&&&&&&&&&&&&&&&&&&&&&&&&&&&&&&&&&&&&&&&&&&&&&&&&&&&&&&&&&&%%%%....****&&&&$$$$**********************************************************************************************************************************************************************************************************************************",
"****************************************************************************************************************************************************************************************************************************************$$$$&&&&&&&&&&&&&&&&%%%%%%%%####%%%%####%%%%%%%%%%%%%%%%%%%%%%%%%%%%%%%%%%%%%%%%&&&&&&&&&&&&&&&&&&&&&&&&&&&&&&&&&&&&&&&&&&&&&&&&&&&&&&&&&&&&&&&&&&&&&&&&%%%%####****&&&&$$$$**********************************************************************************************************************************************************************************************************************************",
"****************************************************************************************************************************************************************************************************************************************$$$$&&&&&&&&&&&&&&&&%%%%%%%%####%%%%####%%%%%%%%%%%%%%%%%%%%%%%%%%%%%%%%%%%%%%%%&&&&&&&&&&&&&&&&&&&&&&&&&&&&&&&&&&&&&&&&&&&&&&&&&&&&&&&&&&&&&&&&&&&&&&&&%%%%####****&&&&$$$$**********************************************************************************************************************************************************************************************************************************",
"****************************************************************************************************************************************************************************************************************************************$$$$&&&&&&&&&&&&&&&&%%%%%%%%####%%%%####%%%%%%%%%%%%%%%%%%%%%%%%%%%%%%%%%%%%%%%%&&&&&&&&&&&&&&&&&&&&&&&&&&&&&&&&&&&&&&&&&&&&&&&&&&&&&&&&&&&&&&&&&&&&&&&&%%%%####****&&&&$$$$**********************************************************************************************************************************************************************************************************************************",
"****************************************************************************************************************************************************************************************************************************************$$$$&&&&&&&&&&&&&&&&%%%%%%%%####%%%%####%%%%%%%%%%%%%%%%%%%%%%%%%%%%%%%%%%%%%%%%&&&&&&&&&&&&&&&&&&&&&&&&&&&&&&&&&&&&&&&&&&&&&&&&&&&&&&&&&&&&&&&&&&&&&&&&%%%%####****&&&&$$$$**********************************************************************************************************************************************************************************************************************************",
"****************************************************************************************************************************************************************************************************************************************$$$$&&&&&&&&&&&&&&&&%%%%%%%%####%%%%%%%%####%%%%%%%%%%%%%%%%%%%%%%%%%%%%%%%%%%%%&&&&&&&&&&&&&&&&&&&&&&&&&&&&&&&&&&&&&&&&&&&&&&&&&&&&&&&&&&&&&&&&&&&&&&&&&&&&%%%%####$$$$**************************************************************************************************************************************************************************************************************************************",
"****************************************************************************************************************************************************************************************************************************************$$$$&&&&&&&&&&&&&&&&%%%%%%%%####%%%%%%%%####%%%%%%%%%%%%%%%%%%%%%%%%%%%%%%%%%%%%&&&&&&&&&&&&&&&&&&&&&&&&&&&&&&&&&&&&&&&&&&&&&&&&&&&&&&&&&&&&&&&&&&&&&&&&&&&&%%%%####$$$$**************************************************************************************************************************************************************************************************************************************",
"****************************************************************************************************************************************************************************************************************************************$$$$&&&&&&&&&&&&&&&&%%%%%%%%####%%%%%%%%####%%%%%%%%%%%%%%%%%%%%%%%%%%%%%%%%%%%%&&&&&&&&&&&&&&&&&&&&&&&&&&&&&&&&&&&&&&&&&&&&&&&&&&&&&&&&&&&&&&&&&&&&&&&&&&&&%%%%####$$$$**************************************************************************************************************************************************************************************************************************************",
"****************************************************************************************************************************************************************************************************************************************$$$$&&&&&&&&&&&&&&&&%%%%%%%%####%%%%%%%%####%%%%%%%%%%%%%%%%%%%%%%%%%%%%%%%%%%%%&&&&&&&&&&&&&&&&&&&&&&&&&&&&&&&&&&&&&&&&&&&&&&&&&&&&&&&&&&&&&&&&&&&&&&&&&&&&%%%%####$$$$**************************************************************************************************************************************************************************************************************************************",
"****************************************************************************************************************************************************************************************************************************************$$$$&&&&&&&&&&&&&&&&%%%%%%%%####%%%%%%%%%%%%####%%%%%%%%%%%%%%%%%%%%%%%%%%%%%%%%%%%%&&&&&&&&&&&&&&&&&&&&&&&&&&&&&&&&&&&&&&&&&&&&&&&&&&&&&&&&&&&&&&&&&&&&&&&&&&&&$$$$******************************************************************************************************************************************************************************************************************************************",
"****************************************************************************************************************************************************************************************************************************************$$$$&&&&&&&&&&&&&&&&%%%%%%%%####%%%%%%%%%%%%####%%%%%%%%%%%%%%%%%%%%%%%%%%%%%%%%%%%%&&&&&&&&&&&&&&&&&&&&&&&&&&&&&&&&&&&&&&&&&&&&&&&&&&&&&&&&&&&&&&&&&&&&&&&&&&&&$$$$******************************************************************************************************************************************************************************************************************************************",
"****************************************************************************************************************************************************************************************************************************************$$$$&&&&&&&&&&&&&&&&%%%%%%%%####%%%%%%%%%%%%####%%%%%%%%%%%%%%%%%%%%%%%%%%%%%%%%%%%%&&&&&&&&&&&&&&&&&&&&&&&&&&&&&&&&&&&&&&&&&&&&&&&&&&&&&&&&&&&&&&&&&&&&&&&&&&&&$$$$******************************************************************************************************************************************************************************************************************************************",
"****************************************************************************************************************************************************************************************************************************************$$$$&&&&&&&&&&&&&&&&%%%%%%%%####%%%%%%%%%%%%####%%%%%%%%%%%%%%%%%%%%%%%%%%%%%%%%%%%%&&&&&&&&&&&&&&&&&&&&&&&&&&&&&&&&&&&&&&&&&&&&&&&&&&&&&&&&&&&&&&&&&&&&&&&&&&&&$$$$******************************************************************************************************************************************************************************************************************************************",
"****************************************************************************************************************************************************************************************************************************************$$$$&&&&&&&&&&&&&&&&%%%%####%%%%%%%%%%%%%%%%%%%%####%%%%%%%%%%%%%%%%%%%%%%%%%%%%%%%%%%%%&&&&&&&&&&&&&&&&&&&&&&&&&&&&&&&&&&&&&&&&&&&&&&&&&&&&&&&&&&&&&&&&&&&&&&&&&&&&$$$$**************************************************************************************************************************************************************************************************************************************",
"****************************************************************************************************************************************************************************************************************************************$$$$&&&&&&&&&&&&&&&&%%%%####%%%%%%%%%%%%%%%%%%%%####%%%%%%%%%%%%%%%%%%%%%%%%%%%%%%%%%%%%&&&&&&&&&&&&&&&&&&&&&&&&&&&&&&&&&&&&&&&&&&&&&&&&&&&&&&&&&&&&&&&&&&&&&&&&&&&&$$$$**************************************************************************************************************************************************************************************************************************************",
"****************************************************************************************************************************************************************************************************************************************$$$$&&&&&&&&&&&&&&&&%%%%####%%%%%%%%%%%%%%%%%%%%####%%%%%%%%%%%%%%%%%%%%%%%%%%%%%%%%%%%%&&&&&&&&&&&&&&&&&&&&&&&&&&&&&&&&&&&&&&&&&&&&&&&&&&&&&&&&&&&&&&&&&&&&&&&&&&&&$$$$**************************************************************************************************************************************************************************************************************************************",
"****************************************************************************************************************************************************************************************************************************************$$$$&&&&&&&&&&&&&&&&%%%%####%%%%%%%%%%%%%%%%%%%%####%%%%%%%%%%%%%%%%%%%%%%%%%%%%%%%%%%%%&&&&&&&&&&&&&&&&&&&&&&&&&&&&&&&&&&&&&&&&&&&&&&&&&&&&&&&&&&&&&&&&&&&&&&&&&&&&$$$$**************************************************************************************************************************************************************************************************************************************",
"****************************************************************************************************************************************************************************************************************************************$$$$&&&&&&&&&&&&&&&&&&&&####%%%%&&&&%%%%%%%%%%%%%%%%####%%%%%%%%%%%%%%%%%%%%%%%%%%%%%%%%&&&&&&&&&&&&&&&&&&&&&&&&&&&&&&&&&&&&&&&&&&&&&&&&&&&&&&&&&&&&&&&&&&&&&&&&&&&&&&&&$$$$**********************************************************************************************************************************************************************************************************************************",
"****************************************************************************************************************************************************************************************************************************************$$$$&&&&&&&&&&&&&&&&&&&&####%%%%&&&&%%%%%%%%%%%%%%%%####%%%%%%%%%%%%%%%%%%%%%%%%%%%%%%%%&&&&&&&&&&&&&&&&&&&&&&&&&&&&&&&&&&&&&&&&&&&&&&&&&&&&&&&&&&&&&&&&&&&&&&&&&&&&&&&&$$$$**********************************************************************************************************************************************************************************************************************************",
"****************************************************************************************************************************************************************************************************************************************$$$$&&&&&&&&&&&&&&&&&&&&####%%%%&&&&%%%%%%%%%%%%%%%%####%%%%%%%%%%%%%%%%%%%%%%%%%%%%%%%%&&&&&&&&&&&&&&&&&&&&&&&&&&&&&&&&&&&&&&&&&&&&&&&&&&&&&&&&&&&&&&&&&&&&&&&&&&&&&&&&$$$$**********************************************************************************************************************************************************************************************************************************",
"****************************************************************************************************************************************************************************************************************************************$$$$&&&&&&&&&&&&&&&&&&&&####%%%%&&&&%%%%%%%%%%%%%%%%####%%%%%%%%%%%%%%%%%%%%%%%%%%%%%%%%&&&&&&&&&&&&&&&&&&&&&&&&&&&&&&&&&&&&&&&&&&&&&&&&&&&&&&&&&&&&&&&&&&&&&&&&&&&&&&&&$$$$**********************************************************************************************************************************************************************************************************************************",
"****************************************************************************************************************************************************************************************************************************************$$$$&&&&&&&&&&&&&&&&&&&&$$$$&&&&&&&&&&&&%%%%%%%%%%%%%%%%####%%%%%%%%%%%%%%%%%%%%####%%%%%%%%&&&&&&&&&&&&&&&&&&&&&&&&&&&&&&&&&&&&&&&&&&&&&&&&&&&&&&&&&&&&&&&&&&&&&&&&&&&&&&&&$$$$******************************************************************************************************************************************************************************************************************************",
"****************************************************************************************************************************************************************************************************************************************$$$$&&&&&&&&&&&&&&&&&&&&$$$$&&&&&&&&&&&&%%%%%%%%%%%%%%%%####%%%%%%%%%%%%%%%%%%%%####%%%%%%%%&&&&&&&&&&&&&&&&&&&&&&&&&&&&&&&&&&&&&&&&&&&&&&&&&&&&&&&&&&&&&&&&&&&&&&&&&&&&&&&&$$$$******************************************************************************************************************************************************************************************************************************",
"****************************************************************************************************************************************************************************************************************************************$$$$&&&&&&&&&&&&&&&&&&&&$$$$&&&&&&&&&&&&%%%%%%%%%%%%%%%%####%%%%%%%%%%%%%%%%%%%%####%%%%%%%%&&&&&&&&&&&&&&&&&&&&&&&&&&&&&&&&&&&&&&&&&&&&&&&&&&&&&&&&&&&&&&&&&&&&&&&&&&&&&&&&$$$$******************************************************************************************************************************************************************************************************************************",
"****************************************************************************************************************************************************************************************************************************************$$$$&&&&&&&&&&&&&&&&&&&&$$$$&&&&&&&&&&&&%%%%%%%%%%%%%%%%####%%%%%%%%%%%%%%%%%%%%####%%%%%%%%&&&&&&&&&&&&&&&&&&&&&&&&&&&&&&&&&&&&&&&&&&&&&&&&&&&&&&&&&&&&&&&&&&&&&&&&&&&&&&&&$$$$******************************************************************************************************************************************************************************************************************************",
"************************************************************************************************************************************************************************************************************************************$$$$&&&&$$$$&&&&&&&&&&&&&&&&&&&&&&&&&&&&&&&&%%%%%%%%%%%%%%%%%%%%####%%%%%%%%%%%%%%%%################&&&&&&&&&&&&&&&&&&&&&&&&&&&&&&&&&&&&&&&&&&&&&&&&&&&&&&&&&&&&&&&&&&&&&&&&&&&&$$$$******************************************************************************************************************************************************************************************************************************",
"************************************************************************************************************************************************************************************************************************************$$$$&&&&$$$$&&&&&&&&&&&&&&&&&&&&&&&&&&&&&&&&%%%%%%%%%%%%%%%%%%%%####%%%%%%%%%%%%%%%%################&&&&&&&&&&&&&&&&&&&&&&&&&&&&&&&&&&&&&&&&&&&&&&&&&&&&&&&&&&&&&&&&&&&&&&&&&&&&$$$$******************************************************************************************************************************************************************************************************************************",
"************************************************************************************************************************************************************************************************************************************$$$$&&&&$$$$&&&&&&&&&&&&&&&&&&&&&&&&&&&&&&&&%%%%%%%%%%%%%%%%%%%%####%%%%%%%%%%%%%%%%################&&&&&&&&&&&&&&&&&&&&&&&&&&&&&&&&&&&&&&&&&&&&&&&&&&&&&&&&&&&&&&&&&&&&&&&&&&&&$$$$******************************************************************************************************************************************************************************************************************************",
"************************************************************************************************************************************************************************************************************************************$$$$&&&&$$$$&&&&&&&&&&&&&&&&&&&&&&&&&&&&&&&&%%%%%%%%%%%%%%%%%%%%####%%%%%%%%%%%%%%%%################&&&&&&&&&&&&&&&&&&&&&&&&&&&&&&&&&&&&&&&&&&&&&&&&&&&&&&&&&&&&&&&&&&&&&&&&&&&&$$$$******************************************************************************************************************************************************************************************************************************",
"************************************************************************************************************************************************************************************************************************************$$$$&&&&&&&&&&&&&&&&&&&&&&&&&&&&$$$$&&&&&&&&&&&&%%%%%%%%%%%%%%%%%%%%####%%%%%%%%%%%%%%%%%%%%%%%%############&&&&&&&&&&&&&&&&&&&&&&&&&&&&&&&&&&&&&&&&&&&&&&&&&&&&&&&&&&&&&&&&&&&&&&&&$$$$**************************************************************************************************************************************************************************************************************************",
"************************************************************************************************************************************************************************************************************************************$$$$&&&&&&&&&&&&&&&&&&&&&&&&&&&&$$$$&&&&&&&&&&&&%%%%%%%%%%%%%%%%%%%%####%%%%%%%%%%%%%%%%%%%%%%%%############&&&&&&&&&&&&&&&&&&&&&&&&&&&&&&&&&&&&&&&&&&&&&&&&&&&&&&&&&&&&&&&&&&&&&&&&$$$$**************************************************************************************************************************************************************************************************************************",
"************************************************************************************************************************************************************************************************************************************$$$$&&&&&&&&&&&&&&&&&&&&&&&&&&&&$$$$&&&&&&&&&&&&%%%%%%%%%%%%%%%%%%%%####%%%%%%%%%%%%%%%%%%%%%%%%############&&&&&&&&&&&&&&&&&&&&&&&&&&&&&&&&&&&&&&&&&&&&&&&&&&&&&&&&&&&&&&&&&&&&&&&&$$$$**************************************************************************************************************************************************************************************************************************",
"************************************************************************************************************************************************************************************************************************************$$$$&&&&&&&&&&&&&&&&&&&&&&&&&&&&$$$$&&&&&&&&&&&&%%%%%%%%%%%%%%%%%%%%####%%%%%%%%%%%%%%%%%%%%%%%%############&&&&&&&&&&&&&&&&&&&&&&&&&&&&&&&&&&&&&&&&&&&&&&&&&&&&&&&&&&&&&&&&&&&&&&&&$$$$**************************************************************************************************************************************************************************************************************************",
"********************************************************************************************************************************************************************************************************************************$$$$&&&&&&&&&&&&&&&&&&&&&&&&&&&&&&&&&&&&$$$$$$$$&&&&&&&&%%%%%%%%%%%%%%%%%%%%####%%%%%%%%%%%%%%%%%%%%%%%%########&&&&&&&&&&&&&&&&&&&&&&&&&&&&&&&&&&&&&&&&&&&&&&&&&&&&&&&&&&&&&&&&&&&&&&&&&&&&$$$$**********************************************************************************************************************************************************************************************************************",
"********************************************************************************************************************************************************************************************************************************$$$$&&&&&&&&&&&&&&&&&&&&&&&&&&&&&&&&&&&&$$$$$$$$&&&&&&&&%%%%%%%%%%%%%%%%%%%%####%%%%%%%%%%%%%%%%%%%%%%%%########&&&&&&&&&&&&&&&&&&&&&&&&&&&&&&&&&&&&&&&&&&&&&&&&&&&&&&&&&&&&&&&&&&&&&&&&&&&&$$$$**********************************************************************************************************************************************************************************************************************",
"********************************************************************************************************************************************************************************************************************************$$$$&&&&&&&&&&&&&&&&&&&&&&&&&&&&&&&&&&&&$$$$$$$$&&&&&&&&%%%%%%%%%%%%%%%%%%%%####%%%%%%%%%%%%%%%%%%%%%%%%########&&&&&&&&&&&&&&&&&&&&&&&&&&&&&&&&&&&&&&&&&&&&&&&&&&&&&&&&&&&&&&&&&&&&&&&&&&&&$$$$**********************************************************************************************************************************************************************************************************************",
"********************************************************************************************************************************************************************************************************************************$$$$&&&&&&&&&&&&&&&&&&&&&&&&&&&&&&&&&&&&$$$$$$$$&&&&&&&&%%%%%%%%%%%%%%%%%%%%####%%%%%%%%%%%%%%%%%%%%%%%%########&&&&&&&&&&&&&&&&&&&&&&&&&&&&&&&&&&&&&&&&&&&&&&&&&&&&&&&&&&&&&&&&&&&&&&&&&&&&$$$$**********************************************************************************************************************************************************************************************************************",
"********************************************************************************************************************************************************************************************************************************$$$$&&&&&&&&&&&&&&&&&&&&&&&&&&&&&&&&&&&&&&&&&&&&$$$$&&&&%%%%%%%%%%%%%%%%%%%%%%%%####%%%%%%%%%%%%%%%%%%%%%%%%########&&&&&&&&&&&&&&&&&&&&&&&&&&&&&&&&&&&&&&&&&&&&&&&&&&&&&&&&&&&&&&&&&&&&&&&&$$$$**********************************************************************************************************************************************************************************************************************",
"********************************************************************************************************************************************************************************************************************************$$$$&&&&&&&&&&&&&&&&&&&&&&&&&&&&&&&&&&&&&&&&&&&&$$$$&&&&%%%%%%%%%%%%%%%%%%%%%%%%####%%%%%%%%%%%%%%%%%%%%%%%%########&&&&&&&&&&&&&&&&&&&&&&&&&&&&&&&&&&&&&&&&&&&&&&&&&&&&&&&&&&&&&&&&&&&&&&&&$$$$**********************************************************************************************************************************************************************************************************************",
"********************************************************************************************************************************************************************************************************************************$$$$&&&&&&&&&&&&&&&&&&&&&&&&&&&&&&&&&&&&&&&&&&&&$$$$&&&&%%%%%%%%%%%%%%%%%%%%%%%%####%%%%%%%%%%%%%%%%%%%%%%%%########&&&&&&&&&&&&&&&&&&&&&&&&&&&&&&&&&&&&&&&&&&&&&&&&&&&&&&&&&&&&&&&&&&&&&&&&$$$$**********************************************************************************************************************************************************************************************************************",
"********************************************************************************************************************************************************************************************************************************$$$$&&&&&&&&&&&&&&&&&&&&&&&&&&&&&&&&&&&&&&&&&&&&$$$$&&&&%%%%%%%%%%%%%%%%%%%%%%%%####%%%%%%%%%%%%%%%%%%%%%%%%########&&&&&&&&&&&&&&&&&&&&&&&&&&&&&&&&&&&&&&&&&&&&&&&&&&&&&&&&&&&&&&&&&&&&&&&&$$$$**********************************************************************************************************************************************************************************************************************",
"****************************************************************************************************************************************************************************************************************************$$$$&&&&&&&&&&&&$$$$&&&&&&&&&&&&&&&&&&&&&&&&&&&&&&&&&&&&$$$$%%%%%%%%%%%%%%%%%%%%%%%%%%%%####%%%%%%%%%%%%%%%%%%%%%%%%####&&&&&&&&&&&&&&&&&&&&&&&&&&&&&&&&&&&&&&&&&&&&&&&&&&&&&&&&&&&&&&&&&&&&&&&&&&&&####******************************************************************************************************************************************************************************************************************",
"****************************************************************************************************************************************************************************************************************************$$$$&&&&&&&&&&&&$$$$&&&&&&&&&&&&&&&&&&&&&&&&&&&&&&&&&&&&$$$$%%%%%%%%%%%%%%%%%%%%%%%%%%%%####%%%%%%%%%%%%%%%%%%%%%%%%####&&&&&&&&&&&&&&&&&&&&&&&&&&&&&&&&&&&&&&&&&&&&&&&&&&&&&&&&&&&&&&&&&&&&&&&&&&&&####******************************************************************************************************************************************************************************************************************",
"****************************************************************************************************************************************************************************************************************************$$$$&&&&&&&&&&&&$$$$&&&&&&&&&&&&&&&&&&&&&&&&&&&&&&&&&&&&$$$$%%%%%%%%%%%%%%%%%%%%%%%%%%%%####%%%%%%%%%%%%%%%%%%%%%%%%####&&&&&&&&&&&&&&&&&&&&&&&&&&&&&&&&&&&&&&&&&&&&&&&&&&&&&&&&&&&&&&&&&&&&&&&&&&&&####******************************************************************************************************************************************************************************************************************",
"****************************************************************************************************************************************************************************************************************************$$$$&&&&&&&&&&&&$$$$&&&&&&&&&&&&&&&&&&&&&&&&&&&&&&&&&&&&$$$$%%%%%%%%%%%%%%%%%%%%%%%%%%%%####%%%%%%%%%%%%%%%%%%%%%%%%####&&&&&&&&&&&&&&&&&&&&&&&&&&&&&&&&&&&&&&&&&&&&&&&&&&&&&&&&&&&&&&&&&&&&&&&&&&&&####******************************************************************************************************************************************************************************************************************",
"****************************************************************************************************************************************************************************************************************************$$$$&&&&&&&&&&&&&&&&$$$$&&&&&&&&&&&&&&&&&&&&&&&&&&&&&&&&&&&&####%%%%%%%%%%%%%%%%%%%%%%%%%%%%####%%%%%%%%%%%%%%%%%%%%####%%%%&&&&&&&&&&&&&&&&&&&&&&&&&&&&&&&&&&&&&&&&&&&&&&&&&&&&&&&&&&&&&&&&&&&&&&&&####******************************************************************************************************************************************************************************************************************",
"****************************************************************************************************************************************************************************************************************************$$$$&&&&&&&&&&&&&&&&$$$$&&&&&&&&&&&&&&&&&&&&&&&&&&&&&&&&&&&&####%%%%%%%%%%%%%%%%%%%%%%%%%%%%####%%%%%%%%%%%%%%%%%%%%####%%%%&&&&&&&&&&&&&&&&&&&&&&&&&&&&&&&&&&&&&&&&&&&&&&&&&&&&&&&&&&&&&&&&&&&&&&&&####******************************************************************************************************************************************************************************************************************",
"****************************************************************************************************************************************************************************************************************************$$$$&&&&&&&&&&&&&&&&$$$$&&&&&&&&&&&&&&&&&&&&&&&&&&&&&&&&&&&&####%%%%%%%%%%%%%%%%%%%%%%%%%%%%####%%%%%%%%%%%%%%%%%%%%####%%%%&&&&&&&&&&&&&&&&&&&&&&&&&&&&&&&&&&&&&&&&&&&&&&&&&&&&&&&&&&&&&&&&&&&&&&&&####******************************************************************************************************************************************************************************************************************",
"****************************************************************************************************************************************************************************************************************************$$$$&&&&&&&&&&&&&&&&$$$$&&&&&&&&&&&&&&&&&&&&&&&&&&&&&&&&&&&&####%%%%%%%%%%%%%%%%%%%%%%%%%%%%####%%%%%%%%%%%%%%%%%%%%####%%%%&&&&&&&&&&&&&&&&&&&&&&&&&&&&&&&&&&&&&&&&&&&&&&&&&&&&&&&&&&&&&&&&&&&&&&&&####******************************************************************************************************************************************************************************************************************",
"************************************************************************************************************************************************************************************************************************$$$$&&&&&&&&&&&&&&&&&&&&$$$$&&&&&&&&&&&&&&&&&&&&&&&&&&&&&&&&&&&&%%%%####%%%%%%%%%%%%%%%%%%%%%%%%%%%%####%%%%%%%%%%%%%%%%########%%%%&&&&&&&&&&&&&&&&&&&&&&&&&&&&&&&&&&&&&&&&&&&&&&&&&&&&&&&&&&&&&&&&&&&&OOOOXXXX**************************************************************************************************************************************************************************************************************",
"************************************************************************************************************************************************************************************************************************$$$$&&&&&&&&&&&&&&&&&&&&$$$$&&&&&&&&&&&&&&&&&&&&&&&&&&&&&&&&&&&&%%%%####%%%%%%%%%%%%%%%%%%%%%%%%%%%%####%%%%%%%%%%%%%%%%########%%%%&&&&&&&&&&&&&&&&&&&&&&&&&&&&&&&&&&&&&&&&&&&&&&&&&&&&&&&&&&&&&&&&&&&&OOOOXXXX**************************************************************************************************************************************************************************************************************",
"************************************************************************************************************************************************************************************************************************$$$$&&&&&&&&&&&&&&&&&&&&$$$$&&&&&&&&&&&&&&&&&&&&&&&&&&&&&&&&&&&&%%%%####%%%%%%%%%%%%%%%%%%%%%%%%%%%%####%%%%%%%%%%%%%%%%########%%%%&&&&&&&&&&&&&&&&&&&&&&&&&&&&&&&&&&&&&&&&&&&&&&&&&&&&&&&&&&&&&&&&&&&&OOOOXXXX**************************************************************************************************************************************************************************************************************",
"************************************************************************************************************************************************************************************************************************$$$$&&&&&&&&&&&&&&&&&&&&$$$$&&&&&&&&&&&&&&&&&&&&&&&&&&&&&&&&&&&&%%%%####%%%%%%%%%%%%%%%%%%%%%%%%%%%%####%%%%%%%%%%%%%%%%########%%%%&&&&&&&&&&&&&&&&&&&&&&&&&&&&&&&&&&&&&&&&&&&&&&&&&&&&&&&&&&&&&&&&&&&&OOOOXXXX**************************************************************************************************************************************************************************************************************",
"************************************************************************************************************************************************************************************************************************$$$$&&&&&&&&&&&&&&&&&&&&&&&&$$$$&&&&&&&&&&&&&&&&&&&&&&&&&&&&&&&&%%%%####%%%%%%%%%%%%%%%%%%%%%%%%%%%%%%%%####%%%%%%%%%%%%%%%%####%%%%&&&&&&&&&&&&&&&&&&&&&&&&&&&&&&&&&&&&&&&&&&&&&&&&&&&&&&&&&&&&&&&&OOOOOOOOXXXX**************************************************************************************************************************************************************************************************************",
"************************************************************************************************************************************************************************************************************************$$$$&&&&&&&&&&&&&&&&&&&&&&&&$$$$&&&&&&&&&&&&&&&&&&&&&&&&&&&&&&&&%%%%####%%%%%%%%%%%%%%%%%%%%%%%%%%%%%%%%####%%%%%%%%%%%%%%%%####%%%%&&&&&&&&&&&&&&&&&&&&&&&&&&&&&&&&&&&&&&&&&&&&&&&&&&&&&&&&&&&&&&&&OOOOOOOOXXXX**************************************************************************************************************************************************************************************************************",
"************************************************************************************************************************************************************************************************************************$$$$&&&&&&&&&&&&&&&&&&&&&&&&$$$$&&&&&&&&&&&&&&&&&&&&&&&&&&&&&&&&%%%%####%%%%%%%%%%%%%%%%%%%%%%%%%%%%%%%%####%%%%%%%%%%%%%%%%####%%%%&&&&&&&&&&&&&&&&&&&&&&&&&&&&&&&&&&&&&&&&&&&&&&&&&&&&&&&&&&&&&&&&OOOOOOOOXXXX**************************************************************************************************************************************************************************************************************",
"************************************************************************************************************************************************************************************************************************$$$$&&&&&&&&&&&&&&&&&&&&&&&&$$$$&&&&&&&&&&&&&&&&&&&&&&&&&&&&&&&&%%%%####%%%%%%%%%%%%%%%%%%%%%%%%%%%%%%%%####%%%%%%%%%%%%%%%%####%%%%&&&&&&&&&&&&&&&&&&&&&&&&&&&&&&&&&&&&&&&&&&&&&&&&&&&&&&&&&&&&&&&&OOOOOOOOXXXX**************************************************************************************************************************************************************************************************************",
"********************************************************************************************************************************************************************************************************************####&&&&&&&&&&&&&&&&&&&&&&&&&&&&&&&&$$$$&&&&&&&&&&&&&&&&&&&&&&&&%%%%%%%%%%%%####%%%%%%%%%%%%%%%%%%%%%%%%############%%%%%%%%%%%%####%%%%%%%%&&&&&&&&&&&&&&&&&&&&&&&&&&&&&&&&&&&&&&&&&&&&&&&&&&&&&&&&OOOOOOOOOOOOXXXXXXXX**********************************************************************************************************************************************************************************************************",
"********************************************************************************************************************************************************************************************************************####&&&&&&&&&&&&&&&&&&&&&&&&&&&&&&&&$$$$&&&&&&&&&&&&&&&&&&&&&&&&%%%%%%%%%%%%####%%%%%%%%%%%%%%%%%%%%%%%%############%%%%%%%%%%%%####%%%%%%%%&&&&&&&&&&&&&&&&&&&&&&&&&&&&&&&&&&&&&&&&&&&&&&&&&&&&&&&&OOOOOOOOOOOOXXXXXXXX**********************************************************************************************************************************************************************************************************",
"********************************************************************************************************************************************************************************************************************####&&&&&&&&&&&&&&&&&&&&&&&&&&&&&&&&$$$$&&&&&&&&&&&&&&&&&&&&&&&&%%%%%%%%%%%%####%%%%%%%%%%%%%%%%%%%%%%%%############%%%%%%%%%%%%####%%%%%%%%&&&&&&&&&&&&&&&&&&&&&&&&&&&&&&&&&&&&&&&&&&&&&&&&&&&&&&&&OOOOOOOOOOOOXXXXXXXX**********************************************************************************************************************************************************************************************************",
"********************************************************************************************************************************************************************************************************************####&&&&&&&&&&&&&&&&&&&&&&&&&&&&&&&&$$$$&&&&&&&&&&&&&&&&&&&&&&&&%%%%%%%%%%%%####%%%%%%%%%%%%%%%%%%%%%%%%############%%%%%%%%%%%%####%%%%%%%%&&&&&&&&&&&&&&&&&&&&&&&&&&&&&&&&&&&&&&&&&&&&&&&&&&&&&&&&OOOOOOOOOOOOXXXXXXXX**********************************************************************************************************************************************************************************************************",
"********************************************************************************************************************************************************************************************************************####&&&&&&&&&&&&&&&&&&&&&&&&&&&&&&&&&&&&$$$$$$$$&&&&&&&&&&&&&&&&%%%%%%%%%%%%####%%%%%%%%################********####%%%%%%%%%%%%%%%%%%%%%%%%&&&&&&&&&&&&&&&&&&&&&&&&&&&&&&&&&&&&&&&&&&&&&&&&&&&&OOOOOOOOOOOOOOOOOOOOXXXX**********************************************************************************************************************************************************************************************************",
"********************************************************************************************************************************************************************************************************************####&&&&&&&&&&&&&&&&&&&&&&&&&&&&&&&&&&&&$$$$$$$$&&&&&&&&&&&&&&&&%%%%%%%%%%%%####%%%%%%%%################********####%%%%%%%%%%%%%%%%%%%%%%%%&&&&&&&&&&&&&&&&&&&&&&&&&&&&&&&&&&&&&&&&&&&&&&&&&&&&OOOOOOOOOOOOOOOOOOOOXXXX**********************************************************************************************************************************************************************************************************",
"********************************************************************************************************************************************************************************************************************####&&&&&&&&&&&&&&&&&&&&&&&&&&&&&&&&&&&&$$$$$$$$&&&&&&&&&&&&&&&&%%%%%%%%%%%%####%%%%%%%%################********####%%%%%%%%%%%%%%%%%%%%%%%%&&&&&&&&&&&&&&&&&&&&&&&&&&&&&&&&&&&&&&&&&&&&&&&&&&&&OOOOOOOOOOOOOOOOOOOOXXXX**********************************************************************************************************************************************************************************************************",
"********************************************************************************************************************************************************************************************************************####&&&&&&&&&&&&&&&&&&&&&&&&&&&&&&&&&&&&$$$$$$$$&&&&&&&&&&&&&&&&%%%%%%%%%%%%####%%%%%%%%################********####%%%%%%%%%%%%%%%%%%%%%%%%&&&&&&&&&&&&&&&&&&&&&&&&&&&&&&&&&&&&&&&&&&&&&&&&&&&&OOOOOOOOOOOOOOOOOOOOXXXX**********************************************************************************************************************************************************************************************************",
"****************************************************************************************************************************************************************************************************************XXXX%%%%&&&&&&&&&&&&&&&&&&&&&&&&&&&&&&&&&&&&&&&&&&&&$$$$$$$$$$$$&&&&%%%%%%%%%%%%%%%%%%%%####****************************####%%%%%%%%%%%%%%%%%%%%&&&&&&&&&&&&&&&&&&&&&&&&&&&&&&&&&&&&&&&&&&&&&&&&OOOOOOOOOOOOOOOOOOOOOOOOXXXXXXXX******************************************************************************************************************************************************************************************************",
"****************************************************************************************************************************************************************************************************************XXXX%%%%&&&&&&&&&&&&&&&&&&&&&&&&&&&&&&&&&&&&&&&&&&&&$$$$$$$$$$$$&&&&%%%%%%%%%%%%%%%%%%%%####****************************####%%%%%%%%%%%%%%%%%%%%&&&&&&&&&&&&&&&&&&&&&&&&&&&&&&&&&&&&&&&&&&&&&&&&OOOOOOOOOOOOOOOOOOOOOOOOXXXXXXXX******************************************************************************************************************************************************************************************************",
"****************************************************************************************************************************************************************************************************************XXXX%%%%&&&&&&&&&&&&&&&&&&&&&&&&&&&&&&&&&&&&&&&&&&&&$$$$$$$$$$$$&&&&%%%%%%%%%%%%%%%%%%%%####****************************####%%%%%%%%%%%%%%%%%%%%&&&&&&&&&&&&&&&&&&&&&&&&&&&&&&&&&&&&&&&&&&&&&&&&OOOOOOOOOOOOOOOOOOOOOOOOXXXXXXXX******************************************************************************************************************************************************************************************************",
"****************************************************************************************************************************************************************************************************************XXXX%%%%&&&&&&&&&&&&&&&&&&&&&&&&&&&&&&&&&&&&&&&&&&&&$$$$$$$$$$$$&&&&%%%%%%%%%%%%%%%%%%%%####****************************####%%%%%%%%%%%%%%%%%%%%&&&&&&&&&&&&&&&&&&&&&&&&&&&&&&&&&&&&&&&&&&&&&&&&OOOOOOOOOOOOOOOOOOOOOOOOXXXXXXXX******************************************************************************************************************************************************************************************************",
"****************************************************************************************************************************************************************************************************************XXXXOOOO&&&&&&&&&&&&&&&&&&&&&&&&&&&&&&&&&&&&&&&&&&&&&&&&&&&&&&&&$$$$####%%%%%%%%%%%%####********************************####%%%%%%%%%%%%%%%%%%%%&&&&&&&&&&&&&&&&&&&&&&&&&&&&&&&&&&&&&&&&&&&&OOOOOOOOOOOOOOOOOOOOOOOOOOOOXXXXXXXX******************************************************************************************************************************************************************************************************",
"****************************************************************************************************************************************************************************************************************XXXXOOOO&&&&&&&&&&&&&&&&&&&&&&&&&&&&&&&&&&&&&&&&&&&&&&&&&&&&&&&&$$$$####%%%%%%%%%%%%####********************************####%%%%%%%%%%%%%%%%%%%%&&&&&&&&&&&&&&&&&&&&&&&&&&&&&&&&&&&&&&&&&&&&OOOOOOOOOOOOOOOOOOOOOOOOOOOOXXXXXXXX******************************************************************************************************************************************************************************************************",
"****************************************************************************************************************************************************************************************************************XXXXOOOO&&&&&&&&&&&&&&&&&&&&&&&&&&&&&&&&&&&&&&&&&&&&&&&&&&&&&&&&$$$$####%%%%%%%%%%%%####********************************####%%%%%%%%%%%%%%%%%%%%&&&&&&&&&&&&&&&&&&&&&&&&&&&&&&&&&&&&&&&&&&&&OOOOOOOOOOOOOOOOOOOOOOOOOOOOXXXXXXXX******************************************************************************************************************************************************************************************************",
"****************************************************************************************************************************************************************************************************************XXXXOOOO&&&&&&&&&&&&&&&&&&&&&&&&&&&&&&&&&&&&&&&&&&&&&&&&&&&&&&&&$$$$####%%%%%%%%%%%%####********************************####%%%%%%%%%%%%%%%%%%%%&&&&&&&&&&&&&&&&&&&&&&&&&&&&&&&&&&&&&&&&&&&&OOOOOOOOOOOOOOOOOOOOOOOOOOOOXXXXXXXX******************************************************************************************************************************************************************************************************",
"************************************************************************************************************************************************************************************************************XXXXXXXXOOOO&&&&&&&&&&&&&&&&&&&&&&&&&&&&&&&&&&&&&&&&&&&&&&&&&&&&&&&&%%%%%%%%%%%%%%%%####************************************####%%%%%%%%%%%%%%%%%%%%&&&&&&&&&&&&&&&&&&&&&&&&&&&&&&&&&&&&&&&&OOOOOOOOOOOOOOOOOOOOOOOOOOOOOOOOOOOOXXXXXXXX**************************************************************************************************************************************************************************************************",
"************************************************************************************************************************************************************************************************************XXXXXXXXOOOO&&&&&&&&&&&&&&&&&&&&&&&&&&&&&&&&&&&&&&&&&&&&&&&&&&&&&&&&%%%%%%%%%%%%%%%%####************************************####%%%%%%%%%%%%%%%%%%%%&&&&&&&&&&&&&&&&&&&&&&&&&&&&&&&&&&&&&&&&OOOOOOOOOOOOOOOOOOOOOOOOOOOOOOOOOOOOXXXXXXXX**************************************************************************************************************************************************************************************************",
"************************************************************************************************************************************************************************************************************XXXXXXXXOOOO&&&&&&&&&&&&&&&&&&&&&&&&&&&&&&&&&&&&&&&&&&&&&&&&&&&&&&&&%%%%%%%%%%%%%%%%####************************************####%%%%%%%%%%%%%%%%%%%%&&&&&&&&&&&&&&&&&&&&&&&&&&&&&&&&&&&&&&&&OOOOOOOOOOOOOOOOOOOOOOOOOOOOOOOOOOOOXXXXXXXX**************************************************************************************************************************************************************************************************",
"************************************************************************************************************************************************************************************************************XXXXXXXXOOOO&&&&&&&&&&&&&&&&&&&&&&&&&&&&&&&&&&&&&&&&&&&&&&&&&&&&&&&&%%%%%%%%%%%%%%%%####************************************####%%%%%%%%%%%%%%%%%%%%&&&&&&&&&&&&&&&&&&&&&&&&&&&&&&&&&&&&&&&&OOOOOOOOOOOOOOOOOOOOOOOOOOOOOOOOOOOOXXXXXXXX**************************************************************************************************************************************************************************************************",
"************************************************************************************************************************************************************************************************************XXXXXXXXOOOOOOOO&&&&&&&&&&&&&&&&&&&&&&&&&&&&&&&&&&&&&&&&&&&&&&&&&&&&%%%%%%%%%%%%%%%%####************************************####%%%%%%%%%%%%%%%%%%%%&&&&&&&&&&&&&&&&&&&&&&&&&&&&&&&&&&&&OOOOOOOOOOOOOOOOOOOOOOOOOOOOOOOOOOOOOOOOXXXXXXXX**************************************************************************************************************************************************************************************************",
"************************************************************************************************************************************************************************************************************XXXXXXXXOOOOOOOO&&&&&&&&&&&&&&&&&&&&&&&&&&&&&&&&&&&&&&&&&&&&&&&&&&&&%%%%%%%%%%%%%%%%####************************************####%%%%%%%%%%%%%%%%%%%%&&&&&&&&&&&&&&&&&&&&&&&&&&&&&&&&&&&&OOOOOOOOOOOOOOOOOOOOOOOOOOOOOOOOOOOOOOOOXXXXXXXX**************************************************************************************************************************************************************************************************",
"************************************************************************************************************************************************************************************************************XXXXXXXXOOOOOOOO&&&&&&&&&&&&&&&&&&&&&&&&&&&&&&&&&&&&&&&&&&&&&&&&&&&&%%%%%%%%%%%%%%%%####************************************####%%%%%%%%%%%%%%%%%%%%&&&&&&&&&&&&&&&&&&&&&&&&&&&&&&&&&&&&OOOOOOOOOOOOOOOOOOOOOOOOOOOOOOOOOOOOOOOOXXXXXXXX**************************************************************************************************************************************************************************************************",
"************************************************************************************************************************************************************************************************************XXXXXXXXOOOOOOOO&&&&&&&&&&&&&&&&&&&&&&&&&&&&&&&&&&&&&&&&&&&&&&&&&&&&%%%%%%%%%%%%%%%%####************************************####%%%%%%%%%%%%%%%%%%%%&&&&&&&&&&&&&&&&&&&&&&&&&&&&&&&&&&&&OOOOOOOOOOOOOOOOOOOOOOOOOOOOOOOOOOOOOOOOXXXXXXXX**************************************************************************************************************************************************************************************************",
"********************************************************************************************************************************************************************************************************XXXXXXXXOOOOOOOOOOOOOOOO&&&&&&&&&&&&&&&&&&&&&&&&&&&&&&&&&&&&&&&&&&&&&&&&%%%%%%%%%%%%####********************************************####%%%%%%%%%%%%%%%%&&&&&&&&&&&&&&&&&&&&&&&&&&&&&&&&OOOOOOOOOOOOOOOOOOOOOOOOOOOOOOOOOOOOOOOOOOOOOOOOXXXXXXXX**********************************************************************************************************************************************************************************************",
"********************************************************************************************************************************************************************************************************XXXXXXXXOOOOOOOOOOOOOOOO&&&&&&&&&&&&&&&&&&&&&&&&&&&&&&&&&&&&&&&&&&&&&&&&%%%%%%%%%%%%####********************************************####%%%%%%%%%%%%%%%%&&&&&&&&&&&&&&&&&&&&&&&&&&&&&&&&OOOOOOOOOOOOOOOOOOOOOOOOOOOOOOOOOOOOOOOOOOOOOOOOXXXXXXXX**********************************************************************************************************************************************************************************************",
"********************************************************************************************************************************************************************************************************XXXXXXXXOOOOOOOOOOOOOOOO&&&&&&&&&&&&&&&&&&&&&&&&&&&&&&&&&&&&&&&&&&&&&&&&%%%%%%%%%%%%####********************************************####%%%%%%%%%%%%%%%%&&&&&&&&&&&&&&&&&&&&&&&&&&&&&&&&OOOOOOOOOOOOOOOOOOOOOOOOOOOOOOOOOOOOOOOOOOOOOOOOXXXXXXXX**********************************************************************************************************************************************************************************************",
"********************************************************************************************************************************************************************************************************XXXXXXXXOOOOOOOOOOOOOOOO&&&&&&&&&&&&&&&&&&&&&&&&&&&&&&&&&&&&&&&&&&&&&&&&%%%%%%%%%%%%####********************************************####%%%%%%%%%%%%%%%%&&&&&&&&&&&&&&&&&&&&&&&&&&&&&&&&OOOOOOOOOOOOOOOOOOOOOOOOOOOOOOOOOOOOOOOOOOOOOOOOXXXXXXXX**********************************************************************************************************************************************************************************************",
"********************************************************************************************************************************************************************************************************XXXXXXXXOOOOOOOOOOOOOOOO&&&&&&&&&&&&&&&&&&&&&&&&&&&&&&&&&&&&&&&&&&&&&&&&%%%%%%%%%%%%####********************************************####%%%%%%%%%%%%%%%%%%%%&&&&&&&&&&&&&&&&&&&&&&&&&&&&&&&&&&&&&&&&OOOOOOOOOOOOOOOOOOOOOOOOOOOOOOOOOOOOXXXXXXXX**********************************************************************************************************************************************************************************************",
"********************************************************************************************************************************************************************************************************XXXXXXXXOOOOOOOOOOOOOOOO&&&&&&&&&&&&&&&&&&&&&&&&&&&&&&&&&&&&&&&&&&&&&&&&%%%%%%%%%%%%####********************************************####%%%%%%%%%%%%%%%%%%%%&&&&&&&&&&&&&&&&&&&&&&&&&&&&&&&&&&&&&&&&OOOOOOOOOOOOOOOOOOOOOOOOOOOOOOOOOOOOXXXXXXXX**********************************************************************************************************************************************************************************************",
"********************************************************************************************************************************************************************************************************XXXXXXXXOOOOOOOOOOOOOOOO&&&&&&&&&&&&&&&&&&&&&&&&&&&&&&&&&&&&&&&&&&&&&&&&%%%%%%%%%%%%####********************************************####%%%%%%%%%%%%%%%%%%%%&&&&&&&&&&&&&&&&&&&&&&&&&&&&&&&&&&&&&&&&OOOOOOOOOOOOOOOOOOOOOOOOOOOOOOOOOOOOXXXXXXXX**********************************************************************************************************************************************************************************************",
"********************************************************************************************************************************************************************************************************XXXXXXXXOOOOOOOOOOOOOOOO&&&&&&&&&&&&&&&&&&&&&&&&&&&&&&&&&&&&&&&&&&&&&&&&%%%%%%%%%%%%####********************************************####%%%%%%%%%%%%%%%%%%%%&&&&&&&&&&&&&&&&&&&&&&&&&&&&&&&&&&&&&&&&OOOOOOOOOOOOOOOOOOOOOOOOOOOOOOOOOOOOXXXXXXXX**********************************************************************************************************************************************************************************************",
"****************************************************************************************************************************************************************************************************XXXXXXXXXXXXOOOOOOOOOOOOOOOOOOOO&&&&&&&&&&&&&&&&&&&&&&&&&&&&&&&&&&&&&&&&%%%%%%%%%%%%%%%%####********************************************####%%%%%%%%%%%%%%%%%%%%&&&&&&&&&&&&&&&&&&&&&&&&&&&&&&&&&&&&&&&&&&&&&&&&&&&&&&&&OOOOOOOOOOOOOOOOOOOOXXXXXXXXXXXX******************************************************************************************************************************************************************************************",
"****************************************************************************************************************************************************************************************************XXXXXXXXXXXXOOOOOOOOOOOOOOOOOOOO&&&&&&&&&&&&&&&&&&&&&&&&&&&&&&&&&&&&&&&&%%%%%%%%%%%%%%%%####********************************************####%%%%%%%%%%%%%%%%%%%%&&&&&&&&&&&&&&&&&&&&&&&&&&&&&&&&&&&&&&&&&&&&&&&&&&&&&&&&OOOOOOOOOOOOOOOOOOOOXXXXXXXXXXXX******************************************************************************************************************************************************************************************",
"****************************************************************************************************************************************************************************************************XXXXXXXXXXXXOOOOOOOOOOOOOOOOOOOO&&&&&&&&&&&&&&&&&&&&&&&&&&&&&&&&&&&&&&&&%%%%%%%%%%%%%%%%####********************************************####%%%%%%%%%%%%%%%%%%%%&&&&&&&&&&&&&&&&&&&&&&&&&&&&&&&&&&&&&&&&&&&&&&&&&&&&&&&&OOOOOOOOOOOOOOOOOOOOXXXXXXXXXXXX******************************************************************************************************************************************************************************************",
"****************************************************************************************************************************************************************************************************XXXXXXXXXXXXOOOOOOOOOOOOOOOOOOOO&&&&&&&&&&&&&&&&&&&&&&&&&&&&&&&&&&&&&&&&%%%%%%%%%%%%%%%%####********************************************####%%%%%%%%%%%%%%%%%%%%&&&&&&&&&&&&&&&&&&&&&&&&&&&&&&&&&&&&&&&&&&&&&&&&&&&&&&&&OOOOOOOOOOOOOOOOOOOOXXXXXXXXXXXX******************************************************************************************************************************************************************************************",
"****************************************************************************************************************************************************************************************************XXXXXXXXOOOOOOOOOOOOOOOOOOOOOOOOOOOO&&&&&&&&&&&&&&&&&&&&&&&&&&&&&&&&&&&&%%%%%%%%%%%%####************************************************####%%%%%%%%%%%%%%%%%%%%&&&&&&&&&&&&&&&&&&&&&&&&&&&&&&&&&&&&&&&&&&&&&&&&&&&&&&&&&&&&&&&&&&&&&&&&OOOOOOOOXXXXXXXX******************************************************************************************************************************************************************************************",
"****************************************************************************************************************************************************************************************************XXXXXXXXOOOOOOOOOOOOOOOOOOOOOOOOOOOO&&&&&&&&&&&&&&&&&&&&&&&&&&&&&&&&&&&&%%%%%%%%%%%%####************************************************####%%%%%%%%%%%%%%%%%%%%&&&&&&&&&&&&&&&&&&&&&&&&&&&&&&&&&&&&&&&&&&&&&&&&&&&&&&&&&&&&&&&&&&&&&&&&OOOOOOOOXXXXXXXX******************************************************************************************************************************************************************************************",
"****************************************************************************************************************************************************************************************************XXXXXXXXOOOOOOOOOOOOOOOOOOOOOOOOOOOO&&&&&&&&&&&&&&&&&&&&&&&&&&&&&&&&&&&&%%%%%%%%%%%%####************************************************####%%%%%%%%%%%%%%%%%%%%&&&&&&&&&&&&&&&&&&&&&&&&&&&&&&&&&&&&&&&&&&&&&&&&&&&&&&&&&&&&&&&&&&&&&&&&OOOOOOOOXXXXXXXX******************************************************************************************************************************************************************************************",
"****************************************************************************************************************************************************************************************************XXXXXXXXOOOOOOOOOOOOOOOOOOOOOOOOOOOO&&&&&&&&&&&&&&&&&&&&&&&&&&&&&&&&&&&&%%%%%%%%%%%%####************************************************####%%%%%%%%%%%%%%%%%%%%&&&&&&&&&&&&&&&&&&&&&&&&&&&&&&&&&&&&&&&&&&&&&&&&&&&&&&&&&&&&&&&&&&&&&&&&OOOOOOOOXXXXXXXX******************************************************************************************************************************************************************************************",
"************************************************************************************************************************************************************************************************XXXXXXXXXXXXOOOOOOOOOOOOOOOOOOOOOOOOOOOOOOOO&&&&&&&&&&&&&&&&&&&&&&&&&&&&&&&&%%%%%%%%%%%%####****************************************************####%%%%%%%%%%%%%%%%%%%%&&&&&&&&&&&&&&&&&&&&&&&&&&&&&&&&&&&&&&&&&&&&&&&&&&&&&&&&&&&&&&&&&&&&&&&&&&&&%%%%%%%%####**************************************************************************************************************************************************************************************",
"************************************************************************************************************************************************************************************************XXXXXXXXXXXXOOOOOOOOOOOOOOOOOOOOOOOOOOOOOOOO&&&&&&&&&&&&&&&&&&&&&&&&&&&&&&&&%%%%%%%%%%%%####****************************************************####%%%%%%%%%%%%%%%%%%%%&&&&&&&&&&&&&&&&&&&&&&&&&&&&&&&&&&&&&&&&&&&&&&&&&&&&&&&&&&&&&&&&&&&&&&&&&&&&%%%%%%%%####**************************************************************************************************************************************************************************************",
"************************************************************************************************************************************************************************************************XXXXXXXXXXXXOOOOOOOOOOOOOOOOOOOOOOOOOOOOOOOO&&&&&&&&&&&&&&&&&&&&&&&&&&&&&&&&%%%%%%%%%%%%####****************************************************####%%%%%%%%%%%%%%%%%%%%&&&&&&&&&&&&&&&&&&&&&&&&&&&&&&&&&&&&&&&&&&&&&&&&&&&&&&&&&&&&&&&&&&&&&&&&&&&&%%%%%%%%####**************************************************************************************************************************************************************************************",
"************************************************************************************************************************************************************************************************XXXXXXXXXXXXOOOOOOOOOOOOOOOOOOOOOOOOOOOOOOOO&&&&&&&&&&&&&&&&&&&&&&&&&&&&&&&&%%%%%%%%%%%%####****************************************************####%%%%%%%%%%%%%%%%%%%%&&&&&&&&&&&&&&&&&&&&&&&&&&&&&&&&&&&&&&&&&&&&&&&&&&&&&&&&&&&&&&&&&&&&&&&&&&&&%%%%%%%%####**************************************************************************************************************************************************************************************",
"************************************************************************************************************************************************************************************************XXXXXXXXXXXXOOOOOOOOOOOOOOOOOOOOOOOOOOOOOOOO&&&&&&&&&&&&&&&&&&&&&&&&&&&&&&&&%%%%%%%%%%%%####****************************************************####%%%%%%%%%%%%%%%%%%%%&&&&&&&&&&&&&&&&&&&&&&&&&&&&&&&&&&&&&&&&&&&&&&&&&&&&&&&&&&&&&&&&&&&&&&&&&&&&%%%%%%%%####**************************************************************************************************************************************************************************************",
"************************************************************************************************************************************************************************************************XXXXXXXXXXXXOOOOOOOOOOOOOOOOOOOOOOOOOOOOOOOO&&&&&&&&&&&&&&&&&&&&&&&&&&&&&&&&%%%%%%%%%%%%####****************************************************####%%%%%%%%%%%%%%%%%%%%&&&&&&&&&&&&&&&&&&&&&&&&&&&&&&&&&&&&&&&&&&&&&&&&&&&&&&&&&&&&&&&&&&&&&&&&&&&&%%%%%%%%####**************************************************************************************************************************************************************************************",
"************************************************************************************************************************************************************************************************XXXXXXXXXXXXOOOOOOOOOOOOOOOOOOOOOOOOOOOOOOOO&&&&&&&&&&&&&&&&&&&&&&&&&&&&&&&&%%%%%%%%%%%%####****************************************************####%%%%%%%%%%%%%%%%%%%%&&&&&&&&&&&&&&&&&&&&&&&&&&&&&&&&&&&&&&&&&&&&&&&&&&&&&&&&&&&&&&&&&&&&&&&&&&&&%%%%%%%%####**************************************************************************************************************************************************************************************",
"************************************************************************************************************************************************************************************************XXXXXXXXXXXXOOOOOOOOOOOOOOOOOOOOOOOOOOOOOOOO&&&&&&&&&&&&&&&&&&&&&&&&&&&&&&&&%%%%%%%%%%%%####****************************************************####%%%%%%%%%%%%%%%%%%%%&&&&&&&&&&&&&&&&&&&&&&&&&&&&&&&&&&&&&&&&&&&&&&&&&&&&&&&&&&&&&&&&&&&&&&&&&&&&%%%%%%%%####**************************************************************************************************************************************************************************************",
"********************************************************************************************************************************************************************************************XXXXXXXXXXXXOOOOOOOOOOOOOOOOOOOOOOOOOOOOOOOOOOOOOOOO&&&&&&&&&&&&&&&&&&&&&&&&%%%%%%%%%%%%%%%%####****************************************************####%%%%%%%%%%%%%%%%%%%%&&&&&&&&&&&&&&&&&&&&&&&&&&&&&&&&&&&&&&&&&&&&&&&&&&&&&&&&&&&&&&&&&&&&&&&&&&&&&&&&%%%%%%%%####**********************************************************************************************************************************************************************************",
"********************************************************************************************************************************************************************************************XXXXXXXXXXXXOOOOOOOOOOOOOOOOOOOOOOOOOOOOOOOOOOOOOOOO&&&&&&&&&&&&&&&&&&&&&&&&%%%%%%%%%%%%%%%%####****************************************************####%%%%%%%%%%%%%%%%%%%%&&&&&&&&&&&&&&&&&&&&&&&&&&&&&&&&&&&&&&&&&&&&&&&&&&&&&&&&&&&&&&&&&&&&&&&&&&&&&&&&%%%%%%%%####**********************************************************************************************************************************************************************************",
"********************************************************************************************************************************************************************************************XXXXXXXXXXXXOOOOOOOOOOOOOOOOOOOOOOOOOOOOOOOOOOOOOOOO&&&&&&&&&&&&&&&&&&&&&&&&%%%%%%%%%%%%%%%%####****************************************************####%%%%%%%%%%%%%%%%%%%%&&&&&&&&&&&&&&&&&&&&&&&&&&&&&&&&&&&&&&&&&&&&&&&&&&&&&&&&&&&&&&&&&&&&&&&&&&&&&&&&%%%%%%%%####**********************************************************************************************************************************************************************************",
"********************************************************************************************************************************************************************************************XXXXXXXXXXXXOOOOOOOOOOOOOOOOOOOOOOOOOOOOOOOOOOOOOOOO&&&&&&&&&&&&&&&&&&&&&&&&%%%%%%%%%%%%%%%%####****************************************************####%%%%%%%%%%%%%%%%%%%%&&&&&&&&&&&&&&&&&&&&&&&&&&&&&&&&&&&&&&&&&&&&&&&&&&&&&&&&&&&&&&&&&&&&&&&&&&&&&&&&%%%%%%%%####**********************************************************************************************************************************************************************************",
"********************************************************************************************************************************************************************************************XXXXXXXXXXXXOOOOOOOOOOOOOOOOOOOOOOOOOOOOOOOOOOOOOOOOOOOO&&&&&&&&&&&&&&&&&&&&%%%%%%%%%%%%####********************************************************####%%%%%%%%%%%%%%%%%%%%&&&&&&&&&&&&&&&&&&&&&&&&&&&&&&&&&&&&&&&&&&&&&&&&&&&&&&&&&&&&&&&&&&&&&&&&&&&&&&&&%%%%%%%%####**********************************************************************************************************************************************************************************",
"********************************************************************************************************************************************************************************************XXXXXXXXXXXXOOOOOOOOOOOOOOOOOOOOOOOOOOOOOOOOOOOOOOOOOOOO&&&&&&&&&&&&&&&&&&&&%%%%%%%%%%%%####********************************************************####%%%%%%%%%%%%%%%%%%%%&&&&&&&&&&&&&&&&&&&&&&&&&&&&&&&&&&&&&&&&&&&&&&&&&&&&&&&&&&&&&&&&&&&&&&&&&&&&&&&&%%%%%%%%####**********************************************************************************************************************************************************************************",
"********************************************************************************************************************************************************************************************XXXXXXXXXXXXOOOOOOOOOOOOOOOOOOOOOOOOOOOOOOOOOOOOOOOOOOOO&&&&&&&&&&&&&&&&&&&&%%%%%%%%%%%%####********************************************************####%%%%%%%%%%%%%%%%%%%%&&&&&&&&&&&&&&&&&&&&&&&&&&&&&&&&&&&&&&&&&&&&&&&&&&&&&&&&&&&&&&&&&&&&&&&&&&&&&&&&%%%%%%%%####**********************************************************************************************************************************************************************************",
"********************************************************************************************************************************************************************************************XXXXXXXXXXXXOOOOOOOOOOOOOOOOOOOOOOOOOOOOOOOOOOOOOOOOOOOO&&&&&&&&&&&&&&&&&&&&%%%%%%%%%%%%####********************************************************####%%%%%%%%%%%%%%%%%%%%&&&&&&&&&&&&&&&&&&&&&&&&&&&&&&&&&&&&&&&&&&&&&&&&&&&&&&&&&&&&&&&&&&&&&&&&&&&&&&&&%%%%%%%%####**********************************************************************************************************************************************************************************",
"****************************************************************************************************************************************************************************************XXXXXXXXXXXXOOOOOOOOOOOOOOOOOOOOOOOOOOOOOOOOOOOOOOOOOOOOOOOO&&&&&&&&&&&&&&&&&&&&%%%%%%%%%%%%####************************************************************####%%%%%%%%%%%%%%%%%%%%&&&&&&&&&&&&&&&&&&&&&&&&&&&&&&&&&&&&&&&&&&&&&&&&&&&&&&&&&&&&&&&&&&&&&&&&&&&&%%%%%%%%%%%%####******************************************************************************************************************************************************************************",
"****************************************************************************************************************************************************************************************XXXXXXXXXXXXOOOOOOOOOOOOOOOOOOOOOOOOOOOOOOOOOOOOOOOOOOOOOOOO&&&&&&&&&&&&&&&&&&&&%%%%%%%%%%%%####************************************************************####%%%%%%%%%%%%%%%%%%%%&&&&&&&&&&&&&&&&&&&&&&&&&&&&&&&&&&&&&&&&&&&&&&&&&&&&&&&&&&&&&&&&&&&&&&&&&&&&%%%%%%%%%%%%####******************************************************************************************************************************************************************************",
"****************************************************************************************************************************************************************************************XXXXXXXXXXXXOOOOOOOOOOOOOOOOOOOOOOOOOOOOOOOOOOOOOOOOOOOOOOOO&&&&&&&&&&&&&&&&&&&&%%%%%%%%%%%%####************************************************************####%%%%%%%%%%%%%%%%%%%%&&&&&&&&&&&&&&&&&&&&&&&&&&&&&&&&&&&&&&&&&&&&&&&&&&&&&&&&&&&&&&&&&&&&&&&&&&&&%%%%%%%%%%%%####******************************************************************************************************************************************************************************",
"****************************************************************************************************************************************************************************************XXXXXXXXXXXXOOOOOOOOOOOOOOOOOOOOOOOOOOOOOOOOOOOOOOOOOOOOOOOO&&&&&&&&&&&&&&&&&&&&%%%%%%%%%%%%####************************************************************####%%%%%%%%%%%%%%%%%%%%&&&&&&&&&&&&&&&&&&&&&&&&&&&&&&&&&&&&&&&&&&&&&&&&&&&&&&&&&&&&&&&&&&&&&&&&&&&&%%%%%%%%%%%%####******************************************************************************************************************************************************************************",
"****************************************************************************************************************************************************************************************XXXXXXXXXXXXOOOOOOOOOOOOOOOOOOOOOOOOOOOOOOOOOOOOOOOOOOOOOOOOOOOO&&&&&&&&&&&&&&&&%%%%%%%%%%%%####************************************************************####%%%%%%%%%%%%%%%%%%%%&&&&&&&&&&&&&&&&&&&&&&&&&&&&&&&&&&&&&&&&&&&&&&&&&&&&&&&&&&&&&&&&&&&&&&&&&&&&&&&&%%%%%%%%####******************************************************************************************************************************************************************************",
"****************************************************************************************************************************************************************************************XXXXXXXXXXXXOOOOOOOOOOOOOOOOOOOOOOOOOOOOOOOOOOOOOOOOOOOOOOOOOOOO&&&&&&&&&&&&&&&&%%%%%%%%%%%%####************************************************************####%%%%%%%%%%%%%%%%%%%%&&&&&&&&&&&&&&&&&&&&&&&&&&&&&&&&&&&&&&&&&&&&&&&&&&&&&&&&&&&&&&&&&&&&&&&&&&&&&&&&%%%%%%%%####******************************************************************************************************************************************************************************",
"****************************************************************************************************************************************************************************************XXXXXXXXXXXXOOOOOOOOOOOOOOOOOOOOOOOOOOOOOOOOOOOOOOOOOOOOOOOOOOOO&&&&&&&&&&&&&&&&%%%%%%%%%%%%####************************************************************####%%%%%%%%%%%%%%%%%%%%&&&&&&&&&&&&&&&&&&&&&&&&&&&&&&&&&&&&&&&&&&&&&&&&&&&&&&&&&&&&&&&&&&&&&&&&&&&&&&&&%%%%%%%%####******************************************************************************************************************************************************************************",
"****************************************************************************************************************************************************************************************XXXXXXXXXXXXOOOOOOOOOOOOOOOOOOOOOOOOOOOOOOOOOOOOOOOOOOOOOOOOOOOO&&&&&&&&&&&&&&&&%%%%%%%%%%%%####************************************************************####%%%%%%%%%%%%%%%%%%%%&&&&&&&&&&&&&&&&&&&&&&&&&&&&&&&&&&&&&&&&&&&&&&&&&&&&&&&&&&&&&&&&&&&&&&&&&&&&&&&&%%%%%%%%####******************************************************************************************************************************************************************************",
"************************************************************************************************************************************************************************************####XXXXXXXXXXXXOOOOOOOOOOOOOOOOOOOO&&&&&&&&&&&&&&&&&&&&&&&&&&&&&&&&&&&&&&&&&&&&%%%%%%%%%%%%%%%%####************************************************************####%%%%%%%%%%%%%%%%%%%%&&&&&&&&&&&&&&&&&&&&&&&&&&&&&&&&&&&&&&&&&&&&&&&&&&&&&&&&&&&&&&&&&&&&&&&&&&&&&&&&%%%%%%%%%%%%####**************************************************************************************************************************************************************************",
"************************************************************************************************************************************************************************************####XXXXXXXXXXXXOOOOOOOOOOOOOOOOOOOO&&&&&&&&&&&&&&&&&&&&&&&&&&&&&&&&&&&&&&&&&&&&%%%%%%%%%%%%%%%%####************************************************************####%%%%%%%%%%%%%%%%%%%%&&&&&&&&&&&&&&&&&&&&&&&&&&&&&&&&&&&&&&&&&&&&&&&&&&&&&&&&&&&&&&&&&&&&&&&&&&&&&&&&%%%%%%%%%%%%####**************************************************************************************************************************************************************************",
"************************************************************************************************************************************************************************************####XXXXXXXXXXXXOOOOOOOOOOOOOOOOOOOO&&&&&&&&&&&&&&&&&&&&&&&&&&&&&&&&&&&&&&&&&&&&%%%%%%%%%%%%%%%%####************************************************************####%%%%%%%%%%%%%%%%%%%%&&&&&&&&&&&&&&&&&&&&&&&&&&&&&&&&&&&&&&&&&&&&&&&&&&&&&&&&&&&&&&&&&&&&&&&&&&&&&&&&%%%%%%%%%%%%####**************************************************************************************************************************************************************************",
"************************************************************************************************************************************************************************************####XXXXXXXXXXXXOOOOOOOOOOOOOOOOOOOO&&&&&&&&&&&&&&&&&&&&&&&&&&&&&&&&&&&&&&&&&&&&%%%%%%%%%%%%%%%%####************************************************************####%%%%%%%%%%%%%%%%%%%%&&&&&&&&&&&&&&&&&&&&&&&&&&&&&&&&&&&&&&&&&&&&&&&&&&&&&&&&&&&&&&&&&&&&&&&&&&&&&&&&%%%%%%%%%%%%####**************************************************************************************************************************************************************************",
"************************************************************************************************************************************************************************************####%%%%%%%%&&&&&&&&&&&&&&&&&&&&&&&&&&&&&&&&&&&&&&&&&&&&&&&&&&&&&&&&&&&&&&&&&&&&%%%%%%%%%%%%####********************************************************************####%%%%%%%%%%%%%%%%&&&&&&&&&&&&&&&&&&&&&&&&&&&&&&&&&&&&&&&&&&&&&&&&&&&&&&&&&&&&&&&&&&&&&&&&&&&&&&&&%%%%%%%%%%%%####**************************************************************************************************************************************************************************",
"************************************************************************************************************************************************************************************####%%%%%%%%&&&&&&&&&&&&&&&&&&&&&&&&&&&&&&&&&&&&&&&&&&&&&&&&&&&&&&&&&&&&&&&&&&&&%%%%%%%%%%%%####********************************************************************####%%%%%%%%%%%%%%%%&&&&&&&&&&&&&&&&&&&&&&&&&&&&&&&&&&&&&&&&&&&&&&&&&&&&&&&&&&&&&&&&&&&&&&&&&&&&&&&&%%%%%%%%%%%%####**************************************************************************************************************************************************************************",
"************************************************************************************************************************************************************************************####%%%%%%%%&&&&&&&&&&&&&&&&&&&&&&&&&&&&&&&&&&&&&&&&&&&&&&&&&&&&&&&&&&&&&&&&&&&&%%%%%%%%%%%%####********************************************************************####%%%%%%%%%%%%%%%%&&&&&&&&&&&&&&&&&&&&&&&&&&&&&&&&&&&&&&&&&&&&&&&&&&&&&&&&&&&&&&&&&&&&&&&&&&&&&&&&%%%%%%%%%%%%####**************************************************************************************************************************************************************************",
"************************************************************************************************************************************************************************************####%%%%%%%%&&&&&&&&&&&&&&&&&&&&&&&&&&&&&&&&&&&&&&&&&&&&&&&&&&&&&&&&&&&&&&&&&&&&%%%%%%%%%%%%####********************************************************************####%%%%%%%%%%%%%%%%&&&&&&&&&&&&&&&&&&&&&&&&&&&&&&&&&&&&&&&&&&&&&&&&&&&&&&&&&&&&&&&&&&&&&&&&&&&&&&&&%%%%%%%%%%%%####**************************************************************************************************************************************************************************",
"********************************************************************************************************************************************************************************####%%%%%%%%%%%%&&&&&&&&&&&&&&&&&&&&&&&&&&&&&&&&&&&&&&&&&&&&&&&&&&&&&&&&&&&&&&&&&&&&%%%%%%%%%%%%####********************************************************************####%%%%%%%%%%%%%%%%%%%%&&&&&&&&&&&&&&&&&&&&&&&&&&&&&&&&&&&&&&&&&&&&&&&&&&&&&&&&&&&&&&&&&&&&&&&&&&&&&&&&%%%%%%%%%%%%####**********************************************************************************************************************************************************************",
"********************************************************************************************************************************************************************************####%%%%%%%%%%%%&&&&&&&&&&&&&&&&&&&&&&&&&&&&&&&&&&&&&&&&&&&&&&&&&&&&&&&&&&&&&&&&&&&&%%%%%%%%%%%%####********************************************************************####%%%%%%%%%%%%%%%%%%%%&&&&&&&&&&&&&&&&&&&&&&&&&&&&&&&&&&&&&&&&&&&&&&&&&&&&&&&&&&&&&&&&&&&&&&&&&&&&&&&&%%%%%%%%%%%%####**********************************************************************************************************************************************************************",
"********************************************************************************************************************************************************************************####%%%%%%%%%%%%&&&&&&&&&&&&&&&&&&&&&&&&&&&&&&&&&&&&&&&&&&&&&&&&&&&&&&&&&&&&&&&&&&&&%%%%%%%%%%%%####********************************************************************####%%%%%%%%%%%%%%%%%%%%&&&&&&&&&&&&&&&&&&&&&&&&&&&&&&&&&&&&&&&&&&&&&&&&&&&&&&&&&&&&&&&&&&&&&&&&&&&&&&&&%%%%%%%%%%%%####**********************************************************************************************************************************************************************",
"********************************************************************************************************************************************************************************####%%%%%%%%%%%%&&&&&&&&&&&&&&&&&&&&&&&&&&&&&&&&&&&&&&&&&&&&&&&&&&&&&&&&&&&&&&&&&&&&%%%%%%%%%%%%####********************************************************************####%%%%%%%%%%%%%%%%%%%%&&&&&&&&&&&&&&&&&&&&&&&&&&&&&&&&&&&&&&&&&&&&&&&&&&&&&&&&&&&&&&&&&&&&&&&&&&&&&&&&%%%%%%%%%%%%####**********************************************************************************************************************************************************************",
"********************************************************************************************************************************************************************************####%%%%%%%%%%%%&&&&&&&&&&&&&&&&&&&&&&&&&&&&&&&&&&&&&&&&&&&&&&&&&&&&&&&&&&&&&&&&%%%%%%%%%%%%%%%%####********************************************************************####%%%%%%%%%%%%%%%%%%%%&&&&&&&&&&&&&&&&&&&&&&&&&&&&&&&&&&&&&&&&&&&&&&&&&&&&&&&&&&&&&&&&&&&&&&&&&&&&&&&&%%%%%%%%%%%%####**********************************************************************************************************************************************************************",
"********************************************************************************************************************************************************************************####%%%%%%%%%%%%&&&&&&&&&&&&&&&&&&&&&&&&&&&&&&&&&&&&&&&&&&&&&&&&&&&&&&&&&&&&&&&&%%%%%%%%%%%%%%%%####********************************************************************####%%%%%%%%%%%%%%%%%%%%&&&&&&&&&&&&&&&&&&&&&&&&&&&&&&&&&&&&&&&&&&&&&&&&&&&&&&&&&&&&&&&&&&&&&&&&&&&&&&&&%%%%%%%%%%%%####**********************************************************************************************************************************************************************",
"********************************************************************************************************************************************************************************####%%%%%%%%%%%%&&&&&&&&&&&&&&&&&&&&&&&&&&&&&&&&&&&&&&&&&&&&&&&&&&&&&&&&&&&&&&&&%%%%%%%%%%%%%%%%####********************************************************************####%%%%%%%%%%%%%%%%%%%%&&&&&&&&&&&&&&&&&&&&&&&&&&&&&&&&&&&&&&&&&&&&&&&&&&&&&&&&&&&&&&&&&&&&&&&&&&&&&&&&%%%%%%%%%%%%####**********************************************************************************************************************************************************************",
"********************************************************************************************************************************************************************************####%%%%%%%%%%%%&&&&&&&&&&&&&&&&&&&&&&&&&&&&&&&&&&&&&&&&&&&&&&&&&&&&&&&&&&&&&&&&%%%%%%%%%%%%%%%%####********************************************************************####%%%%%%%%%%%%%%%%%%%%&&&&&&&&&&&&&&&&&&&&&&&&&&&&&&&&&&&&&&&&&&&&&&&&&&&&&&&&&&&&&&&&&&&&&&&&&&&&&&&&%%%%%%%%%%%%####**********************************************************************************************************************************************************************",
"****************************************************************************************************************************************************************************####%%%%%%%%%%%%&&&&&&&&&&&&&&&&&&&&&&&&&&&&&&&&&&&&&&&&&&&&&&&&&&&&&&&&&&&&&&&&&&&&%%%%%%%%%%%%%%%%####********************************************************************####%%%%%%%%%%%%%%%%%%%%&&&&&&&&&&&&&&&&&&&&&&&&&&&&&&&&&&&&&&&&&&&&&&&&&&&&&&&&&&&&&&&&&&&&&&&&&&&&&&&&%%%%%%%%%%%%%%%%####******************************************************************************************************************************************************************",
"****************************************************************************************************************************************************************************####%%%%%%%%%%%%&&&&&&&&&&&&&&&&&&&&&&&&&&&&&&&&&&&&&&&&&&&&&&&&&&&&&&&&&&&&&&&&&&&&%%%%%%%%%%%%%%%%####********************************************************************####%%%%%%%%%%%%%%%%%%%%&&&&&&&&&&&&&&&&&&&&&&&&&&&&&&&&&&&&&&&&&&&&&&&&&&&&&&&&&&&&&&&&&&&&&&&&&&&&&&&&%%%%%%%%%%%%%%%%####******************************************************************************************************************************************************************",
"****************************************************************************************************************************************************************************####%%%%%%%%%%%%&&&&&&&&&&&&&&&&&&&&&&&&&&&&&&&&&&&&&&&&&&&&&&&&&&&&&&&&&&&&&&&&&&&&%%%%%%%%%%%%%%%%####********************************************************************####%%%%%%%%%%%%%%%%%%%%&&&&&&&&&&&&&&&&&&&&&&&&&&&&&&&&&&&&&&&&&&&&&&&&&&&&&&&&&&&&&&&&&&&&&&&&&&&&&&&&%%%%%%%%%%%%%%%%####******************************************************************************************************************************************************************",
"****************************************************************************************************************************************************************************####%%%%%%%%%%%%&&&&&&&&&&&&&&&&&&&&&&&&&&&&&&&&&&&&&&&&&&&&&&&&&&&&&&&&&&&&&&&&&&&&%%%%%%%%%%%%%%%%####********************************************************************####%%%%%%%%%%%%%%%%%%%%&&&&&&&&&&&&&&&&&&&&&&&&&&&&&&&&&&&&&&&&&&&&&&&&&&&&&&&&&&&&&&&&&&&&&&&&&&&&&&&&%%%%%%%%%%%%%%%%####******************************************************************************************************************************************************************",
"****************************************************************************************************************************************************************************####%%%%%%%%%%%%&&&&&&&&&&&&&&&&&&&&&&&&&&&&&&&&&&&&&&&&&&&&&&&&&&&&&&&&&&&&&&&&&&&&%%%%%%%%%%%%####************************************************************************####%%%%%%%%%%%%%%%%%%%%&&&&&&&&&&&&&&&&&&&&&&&&&&&&&&&&&&&&&&&&&&&&&&&&&&&&&&&&&&&&&&&&&&&&&&&&&&&&&&&&&&&&%%%%%%%%%%%%####******************************************************************************************************************************************************************",
"****************************************************************************************************************************************************************************####%%%%%%%%%%%%&&&&&&&&&&&&&&&&&&&&&&&&&&&&&&&&&&&&&&&&&&&&&&&&&&&&&&&&&&&&&&&&&&&&%%%%%%%%%%%%####************************************************************************####%%%%%%%%%%%%%%%%%%%%&&&&&&&&&&&&&&&&&&&&&&&&&&&&&&&&&&&&&&&&&&&&&&&&&&&&&&&&&&&&&&&&&&&&&&&&&&&&&&&&&&&&%%%%%%%%%%%%####******************************************************************************************************************************************************************",
"****************************************************************************************************************************************************************************####%%%%%%%%%%%%&&&&&&&&&&&&&&&&&&&&&&&&&&&&&&&&&&&&&&&&&&&&&&&&&&&&&&&&&&&&&&&&&&&&%%%%%%%%%%%%####************************************************************************####%%%%%%%%%%%%%%%%%%%%&&&&&&&&&&&&&&&&&&&&&&&&&&&&&&&&&&&&&&&&&&&&&&&&&&&&&&&&&&&&&&&&&&&&&&&&&&&&&&&&&&&&%%%%%%%%%%%%####******************************************************************************************************************************************************************",
"****************************************************************************************************************************************************************************####%%%%%%%%%%%%&&&&&&&&&&&&&&&&&&&&&&&&&&&&&&&&&&&&&&&&&&&&&&&&&&&&&&&&&&&&&&&&&&&&%%%%%%%%%%%%####************************************************************************####%%%%%%%%%%%%%%%%%%%%&&&&&&&&&&&&&&&&&&&&&&&&&&&&&&&&&&&&&&&&&&&&&&&&&&&&&&&&&&&&&&&&&&&&&&&&&&&&&&&&&&&&%%%%%%%%%%%%####******************************************************************************************************************************************************************",
"************************************************************************************************************************************************************************####%%%%%%%%%%%%%%%%&&&&&&&&&&&&&&&&&&&&&&&&&&&&&&&&&&&&&&&&&&&&&&&&&&&&&&&&&&&&&&&&&&&&%%%%%%%%%%%%####************************************************************************####%%%%%%%%%%%%%%%%%%%%%%%%&&&&&&&&&&&&&&&&&&&&&&&&&&&&&&&&&&&&&&&&&&&&&&&&&&&&&&&&&&&&&&&&&&&&&&&&&&&&&&&&%%%%%%%%%%%%%%%%####**************************************************************************************************************************************************************",
"************************************************************************************************************************************************************************####%%%%%%%%%%%%%%%%&&&&&&&&&&&&&&&&&&&&&&&&&&&&&&&&&&&&&&&&&&&&&&&&&&&&&&&&&&&&&&&&&&&&%%%%%%%%%%%%####************************************************************************####%%%%%%%%%%%%%%%%%%%%%%%%&&&&&&&&&&&&&&&&&&&&&&&&&&&&&&&&&&&&&&&&&&&&&&&&&&&&&&&&&&&&&&&&&&&&&&&&&&&&&&&&%%%%%%%%%%%%%%%%####**************************************************************************************************************************************************************",
"************************************************************************************************************************************************************************####%%%%%%%%%%%%%%%%&&&&&&&&&&&&&&&&&&&&&&&&&&&&&&&&&&&&&&&&&&&&&&&&&&&&&&&&&&&&&&&&&&&&%%%%%%%%%%%%####************************************************************************####%%%%%%%%%%%%%%%%%%%%%%%%&&&&&&&&&&&&&&&&&&&&&&&&&&&&&&&&&&&&&&&&&&&&&&&&&&&&&&&&&&&&&&&&&&&&&&&&&&&&&&&&%%%%%%%%%%%%%%%%####**************************************************************************************************************************************************************",
"************************************************************************************************************************************************************************####%%%%%%%%%%%%%%%%&&&&&&&&&&&&&&&&&&&&&&&&&&&&&&&&&&&&&&&&&&&&&&&&&&&&&&&&&&&&&&&&&&&&%%%%%%%%%%%%####************************************************************************####%%%%%%%%%%%%%%%%%%%%%%%%&&&&&&&&&&&&&&&&&&&&&&&&&&&&&&&&&&&&&&&&&&&&&&&&&&&&&&&&&&&&&&&&&&&&&&&&&&&&&&&&%%%%%%%%%%%%%%%%####**************************************************************************************************************************************************************",
"************************************************************************************************************************************************************************####%%%%%%%%%%%%&&&&&&&&&&&&&&&&&&&&&&&&&&&&&&&&&&&&&&&&&&&&&&&&&&&&&&&&&&&&&&&&&&&&%%%%%%%%%%%%%%%%####****************************************************************************####%%%%%%%%%%%%%%%%%%%%&&&&&&&&&&&&&&&&&&&&&&&&&&&&&&&&&&&&&&&&&&&&&&&&&&&&&&&&&&&&&&&&&&&&&&&&&&&&&&&&%%%%%%%%%%%%%%%%####**************************************************************************************************************************************************************",
"************************************************************************************************************************************************************************####%%%%%%%%%%%%&&&&&&&&&&&&&&&&&&&&&&&&&&&&&&&&&&&&&&&&&&&&&&&&&&&&&&&&&&&&&&&&&&&&%%%%%%%%%%%%%%%%####****************************************************************************####%%%%%%%%%%%%%%%%%%%%&&&&&&&&&&&&&&&&&&&&&&&&&&&&&&&&&&&&&&&&&&&&&&&&&&&&&&&&&&&&&&&&&&&&&&&&&&&&&&&&%%%%%%%%%%%%%%%%####**************************************************************************************************************************************************************",
"************************************************************************************************************************************************************************####%%%%%%%%%%%%&&&&&&&&&&&&&&&&&&&&&&&&&&&&&&&&&&&&&&&&&&&&&&&&&&&&&&&&&&&&&&&&&&&&%%%%%%%%%%%%%%%%####****************************************************************************####%%%%%%%%%%%%%%%%%%%%&&&&&&&&&&&&&&&&&&&&&&&&&&&&&&&&&&&&&&&&&&&&&&&&&&&&&&&&&&&&&&&&&&&&&&&&&&&&&&&&%%%%%%%%%%%%%%%%####**************************************************************************************************************************************************************",
"************************************************************************************************************************************************************************####%%%%%%%%%%%%&&&&&&&&&&&&&&&&&&&&&&&&&&&&&&&&&&&&&&&&&&&&&&&&&&&&&&&&&&&&&&&&&&&&%%%%%%%%%%%%%%%%####****************************************************************************####%%%%%%%%%%%%%%%%%%%%&&&&&&&&&&&&&&&&&&&&&&&&&&&&&&&&&&&&&&&&&&&&&&&&&&&&&&&&&&&&&&&&&&&&&&&&&&&&&&&&%%%%%%%%%%%%%%%%####**************************************************************************************************************************************************************",
"********************************************************************************************************************************************************************####%%%%%%%%%%%%%%%%&&&&&&&&&&&&&&&&&&&&&&&&&&&&&&&&&&&&&&&&&&&&&&&&&&&&&&&&&&&&&&&&&&&&%%%%%%%%%%%%%%%%####****************************************************************************####%%%%%%%%%%%%%%%%%%%%&&&&&&&&&&&&&&&&&&&&&&&&&&&&&&&&&&&&&&&&&&&&&&&&&&&&&&&&&&&&&&&&&&&&&&&&&&&&&&&&&&&&%%%%%%%%%%%%%%%%####**********************************************************************************************************************************************************",
"********************************************************************************************************************************************************************####%%%%%%%%%%%%%%%%&&&&&&&&&&&&&&&&&&&&&&&&&&&&&&&&&&&&&&&&&&&&&&&&&&&&&&&&&&&&&&&&&&&&%%%%%%%%%%%%%%%%####****************************************************************************####%%%%%%%%%%%%%%%%%%%%&&&&&&&&&&&&&&&&&&&&&&&&&&&&&&&&&&&&&&&&&&&&&&&&&&&&&&&&&&&&&&&&&&&&&&&&&&&&&&&&&&&&%%%%%%%%%%%%%%%%####**********************************************************************************************************************************************************",
"********************************************************************************************************************************************************************####%%%%%%%%%%%%%%%%&&&&&&&&&&&&&&&&&&&&&&&&&&&&&&&&&&&&&&&&&&&&&&&&&&&&&&&&&&&&&&&&&&&&%%%%%%%%%%%%%%%%####****************************************************************************####%%%%%%%%%%%%%%%%%%%%&&&&&&&&&&&&&&&&&&&&&&&&&&&&&&&&&&&&&&&&&&&&&&&&&&&&&&&&&&&&&&&&&&&&&&&&&&&&&&&&&&&&%%%%%%%%%%%%%%%%####**********************************************************************************************************************************************************",
"********************************************************************************************************************************************************************####%%%%%%%%%%%%%%%%&&&&&&&&&&&&&&&&&&&&&&&&&&&&&&&&&&&&&&&&&&&&&&&&&&&&&&&&&&&&&&&&&&&&%%%%%%%%%%%%%%%%####****************************************************************************####%%%%%%%%%%%%%%%%%%%%&&&&&&&&&&&&&&&&&&&&&&&&&&&&&&&&&&&&&&&&&&&&&&&&&&&&&&&&&&&&&&&&&&&&&&&&&&&&&&&&&&&&%%%%%%%%%%%%%%%%####**********************************************************************************************************************************************************",
"********************************************************************************************************************************************************************####%%%%%%%%%%%%%%%%&&&&&&&&&&&&&&&&&&&&&&&&&&&&&&&&&&&&&&&&&&&&&&&&&&&&&&&&&&&&&&&&&&&&%%%%%%%%%%%%####********************************************************************************####%%%%%%%%%%%%%%%%%%%%&&&&&&&&&&&&&&&&&&&&&&&&&&&&&&&&&&&&&&&&&&&&&&&&&&&&&&&&&&&&&&&&&&&&&&&&&&&&&&&&&&&&%%%%%%%%%%%%%%%%####**********************************************************************************************************************************************************",
"********************************************************************************************************************************************************************####%%%%%%%%%%%%%%%%&&&&&&&&&&&&&&&&&&&&&&&&&&&&&&&&&&&&&&&&&&&&&&&&&&&&&&&&&&&&&&&&&&&&%%%%%%%%%%%%####********************************************************************************####%%%%%%%%%%%%%%%%%%%%&&&&&&&&&&&&&&&&&&&&&&&&&&&&&&&&&&&&&&&&&&&&&&&&&&&&&&&&&&&&&&&&&&&&&&&&&&&&&&&&&&&&%%%%%%%%%%%%%%%%####**********************************************************************************************************************************************************",
"********************************************************************************************************************************************************************####%%%%%%%%%%%%%%%%&&&&&&&&&&&&&&&&&&&&&&&&&&&&&&&&&&&&&&&&&&&&&&&&&&&&&&&&&&&&&&&&&&&&%%%%%%%%%%%%####********************************************************************************####%%%%%%%%%%%%%%%%%%%%&&&&&&&&&&&&&&&&&&&&&&&&&&&&&&&&&&&&&&&&&&&&&&&&&&&&&&&&&&&&&&&&&&&&&&&&&&&&&&&&&&&&%%%%%%%%%%%%%%%%####**********************************************************************************************************************************************************",
"********************************************************************************************************************************************************************####%%%%%%%%%%%%%%%%&&&&&&&&&&&&&&&&&&&&&&&&&&&&&&&&&&&&&&&&&&&&&&&&&&&&&&&&&&&&&&&&&&&&%%%%%%%%%%%%####********************************************************************************####%%%%%%%%%%%%%%%%%%%%&&&&&&&&&&&&&&&&&&&&&&&&&&&&&&&&&&&&&&&&&&&&&&&&&&&&&&&&&&&&&&&&&&&&&&&&&&&&&&&&&&&&%%%%%%%%%%%%%%%%####**********************************************************************************************************************************************************",
"****************************************************************************************************************************************************************####%%%%%%%%%%%%%%%%&&&&&&&&&&&&&&&&&&&&&&&&&&&&&&&&&&&&&&&&&&&&&&&&&&&&&&&&&&&&&&&&&&&&&&&&%%%%%%%%%%%%####********************************************************************************####%%%%%%%%%%%%%%%%%%%%&&&&&&&&&&&&&&&&&&&&&&&&&&&&&&&&&&&&&&&&&&&&&&&&&&&&&&&&&&&&&&&&&&&&&&&&&&&&&&&&&&&&&&&&%%%%%%%%%%%%%%%%####******************************************************************************************************************************************************",
"****************************************************************************************************************************************************************####%%%%%%%%%%%%%%%%&&&&&&&&&&&&&&&&&&&&&&&&&&&&&&&&&&&&&&&&&&&&&&&&&&&&&&&&&&&&&&&&&&&&&&&&%%%%%%%%%%%%####********************************************************************************####%%%%%%%%%%%%%%%%%%%%&&&&&&&&&&&&&&&&&&&&&&&&&&&&&&&&&&&&&&&&&&&&&&&&&&&&&&&&&&&&&&&&&&&&&&&&&&&&&&&&&&&&&&&&%%%%%%%%%%%%%%%%####******************************************************************************************************************************************************",
"****************************************************************************************************************************************************************####%%%%%%%%%%%%%%%%&&&&&&&&&&&&&&&&&&&&&&&&&&&&&&&&&&&&&&&&&&&&&&&&&&&&&&&&&&&&&&&&&&&&&&&&%%%%%%%%%%%%####********************************************************************************####%%%%%%%%%%%%%%%%%%%%&&&&&&&&&&&&&&&&&&&&&&&&&&&&&&&&&&&&&&&&&&&&&&&&&&&&&&&&&&&&&&&&&&&&&&&&&&&&&&&&&&&&&&&&%%%%%%%%%%%%%%%%####******************************************************************************************************************************************************",
"****************************************************************************************************************************************************************####%%%%%%%%%%%%%%%%&&&&&&&&&&&&&&&&&&&&&&&&&&&&&&&&&&&&&&&&&&&&&&&&&&&&&&&&&&&&&&&&&&&&&&&&%%%%%%%%%%%%####********************************************************************************####%%%%%%%%%%%%%%%%%%%%&&&&&&&&&&&&&&&&&&&&&&&&&&&&&&&&&&&&&&&&&&&&&&&&&&&&&&&&&&&&&&&&&&&&&&&&&&&&&&&&&&&&&&&&%%%%%%%%%%%%%%%%####******************************************************************************************************************************************************",
"****************************************************************************************************************************************************************####%%%%%%%%%%%%%%%%&&&&&&&&&&&&&&&&&&&&&&&&&&&&&&&&&&&&&&&&&&&&&&&&&&&&&&&&&&&&&&&&&&&&%%%%%%%%%%%%%%%%####********************************************************************************####%%%%%%%%%%%%%%%%%%%%%%%%&&&&&&&&&&&&&&&&&&&&&&&&&&&&&&&&&&&&&&&&&&&&&&&&&&&&&&&&&&&&&&&&&&&&&&&&&&&&&&&&&&&&%%%%%%%%%%%%%%%%####******************************************************************************************************************************************************",
"****************************************************************************************************************************************************************####%%%%%%%%%%%%%%%%&&&&&&&&&&&&&&&&&&&&&&&&&&&&&&&&&&&&&&&&&&&&&&&&&&&&&&&&&&&&&&&&&&&&%%%%%%%%%%%%%%%%####********************************************************************************####%%%%%%%%%%%%%%%%%%%%%%%%&&&&&&&&&&&&&&&&&&&&&&&&&&&&&&&&&&&&&&&&&&&&&&&&&&&&&&&&&&&&&&&&&&&&&&&&&&&&&&&&&&&&%%%%%%%%%%%%%%%%####******************************************************************************************************************************************************",
"****************************************************************************************************************************************************************####%%%%%%%%%%%%%%%%&&&&&&&&&&&&&&&&&&&&&&&&&&&&&&&&&&&&&&&&&&&&&&&&&&&&&&&&&&&&&&&&&&&&%%%%%%%%%%%%%%%%####********************************************************************************####%%%%%%%%%%%%%%%%%%%%%%%%&&&&&&&&&&&&&&&&&&&&&&&&&&&&&&&&&&&&&&&&&&&&&&&&&&&&&&&&&&&&&&&&&&&&&&&&&&&&&&&&&&&&%%%%%%%%%%%%%%%%####******************************************************************************************************************************************************",
"****************************************************************************************************************************************************************####%%%%%%%%%%%%%%%%&&&&&&&&&&&&&&&&&&&&&&&&&&&&&&&&&&&&&&&&&&&&&&&&&&&&&&&&&&&&&&&&&&&&%%%%%%%%%%%%%%%%####********************************************************************************####%%%%%%%%%%%%%%%%%%%%%%%%&&&&&&&&&&&&&&&&&&&&&&&&&&&&&&&&&&&&&&&&&&&&&&&&&&&&&&&&&&&&&&&&&&&&&&&&&&&&&&&&&&&&%%%%%%%%%%%%%%%%####******************************************************************************************************************************************************",
"************************************************************************************************************************************************************####%%%%%%%%%%%%%%%%%%%%&&&&&&&&&&&&&&&&&&&&&&&&&&&&&&&&&&&&&&&&&&&&&&&&&&&&&&&&&&&&&&&&&&&&%%%%%%%%%%%%####************************************************************************************####%%%%%%%%%%%%%%%%%%%%%%%%&&&&&&&&&&&&&&&&&&&&&&&&&&&&&&&&&&&&&&&&&&&&&&&&&&&&&&&&&&&&&&&&&&&&&&&&&&&&&&&&&&&&%%%%%%%%%%%%%%%%%%%%####**************************************************************************************************************************************************",
"************************************************************************************************************************************************************####%%%%%%%%%%%%%%%%%%%%&&&&&&&&&&&&&&&&&&&&&&&&&&&&&&&&&&&&&&&&&&&&&&&&&&&&&&&&&&&&&&&&&&&&%%%%%%%%%%%%####************************************************************************************####%%%%%%%%%%%%%%%%%%%%%%%%&&&&&&&&&&&&&&&&&&&&&&&&&&&&&&&&&&&&&&&&&&&&&&&&&&&&&&&&&&&&&&&&&&&&&&&&&&&&&&&&&&&&%%%%%%%%%%%%%%%%%%%%####**************************************************************************************************************************************************",
"************************************************************************************************************************************************************####%%%%%%%%%%%%%%%%%%%%&&&&&&&&&&&&&&&&&&&&&&&&&&&&&&&&&&&&&&&&&&&&&&&&&&&&&&&&&&&&&&&&&&&&%%%%%%%%%%%%####************************************************************************************####%%%%%%%%%%%%%%%%%%%%%%%%&&&&&&&&&&&&&&&&&&&&&&&&&&&&&&&&&&&&&&&&&&&&&&&&&&&&&&&&&&&&&&&&&&&&&&&&&&&&&&&&&&&&%%%%%%%%%%%%%%%%%%%%####**************************************************************************************************************************************************",
"************************************************************************************************************************************************************####%%%%%%%%%%%%%%%%%%%%&&&&&&&&&&&&&&&&&&&&&&&&&&&&&&&&&&&&&&&&&&&&&&&&&&&&&&&&&&&&&&&&&&&&%%%%%%%%%%%%####************************************************************************************####%%%%%%%%%%%%%%%%%%%%%%%%&&&&&&&&&&&&&&&&&&&&&&&&&&&&&&&&&&&&&&&&&&&&&&&&&&&&&&&&&&&&&&&&&&&&&&&&&&&&&&&&&&&&%%%%%%%%%%%%%%%%%%%%####**************************************************************************************************************************************************",
"************************************************************************************************************************************************************####%%%%%%%%%%%%%%%%&&&&&&&&&&&&&&&&&&&&&&&&&&&&&&&&&&&&&&&&&&&&&&&&&&&&&&&&&&&&&&&&&&&&&&&&%%%%%%%%%%%%####************************************************************************************####%%%%%%%%%%%%%%%%%%%%%%%%&&&&&&&&&&&&&&&&&&&&&&&&&&&&&&&&&&&&&&&&&&&&&&&&&&&&&&&&&&&&&&&&&&&&&&&&&&&&&&&&&&&&&&&&%%%%%%%%%%%%%%%%####**************************************************************************************************************************************************",
"************************************************************************************************************************************************************####%%%%%%%%%%%%%%%%&&&&&&&&&&&&&&&&&&&&&&&&&&&&&&&&&&&&&&&&&&&&&&&&&&&&&&&&&&&&&&&&&&&&&&&&%%%%%%%%%%%%####************************************************************************************####%%%%%%%%%%%%%%%%%%%%%%%%&&&&&&&&&&&&&&&&&&&&&&&&&&&&&&&&&&&&&&&&&&&&&&&&&&&&&&&&&&&&&&&&&&&&&&&&&&&&&&&&&&&&&&&&%%%%%%%%%%%%%%%%####**************************************************************************************************************************************************",
"************************************************************************************************************************************************************####%%%%%%%%%%%%%%%%&&&&&&&&&&&&&&&&&&&&&&&&&&&&&&&&&&&&&&&&&&&&&&&&&&&&&&&&&&&&&&&&&&&&&&&&%%%%%%%%%%%%####************************************************************************************####%%%%%%%%%%%%%%%%%%%%%%%%&&&&&&&&&&&&&&&&&&&&&&&&&&&&&&&&&&&&&&&&&&&&&&&&&&&&&&&&&&&&&&&&&&&&&&&&&&&&&&&&&&&&&&&&%%%%%%%%%%%%%%%%####**************************************************************************************************************************************************",
"************************************************************************************************************************************************************####%%%%%%%%%%%%%%%%&&&&&&&&&&&&&&&&&&&&&&&&&&&&&&&&&&&&&&&&&&&&&&&&&&&&&&&&&&&&&&&&&&&&&&&&%%%%%%%%%%%%####************************************************************************************####%%%%%%%%%%%%%%%%%%%%%%%%&&&&&&&&&&&&&&&&&&&&&&&&&&&&&&&&&&&&&&&&&&&&&&&&&&&&&&&&&&&&&&&&&&&&&&&&&&&&&&&&&&&&&&&&%%%%%%%%%%%%%%%%####**************************************************************************************************************************************************",
"********************************************************************************************************************************************************####%%%%%%%%%%%%%%%%%%%%&&&&&&&&&&&&&&&&&&&&&&&&&&&&&&&&&&&&&&&&&&&&&&&&&&&&&&&&&&&&&&&&&&&&&&&&%%%%%%%%%%%%####****************************************************************************************XXXXXXXXXXXXXXXXXXXX%%%%&&&&&&&&&&&&&&&&&&&&&&&&&&&&&&&&&&&&&&&&&&&&&&&&&&&&&&&&&&&&&&&&&&&&&&&&&&&&&&&&&&&&&&&&%%%%%%%%%%%%%%%%%%%%####**********************************************************************************************************************************************",
"********************************************************************************************************************************************************####%%%%%%%%%%%%%%%%%%%%&&&&&&&&&&&&&&&&&&&&&&&&&&&&&&&&&&&&&&&&&&&&&&&&&&&&&&&&&&&&&&&&&&&&&&&&%%%%%%%%%%%%####****************************************************************************************XXXXXXXXXXXXXXXXXXXX%%%%&&&&&&&&&&&&&&&&&&&&&&&&&&&&&&&&&&&&&&&&&&&&&&&&&&&&&&&&&&&&&&&&&&&&&&&&&&&&&&&&&&&&&&&&%%%%%%%%%%%%%%%%%%%%####**********************************************************************************************************************************************",
"********************************************************************************************************************************************************####%%%%%%%%%%%%%%%%%%%%&&&&&&&&&&&&&&&&&&&&&&&&&&&&&&&&&&&&&&&&&&&&&&&&&&&&&&&&&&&&&&&&&&&&&&&&%%%%%%%%%%%%####****************************************************************************************XXXXXXXXXXXXXXXXXXXX%%%%&&&&&&&&&&&&&&&&&&&&&&&&&&&&&&&&&&&&&&&&&&&&&&&&&&&&&&&&&&&&&&&&&&&&&&&&&&&&&&&&&&&&&&&&%%%%%%%%%%%%%%%%%%%%####**********************************************************************************************************************************************",
"********************************************************************************************************************************************************####%%%%%%%%%%%%%%%%%%%%&&&&&&&&&&&&&&&&&&&&&&&&&&&&&&&&&&&&&&&&&&&&&&&&&&&&&&&&&&&&&&&&&&&&&&&&%%%%%%%%%%%%####****************************************************************************************XXXXXXXXXXXXXXXXXXXX%%%%&&&&&&&&&&&&&&&&&&&&&&&&&&&&&&&&&&&&&&&&&&&&&&&&&&&&&&&&&&&&&&&&&&&&&&&&&&&&&&&&&&&&&&&&%%%%%%%%%%%%%%%%%%%%####**********************************************************************************************************************************************",
"********************************************************************************************************************************************************####%%%%%%%%%%%%%%%%%%%%&&&&&&&&&&&&&&&&&&&&&&&&&&&&&&&&&&&&&&&&&&&&&&&&&&&&&&&&&&&&&&&&&&&&%%%%%%%%%%%%%%%%####****************************************************************************************XXXXXXXXXXXXXXXXXXXXXXXXOOOOOOOOOOOOOOOOOOOOOOOO&&&&&&&&&&&&&&&&&&&&&&&&&&&&&&&&&&&&&&&&&&&&&&&&&&&&&&&&&&&&&&&&%%%%%%%%%%%%%%%%%%%%####**********************************************************************************************************************************************",
"********************************************************************************************************************************************************####%%%%%%%%%%%%%%%%%%%%&&&&&&&&&&&&&&&&&&&&&&&&&&&&&&&&&&&&&&&&&&&&&&&&&&&&&&&&&&&&&&&&&&&&%%%%%%%%%%%%%%%%####****************************************************************************************XXXXXXXXXXXXXXXXXXXXXXXXOOOOOOOOOOOOOOOOOOOOOOOO&&&&&&&&&&&&&&&&&&&&&&&&&&&&&&&&&&&&&&&&&&&&&&&&&&&&&&&&&&&&&&&&%%%%%%%%%%%%%%%%%%%%####**********************************************************************************************************************************************",
"********************************************************************************************************************************************************####%%%%%%%%%%%%%%%%%%%%&&&&&&&&&&&&&&&&&&&&&&&&&&&&&&&&&&&&&&&&&&&&&&&&&&&&&&&&&&&&&&&&&&&&%%%%%%%%%%%%%%%%####****************************************************************************************XXXXXXXXXXXXXXXXXXXXXXXXOOOOOOOOOOOOOOOOOOOOOOOO&&&&&&&&&&&&&&&&&&&&&&&&&&&&&&&&&&&&&&&&&&&&&&&&&&&&&&&&&&&&&&&&%%%%%%%%%%%%%%%%%%%%####**********************************************************************************************************************************************",
"********************************************************************************************************************************************************####%%%%%%%%%%%%%%%%%%%%&&&&&&&&&&&&&&&&&&&&&&&&&&&&&&&&&&&&&&&&&&&&&&&&&&&&&&&&&&&&&&&&&&&&%%%%%%%%%%%%%%%%####****************************************************************************************XXXXXXXXXXXXXXXXXXXXXXXXOOOOOOOOOOOOOOOOOOOOOOOO&&&&&&&&&&&&&&&&&&&&&&&&&&&&&&&&&&&&&&&&&&&&&&&&&&&&&&&&&&&&&&&&%%%%%%%%%%%%%%%%%%%%####**********************************************************************************************************************************************",
"****************************************************************************************************************************************************####%%%%%%%%%%%%%%%%%%%%&&&&&&&&OOOOOOOOOOOOOOOOOOOOOOOOOOOO&&&&&&&&&&&&&&&&&&&&&&&&&&&&&&&&&&&&%%%%%%%%%%%%####********************************************************************************************XXXXXXXXXXXXXXXXXXXXXXXXOOOOOOOOOOOOOOOOOOOOOOOOOOOOOOOOOOOOOOOO&&&&&&&&&&&&&&&&&&&&&&&&&&&&&&&&&&&&&&&&&&&&&&&&&&&&%%%%%%%%%%%%%%%%%%%%####******************************************************************************************************************************************",
"****************************************************************************************************************************************************####%%%%%%%%%%%%%%%%%%%%&&&&&&&&OOOOOOOOOOOOOOOOOOOOOOOOOOOO&&&&&&&&&&&&&&&&&&&&&&&&&&&&&&&&&&&&%%%%%%%%%%%%####********************************************************************************************XXXXXXXXXXXXXXXXXXXXXXXXOOOOOOOOOOOOOOOOOOOOOOOOOOOOOOOOOOOOOOOO&&&&&&&&&&&&&&&&&&&&&&&&&&&&&&&&&&&&&&&&&&&&&&&&&&&&%%%%%%%%%%%%%%%%%%%%####******************************************************************************************************************************************",
"****************************************************************************************************************************************************####%%%%%%%%%%%%%%%%%%%%&&&&&&&&OOOOOOOOOOOOOOOOOOOOOOOOOOOO&&&&&&&&&&&&&&&&&&&&&&&&&&&&&&&&&&&&%%%%%%%%%%%%####********************************************************************************************XXXXXXXXXXXXXXXXXXXXXXXXOOOOOOOOOOOOOOOOOOOOOOOOOOOOOOOOOOOOOOOO&&&&&&&&&&&&&&&&&&&&&&&&&&&&&&&&&&&&&&&&&&&&&&&&&&&&%%%%%%%%%%%%%%%%%%%%####******************************************************************************************************************************************",
"****************************************************************************************************************************************************####%%%%%%%%%%%%%%%%%%%%&&&&&&&&OOOOOOOOOOOOOOOOOOOOOOOOOOOO&&&&&&&&&&&&&&&&&&&&&&&&&&&&&&&&&&&&%%%%%%%%%%%%####********************************************************************************************XXXXXXXXXXXXXXXXXXXXXXXXOOOOOOOOOOOOOOOOOOOOOOOOOOOOOOOOOOOOOOOO&&&&&&&&&&&&&&&&&&&&&&&&&&&&&&&&&&&&&&&&&&&&&&&&&&&&%%%%%%%%%%%%%%%%%%%%####******************************************************************************************************************************************",
"****************************************************************************************************************************************************####%%%%%%%%%%%%%%%%%%%%&&&&&&&&&&&&OOOOOOOOOOOOOOOOOOOOOOOOOOOOOOOOOOOOOOOOOOOO&&&&&&&&&&&&&&&&%%%%%%%%%%%%####********************************************************************************************XXXXXXXXXXXXXXXXXXXXXXXXXXXXOOOOOOOOOOOOOOOOOOOOOOOOOOOOOOOO&&&&&&&&&&&&&&&&&&&&&&&&&&&&&&&&&&&&&&&&&&&&&&&&&&&&&&&&%%%%%%%%%%%%%%%%%%%%####******************************************************************************************************************************************",
"****************************************************************************************************************************************************####%%%%%%%%%%%%%%%%%%%%&&&&&&&&&&&&OOOOOOOOOOOOOOOOOOOOOOOOOOOOOOOOOOOOOOOOOOOO&&&&&&&&&&&&&&&&%%%%%%%%%%%%####********************************************************************************************XXXXXXXXXXXXXXXXXXXXXXXXXXXXOOOOOOOOOOOOOOOOOOOOOOOOOOOOOOOO&&&&&&&&&&&&&&&&&&&&&&&&&&&&&&&&&&&&&&&&&&&&&&&&&&&&&&&&%%%%%%%%%%%%%%%%%%%%####******************************************************************************************************************************************",
"****************************************************************************************************************************************************####%%%%%%%%%%%%%%%%%%%%&&&&&&&&&&&&OOOOOOOOOOOOOOOOOOOOOOOOOOOOOOOOOOOOOOOOOOOO&&&&&&&&&&&&&&&&%%%%%%%%%%%%####********************************************************************************************XXXXXXXXXXXXXXXXXXXXXXXXXXXXOOOOOOOOOOOOOOOOOOOOOOOOOOOOOOOO&&&&&&&&&&&&&&&&&&&&&&&&&&&&&&&&&&&&&&&&&&&&&&&&&&&&&&&&%%%%%%%%%%%%%%%%%%%%####******************************************************************************************************************************************",
"****************************************************************************************************************************************************####%%%%%%%%%%%%%%%%%%%%&&&&&&&&&&&&OOOOOOOOOOOOOOOOOOOOOOOOOOOOOOOOOOOOOOOOOOOO&&&&&&&&&&&&&&&&%%%%%%%%%%%%####********************************************************************************************XXXXXXXXXXXXXXXXXXXXXXXXXXXXOOOOOOOOOOOOOOOOOOOOOOOOOOOOOOOO&&&&&&&&&&&&&&&&&&&&&&&&&&&&&&&&&&&&&&&&&&&&&&&&&&&&&&&&%%%%%%%%%%%%%%%%%%%%####******************************************************************************************************************************************",
"************************************************************************************************************************************************####%%%%%%%%%%%%%%%%%%%%%%%%&&&&&&&&&&&&&&&&OOOOOOOOOOOOOOOOOOOOOOOOOOOOOOOOOOOOOOOOOOOOOOOOOOOOXXXX%%%%%%%%%%%%####********************************************************************************************XXXXXXXXXXXXXXXXXXXXXXXXXXXXOOOOOOOOOOOOOOOOOOOOOOOOOOOO&&&&&&&&&&&&&&&&&&&&&&&&&&&&&&&&&&&&&&&&&&&&&&&&&&&&&&&&&&&&%%%%%%%%%%%%%%%%%%%%%%%%####**************************************************************************************************************************************",
"************************************************************************************************************************************************####%%%%%%%%%%%%%%%%%%%%%%%%&&&&&&&&&&&&&&&&OOOOOOOOOOOOOOOOOOOOOOOOOOOOOOOOOOOOOOOOOOOOOOOOOOOOXXXX%%%%%%%%%%%%####********************************************************************************************XXXXXXXXXXXXXXXXXXXXXXXXXXXXOOOOOOOOOOOOOOOOOOOOOOOOOOOO&&&&&&&&&&&&&&&&&&&&&&&&&&&&&&&&&&&&&&&&&&&&&&&&&&&&&&&&&&&&%%%%%%%%%%%%%%%%%%%%%%%%####**************************************************************************************************************************************",
"************************************************************************************************************************************************####%%%%%%%%%%%%%%%%%%%%%%%%&&&&&&&&&&&&&&&&OOOOOOOOOOOOOOOOOOOOOOOOOOOOOOOOOOOOOOOOOOOOOOOOOOOOXXXX%%%%%%%%%%%%####********************************************************************************************XXXXXXXXXXXXXXXXXXXXXXXXXXXXOOOOOOOOOOOOOOOOOOOOOOOOOOOO&&&&&&&&&&&&&&&&&&&&&&&&&&&&&&&&&&&&&&&&&&&&&&&&&&&&&&&&&&&&%%%%%%%%%%%%%%%%%%%%%%%%####**************************************************************************************************************************************",
"************************************************************************************************************************************************####%%%%%%%%%%%%%%%%%%%%%%%%&&&&&&&&&&&&&&&&OOOOOOOOOOOOOOOOOOOOOOOOOOOOOOOOOOOOOOOOOOOOOOOOOOOOXXXX%%%%%%%%%%%%####********************************************************************************************XXXXXXXXXXXXXXXXXXXXXXXXXXXXOOOOOOOOOOOOOOOOOOOOOOOOOOOO&&&&&&&&&&&&&&&&&&&&&&&&&&&&&&&&&&&&&&&&&&&&&&&&&&&&&&&&&&&&%%%%%%%%%%%%%%%%%%%%%%%%####**************************************************************************************************************************************",
"************************************************************************************************************************************************####%%%%%%%%%%%%%%%%%%%%&&&&&&&&&&&&&&&&&&&&&&&&OOOOOOOOOOOOOOOOOOOOOOOOOOOOOOOOOOOOOOOOOOOOOOOOXXXXXXXXXXXXXXXX####********************************************************************************************XXXXXXXXXXXXXXXXXXXXXXXXXXXXOOOOOOOOOOOOOOOOOOOOOOOO&&&&&&&&&&&&&&&&&&&&&&&&&&&&&&&&&&&&&&&&&&&&&&&&&&&&&&&&&&&&&&&&&&&&%%%%%%%%%%%%%%%%%%%%####**************************************************************************************************************************************",
"************************************************************************************************************************************************####%%%%%%%%%%%%%%%%%%%%&&&&&&&&&&&&&&&&&&&&&&&&OOOOOOOOOOOOOOOOOOOOOOOOOOOOOOOOOOOOOOOOOOOOOOOOXXXXXXXXXXXXXXXX####********************************************************************************************XXXXXXXXXXXXXXXXXXXXXXXXXXXXOOOOOOOOOOOOOOOOOOOOOOOO&&&&&&&&&&&&&&&&&&&&&&&&&&&&&&&&&&&&&&&&&&&&&&&&&&&&&&&&&&&&&&&&&&&&%%%%%%%%%%%%%%%%%%%%####**************************************************************************************************************************************",
"************************************************************************************************************************************************####%%%%%%%%%%%%%%%%%%%%&&&&&&&&&&&&&&&&&&&&&&&&OOOOOOOOOOOOOOOOOOOOOOOOOOOOOOOOOOOOOOOOOOOOOOOOXXXXXXXXXXXXXXXX####********************************************************************************************XXXXXXXXXXXXXXXXXXXXXXXXXXXXOOOOOOOOOOOOOOOOOOOOOOOO&&&&&&&&&&&&&&&&&&&&&&&&&&&&&&&&&&&&&&&&&&&&&&&&&&&&&&&&&&&&&&&&&&&&%%%%%%%%%%%%%%%%%%%%####**************************************************************************************************************************************",
"************************************************************************************************************************************************####%%%%%%%%%%%%%%%%%%%%&&&&&&&&&&&&&&&&&&&&&&&&OOOOOOOOOOOOOOOOOOOOOOOOOOOOOOOOOOOOOOOOOOOOOOOOXXXXXXXXXXXXXXXX####********************************************************************************************XXXXXXXXXXXXXXXXXXXXXXXXXXXXOOOOOOOOOOOOOOOOOOOOOOOO&&&&&&&&&&&&&&&&&&&&&&&&&&&&&&&&&&&&&&&&&&&&&&&&&&&&&&&&&&&&&&&&&&&&%%%%%%%%%%%%%%%%%%%%####**************************************************************************************************************************************",
"********************************************************************************************************************************************####%%%%%%%%%%%%%%%%%%%%%%%%&&&&&&&&&&&&&&&&&&&&&&&&&&&&OOOOOOOOOOOOOOOOOOOOOOOOOOOOOOOOOOOOOOOOOOOOXXXXXXXXXXXXXXXX************************************************************************************************XXXXXXXXXXXXXXXXXXXXXXXXXXXXOOOOOOOOOOOOOOOOOOOO&&&&&&&&&&&&&&&&&&&&&&&&&&&&&&&&&&&&&&&&&&&&&&&&&&&&&&&&&&&&&&&&&&&&&&&&%%%%%%%%%%%%%%%%%%%%%%%%####**********************************************************************************************************************************",
"********************************************************************************************************************************************####%%%%%%%%%%%%%%%%%%%%%%%%&&&&&&&&&&&&&&&&&&&&&&&&&&&&OOOOOOOOOOOOOOOOOOOOOOOOOOOOOOOOOOOOOOOOOOOOXXXXXXXXXXXXXXXX************************************************************************************************XXXXXXXXXXXXXXXXXXXXXXXXXXXXOOOOOOOOOOOOOOOOOOOO&&&&&&&&&&&&&&&&&&&&&&&&&&&&&&&&&&&&&&&&&&&&&&&&&&&&&&&&&&&&&&&&&&&&&&&&%%%%%%%%%%%%%%%%%%%%%%%%####**********************************************************************************************************************************",
"********************************************************************************************************************************************####%%%%%%%%%%%%%%%%%%%%%%%%&&&&&&&&&&&&&&&&&&&&&&&&&&&&OOOOOOOOOOOOOOOOOOOOOOOOOOOOOOOOOOOOOOOOOOOOXXXXXXXXXXXXXXXX************************************************************************************************XXXXXXXXXXXXXXXXXXXXXXXXXXXXOOOOOOOOOOOOOOOOOOOO&&&&&&&&&&&&&&&&&&&&&&&&&&&&&&&&&&&&&&&&&&&&&&&&&&&&&&&&&&&&&&&&&&&&&&&&%%%%%%%%%%%%%%%%%%%%%%%%####**********************************************************************************************************************************",
"********************************************************************************************************************************************####%%%%%%%%%%%%%%%%%%%%%%%%&&&&&&&&&&&&&&&&&&&&&&&&&&&&OOOOOOOOOOOOOOOOOOOOOOOOOOOOOOOOOOOOOOOOOOOOXXXXXXXXXXXXXXXX************************************************************************************************XXXXXXXXXXXXXXXXXXXXXXXXXXXXOOOOOOOOOOOOOOOOOOOO&&&&&&&&&&&&&&&&&&&&&&&&&&&&&&&&&&&&&&&&&&&&&&&&&&&&&&&&&&&&&&&&&&&&&&&&%%%%%%%%%%%%%%%%%%%%%%%%####**********************************************************************************************************************************",
"********************************************************************************************************************************************####%%%%%%%%%%%%%%%%%%%%%%%%&&&&&&&&&&&&&&&&&&&&&&&&&&&&OOOOOOOOOOOOOOOOOOOOOOOOOOOOOOOOOOOOOOOOOOOOXXXXXXXXXXXXXXXX****************************************************************************************************XXXXXXXXXXXXXXXXXXXXXXXXOOOOOOOOOOOOOOOO&&&&&&&&&&&&&&&&&&&&&&&&&&&&&&&&&&&&&&&&&&&&&&&&&&&&&&&&&&&&&&&&&&&&&&&&&&&&%%%%%%%%%%%%%%%%%%%%%%%%####**********************************************************************************************************************************",
"********************************************************************************************************************************************####%%%%%%%%%%%%%%%%%%%%%%%%&&&&&&&&&&&&&&&&&&&&&&&&&&&&OOOOOOOOOOOOOOOOOOOOOOOOOOOOOOOOOOOOOOOOOOOOXXXXXXXXXXXXXXXX****************************************************************************************************XXXXXXXXXXXXXXXXXXXXXXXXOOOOOOOOOOOOOOOO&&&&&&&&&&&&&&&&&&&&&&&&&&&&&&&&&&&&&&&&&&&&&&&&&&&&&&&&&&&&&&&&&&&&&&&&&&&&%%%%%%%%%%%%%%%%%%%%%%%%####**********************************************************************************************************************************",
"********************************************************************************************************************************************####%%%%%%%%%%%%%%%%%%%%%%%%&&&&&&&&&&&&&&&&&&&&&&&&&&&&OOOOOOOOOOOOOOOOOOOOOOOOOOOOOOOOOOOOOOOOOOOOXXXXXXXXXXXXXXXX****************************************************************************************************XXXXXXXXXXXXXXXXXXXXXXXXOOOOOOOOOOOOOOOO&&&&&&&&&&&&&&&&&&&&&&&&&&&&&&&&&&&&&&&&&&&&&&&&&&&&&&&&&&&&&&&&&&&&&&&&&&&&%%%%%%%%%%%%%%%%%%%%%%%%####**********************************************************************************************************************************",
"********************************************************************************************************************************************####%%%%%%%%%%%%%%%%%%%%%%%%&&&&&&&&&&&&&&&&&&&&&&&&&&&&OOOOOOOOOOOOOOOOOOOOOOOOOOOOOOOOOOOOOOOOOOOOXXXXXXXXXXXXXXXX****************************************************************************************************XXXXXXXXXXXXXXXXXXXXXXXXOOOOOOOOOOOOOOOO&&&&&&&&&&&&&&&&&&&&&&&&&&&&&&&&&&&&&&&&&&&&&&&&&&&&&&&&&&&&&&&&&&&&&&&&&&&&%%%%%%%%%%%%%%%%%%%%%%%%####**********************************************************************************************************************************",
"****************************************************************************************************************************************####%%%%%%%%%%%%%%%%%%%%%%%%&&&&&&&&&&&&&&&&&&&&&&&&&&&&&&&&&&&&OOOOOOOOOOOOOOOOOOOOOOOOOOOOOOOOOOOOXXXXXXXXXXXXXXXXXXXX****************************************************************************************************XXXXXXXXXXXXXXXXXXXXXXXXXXXXOOOOOOOO&&&&&&&&&&&&&&&&&&&&&&&&&&&&&&&&&&&&&&&&&&&&&&&&&&&&&&&&&&&&&&&&&&&&&&&&&&&&&&&&&&&&%%%%%%%%%%%%%%%%%%%%XXXXXXXX******************************************************************************************************************************",
"****************************************************************************************************************************************####%%%%%%%%%%%%%%%%%%%%%%%%&&&&&&&&&&&&&&&&&&&&&&&&&&&&&&&&&&&&OOOOOOOOOOOOOOOOOOOOOOOOOOOOOOOOOOOOXXXXXXXXXXXXXXXXXXXX****************************************************************************************************XXXXXXXXXXXXXXXXXXXXXXXXXXXXOOOOOOOO&&&&&&&&&&&&&&&&&&&&&&&&&&&&&&&&&&&&&&&&&&&&&&&&&&&&&&&&&&&&&&&&&&&&&&&&&&&&&&&&&&&&%%%%%%%%%%%%%%%%%%%%XXXXXXXX******************************************************************************************************************************",
"****************************************************************************************************************************************####%%%%%%%%%%%%%%%%%%%%%%%%&&&&&&&&&&&&&&&&&&&&&&&&&&&&&&&&&&&&OOOOOOOOOOOOOOOOOOOOOOOOOOOOOOOOOOOOXXXXXXXXXXXXXXXXXXXX****************************************************************************************************XXXXXXXXXXXXXXXXXXXXXXXXXXXXOOOOOOOO&&&&&&&&&&&&&&&&&&&&&&&&&&&&&&&&&&&&&&&&&&&&&&&&&&&&&&&&&&&&&&&&&&&&&&&&&&&&&&&&&&&&%%%%%%%%%%%%%%%%%%%%XXXXXXXX******************************************************************************************************************************",
"****************************************************************************************************************************************####%%%%%%%%%%%%%%%%%%%%%%%%&&&&&&&&&&&&&&&&&&&&&&&&&&&&&&&&&&&&OOOOOOOOOOOOOOOOOOOOOOOOOOOOOOOOOOOOXXXXXXXXXXXXXXXXXXXX****************************************************************************************************XXXXXXXXXXXXXXXXXXXXXXXXXXXXOOOOOOOO&&&&&&&&&&&&&&&&&&&&&&&&&&&&&&&&&&&&&&&&&&&&&&&&&&&&&&&&&&&&&&&&&&&&&&&&&&&&&&&&&&&&%%%%%%%%%%%%%%%%%%%%XXXXXXXX******************************************************************************************************************************",
"****************************************************************************************************************************************####%%%%%%%%%%%%%%%%%%%%%%%%&&&&&&&&&&&&&&&&&&&&&&&&&&&&&&&&&&&&&&&&OOOOOOOOOOOOOOOOOOOOOOOOOOOOOOOOXXXXXXXXXXXXXXXXXXXX****************************************************************************************************XXXXXXXXXXXXXXXXXXXXXXXXXXXX&&&&&&&&&&&&&&&&&&&&&&&&&&&&&&&&&&&&&&&&&&&&&&&&&&&&&&&&&&&&&&&&&&&&&&&&&&&&&&&&&&&&&&&&&&&&%%%%%%%%%%%%XXXXXXXXXXXXXXXX******************************************************************************************************************************",
"****************************************************************************************************************************************####%%%%%%%%%%%%%%%%%%%%%%%%&&&&&&&&&&&&&&&&&&&&&&&&&&&&&&&&&&&&&&&&OOOOOOOOOOOOOOOOOOOOOOOOOOOOOOOOXXXXXXXXXXXXXXXXXXXX****************************************************************************************************XXXXXXXXXXXXXXXXXXXXXXXXXXXX&&&&&&&&&&&&&&&&&&&&&&&&&&&&&&&&&&&&&&&&&&&&&&&&&&&&&&&&&&&&&&&&&&&&&&&&&&&&&&&&&&&&&&&&&&&&%%%%%%%%%%%%XXXXXXXXXXXXXXXX******************************************************************************************************************************",
"****************************************************************************************************************************************####%%%%%%%%%%%%%%%%%%%%%%%%&&&&&&&&&&&&&&&&&&&&&&&&&&&&&&&&&&&&&&&&OOOOOOOOOOOOOOOOOOOOOOOOOOOOOOOOXXXXXXXXXXXXXXXXXXXX****************************************************************************************************XXXXXXXXXXXXXXXXXXXXXXXXXXXX&&&&&&&&&&&&&&&&&&&&&&&&&&&&&&&&&&&&&&&&&&&&&&&&&&&&&&&&&&&&&&&&&&&&&&&&&&&&&&&&&&&&&&&&&&&&%%%%%%%%%%%%XXXXXXXXXXXXXXXX******************************************************************************************************************************",
"****************************************************************************************************************************************####%%%%%%%%%%%%%%%%%%%%%%%%&&&&&&&&&&&&&&&&&&&&&&&&&&&&&&&&&&&&&&&&OOOOOOOOOOOOOOOOOOOOOOOOOOOOOOOOXXXXXXXXXXXXXXXXXXXX****************************************************************************************************XXXXXXXXXXXXXXXXXXXXXXXXXXXX&&&&&&&&&&&&&&&&&&&&&&&&&&&&&&&&&&&&&&&&&&&&&&&&&&&&&&&&&&&&&&&&&&&&&&&&&&&&&&&&&&&&&&&&&&&&%%%%%%%%%%%%XXXXXXXXXXXXXXXX******************************************************************************************************************************",
"************************************************************************************************************************************####%%%%%%%%%%%%%%%%%%%%%%%%&&&&&&&&&&&&&&&&&&&&&&&&&&&&&&&&&&&&&&&&&&&&&&&&OOOOOOOOOOOOOOOOOOOOOOOOOOOOXXXXXXXXXXXXXXXX********************************************************************************************************XXXXXXXXXXXXXXXXXXXXXXXX%%%%&&&&&&&&&&&&&&&&&&&&&&&&&&&&&&&&&&&&&&&&&&&&&&&&&&&&&&&&&&&&&&&&&&&&&&&&&&&&&&&&&&&&&&&&&&&&%%%%XXXXXXXXXXXXXXXXXXXXXXXXXXXX**************************************************************************************************************************",
"************************************************************************************************************************************####%%%%%%%%%%%%%%%%%%%%%%%%&&&&&&&&&&&&&&&&&&&&&&&&&&&&&&&&&&&&&&&&&&&&&&&&OOOOOOOOOOOOOOOOOOOOOOOOOOOOXXXXXXXXXXXXXXXX********************************************************************************************************XXXXXXXXXXXXXXXXXXXXXXXX%%%%&&&&&&&&&&&&&&&&&&&&&&&&&&&&&&&&&&&&&&&&&&&&&&&&&&&&&&&&&&&&&&&&&&&&&&&&&&&&&&&&&&&&&&&&&&&&%%%%XXXXXXXXXXXXXXXXXXXXXXXXXXXX**************************************************************************************************************************",
"************************************************************************************************************************************####%%%%%%%%%%%%%%%%%%%%%%%%&&&&&&&&&&&&&&&&&&&&&&&&&&&&&&&&&&&&&&&&&&&&&&&&OOOOOOOOOOOOOOOOOOOOOOOOOOOOXXXXXXXXXXXXXXXX********************************************************************************************************XXXXXXXXXXXXXXXXXXXXXXXX%%%%&&&&&&&&&&&&&&&&&&&&&&&&&&&&&&&&&&&&&&&&&&&&&&&&&&&&&&&&&&&&&&&&&&&&&&&&&&&&&&&&&&&&&&&&&&&&%%%%XXXXXXXXXXXXXXXXXXXXXXXXXXXX**************************************************************************************************************************",
"************************************************************************************************************************************####%%%%%%%%%%%%%%%%%%%%%%%%&&&&&&&&&&&&&&&&&&&&&&&&&&&&&&&&&&&&&&&&&&&&&&&&OOOOOOOOOOOOOOOOOOOOOOOOOOOOXXXXXXXXXXXXXXXX********************************************************************************************************XXXXXXXXXXXXXXXXXXXXXXXX%%%%&&&&&&&&&&&&&&&&&&&&&&&&&&&&&&&&&&&&&&&&&&&&&&&&&&&&&&&&&&&&&&&&&&&&&&&&&&&&&&&&&&&&&&&&&&&&%%%%XXXXXXXXXXXXXXXXXXXXXXXXXXXX**************************************************************************************************************************",
"************************************************************************************************************************************####%%%%%%%%%%%%%%%%%%%%%%%%&&&&&&&&&&&&&&&&&&&&&&&&&&&&&&&&&&&&&&&&&&&&&&&&OOOOOOOOOOOOOOOOOOOOOOOOOOOOXXXXXXXXXXXXXXXX********************************************************************************************************XXXXXXXXXXXXXXXXXXXX%%%%%%%%&&&&&&&&&&&&&&&&&&&&&&&&&&&&&&&&&&&&&&&&&&&&&&&&&&&&&&&&&&&&&&&&&&&&&&&&&&&&&&&&&&&&&&&&OOOOOOOOXXXXXXXXXXXXXXXXXXXXXXXXXXXX**************************************************************************************************************************",
"************************************************************************************************************************************####%%%%%%%%%%%%%%%%%%%%%%%%&&&&&&&&&&&&&&&&&&&&&&&&&&&&&&&&&&&&&&&&&&&&&&&&OOOOOOOOOOOOOOOOOOOOOOOOOOOOXXXXXXXXXXXXXXXX********************************************************************************************************XXXXXXXXXXXXXXXXXXXX%%%%%%%%&&&&&&&&&&&&&&&&&&&&&&&&&&&&&&&&&&&&&&&&&&&&&&&&&&&&&&&&&&&&&&&&&&&&&&&&&&&&&&&&&&&&&&&&OOOOOOOOXXXXXXXXXXXXXXXXXXXXXXXXXXXX**************************************************************************************************************************",
"************************************************************************************************************************************####%%%%%%%%%%%%%%%%%%%%%%%%&&&&&&&&&&&&&&&&&&&&&&&&&&&&&&&&&&&&&&&&&&&&&&&&OOOOOOOOOOOOOOOOOOOOOOOOOOOOXXXXXXXXXXXXXXXX********************************************************************************************************XXXXXXXXXXXXXXXXXXXX%%%%%%%%&&&&&&&&&&&&&&&&&&&&&&&&&&&&&&&&&&&&&&&&&&&&&&&&&&&&&&&&&&&&&&&&&&&&&&&&&&&&&&&&&&&&&&&&OOOOOOOOXXXXXXXXXXXXXXXXXXXXXXXXXXXX**************************************************************************************************************************",
"************************************************************************************************************************************####%%%%%%%%%%%%%%%%%%%%%%%%&&&&&&&&&&&&&&&&&&&&&&&&&&&&&&&&&&&&&&&&&&&&&&&&OOOOOOOOOOOOOOOOOOOOOOOOOOOOXXXXXXXXXXXXXXXX********************************************************************************************************XXXXXXXXXXXXXXXXXXXX%%%%%%%%&&&&&&&&&&&&&&&&&&&&&&&&&&&&&&&&&&&&&&&&&&&&&&&&&&&&&&&&&&&&&&&&&&&&&&&&&&&&&&&&&&&&&&&&OOOOOOOOXXXXXXXXXXXXXXXXXXXXXXXXXXXX**************************************************************************************************************************",
"********************************************************************************************************************************####%%%%%%%%%%%%%%%%%%%%%%%%%%%%&&&&&&&&&&&&&&&&&&&&&&&&&&&&&&&&&&&&&&&&&&&&&&&&&&&&OOOOOOOOOOOOOOOOOOOOXXXXXXXXXXXXXXXXXXXX********************************************************************************************************XXXXXXXXXXXXXXXX%%%%%%%%%%%%%%%%&&&&&&&&&&&&&&&&&&&&&&&&&&&&&&&&&&&&&&&&&&&&&&&&&&&&&&&&&&&&&&&&&&&&&&&&&&&&&&&&OOOOOOOOOOOOXXXXXXXXXXXXXXXXXXXXXXXXXXXXXXXX**********************************************************************************************************************",
"********************************************************************************************************************************####%%%%%%%%%%%%%%%%%%%%%%%%%%%%&&&&&&&&&&&&&&&&&&&&&&&&&&&&&&&&&&&&&&&&&&&&&&&&&&&&OOOOOOOOOOOOOOOOOOOOXXXXXXXXXXXXXXXXXXXX********************************************************************************************************XXXXXXXXXXXXXXXX%%%%%%%%%%%%%%%%&&&&&&&&&&&&&&&&&&&&&&&&&&&&&&&&&&&&&&&&&&&&&&&&&&&&&&&&&&&&&&&&&&&&&&&&&&&&&&&&OOOOOOOOOOOOXXXXXXXXXXXXXXXXXXXXXXXXXXXXXXXX**********************************************************************************************************************",
"********************************************************************************************************************************####%%%%%%%%%%%%%%%%%%%%%%%%%%%%&&&&&&&&&&&&&&&&&&&&&&&&&&&&&&&&&&&&&&&&&&&&&&&&&&&&OOOOOOOOOOOOOOOOOOOOXXXXXXXXXXXXXXXXXXXX********************************************************************************************************XXXXXXXXXXXXXXXX%%%%%%%%%%%%%%%%&&&&&&&&&&&&&&&&&&&&&&&&&&&&&&&&&&&&&&&&&&&&&&&&&&&&&&&&&&&&&&&&&&&&&&&&&&&&&&&&OOOOOOOOOOOOXXXXXXXXXXXXXXXXXXXXXXXXXXXXXXXX**********************************************************************************************************************",
"********************************************************************************************************************************####%%%%%%%%%%%%%%%%%%%%%%%%%%%%&&&&&&&&&&&&&&&&&&&&&&&&&&&&&&&&&&&&&&&&&&&&&&&&&&&&OOOOOOOOOOOOOOOOOOOOXXXXXXXXXXXXXXXXXXXX********************************************************************************************************XXXXXXXXXXXXXXXX%%%%%%%%%%%%%%%%&&&&&&&&&&&&&&&&&&&&&&&&&&&&&&&&&&&&&&&&&&&&&&&&&&&&&&&&&&&&&&&&&&&&&&&&&&&&&&&&OOOOOOOOOOOOXXXXXXXXXXXXXXXXXXXXXXXXXXXXXXXX**********************************************************************************************************************",
"********************************************************************************************************************************####%%%%%%%%%%%%%%%%%%%%%%%%&&&&&&&&&&&&&&&&&&&&&&&&&&&&&&&&&&&&&&&&&&&&&&&&&&&&&&&&&&&&OOOOOOOOOOOOOOOOXXXXXXXXXXXXXXXXXXXX********************************************************************************************************XXXXXXXXXXXX%%%%%%%%%%%%%%%%%%%%&&&&&&&&&&&&&&&&&&&&&&&&&&&&&&&&&&&&&&&&&&&&&&&&&&&&&&&&&&&&&&&&&&&&&&&&OOOOOOOOOOOOOOOOOOOOXXXXXXXXXXXXXXXXXXXXXXXXXXXXXXXX**********************************************************************************************************************",
"********************************************************************************************************************************####%%%%%%%%%%%%%%%%%%%%%%%%&&&&&&&&&&&&&&&&&&&&&&&&&&&&&&&&&&&&&&&&&&&&&&&&&&&&&&&&&&&&OOOOOOOOOOOOOOOOXXXXXXXXXXXXXXXXXXXX********************************************************************************************************XXXXXXXXXXXX%%%%%%%%%%%%%%%%%%%%&&&&&&&&&&&&&&&&&&&&&&&&&&&&&&&&&&&&&&&&&&&&&&&&&&&&&&&&&&&&&&&&&&&&&&&&OOOOOOOOOOOOOOOOOOOOXXXXXXXXXXXXXXXXXXXXXXXXXXXXXXXX**********************************************************************************************************************",
"********************************************************************************************************************************####%%%%%%%%%%%%%%%%%%%%%%%%&&&&&&&&&&&&&&&&&&&&&&&&&&&&&&&&&&&&&&&&&&&&&&&&&&&&&&&&&&&&OOOOOOOOOOOOOOOOXXXXXXXXXXXXXXXXXXXX********************************************************************************************************XXXXXXXXXXXX%%%%%%%%%%%%%%%%%%%%&&&&&&&&&&&&&&&&&&&&&&&&&&&&&&&&&&&&&&&&&&&&&&&&&&&&&&&&&&&&&&&&&&&&&&&&OOOOOOOOOOOOOOOOOOOOXXXXXXXXXXXXXXXXXXXXXXXXXXXXXXXX**********************************************************************************************************************",
"********************************************************************************************************************************####%%%%%%%%%%%%%%%%%%%%%%%%&&&&&&&&&&&&&&&&&&&&&&&&&&&&&&&&&&&&&&&&&&&&&&&&&&&&&&&&&&&&OOOOOOOOOOOOOOOOXXXXXXXXXXXXXXXXXXXX********************************************************************************************************XXXXXXXXXXXX%%%%%%%%%%%%%%%%%%%%&&&&&&&&&&&&&&&&&&&&&&&&&&&&&&&&&&&&&&&&&&&&&&&&&&&&&&&&&&&&&&&&&&&&&&&&OOOOOOOOOOOOOOOOOOOOXXXXXXXXXXXXXXXXXXXXXXXXXXXXXXXX**********************************************************************************************************************",
"****************************************************************************************************************************####%%%%%%%%%%%%%%%%%%%%%%%%%%%%&&&&&&&&&&&&&&&&&&&&&&&&&&&&&&&&&&&&&&&&&&&&&&&&&&&&&&&&&&&&&&&&OOOOOOOOOOOOXXXXXXXXXXXXXXXX****************************************************************************************************************XXXX%%%%%%%%%%%%%%%%%%%%%%%%&&&&&&&&&&&&&&&&&&&&&&&&&&&&&&&&&&&&&&&&&&&&&&&&&&&&&&&&&&&&&&&&OOOOOOOOOOOOOOOOOOOOOOOOOOOOOOOOXXXXXXXXXXXXXXXXXXXXXXXXXXXXXXXX******************************************************************************************************************",
"****************************************************************************************************************************####%%%%%%%%%%%%%%%%%%%%%%%%%%%%&&&&&&&&&&&&&&&&&&&&&&&&&&&&&&&&&&&&&&&&&&&&&&&&&&&&&&&&&&&&&&&&OOOOOOOOOOOOXXXXXXXXXXXXXXXX****************************************************************************************************************XXXX%%%%%%%%%%%%%%%%%%%%%%%%&&&&&&&&&&&&&&&&&&&&&&&&&&&&&&&&&&&&&&&&&&&&&&&&&&&&&&&&&&&&&&&&OOOOOOOOOOOOOOOOOOOOOOOOOOOOOOOOXXXXXXXXXXXXXXXXXXXXXXXXXXXXXXXX******************************************************************************************************************",
"****************************************************************************************************************************####%%%%%%%%%%%%%%%%%%%%%%%%%%%%&&&&&&&&&&&&&&&&&&&&&&&&&&&&&&&&&&&&&&&&&&&&&&&&&&&&&&&&&&&&&&&&OOOOOOOOOOOOXXXXXXXXXXXXXXXX****************************************************************************************************************XXXX%%%%%%%%%%%%%%%%%%%%%%%%&&&&&&&&&&&&&&&&&&&&&&&&&&&&&&&&&&&&&&&&&&&&&&&&&&&&&&&&&&&&&&&&OOOOOOOOOOOOOOOOOOOOOOOOOOOOOOOOXXXXXXXXXXXXXXXXXXXXXXXXXXXXXXXX******************************************************************************************************************",
"****************************************************************************************************************************####%%%%%%%%%%%%%%%%%%%%%%%%%%%%&&&&&&&&&&&&&&&&&&&&&&&&&&&&&&&&&&&&&&&&&&&&&&&&&&&&&&&&&&&&&&&&OOOOOOOOOOOOXXXXXXXXXXXXXXXX****************************************************************************************************************XXXX%%%%%%%%%%%%%%%%%%%%%%%%&&&&&&&&&&&&&&&&&&&&&&&&&&&&&&&&&&&&&&&&&&&&&&&&&&&&&&&&&&&&&&&&OOOOOOOOOOOOOOOOOOOOOOOOOOOOOOOOXXXXXXXXXXXXXXXXXXXXXXXXXXXXXXXX******************************************************************************************************************",
"****************************************************************************************************************************XXXX%%%%%%%%%%%%%%%%%%%%%%%%%%%%&&&&&&&&&&&&&&&&&&&&&&&&&&&&&&&&&&&&&&&&&&&&&&&&&&&&&&&&&&&&&&&&OOOOOOOOOOOOXXXXXXXXXXXXXXXX****************************************************************************************************************####%%%%%%%%%%%%%%%%%%%%%%%%&&&&&&&&&&&&&&&&&&&&&&&&&&&&&&&&&&&&&&&&&&&&&&&&&&&&&&&&OOOOOOOOOOOOOOOOOOOOOOOOOOOOOOOOOOOOOOOOXXXXXXXXXXXXXXXXXXXXXXXXXXXXXXXX******************************************************************************************************************",
"****************************************************************************************************************************XXXX%%%%%%%%%%%%%%%%%%%%%%%%%%%%&&&&&&&&&&&&&&&&&&&&&&&&&&&&&&&&&&&&&&&&&&&&&&&&&&&&&&&&&&&&&&&&OOOOOOOOOOOOXXXXXXXXXXXXXXXX****************************************************************************************************************####%%%%%%%%%%%%%%%%%%%%%%%%&&&&&&&&&&&&&&&&&&&&&&&&&&&&&&&&&&&&&&&&&&&&&&&&&&&&&&&&OOOOOOOOOOOOOOOOOOOOOOOOOOOOOOOOOOOOOOOOXXXXXXXXXXXXXXXXXXXXXXXXXXXXXXXX******************************************************************************************************************",
"****************************************************************************************************************************XXXX%%%%%%%%%%%%%%%%%%%%%%%%%%%%&&&&&&&&&&&&&&&&&&&&&&&&&&&&&&&&&&&&&&&&&&&&&&&&&&&&&&&&&&&&&&&&OOOOOOOOOOOOXXXXXXXXXXXXXXXX****************************************************************************************************************####%%%%%%%%%%%%%%%%%%%%%%%%&&&&&&&&&&&&&&&&&&&&&&&&&&&&&&&&&&&&&&&&&&&&&&&&&&&&&&&&OOOOOOOOOOOOOOOOOOOOOOOOOOOOOOOOOOOOOOOOXXXXXXXXXXXXXXXXXXXXXXXXXXXXXXXX******************************************************************************************************************",
"****************************************************************************************************************************XXXX%%%%%%%%%%%%%%%%%%%%%%%%%%%%&&&&&&&&&&&&&&&&&&&&&&&&&&&&&&&&&&&&&&&&&&&&&&&&&&&&&&&&&&&&&&&&OOOOOOOOOOOOXXXXXXXXXXXXXXXX****************************************************************************************************************####%%%%%%%%%%%%%%%%%%%%%%%%&&&&&&&&&&&&&&&&&&&&&&&&&&&&&&&&&&&&&&&&&&&&&&&&&&&&&&&&OOOOOOOOOOOOOOOOOOOOOOOOOOOOOOOOOOOOOOOOXXXXXXXXXXXXXXXXXXXXXXXXXXXXXXXX******************************************************************************************************************",
"************************************************************************************************************************XXXXXXXXXXXXXXXX%%%%%%%%%%%%%%%%&&&&&&&&&&&&&&&&&&&&&&&&&&&&&&&&&&&&&&&&&&&&&&&&&&&&&&&&&&&&&&&&&&&&&&&&OOOOXXXXXXXXXXXXXXXXXXXX****************************************************************************************************************####%%%%%%%%%%%%%%%%%%%%%%%%&&&&&&&&&&&&&&&&&&&&&&&&&&&&&&&&&&&&&&&&&&&&&&&&&&&&OOOOOOOOOOOOOOOOOOOOOOOOOOOOOOOOOOOOOOOOOOOOOOOOXXXXXXXXXXXXXXXXXXXXXXXXXXXXXXXX**************************************************************************************************************",
"************************************************************************************************************************XXXXXXXXXXXXXXXX%%%%%%%%%%%%%%%%&&&&&&&&&&&&&&&&&&&&&&&&&&&&&&&&&&&&&&&&&&&&&&&&&&&&&&&&&&&&&&&&&&&&&&&&OOOOXXXXXXXXXXXXXXXXXXXX****************************************************************************************************************####%%%%%%%%%%%%%%%%%%%%%%%%&&&&&&&&&&&&&&&&&&&&&&&&&&&&&&&&&&&&&&&&&&&&&&&&&&&&OOOOOOOOOOOOOOOOOOOOOOOOOOOOOOOOOOOOOOOOOOOOOOOOXXXXXXXXXXXXXXXXXXXXXXXXXXXXXXXX**************************************************************************************************************",
"************************************************************************************************************************XXXXXXXXXXXXXXXX%%%%%%%%%%%%%%%%&&&&&&&&&&&&&&&&&&&&&&&&&&&&&&&&&&&&&&&&&&&&&&&&&&&&&&&&&&&&&&&&&&&&&&&&OOOOXXXXXXXXXXXXXXXXXXXX****************************************************************************************************************####%%%%%%%%%%%%%%%%%%%%%%%%&&&&&&&&&&&&&&&&&&&&&&&&&&&&&&&&&&&&&&&&&&&&&&&&&&&&OOOOOOOOOOOOOOOOOOOOOOOOOOOOOOOOOOOOOOOOOOOOOOOOXXXXXXXXXXXXXXXXXXXXXXXXXXXXXXXX**************************************************************************************************************",
"************************************************************************************************************************XXXXXXXXXXXXXXXX%%%%%%%%%%%%%%%%&&&&&&&&&&&&&&&&&&&&&&&&&&&&&&&&&&&&&&&&&&&&&&&&&&&&&&&&&&&&&&&&&&&&&&&&OOOOXXXXXXXXXXXXXXXXXXXX****************************************************************************************************************####%%%%%%%%%%%%%%%%%%%%%%%%&&&&&&&&&&&&&&&&&&&&&&&&&&&&&&&&&&&&&&&&&&&&&&&&&&&&OOOOOOOOOOOOOOOOOOOOOOOOOOOOOOOOOOOOOOOOOOOOOOOOXXXXXXXXXXXXXXXXXXXXXXXXXXXXXXXX**************************************************************************************************************",
"************************************************************************************************************************XXXXXXXXXXXXXXXXXXXX%%%%%%%%%%%%&&&&&&&&&&&&&&&&&&&&&&&&&&&&&&&&&&&&&&&&&&&&&&&&&&&&&&&&&&&&&&&&&&&&&&&&&&&&XXXXXXXXXXXXXXXXXXXX****************************************************************************************************************####%%%%%%%%%%%%%%%%%%%%%%%%%%%%&&&&&&&&&&&&&&&&&&&&&&&&&&&&&&&&&&&&&&&&&&&&&&&&&&&&&&&&&&&&&&&&&&&&&&&&&&&&&&&&&&&&OOOOOOOOOOOOXXXXXXXXXXXXXXXXXXXXXXXXXXXXXXXX**************************************************************************************************************",
"************************************************************************************************************************XXXXXXXXXXXXXXXXXXXX%%%%%%%%%%%%&&&&&&&&&&&&&&&&&&&&&&&&&&&&&&&&&&&&&&&&&&&&&&&&&&&&&&&&&&&&&&&&&&&&&&&&&&&&XXXXXXXXXXXXXXXXXXXX****************************************************************************************************************####%%%%%%%%%%%%%%%%%%%%%%%%%%%%&&&&&&&&&&&&&&&&&&&&&&&&&&&&&&&&&&&&&&&&&&&&&&&&&&&&&&&&&&&&&&&&&&&&&&&&&&&&&&&&&&&&OOOOOOOOOOOOXXXXXXXXXXXXXXXXXXXXXXXXXXXXXXXX**************************************************************************************************************",
"************************************************************************************************************************XXXXXXXXXXXXXXXXXXXX%%%%%%%%%%%%&&&&&&&&&&&&&&&&&&&&&&&&&&&&&&&&&&&&&&&&&&&&&&&&&&&&&&&&&&&&&&&&&&&&&&&&&&&&XXXXXXXXXXXXXXXXXXXX****************************************************************************************************************####%%%%%%%%%%%%%%%%%%%%%%%%%%%%&&&&&&&&&&&&&&&&&&&&&&&&&&&&&&&&&&&&&&&&&&&&&&&&&&&&&&&&&&&&&&&&&&&&&&&&&&&&&&&&&&&&OOOOOOOOOOOOXXXXXXXXXXXXXXXXXXXXXXXXXXXXXXXX**************************************************************************************************************",
"************************************************************************************************************************XXXXXXXXXXXXXXXXXXXX%%%%%%%%%%%%&&&&&&&&&&&&&&&&&&&&&&&&&&&&&&&&&&&&&&&&&&&&&&&&&&&&&&&&&&&&&&&&&&&&&&&&&&&&XXXXXXXXXXXXXXXXXXXX****************************************************************************************************************####%%%%%%%%%%%%%%%%%%%%%%%%%%%%&&&&&&&&&&&&&&&&&&&&&&&&&&&&&&&&&&&&&&&&&&&&&&&&&&&&&&&&&&&&&&&&&&&&&&&&&&&&&&&&&&&&OOOOOOOOOOOOXXXXXXXXXXXXXXXXXXXXXXXXXXXXXXXX**************************************************************************************************************",
"********************************************************************************************************************XXXXXXXXXXXXXXXXXXXXXXXXXXXX%%%%%%%%&&&&&&&&&&&&&&&&&&&&&&&&&&&&&&&&&&&&&&&&&&&&&&&&&&&&&&&&&&&&&&&&&&&&&&&&&&&&%%%%XXXXXXXXXXXX********************************************************************************************************************####%%%%%%%%%%%%%%%%%%%%%%%%%%%%&&&&&&&&&&&&&&&&&&&&&&&&&&&&&&&&&&&&&&&&&&&&&&&&&&&&&&&&&&&&&&&&&&&&&&&&&&&&&&&&&&&&&&&&&&&&&&&&%%%%%%%%%%%%%%%%%%%%%%%%%%%%%%%%####**********************************************************************************************************",
"********************************************************************************************************************XXXXXXXXXXXXXXXXXXXXXXXXXXXX%%%%%%%%&&&&&&&&&&&&&&&&&&&&&&&&&&&&&&&&&&&&&&&&&&&&&&&&&&&&&&&&&&&&&&&&&&&&&&&&&&&&%%%%XXXXXXXXXXXX********************************************************************************************************************####%%%%%%%%%%%%%%%%%%%%%%%%%%%%&&&&&&&&&&&&&&&&&&&&&&&&&&&&&&&&&&&&&&&&&&&&&&&&&&&&&&&&&&&&&&&&&&&&&&&&&&&&&&&&&&&&&&&&&&&&&&&&%%%%%%%%%%%%%%%%%%%%%%%%%%%%%%%%####**********************************************************************************************************",
"********************************************************************************************************************XXXXXXXXXXXXXXXXXXXXXXXXXXXX%%%%%%%%&&&&&&&&&&&&&&&&&&&&&&&&&&&&&&&&&&&&&&&&&&&&&&&&&&&&&&&&&&&&&&&&&&&&&&&&&&&&%%%%XXXXXXXXXXXX********************************************************************************************************************####%%%%%%%%%%%%%%%%%%%%%%%%%%%%&&&&&&&&&&&&&&&&&&&&&&&&&&&&&&&&&&&&&&&&&&&&&&&&&&&&&&&&&&&&&&&&&&&&&&&&&&&&&&&&&&&&&&&&&&&&&&&&%%%%%%%%%%%%%%%%%%%%%%%%%%%%%%%%####**********************************************************************************************************",
"********************************************************************************************************************XXXXXXXXXXXXXXXXXXXXXXXXXXXX%%%%%%%%&&&&&&&&&&&&&&&&&&&&&&&&&&&&&&&&&&&&&&&&&&&&&&&&&&&&&&&&&&&&&&&&&&&&&&&&&&&&%%%%XXXXXXXXXXXX********************************************************************************************************************####%%%%%%%%%%%%%%%%%%%%%%%%%%%%&&&&&&&&&&&&&&&&&&&&&&&&&&&&&&&&&&&&&&&&&&&&&&&&&&&&&&&&&&&&&&&&&&&&&&&&&&&&&&&&&&&&&&&&&&&&&&&&%%%%%%%%%%%%%%%%%%%%%%%%%%%%%%%%####**********************************************************************************************************",
"********************************************************************************************************************XXXXXXXXXXXXXXXXXXXXXXXXXXXXXXXXOOOO&&&&&&&&&&&&&&&&&&&&&&&&&&&&&&&&&&&&&&&&&&&&&&&&&&&&&&&&&&&&&&&&&&&&&&&&&&&&%%%%XXXXXXXXXXXX********************************************************************************************************************####%%%%%%%%%%%%%%%%%%%%%%%%%%%%&&&&&&&&&&&&&&&&&&&&&&&&&&&&&&&&&&&&&&&&&&&&&&&&&&&&&&&&&&&&&&&&&&&&&&&&&&&&&&&&&&&&&&&&&&&&&&&&&&&&%%%%%%%%%%%%%%%%%%%%%%%%%%%%####**********************************************************************************************************",
"********************************************************************************************************************XXXXXXXXXXXXXXXXXXXXXXXXXXXXXXXXOOOO&&&&&&&&&&&&&&&&&&&&&&&&&&&&&&&&&&&&&&&&&&&&&&&&&&&&&&&&&&&&&&&&&&&&&&&&&&&&%%%%XXXXXXXXXXXX********************************************************************************************************************####%%%%%%%%%%%%%%%%%%%%%%%%%%%%&&&&&&&&&&&&&&&&&&&&&&&&&&&&&&&&&&&&&&&&&&&&&&&&&&&&&&&&&&&&&&&&&&&&&&&&&&&&&&&&&&&&&&&&&&&&&&&&&&&&%%%%%%%%%%%%%%%%%%%%%%%%%%%%####**********************************************************************************************************",
"********************************************************************************************************************XXXXXXXXXXXXXXXXXXXXXXXXXXXXXXXXOOOO&&&&&&&&&&&&&&&&&&&&&&&&&&&&&&&&&&&&&&&&&&&&&&&&&&&&&&&&&&&&&&&&&&&&&&&&&&&&%%%%XXXXXXXXXXXX********************************************************************************************************************####%%%%%%%%%%%%%%%%%%%%%%%%%%%%&&&&&&&&&&&&&&&&&&&&&&&&&&&&&&&&&&&&&&&&&&&&&&&&&&&&&&&&&&&&&&&&&&&&&&&&&&&&&&&&&&&&&&&&&&&&&&&&&&&&%%%%%%%%%%%%%%%%%%%%%%%%%%%%####**********************************************************************************************************",
"********************************************************************************************************************XXXXXXXXXXXXXXXXXXXXXXXXXXXXXXXXOOOO&&&&&&&&&&&&&&&&&&&&&&&&&&&&&&&&&&&&&&&&&&&&&&&&&&&&&&&&&&&&&&&&&&&&&&&&&&&&%%%%XXXXXXXXXXXX********************************************************************************************************************####%%%%%%%%%%%%%%%%%%%%%%%%%%%%&&&&&&&&&&&&&&&&&&&&&&&&&&&&&&&&&&&&&&&&&&&&&&&&&&&&&&&&&&&&&&&&&&&&&&&&&&&&&&&&&&&&&&&&&&&&&&&&&&&&%%%%%%%%%%%%%%%%%%%%%%%%%%%%####**********************************************************************************************************",
"****************************************************************************************************************XXXXXXXXXXXXXXXXXXXXXXXXXXXXXXXXXXXXOOOOOOOO&&&&&&&&&&&&&&&&&&&&&&&&&&&&&&&&&&&&&&&&&&&&&&&&&&&&&&&&&&&&&&&&&&&&%%%%%%%%%%%%XXXXXXXX************************************************************************************************************************####%%%%%%%%%%%%%%%%%%%%%%%%&&&&&&&&&&&&&&&&&&&&&&&&&&&&&&&&&&&&&&&&&&&&&&&&&&&&&&&&&&&&&&&&&&&&&&&&&&&&&&&&&&&&&&&&&&&&&&&&&&&&%%%%%%%%%%%%%%%%%%%%%%%%%%%%%%%%####******************************************************************************************************",
"****************************************************************************************************************XXXXXXXXXXXXXXXXXXXXXXXXXXXXXXXXXXXXOOOOOOOO&&&&&&&&&&&&&&&&&&&&&&&&&&&&&&&&&&&&&&&&&&&&&&&&&&&&&&&&&&&&&&&&&&&&%%%%%%%%%%%%XXXXXXXX************************************************************************************************************************####%%%%%%%%%%%%%%%%%%%%%%%%&&&&&&&&&&&&&&&&&&&&&&&&&&&&&&&&&&&&&&&&&&&&&&&&&&&&&&&&&&&&&&&&&&&&&&&&&&&&&&&&&&&&&&&&&&&&&&&&&&&&%%%%%%%%%%%%%%%%%%%%%%%%%%%%%%%%####******************************************************************************************************",
"****************************************************************************************************************XXXXXXXXXXXXXXXXXXXXXXXXXXXXXXXXXXXXOOOOOOOO&&&&&&&&&&&&&&&&&&&&&&&&&&&&&&&&&&&&&&&&&&&&&&&&&&&&&&&&&&&&&&&&&&&&%%%%%%%%%%%%XXXXXXXX************************************************************************************************************************####%%%%%%%%%%%%%%%%%%%%%%%%&&&&&&&&&&&&&&&&&&&&&&&&&&&&&&&&&&&&&&&&&&&&&&&&&&&&&&&&&&&&&&&&&&&&&&&&&&&&&&&&&&&&&&&&&&&&&&&&&&&&%%%%%%%%%%%%%%%%%%%%%%%%%%%%%%%%####******************************************************************************************************",
"****************************************************************************************************************XXXXXXXXXXXXXXXXXXXXXXXXXXXXXXXXXXXXOOOOOOOO&&&&&&&&&&&&&&&&&&&&&&&&&&&&&&&&&&&&&&&&&&&&&&&&&&&&&&&&&&&&&&&&&&&&%%%%%%%%%%%%XXXXXXXX************************************************************************************************************************####%%%%%%%%%%%%%%%%%%%%%%%%&&&&&&&&&&&&&&&&&&&&&&&&&&&&&&&&&&&&&&&&&&&&&&&&&&&&&&&&&&&&&&&&&&&&&&&&&&&&&&&&&&&&&&&&&&&&&&&&&&&&%%%%%%%%%%%%%%%%%%%%%%%%%%%%%%%%####******************************************************************************************************",
"****************************************************************************************************************XXXXXXXXXXXXXXXXXXXXXXXXXXXXXXXXXXXXOOOOOOOOOOOO&&&&&&&&&&&&&&&&&&&&&&&&&&&&&&&&&&&&&&&&&&&&&&&&&&&&&&&&&&&&&&&&%%%%%%%%%%%%%%%%XXXX************************************************************************************************************************####%%%%%%%%%%%%%%%%%%%%%%%%&&&&&&&&&&&&&&&&&&&&&&&&&&&&&&&&&&&&&&&&&&&&&&&&&&&&&&&&&&&&&&&&&&&&&&&&&&&&&&&&&&&&&&&&&&&&&&&&&&&&%%%%%%%%%%%%%%%%%%%%%%%%%%%%%%%%####******************************************************************************************************",
"****************************************************************************************************************XXXXXXXXXXXXXXXXXXXXXXXXXXXXXXXXXXXXOOOOOOOOOOOO&&&&&&&&&&&&&&&&&&&&&&&&&&&&&&&&&&&&&&&&&&&&&&&&&&&&&&&&&&&&&&&&%%%%%%%%%%%%%%%%XXXX************************************************************************************************************************####%%%%%%%%%%%%%%%%%%%%%%%%&&&&&&&&&&&&&&&&&&&&&&&&&&&&&&&&&&&&&&&&&&&&&&&&&&&&&&&&&&&&&&&&&&&&&&&&&&&&&&&&&&&&&&&&&&&&&&&&&&&&%%%%%%%%%%%%%%%%%%%%%%%%%%%%%%%%####******************************************************************************************************",
"****************************************************************************************************************XXXXXXXXXXXXXXXXXXXXXXXXXXXXXXXXXXXXOOOOOOOOOOOO&&&&&&&&&&&&&&&&&&&&&&&&&&&&&&&&&&&&&&&&&&&&&&&&&&&&&&&&&&&&&&&&%%%%%%%%%%%%%%%%XXXX************************************************************************************************************************####%%%%%%%%%%%%%%%%%%%%%%%%&&&&&&&&&&&&&&&&&&&&&&&&&&&&&&&&&&&&&&&&&&&&&&&&&&&&&&&&&&&&&&&&&&&&&&&&&&&&&&&&&&&&&&&&&&&&&&&&&&&&%%%%%%%%%%%%%%%%%%%%%%%%%%%%%%%%####******************************************************************************************************",
"****************************************************************************************************************XXXXXXXXXXXXXXXXXXXXXXXXXXXXXXXXXXXXOOOOOOOOOOOO&&&&&&&&&&&&&&&&&&&&&&&&&&&&&&&&&&&&&&&&&&&&&&&&&&&&&&&&&&&&&&&&%%%%%%%%%%%%%%%%XXXX************************************************************************************************************************####%%%%%%%%%%%%%%%%%%%%%%%%&&&&&&&&&&&&&&&&&&&&&&&&&&&&&&&&&&&&&&&&&&&&&&&&&&&&&&&&&&&&&&&&&&&&&&&&&&&&&&&&&&&&&&&&&&&&&&&&&&&&%%%%%%%%%%%%%%%%%%%%%%%%%%%%%%%%####******************************************************************************************************"
};
