/* XPM */
static char *result[] = {
/* columns rows colors chars-per-pixel */
"32 32 9 1 ",
"  c #16BBD5",
". c #17B8D7",
"X c #16BAD6",
"o c #16BCD4",
"O c #1F9CEF",
"+ c #2197F3",
"@ c #2099F2",
"# c #2098F3",
"$ c #000000",
/* pixels */
"$$$$$$$$$$$$$$$$$$$$$$$$$$$$$$$$",
"$$$$$$$$$$$$$$$@X$$$$$$$$$$$$$$$",
"$$$$$$$$$$$$$$$O.$$$$$$$$$$$$$$$",
"$$$$$$$$$$$$$$@O.X$$$$$$$$$$$$$$",
"$$$$$$$$$$$$$$#O. $$$$$$$$$$$$$$",
"$$$$$$$$$$$$$$+O.o$$$$$$$$$$$$$$",
"$$$$$$$$$$$$$++O.o $$$$$$$$$$$$$",
"$$$$$$$$$$$$$++O.oo$$$$$$$$$$$$$",
"$$$$$$$$$$$$+++O.oo $$$$$$$$$$$$",
"$$$$$$$$$$$$+++O.oo $$$$$$$$$$$$",
"$$$$$$$$$$$$+++O.ooo$$$$$$$$$$$$",
"$$$$$$$$$$$++++O.ooo $$$$$$$$$$$",
"$$$$$$$$$$$++++O.oooo$$$$$$$$$$$",
"$$$$$$$$$$+++++O.oooo $$$$$$$$$$",
"$$$$$$$$$$+++++O.oooo $$$$$$$$$$",
"$$$$$$$$$$+++++O.ooooo$$$$$$$$$$",
"$$$$$$$$$++++++O.ooooo $$$$$$$$$",
"$$$$$$$$$++++++O.oooooo$$$$$$$$$",
"$$$$$$$$+++++++O.oooooo $$$$$$$$",
"$$$$$$$$+++++++O.oooooo $$$$$$$$",
"$$$$$$$$+++++++O.ooooooo$$$$$$$$",
"$$$$$$$++++++++O.oooooooX$$$$$$$",
"$$$$$$$#+++++++O.oooooooo$$$$$$$",
"$$$$$$+++++++++O.oooooooo $$$$$$",
"$$$$$$+++++++++O.oooooooo $$$$$$",
"$$$$$$+++++++++O.ooooooooo$$$$$$",
"$$$$$@+++++++++# oooooooooX$$$$$",
"$$$$$#++++++++$$$$ oooooooo$$$$$",
"$$$$$+++++++$$$$$$$$  ooooo $$$$",
"$$$$+++#+$$$$$$$$$$$$$$Xooo $$$$",
"$$$$@+$$$$$$$$$$$$$$$$$$$  X$$$$",
"$$$$$$$$$$$$$$$$$$$$$$$$$$$$$$$$"
};
